/* XPM */
static char * _DEMON__xpm[] = {
"330 330 15509 3",
"   	c None",
".  	c #6C441C",
"+  	c #704415",
"@  	c #6D4516",
"#  	c #694212",
"$  	c #5F350F",
"%  	c #5B3513",
"&  	c #6C4416",
"*  	c #84551F",
"=  	c #8D5E22",
"-  	c #956323",
";  	c #6B431D",
">  	c #492711",
",  	c #6D4A18",
"'  	c #886E27",
")  	c #9A7E30",
"!  	c #AF872E",
"~  	c #CFAA3D",
"{  	c #D1AB3E",
"]  	c #C09131",
"^  	c #9A6920",
"/  	c #643913",
"(  	c #633C14",
"_  	c #4F2D12",
":  	c #966220",
"<  	c #A56F25",
"[  	c #C69030",
"}  	c #DDAB3C",
"|  	c #E3BB47",
"1  	c #D3AC47",
"2  	c #AE8131",
"3  	c #8C6525",
"4  	c #77561F",
"5  	c #633F17",
"6  	c #6A4A1B",
"7  	c #AF7C27",
"8  	c #CA962B",
"9  	c #F9DE4D",
"0  	c #FCEB5D",
"a  	c #FDE85E",
"b  	c #FAE159",
"c  	c #E6BC3F",
"d  	c #E0B842",
"e  	c #C39332",
"f  	c #B37D28",
"g  	c #DAA031",
"h  	c #FAD753",
"i  	c #F7D655",
"j  	c #F0C84D",
"k  	c #F0C64B",
"l  	c #E9BC49",
"m  	c #DBA83F",
"n  	c #D3A039",
"o  	c #8C5B23",
"p  	c #5A3715",
"q  	c #3D210F",
"r  	c #3E1C0E",
"s  	c #3D160A",
"t  	c #6C3B12",
"u  	c #B07828",
"v  	c #D5A638",
"w  	c #EDC64B",
"x  	c #F4CE52",
"y  	c #F9DB56",
"z  	c #FAE15C",
"A  	c #EDCD53",
"B  	c #DCAF3F",
"C  	c #714819",
"D  	c #CE9834",
"E  	c #E5BA48",
"F  	c #EEC850",
"G  	c #F3CC52",
"H  	c #F4CE55",
"I  	c #FBE164",
"J  	c #F6D75C",
"K  	c #EDC956",
"L  	c #B98B38",
"M  	c #664018",
"N  	c #481C0B",
"O  	c #2A0904",
"P  	c #281206",
"Q  	c #291306",
"R  	c #3E170D",
"S  	c #3D1608",
"T  	c #895D22",
"U  	c #B89A3B",
"V  	c #CFB34E",
"W  	c #E4C858",
"X  	c #F4DB5F",
"Y  	c #F9E569",
"Z  	c #F9E466",
"`  	c #ECC847",
" . 	c #DEB83E",
".. 	c #9F7127",
"+. 	c #80551E",
"@. 	c #BD8C31",
"#. 	c #E6BB47",
"$. 	c #EEC34D",
"%. 	c #EEC64F",
"&. 	c #E2B64C",
"*. 	c #D5A33F",
"=. 	c #AA7A2D",
"-. 	c #A06F27",
";. 	c #6E3E16",
">. 	c #350F06",
",. 	c #360E05",
"'. 	c #2D0D08",
"). 	c #3B1C0E",
"!. 	c #1E0403",
"~. 	c #401A09",
"{. 	c #9B6825",
"]. 	c #B4832E",
"^. 	c #B48129",
"/. 	c #B48530",
"(. 	c #BD8935",
"_. 	c #D9A941",
":. 	c #FADD5E",
"<. 	c #FADF60",
"[. 	c #E1BE4D",
"}. 	c #DCB54A",
"|. 	c #DCAE42",
"1. 	c #AA822A",
"2. 	c #A87429",
"3. 	c #BB8930",
"4. 	c #AE7A2A",
"5. 	c #B98433",
"6. 	c #D7A440",
"7. 	c #D39E3D",
"8. 	c #D6AA41",
"9. 	c #B38331",
"0. 	c #6A3518",
"a. 	c #441A0C",
"b. 	c #2B0907",
"c. 	c #39170A",
"d. 	c #33180B",
"e. 	c #2B0F06",
"f. 	c #371408",
"g. 	c #50200D",
"h. 	c #945B21",
"i. 	c #BE8732",
"j. 	c #D4A03D",
"k. 	c #F4D65D",
"l. 	c #F3D95E",
"m. 	c #FAE567",
"n. 	c #FAE066",
"o. 	c #EDCC5C",
"p. 	c #B98733",
"q. 	c #623818",
"r. 	c #804F21",
"s. 	c #663619",
"t. 	c #A97C31",
"u. 	c #EDC553",
"v. 	c #F6D35C",
"w. 	c #F0CB58",
"x. 	c #DAB54E",
"y. 	c #A1732F",
"z. 	c #8D5925",
"A. 	c #532B10",
"B. 	c #411609",
"C. 	c #3F170A",
"D. 	c #220506",
"E. 	c #270B07",
"F. 	c #220503",
"G. 	c #1F0304",
"H. 	c #240306",
"I. 	c #4D2C0E",
"J. 	c #865522",
"K. 	c #7D4A1F",
"L. 	c #B47C31",
"M. 	c #D5A23E",
"N. 	c #E8B746",
"O. 	c #FADC5D",
"P. 	c #FBE05E",
"Q. 	c #FCDE5C",
"R. 	c #D6AD4A",
"S. 	c #885D26",
"T. 	c #643D1A",
"U. 	c #593416",
"V. 	c #825321",
"W. 	c #BD8A35",
"X. 	c #E1B549",
"Y. 	c #E8BA4D",
"Z. 	c #E8BE4F",
"`. 	c #EDC957",
" + 	c #B8883B",
".+ 	c #825222",
"++ 	c #844B1F",
"@+ 	c #7F451B",
"#+ 	c #360E09",
"$+ 	c #280707",
"%+ 	c #2C0C09",
"&+ 	c #270605",
"*+ 	c #1F0104",
"=+ 	c #300906",
"-+ 	c #370E07",
";+ 	c #5F3714",
">+ 	c #BC8536",
",+ 	c #CF983D",
"'+ 	c #D39E40",
")+ 	c #E1B247",
"!+ 	c #E5B447",
"~+ 	c #F4CD55",
"{+ 	c #EEC955",
"]+ 	c #E7C352",
"^+ 	c #9E7831",
"/+ 	c #563014",
"(+ 	c #603817",
"_+ 	c #623A16",
":+ 	c #A1712B",
"<+ 	c #D4A13F",
"[+ 	c #DBA945",
"}+ 	c #EDC856",
"|+ 	c #E8C255",
"1+ 	c #C6923D",
"2+ 	c #AB732F",
"3+ 	c #844F1E",
"4+ 	c #350E08",
"5+ 	c #250506",
"6+ 	c #1F0305",
"7+ 	c #250B07",
"8+ 	c #1E0404",
"9+ 	c #210205",
"0+ 	c #330907",
"a+ 	c #6E3615",
"b+ 	c #935823",
"c+ 	c #A36A2B",
"d+ 	c #BF8837",
"e+ 	c #E2B24A",
"f+ 	c #EDC152",
"g+ 	c #E6BF50",
"h+ 	c #BC8636",
"i+ 	c #AA7A31",
"j+ 	c #A9722F",
"k+ 	c #946028",
"l+ 	c #583617",
"m+ 	c #5D3313",
"n+ 	c #A6712D",
"o+ 	c #BE8A38",
"p+ 	c #E8C154",
"q+ 	c #E8C155",
"r+ 	c #D3AB4A",
"s+ 	c #B08036",
"t+ 	c #875922",
"u+ 	c #7F4E1E",
"v+ 	c #3F170B",
"w+ 	c #2D0908",
"x+ 	c #1B0205",
"y+ 	c #240706",
"z+ 	c #1E0305",
"A+ 	c #300706",
"B+ 	c #350907",
"C+ 	c #663113",
"D+ 	c #905522",
"E+ 	c #B57C33",
"F+ 	c #CA963F",
"G+ 	c #E4B34B",
"H+ 	c #E9BB4D",
"I+ 	c #E8C04E",
"J+ 	c #A86E2B",
"K+ 	c #5F2C13",
"L+ 	c #491A0B",
"M+ 	c #451B0D",
"N+ 	c #562E14",
"O+ 	c #411D0D",
"P+ 	c #512511",
"Q+ 	c #8F5E24",
"R+ 	c #E3BF53",
"S+ 	c #F6DE69",
"T+ 	c #FBE771",
"U+ 	c #EEC858",
"V+ 	c #C9973F",
"W+ 	c #AB732E",
"X+ 	c #5F3215",
"Y+ 	c #36100A",
"Z+ 	c #330E09",
"`+ 	c #360F0A",
" @ 	c #210304",
".@ 	c #1E0605",
"+@ 	c #1E0204",
"@@ 	c #2D0707",
"#@ 	c #723917",
"$@ 	c #9F652A",
"%@ 	c #613013",
"&@ 	c #875022",
"*@ 	c #BC8839",
"=@ 	c #D8A848",
"-@ 	c #E0B34D",
";@ 	c #E2B44B",
">@ 	c #CB983C",
",@ 	c #B68034",
"'@ 	c #5A2F15",
")@ 	c #3D140C",
"!@ 	c #30130C",
"~@ 	c #5C3316",
"{@ 	c #9C6C2C",
"]@ 	c #E1BD56",
"^@ 	c #F9E574",
"/@ 	c #F1CA59",
"(@ 	c #F4D260",
"_@ 	c #E2BA51",
":@ 	c #B78338",
"<@ 	c #683718",
"[@ 	c #522010",
"}@ 	c #511E0F",
"|@ 	c #2C0907",
"1@ 	c #2A0E0B",
"2@ 	c #230505",
"3@ 	c #2B0406",
"4@ 	c #662911",
"5@ 	c #89491C",
"6@ 	c #7F481C",
"7@ 	c #B78036",
"8@ 	c #CA9641",
"9@ 	c #DEB14E",
"0@ 	c #C18E3C",
"a@ 	c #B88235",
"b@ 	c #8E5423",
"c@ 	c #77421D",
"d@ 	c #7C441F",
"e@ 	c #461C12",
"f@ 	c #703F1D",
"g@ 	c #7C4E1F",
"h@ 	c #BE8C38",
"i@ 	c #D9AC4A",
"j@ 	c #D19D41",
"k@ 	c #D2A649",
"l@ 	c #C0913E",
"m@ 	c #B57E36",
"n@ 	c #865222",
"o@ 	c #6C3617",
"p@ 	c #43150B",
"q@ 	c #2A0607",
"r@ 	c #1A0204",
"s@ 	c #240607",
"t@ 	c #2A0707",
"u@ 	c #351009",
"v@ 	c #461B0C",
"w@ 	c #5E200E",
"x@ 	c #56190B",
"y@ 	c #6B3A17",
"z@ 	c #B67F36",
"A@ 	c #CFA047",
"B@ 	c #F0D05F",
"C@ 	c #A07932",
"D@ 	c #8C5A24",
"E@ 	c #5A2A12",
"F@ 	c #3D140B",
"G@ 	c #552912",
"H@ 	c #4A2112",
"I@ 	c #522810",
"J@ 	c #613A15",
"K@ 	c #9D6C29",
"L@ 	c #BF8B37",
"M@ 	c #D19C41",
"N@ 	c #DEAE4A",
"O@ 	c #CF9C42",
"P@ 	c #C8913E",
"Q@ 	c #B47C35",
"R@ 	c #905924",
"S@ 	c #3F140A",
"T@ 	c #300807",
"U@ 	c #1D0205",
"V@ 	c #230606",
"W@ 	c #220606",
"X@ 	c #260506",
"Y@ 	c #370B08",
"Z@ 	c #511C0D",
"`@ 	c #57230F",
" # 	c #56170A",
".# 	c #4F1309",
"+# 	c #52200D",
"@# 	c #905C29",
"## 	c #95662D",
"$# 	c #976E31",
"%# 	c #AC7732",
"&# 	c #93662B",
"*# 	c #7E5D27",
"=# 	c #7B5E2F",
"-# 	c #391A11",
";# 	c #633B17",
"># 	c #45240D",
",# 	c #4E220C",
"'# 	c #4C220C",
")# 	c #9E6B2A",
"!# 	c #CF9D42",
"~# 	c #E3BA50",
"{# 	c #D8A847",
"]# 	c #B88138",
"^# 	c #AE7633",
"/# 	c #925624",
"(# 	c #48190B",
"_# 	c #370907",
":# 	c #200205",
"<# 	c #1C0104",
"[# 	c #200406",
"}# 	c #260507",
"|# 	c #370908",
"1# 	c #400D09",
"2# 	c #3C0D09",
"3# 	c #581B0C",
"4# 	c #6D3012",
"5# 	c #662A11",
"6# 	c #7B461D",
"7# 	c #805523",
"8# 	c #95692D",
"9# 	c #BC8C3C",
"0# 	c #E1BF5A",
"a# 	c #F1DE6F",
"b# 	c #C19446",
"c# 	c #522E19",
"d# 	c #543016",
"e# 	c #B88E37",
"f# 	c #B98435",
"g# 	c #A1702B",
"h# 	c #9D6928",
"i# 	c #A6712E",
"j# 	c #A97530",
"k# 	c #B98537",
"l# 	c #C18D3C",
"m# 	c #A87030",
"n# 	c #8F5925",
"o# 	c #5B250F",
"p# 	c #3C0D07",
"q# 	c #370B07",
"r# 	c #360B08",
"s# 	c #290706",
"t# 	c #210507",
"u# 	c #280608",
"v# 	c #3A0B08",
"w# 	c #4D130A",
"x# 	c #4B140B",
"y# 	c #662811",
"z# 	c #733516",
"A# 	c #8F5523",
"B# 	c #9A6429",
"C# 	c #B98437",
"D# 	c #EDC85A",
"E# 	c #F2D362",
"F# 	c #ECC95B",
"G# 	c #E2C156",
"H# 	c #92622A",
"I# 	c #3B170D",
"J# 	c #3A1C0B",
"K# 	c #AB7A32",
"L# 	c #B47E34",
"M# 	c #DEAF49",
"N# 	c #E4B84F",
"O# 	c #DFB653",
"P# 	c #AC883B",
"Q# 	c #97702E",
"R# 	c #49220E",
"S# 	c #40160A",
"T# 	c #47170A",
"U# 	c #4B180A",
"V# 	c #87491E",
"W# 	c #723A18",
"X# 	c #2B0707",
"Y# 	c #320908",
"Z# 	c #2C0808",
"`# 	c #220708",
" $ 	c #220508",
".$ 	c #2E0709",
"+$ 	c #400F0A",
"@$ 	c #561E0E",
"#$ 	c #6D3114",
"$$ 	c #81441C",
"%$ 	c #8E5323",
"&$ 	c #B98038",
"*$ 	c #BC8739",
"=$ 	c #E0B24C",
"-$ 	c #F1CE5F",
";$ 	c #D7AE51",
">$ 	c #B48B41",
",$ 	c #936429",
"'$ 	c #633314",
")$ 	c #441B0F",
"!$ 	c #2C0D07",
"~$ 	c #5A2B16",
"{$ 	c #96632B",
"]$ 	c #D09E43",
"^$ 	c #E0B04E",
"/$ 	c #F3D262",
"($ 	c #E5BC55",
"_$ 	c #D0A548",
":$ 	c #4F2711",
"<$ 	c #45160C",
"[$ 	c #48130A",
"}$ 	c #441409",
"|$ 	c #7D451C",
"1$ 	c #9B5F28",
"2$ 	c #4B1D0E",
"3$ 	c #340B09",
"4$ 	c #350C0C",
"5$ 	c #260A0A",
"6$ 	c #250508",
"7$ 	c #350A0A",
"8$ 	c #48130C",
"9$ 	c #581E0F",
"0$ 	c #682E15",
"a$ 	c #8F5424",
"b$ 	c #B07A35",
"c$ 	c #CB9642",
"d$ 	c #C5923F",
"e$ 	c #D0A346",
"f$ 	c #C8A84C",
"g$ 	c #B28F41",
"h$ 	c #633B19",
"i$ 	c #4B230D",
"j$ 	c #421409",
"k$ 	c #370F0A",
"l$ 	c #2E1008",
"m$ 	c #441A0F",
"n$ 	c #5E3518",
"o$ 	c #95642C",
"p$ 	c #B8873A",
"q$ 	c #E5BF57",
"r$ 	c #F0CD60",
"s$ 	c #C4983F",
"t$ 	c #734A1E",
"u$ 	c #4A170C",
"v$ 	c #44140A",
"w$ 	c #5F2C12",
"x$ 	c #8A4F21",
"y$ 	c #703918",
"z$ 	c #3E110A",
"A$ 	c #3F0F0C",
"B$ 	c #330B0A",
"C$ 	c #1A0104",
"D$ 	c #230205",
"E$ 	c #2F0607",
"F$ 	c #541F10",
"G$ 	c #662E16",
"H$ 	c #9A602A",
"I$ 	c #B37B37",
"J$ 	c #B98539",
"K$ 	c #CE9E44",
"L$ 	c #CF9F44",
"M$ 	c #6E431A",
"N$ 	c #43170B",
"O$ 	c #3A0E07",
"P$ 	c #360C07",
"Q$ 	c #3F1109",
"R$ 	c #360E07",
"S$ 	c #3E1708",
"T$ 	c #381708",
"U$ 	c #250A06",
"V$ 	c #2E1007",
"W$ 	c #2C0A05",
"X$ 	c #330E07",
"Y$ 	c #552E13",
"Z$ 	c #9C7433",
"`$ 	c #BF913B",
" % 	c #D2A847",
".% 	c #DDAE4B",
"+% 	c #E7BA50",
"@% 	c #D3A949",
"#% 	c #7C4B20",
"$% 	c #4E1F0D",
"%% 	c #4B1A0C",
"&% 	c #44170B",
"*% 	c #46160C",
"=% 	c #3E100A",
"-% 	c #3F130D",
";% 	c #2D0708",
">% 	c #1C0205",
",% 	c #1B0406",
"'% 	c #210405",
")% 	c #1D0104",
"!% 	c #270306",
"~% 	c #2D0507",
"{% 	c #511F10",
"]% 	c #743D1D",
"^% 	c #A36A2F",
"/% 	c #A56E30",
"(% 	c #94602A",
"_% 	c #8F5927",
":% 	c #8A5E25",
"<% 	c #543614",
"[% 	c #5F3312",
"}% 	c #946325",
"|% 	c #997129",
"1% 	c #A2792F",
"2% 	c #946727",
"3% 	c #A26927",
"4% 	c #79471B",
"5% 	c #260A08",
"6% 	c #331D0C",
"7% 	c #AA8436",
"8% 	c #B69D4C",
"9% 	c #B9A450",
"0% 	c #C6AA54",
"a% 	c #784E23",
"b% 	c #50230F",
"c% 	c #6B411B",
"d% 	c #C0903D",
"e% 	c #D3A446",
"f% 	c #D2A146",
"g% 	c #AD7833",
"h% 	c #9D672C",
"i% 	c #6C3418",
"j% 	c #4C1C0F",
"k% 	c #572613",
"l% 	c #5F2B15",
"m% 	c #5E2D14",
"n% 	c #230506",
"o% 	c #190306",
"p% 	c #230306",
"q% 	c #230206",
"r% 	c #2F0707",
"s% 	c #3C0E09",
"t% 	c #49190D",
"u% 	c #602C14",
"v% 	c #753E1C",
"w% 	c #875423",
"x% 	c #4B250E",
"y% 	c #401C0C",
"z% 	c #592E13",
"A% 	c #4E240F",
"B% 	c #300C05",
"C% 	c #A46C2C",
"D% 	c #BB8335",
"E% 	c #E8BB50",
"F% 	c #EBBC50",
"G% 	c #E3B54D",
"H% 	c #D39F43",
"I% 	c #B27B33",
"J% 	c #684722",
"K% 	c #381B0E",
"L% 	c #2C1206",
"M% 	c #D2B250",
"N% 	c #F6DA6B",
"O% 	c #F4D86C",
"P% 	c #E7C864",
"Q% 	c #B2883F",
"R% 	c #7C4F24",
"S% 	c #481F0D",
"T% 	c #643C1A",
"U% 	c #906429",
"V% 	c #C7943E",
"W% 	c #AD7733",
"X% 	c #A97131",
"Y% 	c #77411D",
"Z% 	c #834C23",
"`% 	c #5C2B16",
" & 	c #5F2D16",
".& 	c #43170D",
"+& 	c #36110A",
"@& 	c #230407",
"#& 	c #1D0406",
"$& 	c #240406",
"%& 	c #1F0206",
"&& 	c #340A07",
"*& 	c #42120A",
"=& 	c #75411C",
"-& 	c #A46B2C",
";& 	c #9F662B",
">& 	c #532911",
",& 	c #340C07",
"'& 	c #46190B",
")& 	c #451609",
"!& 	c #572B11",
"~& 	c #8F5F27",
"{& 	c #C8933C",
"]& 	c #DCA946",
"^& 	c #E4B64F",
"/& 	c #E6B84F",
"(& 	c #DEB04E",
"_& 	c #AA7F37",
":& 	c #805624",
"<& 	c #462711",
"[& 	c #4C2A16",
"}& 	c #3A180C",
"|& 	c #2A1407",
"1& 	c #BD9E4C",
"2& 	c #D7B052",
"3& 	c #F6E072",
"4& 	c #FAE57A",
"5& 	c #F4DD73",
"6& 	c #E8CB62",
"7& 	c #B18B3E",
"8& 	c #6B3B19",
"9& 	c #764A1F",
"0& 	c #774720",
"a& 	c #854E24",
"b& 	c #562814",
"c& 	c #6D3B1C",
"d& 	c #542313",
"e& 	c #5B2814",
"f& 	c #350D0A",
"g& 	c #210207",
"h& 	c #1D0206",
"i& 	c #210506",
"j& 	c #220106",
"k& 	c #1D0106",
"l& 	c #320708",
"m& 	c #48170C",
"n& 	c #844D22",
"o& 	c #A0682C",
"p& 	c #B17732",
"q& 	c #582F14",
"r& 	c #3C1109",
"s& 	c #643215",
"t& 	c #78451D",
"u& 	c #875121",
"v& 	c #C7913D",
"w& 	c #D59F42",
"x& 	c #E8B94F",
"y& 	c #E8BD53",
"z& 	c #DEB04C",
"A& 	c #C19440",
"B& 	c #A77634",
"C& 	c #855E28",
"D& 	c #AE9447",
"E& 	c #6D4823",
"F& 	c #44200E",
"G& 	c #502812",
"H& 	c #6D3E1D",
"I& 	c #AE8139",
"J& 	c #D7C15C",
"K& 	c #E0D36E",
"L& 	c #E6D871",
"M& 	c #F4E070",
"N& 	c #DBBA54",
"O& 	c #9B6D2E",
"P& 	c #623416",
"Q& 	c #42150C",
"R& 	c #5C2A14",
"S& 	c #5B2A15",
"T& 	c #43160D",
"U& 	c #562613",
"V& 	c #4C1E11",
"W& 	c #542212",
"X& 	c #3C140C",
"Y& 	c #1D0105",
"Z& 	c #190005",
"`& 	c #1A0205",
" * 	c #180003",
".* 	c #370A08",
"+* 	c #47140A",
"@* 	c #5B2813",
"#* 	c #4F230F",
"$* 	c #3A180A",
"%* 	c #2A0807",
"&* 	c #300708",
"** 	c #3D1E0E",
"=* 	c #764D21",
"-* 	c #5C3212",
";* 	c #D09F42",
">* 	c #DBAC49",
",* 	c #DFB852",
"'* 	c #D3A84C",
")* 	c #93652C",
"!* 	c #522D11",
"~* 	c #68441E",
"{* 	c #957034",
"]* 	c #3B1B0E",
"^* 	c #270D07",
"/* 	c #31130B",
"(* 	c #1D0405",
"_* 	c #3E1B0C",
":* 	c #4E2A12",
"<* 	c #552812",
"[* 	c #562A14",
"}* 	c #5D3618",
"|* 	c #7F5827",
"1* 	c #B1823A",
"2* 	c #C79A42",
"3* 	c #D2A547",
"4* 	c #B98A39",
"5* 	c #411A0C",
"6* 	c #2F0708",
"7* 	c #2D0808",
"8* 	c #310A09",
"9* 	c #46190E",
"0* 	c #360E0A",
"a* 	c #200305",
"b* 	c #1C0004",
"c* 	c #1C0105",
"d* 	c #1D0305",
"e* 	c #200104",
"f* 	c #260305",
"g* 	c #561F0D",
"h* 	c #5B220E",
"i* 	c #60220E",
"j* 	c #58190B",
"k* 	c #3E0C08",
"l* 	c #330A09",
"m* 	c #471E0E",
"n* 	c #945B28",
"o* 	c #B07C33",
"p* 	c #DDAA46",
"q* 	c #CE983F",
"r* 	c #B17B34",
"s* 	c #9D6C2F",
"t* 	c #653E1B",
"u* 	c #3D180B",
"v* 	c #A97F3A",
"w* 	c #D5B253",
"x* 	c #E5CB61",
"y* 	c #624220",
"z* 	c #2E0C08",
"A* 	c #2C0A09",
"B* 	c #2E0E0A",
"C* 	c #2D0C07",
"D* 	c #250408",
"E* 	c #734D20",
"F* 	c #BC8638",
"G* 	c #AC7A36",
"H* 	c #815927",
"I* 	c #5C3116",
"J* 	c #6C3E1D",
"K* 	c #5F3118",
"L* 	c #7C4C22",
"M* 	c #915F28",
"N* 	c #8E5C27",
"O* 	c #5E2D15",
"P* 	c #44170F",
"Q* 	c #340B0A",
"R* 	c #320A09",
"S* 	c #290507",
"T* 	c #280406",
"U* 	c #320D07",
"V* 	c #612C14",
"W* 	c #3F100A",
"X* 	c #240206",
"Y* 	c #200105",
"Z* 	c #210104",
"`* 	c #48150B",
" = 	c #511A0D",
".= 	c #4D180C",
"+= 	c #48110A",
"@= 	c #3E0D09",
"#= 	c #300808",
"$= 	c #2B0608",
"%= 	c #340D09",
"&= 	c #4D2110",
"*= 	c #784C1F",
"== 	c #BD8939",
"-= 	c #B88337",
";= 	c #A67130",
">= 	c #91602B",
",= 	c #481E0E",
"'= 	c #391308",
")= 	c #BC9341",
"!= 	c #EBC860",
"~= 	c #F1D76A",
"{= 	c #725327",
"]= 	c #461A10",
"^= 	c #2C0D0A",
"/= 	c #35140A",
"(= 	c #3E180B",
"_= 	c #5E0902",
":= 	c #840801",
"<= 	c #7F0A01",
"[= 	c #A71401",
"}= 	c #941001",
"|= 	c #800D02",
"1= 	c #7A0902",
"2= 	c #6A0802",
"3= 	c #4A0401",
"4= 	c #430301",
"5= 	c #2E0302",
"6= 	c #2E0807",
"7= 	c #310809",
"8= 	c #2A0709",
"9= 	c #774D20",
"0= 	c #B47C34",
"a= 	c #E2B651",
"b= 	c #E6C259",
"c= 	c #C9A44A",
"d= 	c #95632B",
"e= 	c #75461F",
"f= 	c #421D0D",
"g= 	c #44180D",
"h= 	c #512111",
"i= 	c #501F10",
"j= 	c #47180F",
"k= 	c #3E120C",
"l= 	c #380D0B",
"m= 	c #2A0507",
"n= 	c #260407",
"o= 	c #320C09",
"p= 	c #4A190D",
"q= 	c #360908",
"r= 	c #1F0105",
"s= 	c #180103",
"t= 	c #200306",
"u= 	c #200106",
"v= 	c #290207",
"w= 	c #300508",
"x= 	c #350A09",
"y= 	c #320B09",
"z= 	c #270507",
"A= 	c #2C0608",
"B= 	c #3B110C",
"C= 	c #461B0E",
"D= 	c #532311",
"E= 	c #804D23",
"F= 	c #885527",
"G= 	c #875527",
"H= 	c #603318",
"I= 	c #3D170A",
"J= 	c #5D3015",
"K= 	c #BD9343",
"L= 	c #E0B655",
"M= 	c #E8C762",
"N= 	c #76582C",
"O= 	c #8F7537",
"P= 	c #A59748",
"Q= 	c #88783C",
"R= 	c #68401D",
"S= 	c #370F0B",
"T= 	c #510201",
"U= 	c #720200",
"V= 	c #7F0500",
"W= 	c #7C0500",
"X= 	c #A40800",
"Y= 	c #A80B00",
"Z= 	c #C51B00",
"`= 	c #C51A00",
" - 	c #A91100",
".- 	c #930A00",
"+- 	c #810400",
"@- 	c #7A0300",
"#- 	c #6C0200",
"$- 	c #580201",
"%- 	c #310403",
"&- 	c #2E0D08",
"*- 	c #2C0B07",
"=- 	c #36130A",
"-- 	c #36150B",
";- 	c #260A07",
">- 	c #2C0705",
",- 	c #40120B",
"'- 	c #5C2F16",
")- 	c #885A29",
"!- 	c #AF7A36",
"~- 	c #D6AD4F",
"{- 	c #F1D163",
"]- 	c #DBB651",
"^- 	c #B9883B",
"/- 	c #8C5827",
"(- 	c #4E2810",
"_- 	c #340C08",
":- 	c #45190E",
"<- 	c #4C1B0E",
"[- 	c #42150D",
"}- 	c #360C0A",
"|- 	c #340A09",
"1- 	c #290407",
"2- 	c #2C0708",
"3- 	c #33090A",
"4- 	c #240305",
"5- 	c #1E0304",
"6- 	c #1E0206",
"7- 	c #1D0004",
"8- 	c #240106",
"9- 	c #290206",
"0- 	c #3B130C",
"a- 	c #37110B",
"b- 	c #300A09",
"c- 	c #2F0908",
"d- 	c #43180D",
"e- 	c #522513",
"f- 	c #67341A",
"g- 	c #471C0E",
"h- 	c #623918",
"i- 	c #805323",
"j- 	c #9D6A30",
"k- 	c #B6853D",
"l- 	c #D6A950",
"m- 	c #D1A650",
"n- 	c #6B4D27",
"o- 	c #AB8B3F",
"p- 	c #EFD968",
"q- 	c #CFB658",
"r- 	c #986931",
"s- 	c #3E1D0F",
"t- 	c #32100C",
"u- 	c #3A170D",
"v- 	c #37130A",
"w- 	c #440601",
"x- 	c #620B01",
"y- 	c #4A0702",
"z- 	c #3A0402",
"A- 	c #480401",
"B- 	c #640300",
"C- 	c #880600",
"D- 	c #910700",
"E- 	c #930700",
"F- 	c #A80C00",
"G- 	c #B81500",
"H- 	c #DD2800",
"I- 	c #E72900",
"J- 	c #D41F00",
"K- 	c #B61200",
"L- 	c #950600",
"M- 	c #890400",
"N- 	c #790300",
"O- 	c #730300",
"P- 	c #520301",
"Q- 	c #440302",
"R- 	c #480201",
"S- 	c #400100",
"T- 	c #450301",
"U- 	c #330C08",
"V- 	c #2F0706",
"W- 	c #280405",
"X- 	c #431C0F",
"Y- 	c #764C21",
"Z- 	c #997330",
"`- 	c #92662B",
" ; 	c #95632C",
".; 	c #B58039",
"+; 	c #A97434",
"@; 	c #D6A84B",
"#; 	c #DEB350",
"$; 	c #D5A348",
"%; 	c #AA7634",
"&; 	c #613918",
"*; 	c #3C110B",
"=; 	c #390C0A",
"-; 	c #380B09",
";; 	c #350B0A",
">; 	c #250306",
",; 	c #260307",
"'; 	c #240207",
"); 	c #1E0105",
"!; 	c #160104",
"~; 	c #350F0B",
"{; 	c #320D0A",
"]; 	c #38100C",
"^; 	c #2F090A",
"/; 	c #2D0709",
"(; 	c #3C100C",
"_; 	c #552614",
":; 	c #4F1E11",
"<; 	c #43170C",
"[; 	c #7C4922",
"}; 	c #AC7435",
"|; 	c #C58E40",
"1; 	c #BB843C",
"2; 	c #9E6B32",
"3; 	c #7E5125",
"4; 	c #563517",
"5; 	c #603718",
"6; 	c #C19344",
"7; 	c #E0B455",
"8; 	c #AD7938",
"9; 	c #502D14",
"0; 	c #401B10",
"a; 	c #300D0B",
"b; 	c #350B0B",
"c; 	c #330D0A",
"d; 	c #2F0F0A",
"e; 	c #210705",
"f; 	c #2A0D08",
"g; 	c #350202",
"h; 	c #470201",
"i; 	c #5C0300",
"j; 	c #570201",
"k; 	c #340001",
"l; 	c #3C0101",
"m; 	c #620301",
"n; 	c #8E0800",
"o; 	c #A60C00",
"p; 	c #9E0900",
"q; 	c #AE0C00",
"r; 	c #C41400",
"s; 	c #D71F00",
"t; 	c #E42500",
"u; 	c #DF2400",
"v; 	c #B81600",
"w; 	c #990900",
"x; 	c #8B0600",
"y; 	c #770400",
"z; 	c #7B0500",
"A; 	c #810500",
"B; 	c #7A0500",
"C; 	c #7E0600",
"D; 	c #690201",
"E; 	c #4A0101",
"F; 	c #3F0201",
"G; 	c #2D0202",
"H; 	c #220304",
"I; 	c #2B0805",
"J; 	c #2D0905",
"K; 	c #370C08",
"L; 	c #43110D",
"M; 	c #47130D",
"N; 	c #310808",
"O; 	c #220206",
"P; 	c #4D1F11",
"Q; 	c #6E421D",
"R; 	c #B27F37",
"S; 	c #CC9943",
"T; 	c #AC7835",
"U; 	c #99652D",
"V; 	c #B8833A",
"W; 	c #BD883D",
"X; 	c #BE8A3D",
"Y; 	c #B7853B",
"Z; 	c #A97634",
"`; 	c #B07B36",
" > 	c #6D451F",
".> 	c #380C0A",
"+> 	c #360A09",
"@> 	c #2B0507",
"#> 	c #280407",
"$> 	c #250307",
"%> 	c #2A0609",
"&> 	c #2D0809",
"*> 	c #270407",
"=> 	c #240307",
"-> 	c #210206",
";> 	c #1F0205",
">> 	c #200405",
",> 	c #1E0106",
"'> 	c #210105",
")> 	c #220205",
"!> 	c #38130C",
"~> 	c #2F0B0A",
"{> 	c #3D170E",
"]> 	c #290709",
"^> 	c #290508",
"/> 	c #2A0708",
"(> 	c #300909",
"_> 	c #4C1F11",
":> 	c #855829",
"<> 	c #B07C3A",
"[> 	c #A87235",
"}> 	c #AD7536",
"|> 	c #A06930",
"1> 	c #7D4A24",
"2> 	c #7D4C24",
"3> 	c #6E441F",
"4> 	c #865626",
"5> 	c #B27D38",
"6> 	c #835225",
"7> 	c #9A672E",
"8> 	c #9C682F",
"9> 	c #63381A",
"0> 	c #330909",
"a> 	c #2F0808",
"b> 	c #2C0807",
"c> 	c #220707",
"d> 	c #2A0B09",
"e> 	c #1C0305",
"f> 	c #250101",
"g> 	c #270201",
"h> 	c #2F0202",
"i> 	c #540401",
"j> 	c #700500",
"k> 	c #780400",
"l> 	c #5F0101",
"m> 	c #640200",
"n> 	c #6B0300",
"o> 	c #820700",
"p> 	c #B51100",
"q> 	c #960700",
"r> 	c #DC2800",
"s> 	c #F23E00",
"t> 	c #EC3000",
"u> 	c #CD2300",
"v> 	c #B71300",
"w> 	c #B20F00",
"x> 	c #A50A00",
"y> 	c #A70C00",
"z> 	c #9F0C00",
"A> 	c #930900",
"B> 	c #870700",
"C> 	c #7A0400",
"D> 	c #620200",
"E> 	c #470100",
"F> 	c #380001",
"G> 	c #2B0101",
"H> 	c #2C0806",
"I> 	c #250205",
"J> 	c #290406",
"K> 	c #2D0505",
"L> 	c #2B0504",
"M> 	c #290604",
"N> 	c #2B0405",
"O> 	c #4F2111",
"P> 	c #67411B",
"Q> 	c #613D19",
"R> 	c #41160E",
"S> 	c #74461F",
"T> 	c #A06D31",
"U> 	c #C79743",
"V> 	c #D6A549",
"W> 	c #C49240",
"X> 	c #B38039",
"Y> 	c #7F4C24",
"Z> 	c #A37033",
"`> 	c #A26F32",
" , 	c #92642C",
"., 	c #68381B",
"+, 	c #895427",
"@, 	c #4C2712",
"#, 	c #350908",
"$, 	c #280408",
"%, 	c #2C0809",
"&, 	c #280507",
"*, 	c #2E0B0A",
"=, 	c #2D0909",
"-, 	c #441D11",
";, 	c #421C11",
">, 	c #340E0B",
",, 	c #2B0709",
"', 	c #2B0708",
"), 	c #2E0809",
"!, 	c #37100B",
"~, 	c #7B4F25",
"{, 	c #835227",
"], 	c #7F4E24",
"^, 	c #65351A",
"/, 	c #774722",
"(, 	c #734B21",
"_, 	c #AA7635",
":, 	c #AD7635",
"<, 	c #A77133",
"[, 	c #663819",
"}, 	c #AA7535",
"|, 	c #B37E38",
"1, 	c #815124",
"2, 	c #350C08",
"3, 	c #320B07",
"4, 	c #49210E",
"5, 	c #4B210F",
"6, 	c #2E0E08",
"7, 	c #220504",
"8, 	c #2D0E08",
"9, 	c #36140D",
"0, 	c #3E1A0F",
"a, 	c #2F0F09",
"b, 	c #2D0A09",
"c, 	c #210307",
"d, 	c #250607",
"e, 	c #2D0C0A",
"f, 	c #240001",
"g, 	c #2E0001",
"h, 	c #340103",
"i, 	c #5B0401",
"j, 	c #760600",
"k, 	c #8B0700",
"l, 	c #8A0700",
"m, 	c #860500",
"n, 	c #830500",
"o, 	c #7F0800",
"p, 	c #CA1A00",
"q, 	c #BF1700",
"r, 	c #B71700",
"s, 	c #C32500",
"t, 	c #E63B00",
"u, 	c #F24B00",
"v, 	c #E83200",
"w, 	c #CE2300",
"x, 	c #C41700",
"y, 	c #CF1800",
"z, 	c #BA1100",
"A, 	c #B60F00",
"B, 	c #A90D00",
"C, 	c #A30C00",
"D, 	c #8C0800",
"E, 	c #6A0300",
"F, 	c #580200",
"G, 	c #410001",
"H, 	c #2F0001",
"I, 	c #220001",
"J, 	c #310905",
"K, 	c #2A0407",
"L, 	c #320808",
"M, 	c #42130A",
"N, 	c #360A05",
"O, 	c #2D0404",
"P, 	c #76451F",
"Q, 	c #BE8D40",
"R, 	c #BB8F41",
"S, 	c #9B7A3B",
"T, 	c #643A1A",
"U, 	c #7A4B23",
"V, 	c #B5843B",
"W, 	c #E0B351",
"X, 	c #DBAE4F",
"Y, 	c #D3A74A",
"Z, 	c #814E25",
"`, 	c #8A5C29",
" ' 	c #93652D",
".' 	c #865A28",
"+' 	c #4E2212",
"@' 	c #623319",
"#' 	c #39140B",
"$' 	c #2E0608",
"%' 	c #270408",
"&' 	c #1F0306",
"*' 	c #2F0809",
"=' 	c #4B2315",
"-' 	c #5A2F1B",
";' 	c #451D13",
">' 	c #310D0B",
",' 	c #300A0A",
"'' 	c #30090A",
")' 	c #502713",
"!' 	c #643419",
"~' 	c #502111",
"{' 	c #43160E",
"]' 	c #45170E",
"^' 	c #4A1D0F",
"/' 	c #613017",
"(' 	c #AE7C38",
"_' 	c #CD9643",
":' 	c #C58D3F",
"<' 	c #9F692F",
"[' 	c #764420",
"}' 	c #BA853B",
"|' 	c #BD8A3C",
"1' 	c #A07230",
"2' 	c #43190B",
"3' 	c #52240F",
"4' 	c #C49B45",
"5' 	c #C3963F",
"6' 	c #A78740",
"7' 	c #321409",
"8' 	c #310D07",
"9' 	c #3D1A0D",
"0' 	c #3D1B0E",
"a' 	c #2A0506",
"b' 	c #380E0A",
"c' 	c #250507",
"d' 	c #240608",
"e' 	c #230204",
"f' 	c #260406",
"g' 	c #230202",
"h' 	c #3E0806",
"i' 	c #310102",
"j' 	c #4D0301",
"k' 	c #440101",
"l' 	c #410101",
"m' 	c #600301",
"n' 	c #770500",
"o' 	c #980B00",
"p' 	c #AC0D00",
"q' 	c #A40A00",
"r' 	c #920800",
"s' 	c #8F1000",
"t' 	c #DA2400",
"u' 	c #E32600",
"v' 	c #D82700",
"w' 	c #F03B00",
"x' 	c #F94C00",
"y' 	c #FC5A00",
"z' 	c #D42A00",
"A' 	c #B62400",
"B' 	c #B62500",
"C' 	c #E22A00",
"D' 	c #CA1800",
"E' 	c #C51500",
"F' 	c #B91200",
"G' 	c #B11200",
"H' 	c #950900",
"I' 	c #830600",
"J' 	c #780600",
"K' 	c #680401",
"L' 	c #430102",
"M' 	c #3D0101",
"N' 	c #3D0200",
"O' 	c #390201",
"P' 	c #3D0302",
"Q' 	c #280201",
"R' 	c #390301",
"S' 	c #270403",
"T' 	c #250203",
"U' 	c #290505",
"V' 	c #2F0906",
"W' 	c #2E0A06",
"X' 	c #270504",
"Y' 	c #2A0405",
"Z' 	c #240205",
"`' 	c #482110",
" ) 	c #8A5021",
".) 	c #632E13",
"+) 	c #401309",
"@) 	c #350906",
"#) 	c #925D27",
"$) 	c #E1B350",
"%) 	c #EAC35D",
"&) 	c #E2BA5A",
"*) 	c #9E7233",
"=) 	c #643719",
"-) 	c #835426",
";) 	c #BF9645",
">) 	c #DAB153",
",) 	c #D2A54A",
"') 	c #98652F",
")) 	c #6C401F",
"!) 	c #380F0B",
"~) 	c #3A110B",
"{) 	c #2C0709",
"]) 	c #280508",
"^) 	c #2A0508",
"/) 	c #2E0708",
"() 	c #290408",
"_) 	c #230207",
":) 	c #1E0306",
"<) 	c #250407",
"[) 	c #411B12",
"}) 	c #582F1B",
"|) 	c #532A18",
"1) 	c #4A2013",
"2) 	c #4B2413",
"3) 	c #462111",
"4) 	c #330E0C",
"5) 	c #310909",
"6) 	c #300809",
"7) 	c #370B0A",
"8) 	c #3E100C",
"9) 	c #633418",
"0) 	c #855225",
"a) 	c #C49041",
"b) 	c #C58F40",
"c) 	c #B8813A",
"d) 	c #8D5828",
"e) 	c #64371A",
"f) 	c #C4913F",
"g) 	c #A37232",
"h) 	c #633D1B",
"i) 	c #491F0E",
"j) 	c #6C3C1B",
"k) 	c #CF9F45",
"l) 	c #CB9740",
"m) 	c #624019",
"n) 	c #320F0A",
"o) 	c #6F4B1D",
"p) 	c #C5963F",
"q) 	c #A47131",
"r) 	c #653B19",
"s) 	c #2C0908",
"t) 	c #2D1108",
"u) 	c #521E10",
"v) 	c #562413",
"w) 	c #522111",
"x) 	c #4B1B0E",
"y) 	c #360C09",
"z) 	c #280404",
"A) 	c #2A0504",
"B) 	c #300705",
"C) 	c #280304",
"D) 	c #350607",
"E) 	c #2C0506",
"F) 	c #280403",
"G) 	c #250603",
"H) 	c #210303",
"I) 	c #1D0203",
"J) 	c #2C0303",
"K) 	c #4C0702",
"L) 	c #470703",
"M) 	c #320404",
"N) 	c #320604",
"O) 	c #320304",
"P) 	c #490202",
"Q) 	c #920D00",
"R) 	c #680400",
"S) 	c #590201",
"T) 	c #980D00",
"U) 	c #B01200",
"V) 	c #AE1200",
"W) 	c #B01100",
"X) 	c #B40E00",
"Y) 	c #A30A00",
"Z) 	c #A70D00",
"`) 	c #C21500",
" ! 	c #CE1700",
".! 	c #D21800",
"+! 	c #9F0D00",
"@! 	c #DA2E00",
"#! 	c #F13F00",
"$! 	c #FD6600",
"%! 	c #F84A00",
"&! 	c #FB4F00",
"*! 	c #F85E00",
"=! 	c #F73E00",
"-! 	c #E42600",
";! 	c #E22400",
">! 	c #CC1A00",
",! 	c #B71100",
"'! 	c #B11000",
")! 	c #A10D00",
"!! 	c #830800",
"~! 	c #540301",
"{! 	c #590300",
"]! 	c #500200",
"^! 	c #530200",
"/! 	c #500400",
"(! 	c #350201",
"_! 	c #2E0202",
":! 	c #2A0304",
"<! 	c #210102",
"[! 	c #290403",
"}! 	c #2E0504",
"|! 	c #2A0403",
"1! 	c #2D0604",
"2! 	c #2D0403",
"3! 	c #2F0505",
"4! 	c #2C0405",
"5! 	c #2B0505",
"6! 	c #2C0707",
"7! 	c #2F0806",
"8! 	c #2D0605",
"9! 	c #390C07",
"0! 	c #310B08",
"a! 	c #72441F",
"b! 	c #B37F38",
"c! 	c #7C431D",
"d! 	c #5F2913",
"e! 	c #491E0D",
"f! 	c #572812",
"g! 	c #CFA349",
"h! 	c #EECB64",
"i! 	c #F9E074",
"j! 	c #DFB455",
"k! 	c #AA7936",
"l! 	c #784822",
"m! 	c #7E4E24",
"n! 	c #966530",
"o! 	c #9F6C32",
"p! 	c #9C6930",
"q! 	c #5D3219",
"r! 	c #43190E",
"s! 	c #2A0608",
"t! 	c #2C0609",
"u! 	c #270307",
"v! 	c #190204",
"w! 	c #290608",
"x! 	c #350D0C",
"y! 	c #310B0C",
"z! 	c #340D0C",
"A! 	c #3E150E",
"B! 	c #4B2213",
"C! 	c #4C2314",
"D! 	c #3D150F",
"E! 	c #2E090A",
"F! 	c #2F0709",
"G! 	c #41140D",
"H! 	c #511F11",
"I! 	c #76421E",
"J! 	c #97612D",
"K! 	c #BF893F",
"L! 	c #B67E3A",
"M! 	c #93602C",
"N! 	c #6A391C",
"O! 	c #66391B",
"P! 	c #A16F32",
"Q! 	c #BA853D",
"R! 	c #9B682F",
"S! 	c #8B5628",
"T! 	c #B7863C",
"U! 	c #D3A047",
"V! 	c #A37031",
"W! 	c #733E1B",
"X! 	c #3D130A",
"Y! 	c #865E28",
"Z! 	c #C99943",
"`! 	c #E4B550",
" ~ 	c #977031",
".~ 	c #3C1B0B",
"+~ 	c #663C1B",
"@~ 	c #A46D2F",
"#~ 	c #7B441D",
"$~ 	c #864D22",
"%~ 	c #81461E",
"&~ 	c #6C3015",
"*~ 	c #4B160C",
"=~ 	c #5C1D0F",
"-~ 	c #561609",
";~ 	c #5E190A",
">~ 	c #460A07",
",~ 	c #430807",
"'~ 	c #4C0906",
")~ 	c #300304",
"!~ 	c #2B0105",
"~~ 	c #240103",
"{~ 	c #2A0303",
"]~ 	c #660B03",
"^~ 	c #650B03",
"/~ 	c #470502",
"(~ 	c #2F0304",
"_~ 	c #2B0305",
":~ 	c #390503",
"<~ 	c #270101",
"[~ 	c #560301",
"}~ 	c #7A0600",
"|~ 	c #7D0600",
"1~ 	c #AD1500",
"2~ 	c #B61600",
"3~ 	c #B31400",
"4~ 	c #B01300",
"5~ 	c #A40D00",
"6~ 	c #900A00",
"7~ 	c #8B0C00",
"8~ 	c #970F00",
"9~ 	c #BB1800",
"0~ 	c #E43200",
"a~ 	c #E44600",
"b~ 	c #F35700",
"c~ 	c #FBA301",
"d~ 	c #FEA300",
"e~ 	c #FE7E00",
"f~ 	c #FC5000",
"g~ 	c #F74300",
"h~ 	c #F23100",
"i~ 	c #E72D00",
"j~ 	c #DD2500",
"k~ 	c #C71700",
"l~ 	c #B21200",
"m~ 	c #AE0F00",
"n~ 	c #AB0E00",
"o~ 	c #830801",
"p~ 	c #5A0301",
"q~ 	c #6D0401",
"r~ 	c #690401",
"s~ 	c #550100",
"t~ 	c #5C0301",
"u~ 	c #430201",
"v~ 	c #360202",
"w~ 	c #320202",
"x~ 	c #300202",
"y~ 	c #270103",
"z~ 	c #210002",
"A~ 	c #590602",
"B~ 	c #750B01",
"C~ 	c #320201",
"D~ 	c #250102",
"E~ 	c #2B0203",
"F~ 	c #2A0204",
"G~ 	c #2E0405",
"H~ 	c #471009",
"I~ 	c #420C06",
"J~ 	c #3C0B06",
"K~ 	c #440F07",
"L~ 	c #4E170B",
"M~ 	c #56220E",
"N~ 	c #692F12",
"O~ 	c #5F250D",
"P~ 	c #5C210E",
"Q~ 	c #5E3116",
"R~ 	c #A57436",
"S~ 	c #EDD062",
"T~ 	c #E5C259",
"U~ 	c #AB7B38",
"V~ 	c #80491F",
"W~ 	c #6E3819",
"X~ 	c #A07433",
"Y~ 	c #E6BE57",
"Z~ 	c #F6DC6E",
"`~ 	c #F3D369",
" { 	c #E6C25D",
".{ 	c #A67636",
"+{ 	c #71411E",
"@{ 	c #512513",
"#{ 	c #5F3619",
"${ 	c #573417",
"%{ 	c #441C10",
"&{ 	c #481D11",
"*{ 	c #310B09",
"={ 	c #2B0609",
"-{ 	c #320909",
";{ 	c #380E0B",
">{ 	c #310A0A",
",{ 	c #1F0506",
"'{ 	c #1B0305",
"){ 	c #270708",
"!{ 	c #300A0B",
"~{ 	c #2B050A",
"{{ 	c #330B0B",
"]{ 	c #350D0B",
"^{ 	c #431B11",
"/{ 	c #4A2014",
"({ 	c #3A140E",
"_{ 	c #2E080A",
":{ 	c #491A0F",
"<{ 	c #4F1F11",
"[{ 	c #784922",
"}{ 	c #855528",
"|{ 	c #784923",
"1{ 	c #5A2C17",
"2{ 	c #502413",
"3{ 	c #794522",
"4{ 	c #97632E",
"5{ 	c #BF8B3F",
"6{ 	c #C79645",
"7{ 	c #A26D32",
"8{ 	c #C29343",
"9{ 	c #D0A34C",
"0{ 	c #9B672F",
"a{ 	c #5B2C13",
"b{ 	c #997131",
"c{ 	c #CD9C45",
"d{ 	c #E8BC55",
"e{ 	c #EABF56",
"f{ 	c #917634",
"g{ 	c #320C07",
"h{ 	c #A27032",
"i{ 	c #C6923F",
"j{ 	c #9C6229",
"k{ 	c #9B6129",
"l{ 	c #834C1F",
"m{ 	c #733617",
"n{ 	c #531D0E",
"o{ 	c #783618",
"p{ 	c #732B11",
"q{ 	c #7F3414",
"r{ 	c #4D170A",
"s{ 	c #440806",
"t{ 	c #520B06",
"u{ 	c #560B05",
"v{ 	c #4B0703",
"w{ 	c #3D0504",
"x{ 	c #490301",
"y{ 	c #450202",
"z{ 	c #820B01",
"A{ 	c #881001",
"B{ 	c #7C0902",
"C{ 	c #3F0304",
"D{ 	c #1D0204",
"E{ 	c #520804",
"F{ 	c #4E0401",
"G{ 	c #3D0000",
"H{ 	c #630300",
"I{ 	c #820500",
"J{ 	c #C62400",
"K{ 	c #E02700",
"L{ 	c #D62100",
"M{ 	c #941000",
"N{ 	c #A41C00",
"O{ 	c #B93000",
"P{ 	c #951A01",
"Q{ 	c #911A01",
"R{ 	c #D24700",
"S{ 	c #F78600",
"T{ 	c #FC9000",
"U{ 	c #FE7D00",
"V{ 	c #FF9300",
"W{ 	c #FF8800",
"X{ 	c #FFA000",
"Y{ 	c #FA6100",
"Z{ 	c #F73400",
"`{ 	c #F33600",
" ] 	c #D52A00",
".] 	c #DA2300",
"+] 	c #D31F00",
"@] 	c #B41200",
"#] 	c #7C0701",
"$] 	c #5F0401",
"%] 	c #500201",
"&] 	c #9F0E00",
"*] 	c #8E0B00",
"=] 	c #6E0500",
"-] 	c #830700",
";] 	c #490201",
">] 	c #640601",
",] 	c #3C0303",
"'] 	c #7B0E03",
")] 	c #260003",
"!] 	c #520604",
"~] 	c #9F0F00",
"{] 	c #590501",
"]] 	c #270202",
"^] 	c #1F0103",
"/] 	c #390704",
"(] 	c #370804",
"_] 	c #330505",
":] 	c #2E0506",
"<] 	c #682E12",
"[] 	c #875523",
"}] 	c #875A23",
"|] 	c #4C170A",
"1] 	c #5D2310",
"2] 	c #996329",
"3] 	c #A9712F",
"4] 	c #5B240F",
"5] 	c #552410",
"6] 	c #9B7334",
"7] 	c #F4D967",
"8] 	c #F3D567",
"9] 	c #E5CB62",
"0] 	c #D2AF51",
"a] 	c #B5863C",
"b] 	c #7C4A21",
"c] 	c #9A6C30",
"d] 	c #D2AC50",
"e] 	c #EAC55F",
"f] 	c #EBC961",
"g] 	c #A87C39",
"h] 	c #6E3C1D",
"i] 	c #522313",
"j] 	c #562915",
"k] 	c #3F140E",
"l] 	c #3E170F",
"m] 	c #2D0608",
"n] 	c #220406",
"o] 	c #30080A",
"p] 	c #310C0B",
"q] 	c #41170E",
"r] 	c #4C2111",
"s] 	c #542615",
"t] 	c #44180F",
"u] 	c #572A16",
"v] 	c #73401F",
"w] 	c #814B24",
"x] 	c #71411F",
"y] 	c #B7833C",
"z] 	c #C19443",
"A] 	c #8A682C",
"B] 	c #9D7635",
"C] 	c #A87E3A",
"D] 	c #A97635",
"E] 	c #BD9040",
"F] 	c #E0B552",
"G] 	c #E9BF56",
"H] 	c #E8BE55",
"I] 	c #BB9440",
"J] 	c #6E5124",
"K] 	c #92632C",
"L] 	c #CC9F45",
"M] 	c #E2B750",
"N] 	c #A77030",
"O] 	c #8C5D29",
"P] 	c #603014",
"Q] 	c #773E1A",
"R] 	c #895122",
"S] 	c #CAA34A",
"T] 	c #CCAE4F",
"U] 	c #8C5C24",
"V] 	c #451509",
"W] 	c #4A0D08",
"X] 	c #501507",
"Y] 	c #611606",
"Z] 	c #3D0403",
"`] 	c #340304",
" ^ 	c #650602",
".^ 	c #961201",
"+^ 	c #8D0F02",
"@^ 	c #450403",
"#^ 	c #3A0303",
"$^ 	c #810A01",
"%^ 	c #770A01",
"&^ 	c #800A00",
"*^ 	c #9D0C00",
"=^ 	c #AA0F00",
"-^ 	c #990A00",
";^ 	c #740500",
">^ 	c #C72700",
",^ 	c #D52100",
"'^ 	c #BF1A00",
")^ 	c #BA2E00",
"!^ 	c #F25C00",
"~^ 	c #D13300",
"{^ 	c #C73D01",
"]^ 	c #F98301",
"^^ 	c #FDBE01",
"/^ 	c #FEC401",
"(^ 	c #FFBA02",
"_^ 	c #FDD805",
":^ 	c #FEAA01",
"<^ 	c #FF7D00",
"[^ 	c #FD6B00",
"}^ 	c #FE6000",
"|^ 	c #F84500",
"1^ 	c #E22800",
"2^ 	c #EA2B00",
"3^ 	c #E32900",
"4^ 	c #B71500",
"5^ 	c #900C00",
"6^ 	c #7B0901",
"7^ 	c #7D0701",
"8^ 	c #940C00",
"9^ 	c #AA1200",
"0^ 	c #7C0700",
"a^ 	c #920A00",
"b^ 	c #6E0501",
"c^ 	c #740F00",
"d^ 	c #AF2500",
"e^ 	c #B32901",
"f^ 	c #871502",
"g^ 	c #350203",
"h^ 	c #5A0302",
"i^ 	c #5C0401",
"j^ 	c #3A0203",
"k^ 	c #260102",
"l^ 	c #2B0303",
"m^ 	c #551506",
"n^ 	c #69280C",
"o^ 	c #461008",
"p^ 	c #341108",
"q^ 	c #B67B30",
"r^ 	c #A86A2B",
"s^ 	c #875621",
"t^ 	c #4E1A0C",
"u^ 	c #4A1A0D",
"v^ 	c #B07E38",
"w^ 	c #D6A346",
"x^ 	c #BC8D3D",
"y^ 	c #94662C",
"z^ 	c #563115",
"A^ 	c #7D5123",
"B^ 	c #BB9D49",
"C^ 	c #E1B955",
"D^ 	c #F2CF62",
"E^ 	c #E3BC56",
"F^ 	c #B68A3C",
"G^ 	c #885928",
"H^ 	c #906C30",
"I^ 	c #9E7637",
"J^ 	c #B59043",
"K^ 	c #A16F33",
"L^ 	c #8A5527",
"M^ 	c #68361A",
"N^ 	c #46190F",
"O^ 	c #40140D",
"P^ 	c #4B1E10",
"Q^ 	c #2C0508",
"R^ 	c #2E0508",
"S^ 	c #2B0408",
"T^ 	c #280307",
"U^ 	c #280505",
"V^ 	c #2B0607",
"W^ 	c #260308",
"X^ 	c #260408",
"Y^ 	c #340F0C",
"Z^ 	c #310B0A",
"`^ 	c #36100C",
" / 	c #522615",
"./ 	c #724122",
"+/ 	c #794725",
"@/ 	c #6A3B1E",
"#/ 	c #421E11",
"$/ 	c #936530",
"%/ 	c #7A5024",
"&/ 	c #370E0B",
"*/ 	c #6F3F1E",
"=/ 	c #C49646",
"-/ 	c #BC883F",
";/ 	c #D2A04A",
">/ 	c #E1B654",
",/ 	c #D1A547",
"'/ 	c #784C20",
")/ 	c #99712F",
"!/ 	c #CB9842",
"~/ 	c #DBA948",
"{/ 	c #DEB04A",
"]/ 	c #814E20",
"^/ 	c #471B0D",
"// 	c #512410",
"(/ 	c #74421B",
"_/ 	c #B88036",
":/ 	c #E5BC54",
"</ 	c #EFCB5C",
"[/ 	c #946C2E",
"}/ 	c #57210F",
"|/ 	c #844019",
"1/ 	c #A66025",
"2/ 	c #8D4D1D",
"3/ 	c #370806",
"4/ 	c #380305",
"5/ 	c #520503",
"6/ 	c #5F0602",
"7/ 	c #540502",
"8/ 	c #8F0B01",
"9/ 	c #5A0401",
"0/ 	c #590500",
"a/ 	c #8F1400",
"b/ 	c #941A00",
"c/ 	c #A91D00",
"d/ 	c #C41D00",
"e/ 	c #BF1D00",
"f/ 	c #940B00",
"g/ 	c #710600",
"h/ 	c #AF2B00",
"i/ 	c #AB1C00",
"j/ 	c #8B0B00",
"k/ 	c #AF1400",
"l/ 	c #D43400",
"m/ 	c #DD3D00",
"n/ 	c #F05700",
"o/ 	c #F95C00",
"p/ 	c #F67400",
"q/ 	c #FFC201",
"r/ 	c #FDA902",
"s/ 	c #FDB90E",
"t/ 	c #FDEA3A",
"u/ 	c #FED021",
"v/ 	c #FE7401",
"w/ 	c #FF6D00",
"x/ 	c #FC6E00",
"y/ 	c #EA2900",
"z/ 	c #E82300",
"A/ 	c #E72C00",
"B/ 	c #EA3100",
"C/ 	c #C62800",
"D/ 	c #861201",
"E/ 	c #852400",
"F/ 	c #8C1B01",
"G/ 	c #840700",
"H/ 	c #870800",
"I/ 	c #A41000",
"J/ 	c #8B0800",
"K/ 	c #700501",
"L/ 	c #800800",
"M/ 	c #630400",
"N/ 	c #7F1300",
"O/ 	c #C62900",
"P/ 	c #CA3A00",
"Q/ 	c #7E1902",
"R/ 	c #2C0104",
"S/ 	c #2F0103",
"T/ 	c #2F0205",
"U/ 	c #2B0206",
"V/ 	c #2D0407",
"W/ 	c #4D190B",
"X/ 	c #773413",
"Y/ 	c #733113",
"Z/ 	c #3C0C07",
"`/ 	c #592811",
" ( 	c #CA9E42",
".( 	c #DEA946",
"+( 	c #C5923C",
"@( 	c #7D471C",
"#( 	c #57260D",
"$( 	c #805421",
"%( 	c #E0B04D",
"&( 	c #E2B552",
"*( 	c #9B7D37",
"=( 	c #4B2810",
"-( 	c #7B5022",
";( 	c #D8A84C",
">( 	c #E9CB64",
",( 	c #EECE65",
"'( 	c #D3A64D",
")( 	c #9D6930",
"!( 	c #481C0E",
"~( 	c #643219",
"{( 	c #935D2B",
"]( 	c #965F2B",
"^( 	c #7A4720",
"/( 	c #40150D",
"(( 	c #542514",
"_( 	c #250207",
":( 	c #310708",
"<( 	c #2D0508",
"[( 	c #2F0609",
"}( 	c #310608",
"|( 	c #2A0308",
"1( 	c #220207",
"2( 	c #330C0B",
"3( 	c #2F080A",
"4( 	c #300B0A",
"5( 	c #42190F",
"6( 	c #5A2E1A",
"7( 	c #4E2516",
"8( 	c #310B0B",
"9( 	c #5B301A",
"0( 	c #5A3018",
"a( 	c #340C0A",
"b( 	c #502513",
"c( 	c #66351A",
"d( 	c #C9A04A",
"e( 	c #B27D3A",
"f( 	c #9F6B32",
"g( 	c #9B6831",
"h( 	c #643718",
"i( 	c #3A0D08",
"j( 	c #CAAC4C",
"k( 	c #E7BB52",
"l( 	c #E2B44F",
"m( 	c #C99F44",
"n( 	c #5F3917",
"o( 	c #75471F",
"p( 	c #AB863A",
"q( 	c #D0A449",
"r( 	c #DFB050",
"s( 	c #D3A247",
"t( 	c #A77231",
"u( 	c #83481E",
"v( 	c #854F20",
"w( 	c #AE7532",
"x( 	c #D1943E",
"y( 	c #C28C38",
"z( 	c #461A0A",
"A( 	c #380505",
"B( 	c #410203",
"C( 	c #3E0103",
"D( 	c #8C0C00",
"E( 	c #850A01",
"F( 	c #5D0601",
"G( 	c #852201",
"H( 	c #B22D00",
"I( 	c #BC2A00",
"J( 	c #B42400",
"K( 	c #C32100",
"L( 	c #B31800",
"M( 	c #850800",
"N( 	c #930C00",
"O( 	c #A11D00",
"P( 	c #640500",
"Q( 	c #6D0601",
"R( 	c #AD1400",
"S( 	c #C12200",
"T( 	c #BD1F00",
"U( 	c #F57E00",
"V( 	c #FF8500",
"W( 	c #FE9700",
"X( 	c #FF9200",
"Y( 	c #FD7A00",
"Z( 	c #FC9A0A",
"`( 	c #FED42C",
" _ 	c #FDB619",
"._ 	c #FF7902",
"+_ 	c #FE7700",
"@_ 	c #FE7400",
"#_ 	c #F26100",
"$_ 	c #ED2F00",
"%_ 	c #EA3700",
"&_ 	c #F74D00",
"*_ 	c #E14900",
"=_ 	c #771400",
"-_ 	c #DA6E00",
";_ 	c #D05500",
">_ 	c #6A0501",
",_ 	c #5A0202",
"'_ 	c #930C01",
")_ 	c #740700",
"!_ 	c #871801",
"~_ 	c #CC3800",
"{_ 	c #B24601",
"]_ 	c #6F1103",
"^_ 	c #2D0103",
"/_ 	c #2D0104",
"(_ 	c #2A0104",
"__ 	c #2C0205",
":_ 	c #3E0706",
"<_ 	c #7C3E18",
"[_ 	c #91501D",
"}_ 	c #85481A",
"|_ 	c #583413",
"1_ 	c #4D1F0D",
"2_ 	c #C4983D",
"3_ 	c #E4B44D",
"4_ 	c #E2B04B",
"5_ 	c #C9903C",
"6_ 	c #975E25",
"7_ 	c #8E5623",
"8_ 	c #B78237",
"9_ 	c #E4BC56",
"0_ 	c #EDCA5D",
"a_ 	c #D8AD4D",
"b_ 	c #9B6D2F",
"c_ 	c #411E0C",
"d_ 	c #9E6D30",
"e_ 	c #875626",
"f_ 	c #A78B41",
"g_ 	c #C7A54D",
"h_ 	c #C79846",
"i_ 	c #B8843A",
"j_ 	c #4F2812",
"k_ 	c #471A0F",
"l_ 	c #3D160C",
"m_ 	c #764320",
"n_ 	c #99622C",
"o_ 	c #6C3E1C",
"p_ 	c #41130D",
"q_ 	c #4B1C10",
"r_ 	c #47180E",
"s_ 	c #3E170C",
"t_ 	c #41160C",
"u_ 	c #220105",
"v_ 	c #2C0507",
"w_ 	c #2C0408",
"x_ 	c #1F0106",
"y_ 	c #190104",
"z_ 	c #190105",
"A_ 	c #2F0608",
"B_ 	c #270308",
"C_ 	c #2F0909",
"D_ 	c #320A0B",
"E_ 	c #340C0B",
"F_ 	c #2D0609",
"G_ 	c #3F170F",
"H_ 	c #451910",
"I_ 	c #4A1E11",
"J_ 	c #643A1B",
"K_ 	c #AC7C38",
"L_ 	c #B9863B",
"M_ 	c #592C17",
"N_ 	c #4A1D10",
"O_ 	c #5C2715",
"P_ 	c #CFB958",
"Q_ 	c #E3BA54",
"R_ 	c #D5AD4B",
"S_ 	c #5E3D18",
"T_ 	c #A86F33",
"U_ 	c #A97633",
"V_ 	c #D8AB4B",
"W_ 	c #EABF57",
"X_ 	c #D9A649",
"Y_ 	c #C69C49",
"Z_ 	c #7E4D21",
"`_ 	c #84491D",
" : 	c #B88536",
".: 	c #E8B950",
"+: 	c #DFA948",
"@: 	c #C49137",
"#: 	c #461C0A",
"$: 	c #3A0606",
"%: 	c #3A0304",
"&: 	c #3C0204",
"*: 	c #3D0203",
"=: 	c #7F0C00",
"-: 	c #7E0C00",
";: 	c #861901",
">: 	c #CF5101",
",: 	c #AF3D01",
"': 	c #AB2701",
"): 	c #931900",
"!: 	c #B31A00",
"~: 	c #B91D00",
"{: 	c #780900",
"]: 	c #750800",
"^: 	c #780800",
"/: 	c #520201",
"(: 	c #610301",
"_: 	c #C51F00",
":: 	c #B71800",
"<: 	c #CD2400",
"[: 	c #F57000",
"}: 	c #F98900",
"|: 	c #FBA600",
"1: 	c #FF8300",
"2: 	c #FEA100",
"3: 	c #FECC03",
"4: 	c #FED70B",
"5: 	c #FE7600",
"6: 	c #FF7F00",
"7: 	c #FF7200",
"8: 	c #FE8600",
"9: 	c #FC6300",
"0: 	c #F24700",
"a: 	c #F34B00",
"b: 	c #DF4800",
"c: 	c #791000",
"d: 	c #A22F00",
"e: 	c #8D1C01",
"f: 	c #5E0501",
"g: 	c #470202",
"h: 	c #560202",
"i: 	c #4E0102",
"j: 	c #550301",
"k: 	c #6A0701",
"l: 	c #670B01",
"m: 	c #601301",
"n: 	c #2C0103",
"o: 	c #220003",
"p: 	c #2A0004",
"q: 	c #380204",
"r: 	c #540703",
"s: 	c #5A0F06",
"t: 	c #5A230D",
"u: 	c #9C5922",
"v: 	c #CF8E35",
"w: 	c #DA9E3D",
"x: 	c #C18D3A",
"y: 	c #48220D",
"z: 	c #9B652C",
"A: 	c #A66D2E",
"B: 	c #D4A547",
"C: 	c #DBA644",
"D: 	c #C08738",
"E: 	c #7A481E",
"F: 	c #A87331",
"G: 	c #C49341",
"H: 	c #D4A247",
"I: 	c #B08137",
"J: 	c #723D1C",
"K: 	c #3E130C",
"L: 	c #3B130B",
"M: 	c #855B27",
"N: 	c #B27E39",
"O: 	c #C89342",
"P: 	c #97642D",
"Q: 	c #68351A",
"R: 	c #320F09",
"S: 	c #3C0F0C",
"T: 	c #3B150E",
"U: 	c #562813",
"V: 	c #260206",
"W: 	c #170103",
"X: 	c #130102",
"Y: 	c #130103",
"Z: 	c #1B0106",
"`: 	c #2B0509",
" < 	c #2D0409",
".< 	c #280308",
"+< 	c #2D070A",
"@< 	c #260207",
"#< 	c #290308",
"$< 	c #290509",
"%< 	c #2F0A0A",
"&< 	c #40160F",
"*< 	c #2D080A",
"=< 	c #461E11",
"-< 	c #613119",
";< 	c #60321A",
">< 	c #37120D",
",< 	c #360C0B",
"'< 	c #461B10",
")< 	c #BC8D3E",
"!< 	c #A16D2E",
"~< 	c #895524",
"{< 	c #572D15",
"]< 	c #935A29",
"^< 	c #AE7C35",
"/< 	c #D5A146",
"(< 	c #D39F46",
"_< 	c #945E2A",
":< 	c #4B230F",
"<< 	c #5B3015",
"[< 	c #9A662C",
"}< 	c #CC9740",
"|< 	c #E1AE49",
"1< 	c #BF8C38",
"2< 	c #7A481B",
"3< 	c #2F0305",
"4< 	c #400505",
"5< 	c #4E0603",
"6< 	c #3E0404",
"7< 	c #600602",
"8< 	c #670701",
"9< 	c #690F01",
"0< 	c #5B0801",
"a< 	c #710700",
"b< 	c #740A00",
"c< 	c #8A1100",
"d< 	c #890E00",
"e< 	c #660901",
"f< 	c #540400",
"g< 	c #770601",
"h< 	c #6F0600",
"i< 	c #7B0800",
"j< 	c #B01400",
"k< 	c #BC1900",
"l< 	c #DA3400",
"m< 	c #B22300",
"n< 	c #F44600",
"o< 	c #FB6700",
"p< 	c #FC9D00",
"q< 	c #FFA700",
"r< 	c #FD7900",
"s< 	c #FA5100",
"t< 	c #FD9300",
"u< 	c #FF9900",
"v< 	c #FF6A00",
"w< 	c #F83C00",
"x< 	c #F73C00",
"y< 	c #ED3600",
"z< 	c #E04A00",
"A< 	c #BD3700",
"B< 	c #BB3700",
"C< 	c #E45400",
"D< 	c #D83A00",
"E< 	c #AF1C00",
"F< 	c #820A01",
"G< 	c #5D0501",
"H< 	c #390103",
"I< 	c #440304",
"J< 	c #390203",
"K< 	c #480403",
"L< 	c #320203",
"M< 	c #230102",
"N< 	c #330103",
"O< 	c #320003",
"P< 	c #2D0004",
"Q< 	c #2F0104",
"R< 	c #570703",
"S< 	c #530A05",
"T< 	c #45170B",
"U< 	c #7D4318",
"V< 	c #D29A3A",
"W< 	c #D59D3D",
"X< 	c #B1933F",
"Y< 	c #70441C",
"Z< 	c #723D1B",
"`< 	c #90672E",
" [ 	c #B19342",
".[ 	c #EBCE5E",
"+[ 	c #F0CD5B",
"@[ 	c #D0A044",
"#[ 	c #6D3E1A",
"$[ 	c #582C12",
"%[ 	c #7A4C22",
"&[ 	c #BC873B",
"*[ 	c #A57432",
"=[ 	c #804B23",
"-[ 	c #320B0A",
";[ 	c #6B421D",
">[ 	c #764A21",
",[ 	c #AD7A38",
"'[ 	c #AF7D39",
")[ 	c #6E411E",
"![ 	c #43150D",
"~[ 	c #290307",
"{[ 	c #340909",
"][ 	c #3B0E0B",
"^[ 	c #32090A",
"/[ 	c #300B09",
"([ 	c #3F180E",
"_[ 	c #44190E",
":[ 	c #3A0F0B",
"<[ 	c #360D0B",
"[[ 	c #280306",
"}[ 	c #270206",
"|[ 	c #230105",
"1[ 	c #240105",
"2[ 	c #230304",
"3[ 	c #1D0306",
"4[ 	c #270508",
"5[ 	c #310709",
"6[ 	c #2E0609",
"7[ 	c #2B0508",
"8[ 	c #2B0308",
"9[ 	c #2A0307",
"0[ 	c #320C0A",
"a[ 	c #360E0B",
"b[ 	c #3E120D",
"c[ 	c #4F2213",
"d[ 	c #4C2013",
"e[ 	c #330D0B",
"f[ 	c #330A0A",
"g[ 	c #401B0F",
"h[ 	c #7B4722",
"i[ 	c #A67232",
"j[ 	c #8B5A26",
"k[ 	c #7B4620",
"l[ 	c #542713",
"m[ 	c #8C5627",
"n[ 	c #B9873A",
"o[ 	c #CC9640",
"p[ 	c #AF7B34",
"q[ 	c #4D1E11",
"r[ 	c #390E09",
"s[ 	c #71461E",
"t[ 	c #BA883B",
"u[ 	c #E3B44F",
"v[ 	c #D39D42",
"w[ 	c #B17D32",
"x[ 	c #542610",
"y[ 	c #370305",
"z[ 	c #4C0603",
"A[ 	c #560703",
"B[ 	c #3B0304",
"C[ 	c #410403",
"D[ 	c #5B0502",
"E[ 	c #700B01",
"F[ 	c #9F2700",
"G[ 	c #B63900",
"H[ 	c #8C2000",
"I[ 	c #780C00",
"J[ 	c #9B1D00",
"K[ 	c #9B1C00",
"L[ 	c #6C1701",
"M[ 	c #4F0501",
"N[ 	c #750700",
"O[ 	c #860B00",
"P[ 	c #9E0E00",
"Q[ 	c #D53200",
"R[ 	c #811700",
"S[ 	c #951901",
"T[ 	c #E02E00",
"U[ 	c #EC4400",
"V[ 	c #F88B00",
"W[ 	c #FE9300",
"X[ 	c #FD5100",
"Y[ 	c #FC7B00",
"Z[ 	c #FED404",
"`[ 	c #FDC202",
" } 	c #FD6E00",
".} 	c #F73700",
"+} 	c #E92A00",
"@} 	c #C91F00",
"#} 	c #B91B00",
"$} 	c #C53500",
"%} 	c #D13700",
"&} 	c #C92C00",
"*} 	c #BF1E00",
"=} 	c #A31400",
"-} 	c #7F0C01",
";} 	c #470404",
">} 	c #4A0404",
",} 	c #300203",
"'} 	c #210004",
")} 	c #1F0004",
"!} 	c #5E0602",
"~} 	c #520302",
"{} 	c #440203",
"]} 	c #360104",
"^} 	c #560603",
"/} 	c #550603",
"(} 	c #4F1709",
"_} 	c #BF9D3C",
":} 	c #C4953A",
"<} 	c #EBD05E",
"[} 	c #97692E",
"}} 	c #623B1A",
"|} 	c #3A0E09",
"1} 	c #5F3418",
"2} 	c #CDA84B",
"3} 	c #F4D15F",
"4} 	c #EEC95B",
"5} 	c #A0702F",
"6} 	c #522C12",
"7} 	c #4A200E",
"8} 	c #895325",
"9} 	c #935C27",
"0} 	c #985F2B",
"a} 	c #854F24",
"b} 	c #42170E",
"c} 	c #300608",
"d} 	c #36120B",
"e} 	c #461F10",
"f} 	c #3F170E",
"g} 	c #48190F",
"h} 	c #340808",
"i} 	c #330809",
"j} 	c #200005",
"k} 	c #1E0005",
"l} 	c #1F0204",
"m} 	c #210203",
"n} 	c #290409",
"o} 	c #2D050A",
"p} 	c #2F0508",
"q} 	c #2A0509",
"r} 	c #3D140D",
"s} 	c #3D140E",
"t} 	c #37110C",
"u} 	c #603017",
"v} 	c #5C3016",
"w} 	c #693A1B",
"x} 	c #552814",
"y} 	c #592D16",
"z} 	c #975F29",
"A} 	c #AF7934",
"B} 	c #A97632",
"C} 	c #966A2E",
"D} 	c #3F100B",
"E} 	c #3B0F0B",
"F} 	c #A57835",
"G} 	c #CFA74E",
"H} 	c #C99340",
"I} 	c #9F7531",
"J} 	c #491407",
"K} 	c #4D0502",
"L} 	c #560602",
"M} 	c #600A03",
"N} 	c #6F0F01",
"O} 	c #6E0A01",
"P} 	c #580602",
"Q} 	c #5D0702",
"R} 	c #9B1801",
"S} 	c #C62F00",
"T} 	c #F15C00",
"U} 	c #CD4500",
"V} 	c #B82F00",
"W} 	c #CA3F00",
"X} 	c #CF3E00",
"Y} 	c #7B1D01",
"Z} 	c #5C0802",
"`} 	c #510402",
" | 	c #700700",
".| 	c #830A00",
"+| 	c #AE1700",
"@| 	c #B21D00",
"#| 	c #D35001",
"$| 	c #C94601",
"%| 	c #E33400",
"&| 	c #DB2300",
"*| 	c #C91D00",
"=| 	c #E33000",
"-| 	c #FB5500",
";| 	c #F94A00",
">| 	c #FCB101",
",| 	c #FED402",
"'| 	c #FEAF01",
")| 	c #F85100",
"!| 	c #F63700",
"~| 	c #F03300",
"{| 	c #E12D00",
"]| 	c #CF2500",
"^| 	c #BE1C00",
"/| 	c #C62200",
"(| 	c #CA2B00",
"_| 	c #CA2A00",
":| 	c #AC1800",
"<| 	c #951301",
"[| 	c #6C1404",
"}| 	c #420604",
"|| 	c #450503",
"1| 	c #360203",
"2| 	c #240003",
"3| 	c #410602",
"4| 	c #A01D01",
"5| 	c #BD2401",
"6| 	c #A71D01",
"7| 	c #6B0B02",
"8| 	c #440303",
"9| 	c #6C0802",
"0| 	c #6B0B01",
"a| 	c #610802",
"b| 	c #7B2204",
"c| 	c #4F1303",
"d| 	c #603410",
"e| 	c #C3A047",
"f| 	c #D9AB4C",
"g| 	c #A47733",
"h| 	c #683B19",
"i| 	c #553817",
"j| 	c #957B3A",
"k| 	c #D5BE5D",
"l| 	c #F2D567",
"m| 	c #DDAD4F",
"n| 	c #7C5324",
"o| 	c #40140B",
"p| 	c #552513",
"q| 	c #713E1C",
"r| 	c #723E1D",
"s| 	c #4F1F12",
"t| 	c #300609",
"u| 	c #340B0B",
"v| 	c #31090A",
"w| 	c #370D0B",
"x| 	c #2B0407",
"y| 	c #2C0407",
"z| 	c #290205",
"A| 	c #2D0306",
"B| 	c #300306",
"C| 	c #250103",
"D| 	c #160002",
"E| 	c #180202",
"F| 	c #220305",
"G| 	c #340608",
"H| 	c #380909",
"I| 	c #370809",
"J| 	c #320809",
"K| 	c #522B12",
"L| 	c #966128",
"M| 	c #683C1B",
"N| 	c #4E2211",
"O| 	c #47190F",
"P| 	c #582613",
"Q| 	c #793F1D",
"R| 	c #925425",
"S| 	c #A2622A",
"T| 	c #A36228",
"U| 	c #67210E",
"V| 	c #4E0704",
"W| 	c #680902",
"X| 	c #740F02",
"Y| 	c #A92100",
"Z| 	c #C53601",
"`| 	c #7B1900",
" 1 	c #A01E01",
".1 	c #DD3A00",
"+1 	c #E04000",
"@1 	c #EE4400",
"#1 	c #E54100",
"$1 	c #EE5400",
"%1 	c #ED6900",
"&1 	c #7B2401",
"*1 	c #4F0403",
"=1 	c #730700",
"-1 	c #800B00",
";1 	c #A81700",
">1 	c #D42900",
",1 	c #E94600",
"'1 	c #F54F00",
")1 	c #F44400",
"!1 	c #D01C00",
"~1 	c #AB1200",
"{1 	c #F93B00",
"]1 	c #FA3D00",
"^1 	c #F86A00",
"/1 	c #FED101",
"(1 	c #FB9B00",
"_1 	c #EE5100",
":1 	c #F63E00",
"<1 	c #EE3600",
"[1 	c #DF3400",
"}1 	c #D83400",
"|1 	c #CA2D00",
"11 	c #D13200",
"21 	c #B72A00",
"31 	c #A41D00",
"41 	c #901200",
"51 	c #911500",
"61 	c #591204",
"71 	c #3B0403",
"81 	c #690A03",
"91 	c #720701",
"01 	c #5E0802",
"a1 	c #781401",
"b1 	c #DB3700",
"c1 	c #E63000",
"d1 	c #CF2700",
"e1 	c #821303",
"f1 	c #3D0303",
"g1 	c #740902",
"h1 	c #BA2601",
"i1 	c #D33D00",
"j1 	c #D14701",
"k1 	c #992F02",
"l1 	c #410804",
"m1 	c #5F3B17",
"n1 	c #E0B752",
"o1 	c #BE8A3C",
"p1 	c #98632A",
"q1 	c #300907",
"r1 	c #593918",
"s1 	c #B78940",
"t1 	c #A87232",
"u1 	c #6E3F1B",
"v1 	c #40150B",
"w1 	c #330908",
"x1 	c #3D110C",
"y1 	c #512112",
"z1 	c #43140D",
"A1 	c #350808",
"B1 	c #2B0307",
"C1 	c #2C0206",
"D1 	c #280105",
"E1 	c #220102",
"F1 	c #250406",
"G1 	c #330407",
"H1 	c #370508",
"I1 	c #3B0909",
"J1 	c #3B0808",
"K1 	c #270207",
"L1 	c #441A0E",
"M1 	c #42160D",
"N1 	c #33080A",
"O1 	c #300908",
"P1 	c #5B2714",
"Q1 	c #74381A",
"R1 	c #7D3F1C",
"S1 	c #7D3E1C",
"T1 	c #4F1B0B",
"U1 	c #540904",
"V1 	c #6E0A02",
"W1 	c #810D01",
"X1 	c #7B0F01",
"Y1 	c #C32800",
"Z1 	c #901700",
"`1 	c #8C0F00",
" 2 	c #AE2400",
".2 	c #C22900",
"+2 	c #B81C00",
"@2 	c #D93500",
"#2 	c #F26400",
"$2 	c #F37700",
"%2 	c #B04000",
"&2 	c #500501",
"*2 	c #420303",
"=2 	c #5F0902",
"-2 	c #700801",
";2 	c #960F00",
">2 	c #C92300",
",2 	c #EC4A00",
"'2 	c #F45C00",
")2 	c #E24900",
"!2 	c #8D1401",
"~2 	c #D82500",
"{2 	c #F13500",
"]2 	c #F43500",
"^2 	c #E82F00",
"/2 	c #EF5701",
"(2 	c #F14700",
"_2 	c #EE3D00",
":2 	c #F14300",
"<2 	c #CE3200",
"[2 	c #8D0E00",
"}2 	c #951B00",
"|2 	c #6F1002",
"12 	c #BF2300",
"22 	c #9C1A01",
"32 	c #590502",
"42 	c #820F00",
"52 	c #6F1B03",
"62 	c #8A1602",
"72 	c #AA1500",
"82 	c #970E00",
"92 	c #B32400",
"02 	c #D63700",
"a2 	c #BF2601",
"b2 	c #B71E01",
"c2 	c #680802",
"d2 	c #781302",
"e2 	c #CB3401",
"f2 	c #F75800",
"g2 	c #F76B02",
"h2 	c #C14704",
"i2 	c #6E1E06",
"j2 	c #3F1307",
"k2 	c #653F19",
"l2 	c #95682C",
"m2 	c #683016",
"n2 	c #5D2511",
"o2 	c #3C0F09",
"p2 	c #2F0907",
"q2 	c #6F421E",
"r2 	c #805123",
"s2 	c #6A3C1A",
"t2 	c #3B150A",
"u2 	c #310507",
"v2 	c #2E0507",
"w2 	c #280207",
"x2 	c #2E0408",
"y2 	c #300407",
"z2 	c #2F0408",
"A2 	c #310407",
"B2 	c #320507",
"C2 	c #2E0307",
"D2 	c #250104",
"E2 	c #250204",
"F2 	c #200304",
"G2 	c #2D0405",
"H2 	c #3F0606",
"I2 	c #440807",
"J2 	c #410909",
"K2 	c #400909",
"L2 	c #330B09",
"M2 	c #5D2D17",
"N2 	c #3E140C",
"O2 	c #491B0E",
"P2 	c #4D1C0F",
"Q2 	c #5C2713",
"R2 	c #6D3117",
"S2 	c #672D13",
"T2 	c #48180B",
"U2 	c #590B04",
"V2 	c #850F01",
"W2 	c #910F00",
"X2 	c #880D00",
"Y2 	c #660601",
"Z2 	c #8A1501",
"`2 	c #B61D00",
" 3 	c #D64000",
".3 	c #C03C00",
"+3 	c #951800",
"@3 	c #AB1D00",
"#3 	c #B31600",
"$3 	c #E14A00",
"%3 	c #F96700",
"&3 	c #E45D00",
"*3 	c #A02700",
"=3 	c #720B00",
"-3 	c #590700",
";3 	c #600B01",
">3 	c #620501",
",3 	c #680500",
"'3 	c #900900",
")3 	c #AC1300",
"!3 	c #C43400",
"~3 	c #C73E00",
"{3 	c #A82800",
"]3 	c #D52500",
"^3 	c #F44F00",
"/3 	c #FC5600",
"(3 	c #EF2D00",
"_3 	c #DE1F00",
":3 	c #E92F00",
"<3 	c #E62F00",
"[3 	c #B61500",
"}3 	c #9B0E00",
"|3 	c #961000",
"13 	c #9C1300",
"23 	c #590702",
"33 	c #AC1A00",
"43 	c #8F1401",
"53 	c #5A0502",
"63 	c #4C0202",
"73 	c #580A02",
"83 	c #470B02",
"93 	c #9E2401",
"03 	c #BC2100",
"a3 	c #C83900",
"b3 	c #E84E00",
"c3 	c #F05200",
"d3 	c #B42100",
"e3 	c #6E0F01",
"f3 	c #670C02",
"g3 	c #4B0302",
"h3 	c #9C1B00",
"i3 	c #D03E00",
"j3 	c #E53D00",
"k3 	c #E03F00",
"l3 	c #7F3102",
"m3 	c #7A2403",
"n3 	c #6C1906",
"o3 	c #50130B",
"p3 	c #310906",
"q3 	c #82431D",
"r3 	c #945927",
"s3 	c #82461F",
"t3 	c #743E1B",
"u3 	c #602E14",
"v3 	c #45150C",
"w3 	c #44160C",
"x3 	c #2D0406",
"y3 	c #2A0205",
"z3 	c #2B0205",
"A3 	c #2B0306",
"B3 	c #260106",
"C3 	c #250106",
"D3 	c #2A0207",
"E3 	c #340506",
"F3 	c #360607",
"G3 	c #320406",
"H3 	c #310306",
"I3 	c #300406",
"J3 	c #2A0206",
"K3 	c #280206",
"L3 	c #230004",
"M3 	c #240102",
"N3 	c #1D0303",
"O3 	c #1A0202",
"P3 	c #2C0404",
"Q3 	c #2A0203",
"R3 	c #2D0304",
"S3 	c #3C0406",
"T3 	c #340508",
"U3 	c #350408",
"V3 	c #2D0307",
"W3 	c #250206",
"X3 	c #2E0407",
"Y3 	c #2F0407",
"Z3 	c #320608",
"`3 	c #55200F",
" 4 	c #48160A",
".4 	c #330306",
"+4 	c #2D0105",
"@4 	c #510804",
"#4 	c #7B0F02",
"$4 	c #7E0A01",
"%4 	c #750901",
"&4 	c #4F0302",
"*4 	c #650801",
"=4 	c #C42500",
"-4 	c #E94000",
";4 	c #C24101",
">4 	c #840A00",
",4 	c #760B00",
"'4 	c #AB1400",
")4 	c #EA5900",
"!4 	c #F88800",
"~4 	c #FD9F00",
"{4 	c #F88000",
"]4 	c #CE2800",
"^4 	c #CF3100",
"/4 	c #690500",
"(4 	c #6D0600",
"_4 	c #980C00",
":4 	c #A81300",
"<4 	c #9E1500",
"[4 	c #8E0E00",
"}4 	c #890A00",
"|4 	c #980F00",
"14 	c #D02300",
"24 	c #F34C00",
"34 	c #F85000",
"44 	c #EC3100",
"54 	c #D71B00",
"64 	c #EB2700",
"74 	c #DB2500",
"84 	c #940F00",
"94 	c #9A0B00",
"04 	c #9D0F00",
"a4 	c #A31100",
"b4 	c #A51000",
"c4 	c #550503",
"d4 	c #9A1700",
"e4 	c #6D0C01",
"f4 	c #430203",
"g4 	c #330102",
"h4 	c #420301",
"i4 	c #AA4902",
"j4 	c #B17301",
"k4 	c #CB5001",
"l4 	c #E03800",
"m4 	c #F97200",
"n4 	c #FF8D00",
"o4 	c #FA7A00",
"p4 	c #B92A00",
"q4 	c #720C01",
"r4 	c #410302",
"s4 	c #951500",
"t4 	c #CE4200",
"u4 	c #D43700",
"v4 	c #C23400",
"w4 	c #4C0402",
"x4 	c #570704",
"y4 	c #5A0C06",
"z4 	c #4D1009",
"A4 	c #330707",
"B4 	c #663015",
"C4 	c #8E5124",
"D4 	c #7A3F1C",
"E4 	c #5F2813",
"F4 	c #44140C",
"G4 	c #3D0F0B",
"H4 	c #290105",
"I4 	c #260105",
"J4 	c #280106",
"K4 	c #270105",
"L4 	c #220005",
"M4 	c #2C0307",
"N4 	c #310406",
"O4 	c #2F0206",
"P4 	c #2C0105",
"Q4 	c #2F0105",
"R4 	c #2D0206",
"S4 	c #280205",
"T4 	c #1C0204",
"U4 	c #220404",
"V4 	c #1D0404",
"W4 	c #220706",
"X4 	c #1D0403",
"Y4 	c #260303",
"Z4 	c #250304",
"`4 	c #270304",
" 5 	c #2C0306",
".5 	c #2C0305",
"+5 	c #2E0206",
"@5 	c #2E0308",
"#5 	c #2D0308",
"$5 	c #2D0408",
"%5 	c #2F0507",
"&5 	c #230106",
"*5 	c #420E09",
"=5 	c #3C0A08",
"-5 	c #360406",
";5 	c #380306",
">5 	c #460404",
",5 	c #4A0403",
"'5 	c #4D0303",
")5 	c #560402",
"!5 	c #550502",
"~5 	c #BB2001",
"{5 	c #D43601",
"]5 	c #A52701",
"^5 	c #830B00",
"/5 	c #7E0A00",
"(5 	c #A31300",
"_5 	c #C72900",
":5 	c #DF7E00",
"<5 	c #FD9A00",
"[5 	c #FB8F00",
"}5 	c #DF3500",
"|5 	c #ED6600",
"15 	c #DA5A00",
"25 	c #791200",
"35 	c #7A0900",
"45 	c #910E00",
"55 	c #6B0501",
"65 	c #880C01",
"75 	c #D92600",
"85 	c #F23B00",
"95 	c #F23700",
"05 	c #E72E00",
"a5 	c #CA1700",
"b5 	c #D02600",
"c5 	c #A00F00",
"d5 	c #A00C00",
"e5 	c #A30F00",
"f5 	c #AE1500",
"g5 	c #A71201",
"h5 	c #7A1001",
"i5 	c #690B01",
"j5 	c #962201",
"k5 	c #C43100",
"l5 	c #BC3F00",
"m5 	c #F09F00",
"n5 	c #F99600",
"o5 	c #F45600",
"p5 	c #ED3300",
"q5 	c #F35E00",
"r5 	c #FE8B00",
"s5 	c #FA7700",
"t5 	c #CC2F00",
"u5 	c #8E1001",
"v5 	c #5C0703",
"w5 	c #A72200",
"x5 	c #831101",
"y5 	c #4F0503",
"z5 	c #4C0604",
"A5 	c #370808",
"B5 	c #5B2812",
"C5 	c #632D14",
"D5 	c #4D1A0D",
"E5 	c #370A09",
"F5 	c #340507",
"G5 	c #2E0306",
"H5 	c #290106",
"I5 	c #300205",
"J5 	c #280104",
"K5 	c #200003",
"L5 	c #180002",
"M5 	c #1B0103",
"N5 	c #180102",
"O5 	c #510701",
"P5 	c #450402",
"Q5 	c #240505",
"R5 	c #480503",
"S5 	c #3B0301",
"T5 	c #2E0303",
"U5 	c #320505",
"V5 	c #270204",
"W5 	c #2F0307",
"X5 	c #2D0207",
"Y5 	c #320407",
"Z5 	c #270106",
"`5 	c #240005",
" 6 	c #270005",
".6 	c #2B0106",
"+6 	c #3D0305",
"@6 	c #440504",
"#6 	c #440404",
"$6 	c #4F0402",
"%6 	c #500402",
"&6 	c #740A01",
"*6 	c #5F0301",
"=6 	c #5B0301",
"-6 	c #8F0E00",
";6 	c #C01D00",
">6 	c #CD6800",
",6 	c #FB9300",
"'6 	c #F39200",
")6 	c #E13200",
"!6 	c #F79200",
"~6 	c #E05F00",
"{6 	c #8F1100",
"]6 	c #720900",
"^6 	c #4E0201",
"/6 	c #540302",
"(6 	c #850902",
"_6 	c #C01800",
":6 	c #E43700",
"<6 	c #EE4000",
"[6 	c #EC3A00",
"}6 	c #D42000",
"|6 	c #950B00",
"16 	c #8E0900",
"26 	c #960B00",
"36 	c #9F1000",
"46 	c #A01100",
"56 	c #960F02",
"66 	c #390204",
"76 	c #3A0102",
"86 	c #B72900",
"96 	c #EA4C00",
"06 	c #FBA700",
"a6 	c #FE8300",
"b6 	c #FC5C00",
"c6 	c #F03800",
"d6 	c #F33D00",
"e6 	c #FB7000",
"f6 	c #F26200",
"g6 	c #941901",
"h6 	c #720B02",
"i6 	c #490403",
"j6 	c #4B0203",
"k6 	c #770600",
"l6 	c #941100",
"m6 	c #5F0502",
"n6 	c #4D0403",
"o6 	c #570503",
"p6 	c #510403",
"q6 	c #470403",
"r6 	c #300206",
"s6 	c #350A08",
"t6 	c #320607",
"u6 	c #340606",
"v6 	c #330507",
"w6 	c #3F0807",
"x6 	c #3C0707",
"y6 	c #330406",
"z6 	c #2A0105",
"A6 	c #2E0205",
"B6 	c #260205",
"C6 	c #220202",
"D6 	c #440402",
"E6 	c #5E0903",
"F6 	c #740B04",
"G6 	c #400403",
"H6 	c #220204",
"I6 	c #190405",
"J6 	c #460504",
"K6 	c #780C02",
"L6 	c #6D0801",
"M6 	c #500602",
"N6 	c #440703",
"O6 	c #350406",
"P6 	c #360306",
"Q6 	c #2E0105",
"R6 	c #320307",
"S6 	c #340708",
"T6 	c #260005",
"U6 	c #250005",
"V6 	c #280005",
"W6 	c #420304",
"X6 	c #370104",
"Y6 	c #570401",
"Z6 	c #720600",
"`6 	c #8A0F00",
" 7 	c #BC4200",
".7 	c #F05900",
"+7 	c #E06800",
"@7 	c #CB3700",
"#7 	c #FA9F01",
"$7 	c #FCB401",
"%7 	c #E15500",
"&7 	c #AF1300",
"*7 	c #B82100",
"=7 	c #C13400",
"-7 	c #B03D02",
";7 	c #790D01",
">7 	c #6E0601",
",7 	c #B01600",
"'7 	c #CA2400",
")7 	c #DB3400",
"!7 	c #D82B00",
"~7 	c #820800",
"{7 	c #730601",
"]7 	c #A81100",
"^7 	c #9A1400",
"/7 	c #760901",
"(7 	c #5E0603",
"_7 	c #440103",
":7 	c #650C01",
"<7 	c #832101",
"[7 	c #D15200",
"}7 	c #FB6D00",
"|7 	c #FE8100",
"17 	c #FDA400",
"27 	c #FA8300",
"37 	c #FA5B00",
"47 	c #FC7400",
"57 	c #FD6100",
"67 	c #E74F00",
"77 	c #C52800",
"87 	c #710C01",
"97 	c #430103",
"07 	c #830B01",
"a7 	c #7A0A00",
"b7 	c #3D0204",
"c7 	c #500303",
"d7 	c #530504",
"e7 	c #360205",
"f7 	c #310307",
"g7 	c #2D0205",
"h7 	c #220004",
"i7 	c #1F0002",
"j7 	c #2A0202",
"k7 	c #300303",
"l7 	c #2F0301",
"m7 	c #760C02",
"n7 	c #200303",
"o7 	c #7C0D02",
"p7 	c #B21803",
"q7 	c #880B00",
"r7 	c #770A00",
"s7 	c #8F0E01",
"t7 	c #931103",
"u7 	c #2B0204",
"v7 	c #380407",
"w7 	c #3C0507",
"x7 	c #410506",
"y7 	c #390306",
"z7 	c #370506",
"A7 	c #410807",
"B7 	c #380607",
"C7 	c #340406",
"D7 	c #290005",
"E7 	c #290004",
"F7 	c #320104",
"G7 	c #3B0204",
"H7 	c #360003",
"I7 	c #590301",
"J7 	c #6C0401",
"K7 	c #790700",
"L7 	c #9C0D00",
"M7 	c #880800",
"N7 	c #A20F00",
"O7 	c #C92800",
"P7 	c #C13000",
"Q7 	c #DF5D00",
"R7 	c #F76800",
"S7 	c #FE9800",
"T7 	c #F67D00",
"U7 	c #E74100",
"V7 	c #F64E00",
"W7 	c #E64D00",
"X7 	c #BF2A00",
"Y7 	c #A51500",
"Z7 	c #4F0301",
"`7 	c #510301",
" 8 	c #5E0401",
".8 	c #920C00",
"+8 	c #A20D00",
"@8 	c #A00E00",
"#8 	c #890901",
"$8 	c #9A0E00",
"%8 	c #9A0F00",
"&8 	c #930F00",
"*8 	c #720A01",
"=8 	c #671B02",
"-8 	c #902E01",
";8 	c #AD4200",
">8 	c #C94500",
",8 	c #F09801",
"'8 	c #FFB500",
")8 	c #FEBA00",
"!8 	c #E46C00",
"~8 	c #D76300",
"{8 	c #EF5000",
"]8 	c #F85D00",
"^8 	c #F15E00",
"/8 	c #922F01",
"(8 	c #5E0701",
"_8 	c #300002",
":8 	c #2D0003",
"<8 	c #340104",
"[8 	c #580401",
"}8 	c #7E0B01",
"|8 	c #300105",
"18 	c #3B0203",
"28 	c #310004",
"38 	c #2F0004",
"48 	c #370204",
"58 	c #320206",
"68 	c #330205",
"78 	c #3C0405",
"88 	c #330204",
"98 	c #260403",
"08 	c #230305",
"a8 	c #780C03",
"b8 	c #700A01",
"c8 	c #6E0701",
"d8 	c #9D1700",
"e8 	c #931902",
"f8 	c #470804",
"g8 	c #250403",
"h8 	c #6B0802",
"i8 	c #8A0C00",
"j8 	c #C61600",
"k8 	c #B71400",
"l8 	c #A10F00",
"m8 	c #660401",
"n8 	c #6D0C03",
"o8 	c #220103",
"p8 	c #370205",
"q8 	c #340206",
"r8 	c #310205",
"s8 	c #340305",
"t8 	c #210006",
"u8 	c #3D0506",
"v8 	c #350405",
"w8 	c #270004",
"x8 	c #250004",
"y8 	c #2C0003",
"z8 	c #2B0003",
"A8 	c #530301",
"B8 	c #790600",
"C8 	c #6B0401",
"D8 	c #7C0800",
"E8 	c #A01000",
"F8 	c #900B00",
"G8 	c #C21D00",
"H8 	c #B61C00",
"I8 	c #740900",
"J8 	c #831400",
"K8 	c #DB4C00",
"L8 	c #FD8300",
"M8 	c #FE8500",
"N8 	c #FD5600",
"O8 	c #FB5100",
"P8 	c #FB7B00",
"Q8 	c #E74B00",
"R8 	c #CB2700",
"S8 	c #6D1400",
"T8 	c #600F01",
"U8 	c #6B0400",
"V8 	c #680501",
"W8 	c #700A00",
"X8 	c #9D1A00",
"Y8 	c #BD2700",
"Z8 	c #B55A00",
"`8 	c #F99500",
" 9 	c #FB8E00",
".9 	c #FC9A00",
"+9 	c #FDB600",
"@9 	c #FFBB00",
"#9 	c #FBA500",
"$9 	c #BA2C00",
"%9 	c #8C1000",
"&9 	c #C02C00",
"*9 	c #E04400",
"=9 	c #C74500",
"-9 	c #701901",
";9 	c #380102",
">9 	c #410102",
",9 	c #430202",
"'9 	c #400203",
")9 	c #570402",
"!9 	c #700A02",
"~9 	c #670703",
"{9 	c #350104",
"]9 	c #350204",
"^9 	c #2C0005",
"/9 	c #380205",
"(9 	c #3E0304",
"_9 	c #310105",
":9 	c #280004",
"<9 	c #480404",
"[9 	c #380203",
"}9 	c #350404",
"|9 	c #2E0402",
"19 	c #400301",
"29 	c #550401",
"39 	c #770700",
"49 	c #C21A00",
"59 	c #BC1901",
"69 	c #670B02",
"79 	c #911901",
"89 	c #6C1802",
"99 	c #2F0605",
"09 	c #3C0401",
"a9 	c #3F0200",
"b9 	c #760800",
"c9 	c #A71100",
"d9 	c #8B0900",
"e9 	c #AD0F00",
"f9 	c #B21101",
"g9 	c #7C0600",
"h9 	c #720801",
"i9 	c #830A01",
"j9 	c #670802",
"k9 	c #260101",
"l9 	c #310106",
"m9 	c #3C0305",
"n9 	c #3A0305",
"o9 	c #340205",
"p9 	c #330206",
"q9 	c #310206",
"r9 	c #3B0305",
"s9 	c #230003",
"t9 	c #2E0004",
"u9 	c #300003",
"v9 	c #500302",
"w9 	c #670400",
"x9 	c #870900",
"y9 	c #8D0800",
"z9 	c #A71300",
"A9 	c #A51900",
"B9 	c #6E0800",
"C9 	c #C83F00",
"D9 	c #F26C00",
"E9 	c #FD7500",
"F9 	c #FB6100",
"G9 	c #F85300",
"H9 	c #FE7500",
"I9 	c #F85C00",
"J9 	c #F46700",
"K9 	c #ED6400",
"L9 	c #E35100",
"M9 	c #BD2400",
"N9 	c #990C00",
"O9 	c #820900",
"P9 	c #941700",
"Q9 	c #A81800",
"R9 	c #AA1D00",
"S9 	c #8E1100",
"T9 	c #A31500",
"U9 	c #B82800",
"V9 	c #BC4B00",
"W9 	c #F46F00",
"X9 	c #FE6F00",
"Y9 	c #FE8C00",
"Z9 	c #FE9E00",
"`9 	c #FEB100",
" 0 	c #FA9F00",
".0 	c #8B0A00",
"+0 	c #6E0600",
"@0 	c #610401",
"#0 	c #640401",
"$0 	c #650502",
"%0 	c #570303",
"&0 	c #4A0303",
"*0 	c #3C0203",
"=0 	c #3A0204",
"-0 	c #380104",
";0 	c #300104",
">0 	c #2C0004",
",0 	c #330104",
"'0 	c #660802",
")0 	c #700802",
"!0 	c #780801",
"~0 	c #4B0401",
"{0 	c #4D0602",
"]0 	c #460402",
"^0 	c #520403",
"/0 	c #750D02",
"(0 	c #710E03",
"_0 	c #490500",
":0 	c #4E0601",
"<0 	c #490802",
"[0 	c #911201",
"}0 	c #A11200",
"|0 	c #B51600",
"10 	c #BE1800",
"20 	c #9D1100",
"30 	c #880E00",
"40 	c #350102",
"50 	c #2C0203",
"60 	c #230103",
"70 	c #520500",
"80 	c #780700",
"90 	c #7F0700",
"00 	c #AE1300",
"a0 	c #9B0B00",
"b0 	c #910A00",
"c0 	c #BE1200",
"d0 	c #C51300",
"e0 	c #C21400",
"f0 	c #C81400",
"g0 	c #BC1100",
"h0 	c #AC0F00",
"i0 	c #C61400",
"j0 	c #D22E02",
"k0 	c #D22001",
"l0 	c #820B00",
"m0 	c #550501",
"n0 	c #2D0102",
"o0 	c #2B0005",
"p0 	c #320205",
"q0 	c #230005",
"r0 	c #270003",
"s0 	c #490303",
"t0 	c #620500",
"u0 	c #850700",
"v0 	c #8E0F00",
"w0 	c #961200",
"x0 	c #760700",
"y0 	c #630600",
"z0 	c #C24800",
"A0 	c #EF6400",
"B0 	c #FC7700",
"C0 	c #FF8400",
"D0 	c #FF8000",
"E0 	c #FE5D00",
"F0 	c #FE6C00",
"G0 	c #FB6900",
"H0 	c #F86100",
"I0 	c #D12600",
"J0 	c #B01500",
"K0 	c #C31800",
"L0 	c #9A1600",
"M0 	c #AE1900",
"N0 	c #E45F01",
"O0 	c #DF3F00",
"P0 	c #E73500",
"Q0 	c #FD6900",
"R0 	c #FD6300",
"S0 	c #FE9000",
"T0 	c #FE9D00",
"U0 	c #F77200",
"V0 	c #B21A01",
"W0 	c #A60D00",
"X0 	c #630401",
"Y0 	c #700601",
"Z0 	c #5C0502",
"`0 	c #590302",
" a 	c #610503",
".a 	c #660502",
"+a 	c #700702",
"@a 	c #3A0104",
"#a 	c #310103",
"$a 	c #530402",
"%a 	c #520502",
"&a 	c #430304",
"*a 	c #981101",
"=a 	c #A51200",
"-a 	c #990E00",
";a 	c #8F0A00",
">a 	c #A30D00",
",a 	c #AF0C00",
"'a 	c #AD0B00",
")a 	c #AB0D00",
"!a 	c #CE1600",
"~a 	c #DB1F00",
"{a 	c #C81F00",
"]a 	c #C62000",
"^a 	c #9F1600",
"/a 	c #A61700",
"(a 	c #B61700",
"_a 	c #C31A00",
":a 	c #830C01",
"<a 	c #6E0901",
"[a 	c #2F0203",
"}a 	c #390304",
"|a 	c #510400",
"1a 	c #8D0A00",
"2a 	c #750600",
"3a 	c #530201",
"4a 	c #AF1000",
"5a 	c #C71500",
"6a 	c #BA1700",
"7a 	c #DE2100",
"8a 	c #EC3E00",
"9a 	c #F18402",
"0a 	c #F25001",
"aa 	c #DA2F00",
"ba 	c #A21100",
"ca 	c #C41C01",
"da 	c #850D01",
"ea 	c #600502",
"fa 	c #680602",
"ga 	c #5E0402",
"ha 	c #670602",
"ia 	c #610603",
"ja 	c #470203",
"ka 	c #410304",
"la 	c #2A0005",
"ma 	c #340105",
"na 	c #300004",
"oa 	c #310104",
"pa 	c #760801",
"qa 	c #880C00",
"ra 	c #9B1200",
"sa 	c #890F00",
"ta 	c #630801",
"ua 	c #881E01",
"va 	c #AB2401",
"wa 	c #740800",
"xa 	c #660500",
"ya 	c #7C0E00",
"za 	c #C33700",
"Aa 	c #FC7F00",
"Ba 	c #FC6700",
"Ca 	c #FA4600",
"Da 	c #FD9E00",
"Ea 	c #FEC201",
"Fa 	c #FDA500",
"Ga 	c #D73500",
"Ha 	c #D62600",
"Ia 	c #E02F00",
"Ja 	c #C11900",
"Ka 	c #6A0601",
"La 	c #8A0B00",
"Ma 	c #931000",
"Na 	c #B82900",
"Oa 	c #A91700",
"Pa 	c #D64D00",
"Qa 	c #F59502",
"Ra 	c #F88C00",
"Sa 	c #FE6B00",
"Ta 	c #FDAC00",
"Ua 	c #F0A501",
"Va 	c #CE4100",
"Wa 	c #BA1E00",
"Xa 	c #610501",
"Ya 	c #600401",
"Za 	c #660501",
"`a 	c #5E0200",
" b 	c #6F0501",
".b 	c #720601",
"+b 	c #510203",
"@b 	c #560303",
"#b 	c #6E0702",
"$b 	c #700701",
"%b 	c #4D0304",
"&b 	c #460303",
"*b 	c #370103",
"=b 	c #4B0303",
"-b 	c #540402",
";b 	c #7E1000",
">b 	c #710B01",
",b 	c #9B1300",
"'b 	c #9C0F00",
")b 	c #820600",
"!b 	c #9A0C00",
"~b 	c #A60E00",
"{b 	c #B41300",
"]b 	c #CF1F00",
"^b 	c #E72B00",
"/b 	c #EC3300",
"(b 	c #E63300",
"_b 	c #E13500",
":b 	c #E13E00",
"<b 	c #8C1601",
"[b 	c #580502",
"}b 	c #4D0302",
"|b 	c #360304",
"1b 	c #300603",
"2b 	c #630602",
"3b 	c #770800",
"4b 	c #580501",
"5b 	c #3B0103",
"6b 	c #6F0903",
"7b 	c #821003",
"8b 	c #921002",
"9b 	c #840A01",
"0b 	c #B51800",
"ab 	c #DB2F00",
"bb 	c #ED5000",
"cb 	c #FB6400",
"db 	c #FB6E00",
"eb 	c #E13600",
"fb 	c #C22000",
"gb 	c #BF1500",
"hb 	c #C21900",
"ib 	c #700400",
"jb 	c #7D0700",
"kb 	c #7D0601",
"lb 	c #890800",
"mb 	c #910B00",
"nb 	c #730701",
"ob 	c #6B0601",
"pb 	c #6F0601",
"qb 	c #6B0502",
"rb 	c #6A0603",
"sb 	c #3D0103",
"tb 	c #410204",
"ub 	c #4A0202",
"vb 	c #3F0204",
"wb 	c #4E0503",
"xb 	c #690701",
"yb 	c #820D00",
"zb 	c #7D0E00",
"Ab 	c #7F1000",
"Bb 	c #AC1E00",
"Cb 	c #A01800",
"Db 	c #A72400",
"Eb 	c #CA3300",
"Fb 	c #5E0801",
"Gb 	c #5F0501",
"Hb 	c #650600",
"Ib 	c #861A00",
"Jb 	c #AA4400",
"Kb 	c #E54600",
"Lb 	c #FC7100",
"Mb 	c #FD8900",
"Nb 	c #FDA600",
"Ob 	c #FB8D00",
"Pb 	c #FBA400",
"Qb 	c #C72E00",
"Rb 	c #C71C00",
"Sb 	c #810801",
"Tb 	c #870D00",
"Ub 	c #A32000",
"Vb 	c #DC3900",
"Wb 	c #9C1600",
"Xb 	c #DF3B00",
"Yb 	c #F59300",
"Zb 	c #FC9300",
"`b 	c #FB9400",
" c 	c #FA9901",
".c 	c #E65D00",
"+c 	c #D75F01",
"@c 	c #C54D01",
"#c 	c #9A0D00",
"$c 	c #810800",
"%c 	c #9A1D00",
"&c 	c #B02800",
"*c 	c #B12501",
"=c 	c #861101",
"-c 	c #840F01",
";c 	c #790801",
">c 	c #8C0B00",
",c 	c #850A00",
"'c 	c #740600",
")c 	c #5C0302",
"!c 	c #6F0502",
"~c 	c #510303",
"{c 	c #520402",
"]c 	c #600601",
"^c 	c #A91400",
"/c 	c #400103",
"(c 	c #510302",
"_c 	c #6D0701",
":c 	c #7A0C01",
"<c 	c #D32700",
"[c 	c #AC1200",
"}c 	c #A91000",
"|c 	c #9C0C00",
"1c 	c #9D0E00",
"2c 	c #BB1900",
"3c 	c #BF2200",
"4c 	c #BB1D00",
"5c 	c #C31700",
"6c 	c #D12100",
"7c 	c #CD2100",
"8c 	c #C82100",
"9c 	c #C01E00",
"0c 	c #CC2B01",
"ac 	c #7A1203",
"bc 	c #260004",
"cc 	c #340405",
"dc 	c #4B0804",
"ec 	c #290704",
"fc 	c #3E0203",
"gc 	c #5F0503",
"hc 	c #AE2A01",
"ic 	c #CB4E02",
"jc 	c #E45B00",
"kc 	c #F76400",
"lc 	c #DF3C00",
"mc 	c #C22A00",
"nc 	c #D62400",
"oc 	c #CE2700",
"pc 	c #B21C00",
"qc 	c #9E0C00",
"rc 	c #8C0700",
"sc 	c #900700",
"tc 	c #890C01",
"uc 	c #760701",
"vc 	c #720702",
"wc 	c #430204",
"xc 	c #420104",
"yc 	c #480304",
"zc 	c #460204",
"Ac 	c #650603",
"Bc 	c #4B0204",
"Cc 	c #770B00",
"Dc 	c #8E1301",
"Ec 	c #841100",
"Fc 	c #901400",
"Gc 	c #C52200",
"Hc 	c #F1A500",
"Ic 	c #EC8601",
"Jc 	c #DE5700",
"Kc 	c #B13701",
"Lc 	c #911F01",
"Mc 	c #741501",
"Nc 	c #530701",
"Oc 	c #C64601",
"Pc 	c #EA6E00",
"Qc 	c #F28100",
"Rc 	c #F28800",
"Sc 	c #EE5B00",
"Tc 	c #FB8200",
"Uc 	c #C62C00",
"Vc 	c #A50C00",
"Wc 	c #950C00",
"Xc 	c #9C2200",
"Yc 	c #D94200",
"Zc 	c #951200",
"`c 	c #CD2D00",
" d 	c #DD8501",
".d 	c #E49C01",
"+d 	c #D98800",
"@d 	c #D18401",
"#d 	c #C04300",
"$d 	c #9A1300",
"%d 	c #9F1100",
"&d 	c #9A1000",
"*d 	c #DE4C00",
"=d 	c #DA5300",
"-d 	c #C73B00",
";d 	c #C33300",
">d 	c #9F1C01",
",d 	c #C02200",
"'d 	c #B21B00",
")d 	c #730600",
"!d 	c #580301",
"~d 	c #570502",
"{d 	c #680702",
"]d 	c #A21300",
"^d 	c #AF1500",
"/d 	c #B41700",
"(d 	c #920F02",
"_d 	c #500403",
":d 	c #550402",
"<d 	c #7B0C02",
"[d 	c #A52901",
"}d 	c #AA2700",
"|d 	c #C82500",
"1d 	c #D42700",
"2d 	c #CC2200",
"3d 	c #CF2800",
"4d 	c #B83D00",
"5d 	c #B23500",
"6d 	c #CD2C00",
"7d 	c #DD2E00",
"8d 	c #C91B00",
"9d 	c #A11000",
"0d 	c #991100",
"ad 	c #A11002",
"bd 	c #A21202",
"cd 	c #280305",
"dd 	c #220302",
"ed 	c #260604",
"fd 	c #370401",
"gd 	c #340202",
"hd 	c #390104",
"id 	c #400204",
"jd 	c #340004",
"kd 	c #300103",
"ld 	c #380003",
"md 	c #6E0F02",
"nd 	c #C03201",
"od 	c #B72E01",
"pd 	c #941D01",
"qd 	c #9A1900",
"rd 	c #E03A00",
"sd 	c #F84700",
"td 	c #F13B00",
"ud 	c #EB2D00",
"vd 	c #D93700",
"wd 	c #D23A00",
"xd 	c #D33E00",
"yd 	c #CD4000",
"zd 	c #BE2101",
"Ad 	c #A31200",
"Bd 	c #920D01",
"Cd 	c #820801",
"Dd 	c #780701",
"Ed 	c #710601",
"Fd 	c #530202",
"Gd 	c #580403",
"Hd 	c #4F0303",
"Id 	c #630702",
"Jd 	c #971201",
"Kd 	c #971300",
"Ld 	c #480303",
"Md 	c #3F0203",
"Nd 	c #450303",
"Od 	c #8C1901",
"Pd 	c #A71A00",
"Qd 	c #AA1600",
"Rd 	c #D52F00",
"Sd 	c #FCD103",
"Td 	c #FED406",
"Ud 	c #FDC10B",
"Vd 	c #F9A810",
"Wd 	c #EF9606",
"Xd 	c #D35501",
"Yd 	c #BE2B00",
"Zd 	c #6E0400",
"`d 	c #6F1200",
" e 	c #7E1700",
".e 	c #AC1D00",
"+e 	c #C52B00",
"@e 	c #EE4600",
"#e 	c #D82D00",
"$e 	c #500300",
"%e 	c #5E1201",
"&e 	c #6B0801",
"*e 	c #AD1B00",
"=e 	c #BB3600",
"-e 	c #A53000",
";e 	c #841401",
">e 	c #670300",
",e 	c #940D00",
"'e 	c #990F00",
")e 	c #BB1B00",
"!e 	c #E16600",
"~e 	c #EB8401",
"{e 	c #F79C01",
"]e 	c #FEAC09",
"^e 	c #FEAE04",
"/e 	c #FC7C00",
"(e 	c #F86000",
"_e 	c #F24100",
":e 	c #510202",
"<e 	c #650401",
"[e 	c #760501",
"}e 	c #930B00",
"|e 	c #7F0801",
"1e 	c #B01800",
"2e 	c #9B1402",
"3e 	c #610502",
"4e 	c #A61500",
"5e 	c #C73300",
"6e 	c #D94100",
"7e 	c #DC3700",
"8e 	c #D13500",
"9e 	c #E54A00",
"0e 	c #F15000",
"ae 	c #E44E00",
"be 	c #ED5500",
"ce 	c #F67E00",
"de 	c #F88301",
"ee 	c #F67600",
"fe 	c #D05200",
"ge 	c #680D02",
"he 	c #5A0C02",
"ie 	c #6B0D02",
"je 	c #780702",
"ke 	c #640502",
"le 	c #310005",
"me 	c #230203",
"ne 	c #430303",
"oe 	c #5D0402",
"pe 	c #370105",
"qe 	c #3C0103",
"re 	c #340204",
"se 	c #4F0603",
"te 	c #A52201",
"ue 	c #F04A00",
"ve 	c #F64700",
"we 	c #F54700",
"xe 	c #E63100",
"ye 	c #F45300",
"ze 	c #FC5D00",
"Ae 	c #FB6300",
"Be 	c #E85800",
"Ce 	c #C81B00",
"De 	c #A00C01",
"Ee 	c #9B0C00",
"Fe 	c #8A0900",
"Ge 	c #750501",
"He 	c #720500",
"Ie 	c #620402",
"Je 	c #5F0402",
"Ke 	c #580402",
"Le 	c #5D0502",
"Me 	c #791102",
"Ne 	c #C42300",
"Oe 	c #690A01",
"Pe 	c #4B0403",
"Qe 	c #6C1001",
"Re 	c #A22701",
"Se 	c #B91E00",
"Te 	c #F44000",
"Ue 	c #FDD801",
"Ve 	c #FED519",
"We 	c #FEEF33",
"Xe 	c #FEF23E",
"Ye 	c #FEE224",
"Ze 	c #FC9A01",
"`e 	c #E05800",
" f 	c #A41701",
".f 	c #910C00",
"+f 	c #680600",
"@f 	c #540200",
"#f 	c #680300",
"$f 	c #9E1000",
"%f 	c #D92300",
"&f 	c #700B00",
"*f 	c #A02201",
"=f 	c #992800",
"-f 	c #9A2500",
";f 	c #921101",
">f 	c #C72C00",
",f 	c #E45300",
"'f 	c #E25700",
")f 	c #8D1702",
"!f 	c #710500",
"~f 	c #5F0700",
"{f 	c #7D3001",
"]f 	c #F8BD01",
"^f 	c #FFCA00",
"/f 	c #FED301",
"(f 	c #FEE117",
"_f 	c #FEE80D",
":f 	c #FFCC01",
"<f 	c #FCB102",
"[f 	c #F54400",
"}f 	c #EB3900",
"|f 	c #C92900",
"1f 	c #7D0500",
"2f 	c #750601",
"3f 	c #630402",
"4f 	c #850901",
"5f 	c #B61B00",
"6f 	c #E04300",
"7f 	c #F75500",
"8f 	c #F95200",
"9f 	c #D53500",
"0f 	c #D94700",
"af 	c #FB6500",
"bf 	c #FB6800",
"cf 	c #FE6500",
"df 	c #FD5D00",
"ef 	c #F04600",
"ff 	c #E75200",
"gf 	c #F75F00",
"hf 	c #D24E01",
"if 	c #711003",
"jf 	c #4A0304",
"kf 	c #480305",
"lf 	c #3C0206",
"mf 	c #400406",
"nf 	c #510706",
"of 	c #260104",
"pf 	c #190202",
"qf 	c #200001",
"rf 	c #320102",
"sf 	c #470304",
"tf 	c #400305",
"uf 	c #350105",
"vf 	c #801602",
"wf 	c #CB2F01",
"xf 	c #E33700",
"yf 	c #F54C00",
"zf 	c #E63900",
"Af 	c #F45700",
"Bf 	c #FA6700",
"Cf 	c #F05400",
"Df 	c #EB3D00",
"Ef 	c #E12B00",
"Ff 	c #CA2000",
"Gf 	c #A80E00",
"Hf 	c #A40F00",
"If 	c #940A00",
"Jf 	c #670501",
"Kf 	c #5B0402",
"Lf 	c #620702",
"Mf 	c #881101",
"Nf 	c #D12B00",
"Of 	c #D03200",
"Pf 	c #9B1B00",
"Qf 	c #590B03",
"Rf 	c #9F2101",
"Sf 	c #B51A01",
"Tf 	c #BA2501",
"Uf 	c #F33B00",
"Vf 	c #FCD002",
"Wf 	c #FED323",
"Xf 	c #FEEE3E",
"Yf 	c #FEF547",
"Zf 	c #FEEC31",
"`f 	c #FDC905",
" g 	c #F4A502",
".g 	c #DB7304",
"+g 	c #D04E01",
"@g 	c #840900",
"#g 	c #7B0A00",
"$g 	c #790400",
"%g 	c #950901",
"&g 	c #BC1500",
"*g 	c #C81800",
"=g 	c #B31000",
"-g 	c #C44301",
";g 	c #DB6000",
">g 	c #E07101",
",g 	c #E75000",
"'g 	c #821901",
")g 	c #9E2F01",
"!g 	c #B23C01",
"~g 	c #AB3003",
"{g 	c #CE5D02",
"]g 	c #DB7E01",
"^g 	c #FCDF28",
"/g 	c #FEE51C",
"(g 	c #FEE313",
"_g 	c #FDE60F",
":g 	c #FEEB09",
"<g 	c #FECA02",
"[g 	c #F69901",
"}g 	c #E02C00",
"|g 	c #D62A00",
"1g 	c #560302",
"2g 	c #5C0201",
"3g 	c #5E0202",
"4g 	c #500203",
"5g 	c #4E0203",
"6g 	c #730501",
"7g 	c #5C0402",
"8g 	c #550302",
"9g 	c #670502",
"0g 	c #A61601",
"ag 	c #ED5900",
"bg 	c #FB5A00",
"cg 	c #FB5400",
"dg 	c #D53400",
"eg 	c #E45900",
"fg 	c #FE9900",
"gg 	c #FF9000",
"hg 	c #FB7300",
"ig 	c #DA4000",
"jg 	c #CA4C01",
"kg 	c #D44901",
"lg 	c #922D02",
"mg 	c #520904",
"ng 	c #490404",
"og 	c #4E0403",
"pg 	c #3B0205",
"qg 	c #360206",
"rg 	c #4C0605",
"sg 	c #610904",
"tg 	c #570603",
"ug 	c #420404",
"vg 	c #220104",
"wg 	c #410704",
"xg 	c #750A01",
"yg 	c #5A0603",
"zg 	c #400303",
"Ag 	c #450203",
"Bg 	c #4F0504",
"Cg 	c #610D03",
"Dg 	c #6D1603",
"Eg 	c #6C1803",
"Fg 	c #783003",
"Gg 	c #803102",
"Hg 	c #772503",
"Ig 	c #5C0F03",
"Jg 	c #B93D01",
"Kg 	c #D93C00",
"Lg 	c #E43000",
"Mg 	c #D51E00",
"Ng 	c #AD0D00",
"Og 	c #840800",
"Pg 	c #860800",
"Qg 	c #810700",
"Rg 	c #760500",
"Sg 	c #740501",
"Tg 	c #4C0503",
"Ug 	c #640D02",
"Vg 	c #CD4100",
"Wg 	c #E04700",
"Xg 	c #A72800",
"Yg 	c #690601",
"Zg 	c #8D0F01",
"`g 	c #BD2B00",
" h 	c #FEA200",
".h 	c #FCA80A",
"+h 	c #FECF20",
"@h 	c #FEF749",
"#h 	c #FFEB15",
"$h 	c #FEE404",
"%h 	c #F47E01",
"&h 	c #EE5700",
"*h 	c #7B1D00",
"=h 	c #7D0900",
"-h 	c #660301",
";h 	c #6A0401",
">h 	c #8D0B00",
",h 	c #B11600",
"'h 	c #EA8501",
")h 	c #F9AA03",
"!h 	c #FAC402",
"~h 	c #F77B01",
"{h 	c #F44100",
"]h 	c #F13900",
"^h 	c #C11700",
"/h 	c #560501",
"(h 	c #7D2900",
"_h 	c #C86A00",
":h 	c #701200",
"<h 	c #770900",
"[h 	c #9C2A00",
"}h 	c #F79901",
"|h 	c #FEA903",
"1h 	c #FEF231",
"2h 	c #FFF238",
"3h 	c #FEEC1B",
"4h 	c #FEEC0A",
"5h 	c #FEED04",
"6h 	c #F8BE02",
"7h 	c #EB7C01",
"8h 	c #4B0202",
"9h 	c #820901",
"0h 	c #A41100",
"ah 	c #9D0D00",
"bh 	c #950A00",
"ch 	c #4D0202",
"dh 	c #380103",
"eh 	c #911301",
"fh 	c #B11900",
"gh 	c #DF2C00",
"hh 	c #E94701",
"ih 	c #C41C00",
"jh 	c #CC3A00",
"kh 	c #CD4001",
"lh 	c #D17801",
"mh 	c #D07200",
"nh 	c #B94401",
"oh 	c #772202",
"ph 	c #6C2103",
"qh 	c #5D1304",
"rh 	c #410604",
"sh 	c #3F0305",
"th 	c #3E0205",
"uh 	c #3D0205",
"vh 	c #420204",
"wh 	c #780802",
"xh 	c #7D0B01",
"yh 	c #6D0802",
"zh 	c #5A0402",
"Ah 	c #370304",
"Bh 	c #330402",
"Ch 	c #360200",
"Dh 	c #5E0601",
"Eh 	c #3C0201",
"Fh 	c #670702",
"Gh 	c #680603",
"Hh 	c #690503",
"Ih 	c #710602",
"Jh 	c #5C0503",
"Kh 	c #3E0305",
"Lh 	c #240004",
"Mh 	c #7A0C02",
"Nh 	c #AA1C01",
"Oh 	c #D22700",
"Ph 	c #D01D00",
"Qh 	c #A10A00",
"Rh 	c #9C0B00",
"Sh 	c #8F0800",
"Th 	c #7F0701",
"Uh 	c #5D0302",
"Vh 	c #480302",
"Wh 	c #6C1702",
"Xh 	c #E44300",
"Yh 	c #F15900",
"Zh 	c #B13100",
"`h 	c #7A0700",
" i 	c #730702",
".i 	c #870E01",
"+i 	c #950D00",
"@i 	c #D63400",
"#i 	c #DD4700",
"$i 	c #E76204",
"%i 	c #F3A20B",
"&i 	c #FDE93C",
"*i 	c #FEF24F",
"=i 	c #FFE518",
"-i 	c #FDD004",
";i 	c #F49C04",
">i 	c #E27D00",
",i 	c #7E1F00",
"'i 	c #8F0D00",
")i 	c #7B0A01",
"!i 	c #A81600",
"~i 	c #CD2600",
"{i 	c #DB2400",
"]i 	c #ED2B00",
"^i 	c #EC3D00",
"/i 	c #FC8301",
"(i 	c #F95F00",
"_i 	c #F65400",
":i 	c #ED3B00",
"<i 	c #640701",
"[i 	c #5D0801",
"}i 	c #8F3601",
"|i 	c #D96B01",
"1i 	c #720E00",
"2i 	c #7D0A00",
"3i 	c #902200",
"4i 	c #F19300",
"5i 	c #FE9B01",
"6i 	c #FEE419",
"7i 	c #FFE61C",
"8i 	c #FEDC08",
"9i 	c #FFD902",
"0i 	c #FCDC00",
"ai 	c #E78500",
"bi 	c #BD1700",
"ci 	c #8C0A00",
"di 	c #800600",
"ei 	c #640301",
"fi 	c #520202",
"gi 	c #540201",
"hi 	c #7B1101",
"ii 	c #AE2001",
"ji 	c #AA1900",
"ki 	c #BA1800",
"li 	c #B71200",
"mi 	c #BA1201",
"ni 	c #821902",
"oi 	c #BB2600",
"pi 	c #D93100",
"qi 	c #CF2100",
"ri 	c #AC2100",
"si 	c #BE1300",
"ti 	c #970E01",
"ui 	c #930D00",
"vi 	c #530403",
"wi 	c #2E0106",
"xi 	c #470204",
"yi 	c #4B0305",
"zi 	c #800901",
"Ai 	c #890B01",
"Bi 	c #6B0701",
"Ci 	c #440202",
"Di 	c #310304",
"Ei 	c #280002",
"Fi 	c #9B0D00",
"Gi 	c #860900",
"Hi 	c #610402",
"Ii 	c #3B0104",
"Ji 	c #2F0005",
"Ki 	c #711002",
"Li 	c #A51301",
"Mi 	c #8A0A01",
"Ni 	c #7B0701",
"Oi 	c #710701",
"Pi 	c #AA0E00",
"Qi 	c #9D0A00",
"Ri 	c #A90E00",
"Si 	c #831A02",
"Ti 	c #E63C00",
"Ui 	c #FA6400",
"Vi 	c #CE4600",
"Wi 	c #9B0F00",
"Xi 	c #B91700",
"Yi 	c #830900",
"Zi 	c #880900",
"`i 	c #C31D00",
" j 	c #A61600",
".j 	c #A25C06",
"+j 	c #C98505",
"@j 	c #DDAF08",
"#j 	c #E1B311",
"$j 	c #EAAF03",
"%j 	c #D69A01",
"&j 	c #CB5E01",
"*j 	c #9B2401",
"=j 	c #860E01",
"-j 	c #8D1100",
";j 	c #B11D00",
">j 	c #DD2D00",
",j 	c #F03F00",
"'j 	c #F04200",
")j 	c #F85800",
"!j 	c #FEBC01",
"~j 	c #FD9B00",
"{j 	c #FA7E01",
"]j 	c #EF4C00",
"^j 	c #D74A01",
"/j 	c #BD4801",
"(j 	c #B94200",
"_j 	c #9D1E01",
":j 	c #820E00",
"<j 	c #7B0700",
"[j 	c #7E0B00",
"}j 	c #BC3501",
"|j 	c #D07701",
"1j 	c #E79401",
"2j 	c #F9DC0C",
"3j 	c #FAE316",
"4j 	c #F7D60F",
"5j 	c #F3C003",
"6j 	c #EBBD01",
"7j 	c #AE5B01",
"8j 	c #8D0C00",
"9j 	c #B31100",
"0j 	c #A20E00",
"aj 	c #7A0601",
"bj 	c #5D0201",
"cj 	c #9F2301",
"dj 	c #E64000",
"ej 	c #E82E00",
"fj 	c #D92800",
"gj 	c #AC1501",
"hj 	c #8F0902",
"ij 	c #490304",
"jj 	c #530503",
"kj 	c #A11F01",
"lj 	c #DE3300",
"mj 	c #E13300",
"nj 	c #C92200",
"oj 	c #620602",
"pj 	c #770602",
"qj 	c #5B0403",
"rj 	c #800B04",
"sj 	c #2F0106",
"tj 	c #3F0206",
"uj 	c #540404",
"vj 	c #680502",
"wj 	c #4A0203",
"xj 	c #4E0303",
"yj 	c #640603",
"zj 	c #7E0901",
"Aj 	c #850900",
"Bj 	c #4E0502",
"Cj 	c #2C0304",
"Dj 	c #400304",
"Ej 	c #560502",
"Fj 	c #620401",
"Gj 	c #870600",
"Hj 	c #260006",
"Ij 	c #3C0104",
"Jj 	c #530304",
"Kj 	c #480204",
"Lj 	c #4C0203",
"Mj 	c #8E0A01",
"Nj 	c #B01000",
"Oj 	c #950800",
"Pj 	c #A00B00",
"Qj 	c #8A0800",
"Rj 	c #630502",
"Sj 	c #800C02",
"Tj 	c #E74301",
"Uj 	c #F86E00",
"Vj 	c #D74A00",
"Wj 	c #DF2600",
"Xj 	c #D52300",
"Yj 	c #981C00",
"Zj 	c #881C00",
"`j 	c #781200",
" k 	c #851400",
".k 	c #870A00",
"+k 	c #810B00",
"@k 	c #7B1000",
"#k 	c #7F0E00",
"$k 	c #A11500",
"%k 	c #A01500",
"&k 	c #BB2D00",
"*k 	c #831000",
"=k 	c #4B0402",
"-k 	c #7A0A01",
";k 	c #A82600",
">k 	c #EA4500",
",k 	c #F45000",
"'k 	c #FB8B00",
")k 	c #FEB900",
"!k 	c #FFBA00",
"~k 	c #FFE300",
"{k 	c #FFBC00",
"]k 	c #FC7900",
"^k 	c #F64C00",
"/k 	c #F85A00",
"(k 	c #E95500",
"_k 	c #B03200",
":k 	c #5F0500",
"<k 	c #8A0A00",
"[k 	c #800700",
"}k 	c #7E0F00",
"|k 	c #6F1B00",
"1k 	c #763101",
"2k 	c #7D5603",
"3k 	c #7D5B02",
"4k 	c #765E02",
"5k 	c #705702",
"6k 	c #705501",
"7k 	c #831F00",
"8k 	c #BA1400",
"9k 	c #B20E00",
"0k 	c #940900",
"ak 	c #720501",
"bk 	c #8F2300",
"ck 	c #F24F00",
"dk 	c #8A1201",
"ek 	c #410103",
"fk 	c #560404",
"gk 	c #861001",
"hk 	c #BB2300",
"ik 	c #DD2F00",
"jk 	c #8D1302",
"kk 	c #8B1202",
"lk 	c #320105",
"mk 	c #2E0005",
"nk 	c #620403",
"ok 	c #550403",
"pk 	c #640503",
"qk 	c #720802",
"rk 	c #460503",
"sk 	c #310202",
"tk 	c #1F0303",
"uk 	c #280604",
"vk 	c #2E0204",
"wk 	c #350103",
"xk 	c #750701",
"yk 	c #790701",
"zk 	c #7E0801",
"Ak 	c #4E0404",
"Bk 	c #8D0B01",
"Ck 	c #6C0501",
"Dk 	c #820701",
"Ek 	c #940800",
"Fk 	c #970900",
"Gk 	c #5C0403",
"Hk 	c #A01F01",
"Ik 	c #BA2D00",
"Jk 	c #D42F00",
"Kk 	c #E62B00",
"Lk 	c #E12700",
"Mk 	c #EB3700",
"Nk 	c #F45F00",
"Ok 	c #F36100",
"Pk 	c #EF5400",
"Qk 	c #F35900",
"Rk 	c #E03400",
"Sk 	c #C62700",
"Tk 	c #AF1A00",
"Uk 	c #7E0601",
"Vk 	c #4E0302",
"Wk 	c #740401",
"Xk 	c #910801",
"Yk 	c #5C0601",
"Zk 	c #820C00",
"`k 	c #921C01",
" l 	c #470303",
".l 	c #460403",
"+l 	c #8B0D01",
"@l 	c #B92101",
"#l 	c #D83D01",
"$l 	c #F06601",
"%l 	c #F89F00",
"&l 	c #FEC901",
"*l 	c #FFCC00",
"=l 	c #FEE100",
"-l 	c #FFA900",
";l 	c #F96E00",
">l 	c #F14000",
",l 	c #F06100",
"'l 	c #F47E00",
")l 	c #EC8201",
"!l 	c #C26402",
"~l 	c #840F00",
"{l 	c #8E0C00",
"]l 	c #500301",
"^l 	c #6D0A00",
"/l 	c #610B01",
"(l 	c #870E00",
"_l 	c #BA1600",
":l 	c #B11700",
"<l 	c #C63300",
"[l 	c #FC6000",
"}l 	c #F54E00",
"|l 	c #B43902",
"1l 	c #730C03",
"2l 	c #6D0902",
"3l 	c #CE2600",
"4l 	c #931301",
"5l 	c #6A0502",
"6l 	c #920C01",
"7l 	c #860A01",
"8l 	c #7C0901",
"9l 	c #860A00",
"0l 	c #270303",
"al 	c #200101",
"bl 	c #9B0F01",
"cl 	c #730802",
"dl 	c #980E00",
"el 	c #920E00",
"fl 	c #810B01",
"gl 	c #690802",
"hl 	c #6B0301",
"il 	c #6A0301",
"jl 	c #650301",
"kl 	c #740502",
"ll 	c #490103",
"ml 	c #740901",
"nl 	c #9B1401",
"ol 	c #B41C00",
"pl 	c #DD3B00",
"ql 	c #F05300",
"rl 	c #F55400",
"sl 	c #F23800",
"tl 	c #F74200",
"ul 	c #F94E00",
"vl 	c #DF3700",
"wl 	c #D53600",
"xl 	c #AF1D01",
"yl 	c #850B01",
"zl 	c #800D01",
"Al 	c #681201",
"Bl 	c #7D2701",
"Cl 	c #C54800",
"Dl 	c #E06F01",
"El 	c #F18B00",
"Fl 	c #FCD200",
"Gl 	c #F48C00",
"Hl 	c #D34600",
"Il 	c #B52200",
"Jl 	c #A23300",
"Kl 	c #813E01",
"Ll 	c #6D3E02",
"Ml 	c #813102",
"Nl 	c #811001",
"Ol 	c #921501",
"Pl 	c #A51400",
"Ql 	c #761000",
"Rl 	c #750C00",
"Sl 	c #C51E00",
"Tl 	c #D51D00",
"Ul 	c #7A0C00",
"Vl 	c #861000",
"Wl 	c #D83200",
"Xl 	c #DE5200",
"Yl 	c #E78100",
"Zl 	c #EA6400",
"`l 	c #F36700",
" m 	c #ED4200",
".m 	c #B53701",
"+m 	c #B22701",
"@m 	c #B72700",
"#m 	c #630703",
"$m 	c #2B0004",
"%m 	c #340005",
"&m 	c #3A0103",
"*m 	c #AB1100",
"=m 	c #7E0A02",
"-m 	c #640704",
";m 	c #640602",
">m 	c #460203",
",m 	c #700901",
"'m 	c #780902",
")m 	c #790A01",
"!m 	c #A71700",
"~m 	c #AA1901",
"{m 	c #A11300",
"]m 	c #920F00",
"^m 	c #570403",
"/m 	c #340106",
"(m 	c #460305",
"_m 	c #380105",
":m 	c #580302",
"<m 	c #4F0203",
"[m 	c #5F0302",
"}m 	c #4F0202",
"|m 	c #610400",
"1m 	c #9B1400",
"2m 	c #D06201",
"3m 	c #FC9E00",
"4m 	c #F67C00",
"5m 	c #FC5700",
"6m 	c #F89903",
"7m 	c #F58A01",
"8m 	c #F07601",
"9m 	c #B24801",
"0m 	c #E74C00",
"am 	c #D43800",
"bm 	c #9A1901",
"cm 	c #770801",
"dm 	c #870C01",
"em 	c #981200",
"fm 	c #840E00",
"gm 	c #5E0301",
"hm 	c #670401",
"im 	c #760A01",
"jm 	c #8A1301",
"km 	c #2E0103",
"lm 	c #3E0302",
"mm 	c #6F0A01",
"nm 	c #8A1801",
"om 	c #BC2A01",
"pm 	c #F5A700",
"qm 	c #CC4F01",
"rm 	c #A51A01",
"sm 	c #4A0602",
"tm 	c #8F4D01",
"um 	c #AD8001",
"vm 	c #942201",
"wm 	c #C72200",
"xm 	c #D92A00",
"ym 	c #E12400",
"zm 	c #D81F00",
"Am 	c #CA2700",
"Bm 	c #C02900",
"Cm 	c #A51800",
"Dm 	c #9B2001",
"Em 	c #B11C00",
"Fm 	c #CA1C00",
"Gm 	c #B96300",
"Hm 	c #D58601",
"Im 	c #F27200",
"Jm 	c #FAB901",
"Km 	c #FED201",
"Lm 	c #FD9800",
"Mm 	c #F75600",
"Nm 	c #E83500",
"Om 	c #C52602",
"Pm 	c #4B0603",
"Qm 	c #A21001",
"Rm 	c #AE1401",
"Sm 	c #A41200",
"Tm 	c #B51500",
"Um 	c #750802",
"Vm 	c #620605",
"Wm 	c #5F0603",
"Xm 	c #210204",
"Ym 	c #4F2A0E",
"Zm 	c #3A200B",
"`m 	c #420202",
" n 	c #750902",
".n 	c #6A0602",
"+n 	c #961501",
"@n 	c #CB2600",
"#n 	c #B11800",
"$n 	c #AF1700",
"%n 	c #AB1500",
"&n 	c #4B0304",
"*n 	c #760702",
"=n 	c #910900",
"-n 	c #530203",
";n 	c #540202",
">n 	c #EC4000",
",n 	c #DB2600",
"'n 	c #F46D00",
")n 	c #FDC001",
"!n 	c #FDC803",
"~n 	c #FCC806",
"{n 	c #F7A003",
"]n 	c #FDBA01",
"^n 	c #FC7200",
"/n 	c #D72800",
"(n 	c #990E01",
"_n 	c #720700",
":n 	c #6E0401",
"<n 	c #BE1A00",
"[n 	c #530502",
"}n 	c #7E1102",
"|n 	c #B32D00",
"1n 	c #E17D02",
"2n 	c #A13801",
"3n 	c #771102",
"4n 	c #320103",
"5n 	c #863A01",
"6n 	c #AD5500",
"7n 	c #B22000",
"8n 	c #ED3900",
"9n 	c #DD2400",
"0n 	c #CF1A00",
"an 	c #D82400",
"bn 	c #E22B00",
"cn 	c #BB1A00",
"dn 	c #A61900",
"en 	c #B61400",
"fn 	c #AD1300",
"gn 	c #A54E02",
"hn 	c #EA9B01",
"in 	c #FD9801",
"jn 	c #FE9501",
"kn 	c #FEE602",
"ln 	c #FEE502",
"mn 	c #FEC600",
"nn 	c #F1A000",
"on 	c #CC1F01",
"pn 	c #A11801",
"qn 	c #840E01",
"rn 	c #540403",
"sn 	c #360105",
"tn 	c #450304",
"un 	c #A11401",
"vn 	c #BC1700",
"wn 	c #4E0304",
"xn 	c #5E0504",
"yn 	c #590403",
"zn 	c #280103",
"An 	c #825519",
"Bn 	c #AF7D28",
"Cn 	c #85551A",
"Dn 	c #A3681A",
"En 	c #673D11",
"Fn 	c #3F1A0A",
"Gn 	c #250702",
"Hn 	c #4D0406",
"In 	c #570304",
"Jn 	c #5E0404",
"Kn 	c #BE1D01",
"Ln 	c #C61800",
"Mn 	c #D11E00",
"Nn 	c #B71601",
"On 	c #630503",
"Pn 	c #480203",
"Qn 	c #AD1201",
"Rn 	c #8C0C02",
"Sn 	c #490204",
"Tn 	c #320004",
"Un 	c #670402",
"Vn 	c #970B00",
"Wn 	c #6D0502",
"Xn 	c #4F0304",
"Yn 	c #440204",
"Zn 	c #430104",
"`n 	c #4C0303",
" o 	c #710801",
".o 	c #AD1101",
"+o 	c #CB1D00",
"@o 	c #CA1F00",
"#o 	c #CD2500",
"$o 	c #F5A601",
"%o 	c #FECC04",
"&o 	c #FEB101",
"*o 	c #FFA400",
"=o 	c #FE9B00",
"-o 	c #D95601",
";o 	c #7B0900",
">o 	c #940E00",
",o 	c #BB1C00",
"'o 	c #A21500",
")o 	c #650501",
"!o 	c #550201",
"~o 	c #CB1F00",
"{o 	c #DD2200",
"]o 	c #B31200",
"^o 	c #560401",
"/o 	c #D47D03",
"(o 	c #6C1901",
"_o 	c #3F0303",
":o 	c #7D0F00",
"<o 	c #B02500",
"[o 	c #A22601",
"}o 	c #C72100",
"|o 	c #FA5800",
"1o 	c #ED4000",
"2o 	c #CF2A00",
"3o 	c #C01B00",
"4o 	c #E62900",
"5o 	c #B71600",
"6o 	c #B82300",
"7o 	c #C32400",
"8o 	c #B62B01",
"9o 	c #BF7401",
"0o 	c #F7CA01",
"ao 	c #FEE903",
"bo 	c #FFE810",
"co 	c #FFDA07",
"do 	c #FEDA02",
"eo 	c #F88D01",
"fo 	c #D73F01",
"go 	c #8C0901",
"ho 	c #9C0E00",
"io 	c #7E0701",
"jo 	c #2A0006",
"ko 	c #3F0205",
"lo 	c #520404",
"mo 	c #500304",
"no 	c #4C0304",
"oo 	c #730A02",
"po 	c #CE2400",
"qo 	c #BC1B00",
"ro 	c #A51300",
"so 	c #740801",
"to 	c #1E0104",
"uo 	c #7F5318",
"vo 	c #D7A034",
"wo 	c #C08A30",
"xo 	c #DEA02D",
"yo 	c #A56C1F",
"zo 	c #48210E",
"Ao 	c #1F0405",
"Bo 	c #2A0404",
"Co 	c #4A0204",
"Do 	c #5A0303",
"Eo 	c #770901",
"Fo 	c #CA1D00",
"Go 	c #CD1E00",
"Ho 	c #A71200",
"Io 	c #7D0802",
"Jo 	c #540303",
"Ko 	c #B00E00",
"Lo 	c #C51700",
"Mo 	c #A71101",
"No 	c #4C0204",
"Oo 	c #6E0604",
"Po 	c #8F0B00",
"Qo 	c #610403",
"Ro 	c #3D0104",
"So 	c #5B0602",
"To 	c #700502",
"Uo 	c #7B0802",
"Vo 	c #C52D01",
"Wo 	c #F19F01",
"Xo 	c #FDCB02",
"Yo 	c #FBB200",
"Zo 	c #F67900",
"`o 	c #F54B00",
" p 	c #D74300",
".p 	c #DD2C00",
"+p 	c #BA2400",
"@p 	c #6C0601",
"#p 	c #E84B00",
"$p 	c #F25E00",
"%p 	c #C02F00",
"&p 	c #C93300",
"*p 	c #CF5301",
"=p 	c #D02700",
"-p 	c #BE1700",
";p 	c #840D01",
">p 	c #851E01",
",p 	c #BD5B02",
"'p 	c #520A02",
")p 	c #6A0801",
"!p 	c #AF1D00",
"~p 	c #E33600",
"{p 	c #D02100",
"]p 	c #EE2C00",
"^p 	c #F84B00",
"/p 	c #EE4F00",
"(p 	c #D62D00",
"_p 	c #D42500",
":p 	c #E03300",
"<p 	c #CE3100",
"[p 	c #B72100",
"}p 	c #9F1F01",
"|p 	c #C27C00",
"1p 	c #F8C902",
"2p 	c #FEEC03",
"3p 	c #FEE80A",
"4p 	c #FED303",
"5p 	c #FECD00",
"6p 	c #F38E00",
"7p 	c #C51901",
"8p 	c #7A0701",
"9p 	c #5F0404",
"0p 	c #A10D01",
"ap 	c #AC1100",
"bp 	c #6F0702",
"cp 	c #490203",
"dp 	c #450204",
"ep 	c #580503",
"fp 	c #5F0403",
"gp 	c #730C02",
"hp 	c #D32400",
"ip 	c #CC2000",
"jp 	c #CA2100",
"kp 	c #B11500",
"lp 	c #970F01",
"mp 	c #5E0502",
"np 	c #1E0004",
"op 	c #9F712F",
"pp 	c #C19438",
"qp 	c #E6B23F",
"rp 	c #BF8931",
"sp 	c #EBB939",
"tp 	c #D9972B",
"up 	c #834E16",
"vp 	c #240605",
"wp 	c #7B0801",
"xp 	c #A81200",
"yp 	c #BD1800",
"zp 	c #AE1400",
"Ap 	c #A11101",
"Bp 	c #A91401",
"Cp 	c #550303",
"Dp 	c #7D0801",
"Ep 	c #650402",
"Fp 	c #800601",
"Gp 	c #A72601",
"Hp 	c #C46301",
"Ip 	c #F69102",
"Jp 	c #EE6E00",
"Kp 	c #CF1D00",
"Lp 	c #DD2900",
"Mp 	c #A51700",
"Np 	c #DB2C00",
"Op 	c #C13A01",
"Pp 	c #971A01",
"Qp 	c #991301",
"Rp 	c #BB2200",
"Sp 	c #F25900",
"Tp 	c #DE2F00",
"Up 	c #C22600",
"Vp 	c #D32C00",
"Wp 	c #7E1001",
"Xp 	c #991900",
"Yp 	c #921B00",
"Zp 	c #5D0401",
"`p 	c #A71500",
" q 	c #D52B00",
".q 	c #E42E00",
"+q 	c #E23000",
"@q 	c #D82800",
"#q 	c #D93600",
"$q 	c #ED5A01",
"%q 	c #F65200",
"&q 	c #F15500",
"*q 	c #F35800",
"=q 	c #F44900",
"-q 	c #F03C00",
";q 	c #EA3800",
">q 	c #ED4E01",
",q 	c #AB2A01",
"'q 	c #941301",
")q 	c #941501",
"!q 	c #B13400",
"~q 	c #DA7D02",
"{q 	c #F19B03",
"]q 	c #FB9F03",
"^q 	c #F86F01",
"/q 	c #F47C01",
"(q 	c #D32801",
"_q 	c #820702",
":q 	c #680503",
"<q 	c #BF1400",
"[q 	c #BA1500",
"}q 	c #8F0A01",
"|q 	c #440305",
"1q 	c #7E0802",
"2q 	c #971401",
"3q 	c #E52D00",
"4q 	c #B71B00",
"5q 	c #210003",
"6q 	c #1B0204",
"7q 	c #200204",
"8q 	c #9B6F29",
"9q 	c #EAC64D",
"0q 	c #F4CE50",
"aq 	c #BF8B30",
"bq 	c #75491E",
"cq 	c #F3C742",
"dq 	c #F5C23E",
"eq 	c #AF7524",
"fq 	c #350503",
"gq 	c #770B03",
"hq 	c #901002",
"iq 	c #7B0B01",
"jq 	c #780601",
"kq 	c #B41800",
"lq 	c #A91600",
"mq 	c #600403",
"nq 	c #870A01",
"oq 	c #8F0C00",
"pq 	c #290003",
"qq 	c #8F0D01",
"rq 	c #942400",
"sq 	c #B34401",
"tq 	c #6C0F02",
"uq 	c #600702",
"vq 	c #8B1101",
"wq 	c #650500",
"xq 	c #BB5001",
"yq 	c #CF6304",
"zq 	c #6A1102",
"Aq 	c #971601",
"Bq 	c #BB2C01",
"Cq 	c #EB4300",
"Dq 	c #F69200",
"Eq 	c #FAAA00",
"Fq 	c #FAB501",
"Gq 	c #ED3D00",
"Hq 	c #F38600",
"Iq 	c #D34B00",
"Jq 	c #DE4200",
"Kq 	c #9A1800",
"Lq 	c #901100",
"Mq 	c #720901",
"Nq 	c #E02D00",
"Oq 	c #F45200",
"Pq 	c #F96600",
"Qq 	c #F66D00",
"Rq 	c #F95B00",
"Sq 	c #E45201",
"Tq 	c #E23A00",
"Uq 	c #E24801",
"Vq 	c #CB4302",
"Wq 	c #BD3702",
"Xq 	c #B32B02",
"Yq 	c #8B2103",
"Zq 	c #9C3506",
"`q 	c #5C1702",
" r 	c #4B0503",
".r 	c #5E0803",
"+r 	c #5D0802",
"@r 	c #642102",
"#r 	c #782C01",
"$r 	c #E23601",
"%r 	c #F53600",
"&r 	c #D34401",
"*r 	c #CF3901",
"=r 	c #B71801",
"-r 	c #4D0204",
";r 	c #630603",
">r 	c #7D0A02",
",r 	c #460405",
"'r 	c #3E0104",
")r 	c #BD1901",
"!r 	c #D32200",
"~r 	c #D52400",
"{r 	c #A11301",
"]r 	c #500202",
"^r 	c #410202",
"/r 	c #150104",
"(r 	c #1A0305",
"_r 	c #BE9638",
":r 	c #F2D150",
"<r 	c #F5D14D",
"[r 	c #BE8B31",
"}r 	c #76461D",
"|r 	c #F9D752",
"1r 	c #FBD44E",
"2r 	c #C6922B",
"3r 	c #73451A",
"4r 	c #3E0201",
"5r 	c #9E0D00",
"6r 	c #740400",
"7r 	c #BB1700",
"8r 	c #C11B00",
"9r 	c #D32500",
"0r 	c #940E01",
"ar 	c #660604",
"br 	c #3C0105",
"cr 	c #880901",
"dr 	c #330004",
"er 	c #420203",
"fr 	c #970C01",
"gr 	c #CB2200",
"hr 	c #820A00",
"ir 	c #780B01",
"jr 	c #611F02",
"kr 	c #682D03",
"lr 	c #350304",
"mr 	c #570903",
"nr 	c #8C2903",
"or 	c #EE5201",
"pr 	c #F98400",
"qr 	c #FD9D00",
"rr 	c #F79501",
"sr 	c #F87800",
"tr 	c #F98800",
"ur 	c #E64E00",
"vr 	c #ED6200",
"wr 	c #8D1300",
"xr 	c #811300",
"yr 	c #710E00",
"zr 	c #770C00",
"Ar 	c #D24F00",
"Br 	c #F98000",
"Cr 	c #F86600",
"Dr 	c #EA3F00",
"Er 	c #E43D00",
"Fr 	c #E63D00",
"Gr 	c #B82901",
"Hr 	c #A21F01",
"Ir 	c #992306",
"Jr 	c #791A0A",
"Kr 	c #751B0B",
"Lr 	c #520D06",
"Mr 	c #2F0204",
"Nr 	c #340605",
"Or 	c #3F0906",
"Pr 	c #6B0B04",
"Qr 	c #940D02",
"Rr 	c #780A01",
"Sr 	c #4D0703",
"Tr 	c #ED2C00",
"Ur 	c #D92400",
"Vr 	c #CC2300",
"Wr 	c #C01601",
"Xr 	c #670603",
"Yr 	c #4C0305",
"Zr 	c #841102",
"`r 	c #E83800",
" s 	c #D32E00",
".s 	c #B92601",
"+s 	c #420102",
"@s 	c #A07D29",
"#s 	c #EFD357",
"$s 	c #FAE563",
"%s 	c #F5CF4D",
"&s 	c #79491E",
"*s 	c #EFB838",
"=s 	c #FAD850",
"-s 	c #E1B03E",
";s 	c #AA691C",
">s 	c #603514",
",s 	c #3F0402",
"'s 	c #6E0700",
")s 	c #920900",
"!s 	c #B41400",
"~s 	c #D21F00",
"{s 	c #7A0801",
"]s 	c #9D1102",
"^s 	c #AD1601",
"/s 	c #BA1C01",
"(s 	c #B51B01",
"_s 	c #5D0603",
":s 	c #6C0A02",
"<s 	c #7F1002",
"[s 	c #670E04",
"}s 	c #783617",
"|s 	c #4D1B0D",
"1s 	c #390D09",
"2s 	c #330A07",
"3s 	c #603018",
"4s 	c #782807",
"5s 	c #A13907",
"6s 	c #AD2E04",
"7s 	c #BD4401",
"8s 	c #F48100",
"9s 	c #E35000",
"0s 	c #E95100",
"as 	c #F88801",
"bs 	c #F77900",
"cs 	c #CC4200",
"ds 	c #E85B01",
"es 	c #EA4F00",
"fs 	c #E04900",
"gs 	c #F96400",
"hs 	c #CE4403",
"is 	c #CA4607",
"js 	c #A93A06",
"ks 	c #9A2404",
"ls 	c #570A04",
"ms 	c #480E08",
"ns 	c #6D3517",
"os 	c #9B622D",
"ps 	c #733719",
"qs 	c #46120A",
"rs 	c #2C0204",
"ss 	c #460805",
"ts 	c #5B0B04",
"us 	c #BD1900",
"vs 	c #C11C01",
"ws 	c #B61A01",
"xs 	c #A61301",
"ys 	c #330105",
"zs 	c #520504",
"As 	c #5B0604",
"Bs 	c #900F01",
"Cs 	c #C22100",
"Ds 	c #EF4500",
"Es 	c #B43501",
"Fs 	c #730500",
"Gs 	c #740601",
"Hs 	c #500503",
"Is 	c #190304",
"Js 	c #744D1D",
"Ks 	c #B99833",
"Ls 	c #FDF174",
"Ms 	c #FDEA6D",
"Ns 	c #F1C546",
"Os 	c #B57F2C",
"Ps 	c #77461C",
"Qs 	c #D79326",
"Rs 	c #F6D85D",
"Ss 	c #F2C64A",
"Ts 	c #BD7E25",
"Us 	c #8D591A",
"Vs 	c #6B3D15",
"Ws 	c #360100",
"Xs 	c #990B00",
"Ys 	c #960900",
"Zs 	c #7E0700",
"`s 	c #DE2600",
" t 	c #A11100",
".t 	c #9F1800",
"+t 	c #7B1302",
"@t 	c #750702",
"#t 	c #530303",
"$t 	c #310204",
"%t 	c #3A0205",
"&t 	c #850F02",
"*t 	c #6D1105",
"=t 	c #591709",
"-t 	c #925629",
";t 	c #642E18",
">t 	c #512512",
",t 	c #69371A",
"'t 	c #6B321A",
")t 	c #562514",
"!t 	c #70280D",
"~t 	c #B23904",
"{t 	c #C73E03",
"]t 	c #CF4502",
"^t 	c #F06F02",
"/t 	c #F75A00",
"(t 	c #F14B00",
"_t 	c #E74A00",
":t 	c #F35F00",
"<t 	c #F05401",
"[t 	c #9D3506",
"}t 	c #832A0C",
"|t 	c #5F1E0C",
"1t 	c #420B06",
"2t 	c #370706",
"3t 	c #905B27",
"4t 	c #C08940",
"5t 	c #9D632F",
"6t 	c #632C16",
"7t 	c #330606",
"8t 	c #360507",
"9t 	c #440906",
"0t 	c #5A0804",
"at 	c #300005",
"bt 	c #3A0105",
"ct 	c #390105",
"dt 	c #410305",
"et 	c #8F1001",
"ft 	c #D12D00",
"gt 	c #ED3F00",
"ht 	c #BD3A00",
"it 	c #B1852D",
"jt 	c #E6C64C",
"kt 	c #FEF67A",
"lt 	c #FCE86B",
"mt 	c #EEBE40",
"nt 	c #916020",
"ot 	c #582C13",
"pt 	c #AD711F",
"qt 	c #F5E37A",
"rt 	c #FDE86B",
"st 	c #F1C64D",
"tt 	c #C98C2A",
"ut 	c #6B3D14",
"vt 	c #470401",
"wt 	c #970D00",
"xt 	c #CE1800",
"yt 	c #BE1600",
"zt 	c #D73100",
"At 	c #E13100",
"Bt 	c #BF2500",
"Ct 	c #960C00",
"Dt 	c #910B01",
"Et 	c #8E0D01",
"Ft 	c #9E1400",
"Gt 	c #770702",
"Ht 	c #2D0005",
"It 	c #360204",
"Jt 	c #300204",
"Kt 	c #5D0703",
"Lt 	c #54180A",
"Mt 	c #6E3C1C",
"Nt 	c #8D5529",
"Ot 	c #7B5529",
"Pt 	c #AA813C",
"Qt 	c #AA7633",
"Rt 	c #895D28",
"St 	c #3B100B",
"Tt 	c #683B1B",
"Ut 	c #7E5226",
"Vt 	c #6F3F1D",
"Wt 	c #64280B",
"Xt 	c #B8560F",
"Yt 	c #AA5112",
"Zt 	c #AF3307",
"`t 	c #A32603",
" u 	c #B03001",
".u 	c #B43502",
"+u 	c #A83002",
"@u 	c #992A03",
"#u 	c #AF3F07",
"$u 	c #932C08",
"%u 	c #541809",
"&u 	c #76431D",
"*u 	c #8C602A",
"=u 	c #491A0D",
"-u 	c #44100A",
";u 	c #825228",
">u 	c #C5A34D",
",u 	c #DFB958",
"'u 	c #D5AD53",
")u 	c #A36D30",
"!u 	c #471F0F",
"~u 	c #3B0707",
"{u 	c #640703",
"]u 	c #9B2D02",
"^u 	c #A93801",
"/u 	c #A82F01",
"(u 	c #CD2800",
"_u 	c #C31B00",
":u 	c #330202",
"<u 	c #654717",
"[u 	c #E8C244",
"}u 	c #FCE86A",
"|u 	c #FFF57A",
"1u 	c #FAE366",
"2u 	c #D7A436",
"3u 	c #7A4617",
"4u 	c #582B12",
"5u 	c #7A4515",
"6u 	c #F0DD72",
"7u 	c #FFF782",
"8u 	c #F9D85C",
"9u 	c #E7B53D",
"0u 	c #A97425",
"au 	c #613314",
"bu 	c #2E0805",
"cu 	c #370402",
"du 	c #2F0102",
"eu 	c #590803",
"fu 	c #E63600",
"gu 	c #F14A00",
"hu 	c #C12000",
"iu 	c #4F0805",
"ju 	c #851301",
"ku 	c #951300",
"lu 	c #7D0B03",
"mu 	c #900C01",
"nu 	c #470504",
"ou 	c #521E0D",
"pu 	c #7E421E",
"qu 	c #874E23",
"ru 	c #815E2B",
"su 	c #C5A553",
"tu 	c #DFBC58",
"uu 	c #C09947",
"vu 	c #8C662C",
"wu 	c #3B0F08",
"xu 	c #915F29",
"yu 	c #B37F3A",
"zu 	c #845528",
"Au 	c #330F09",
"Bu 	c #5E2D16",
"Cu 	c #936129",
"Du 	c #7D5121",
"Eu 	c #351306",
"Fu 	c #795522",
"Gu 	c #693F19",
"Hu 	c #340604",
"Iu 	c #723413",
"Ju 	c #541E0C",
"Ku 	c #3E1108",
"Lu 	c #835B25",
"Mu 	c #BC933F",
"Nu 	c #532610",
"Ou 	c #441009",
"Pu 	c #8A5728",
"Qu 	c #D3BA5D",
"Ru 	c #F4D666",
"Su 	c #E0BB58",
"Tu 	c #AB6E32",
"Uu 	c #4A2512",
"Vu 	c #250105",
"Wu 	c #840B01",
"Xu 	c #AE2000",
"Yu 	c #E93C00",
"Zu 	c #D12200",
"`u 	c #A61400",
" v 	c #910C01",
".v 	c #710A03",
"+v 	c #5B0404",
"@v 	c #210103",
"#v 	c #280906",
"$v 	c #260906",
"%v 	c #52340D",
"&v 	c #A37F27",
"*v 	c #F8D753",
"=v 	c #FDF07E",
"-v 	c #FEF175",
";v 	c #F6D95A",
">v 	c #CB9936",
",v 	c #764218",
"'v 	c #5D2F14",
")v 	c #67340F",
"!v 	c #E1C855",
"~v 	c #FEF276",
"{v 	c #FBE467",
"]v 	c #FBE366",
"^v 	c #C8A23E",
"/v 	c #8A551C",
"(v 	c #592F15",
"_v 	c #472311",
":v 	c #320805",
"<v 	c #460906",
"[v 	c #590503",
"}v 	c #660702",
"|v 	c #D83500",
"1v 	c #F05F00",
"2v 	c #D33100",
"3v 	c #C71D00",
"4v 	c #410205",
"5v 	c #390205",
"6v 	c #3D0304",
"7v 	c #B41D00",
"8v 	c #410404",
"9v 	c #4F1A0B",
"0v 	c #773B1A",
"av 	c #8E5426",
"bv 	c #885926",
"cv 	c #C6AE57",
"dv 	c #F6DE6F",
"ev 	c #E3C05B",
"fv 	c #7D5928",
"gv 	c #9E702E",
"hv 	c #C38F40",
"iv 	c #9F6E30",
"jv 	c #4A2614",
"kv 	c #9F7133",
"lv 	c #C59240",
"mv 	c #B38337",
"nv 	c #39210D",
"ov 	c #B28639",
"pv 	c #A5692C",
"qv 	c #6B3B17",
"rv 	c #41290C",
"sv 	c #A8792C",
"tv 	c #A07B31",
"uv 	c #633615",
"vv 	c #A88136",
"wv 	c #E6BF53",
"xv 	c #95622A",
"yv 	c #5C2511",
"zv 	c #A37334",
"Av 	c #DEC562",
"Bv 	c #F9E578",
"Cv 	c #DEB857",
"Dv 	c #9A5E2C",
"Ev 	c #431C0E",
"Fv 	c #250003",
"Gv 	c #3E0204",
"Hv 	c #320106",
"Iv 	c #A61100",
"Jv 	c #F54500",
"Kv 	c #EF3B00",
"Lv 	c #C21B00",
"Mv 	c #8A0D01",
"Nv 	c #1C0303",
"Ov 	c #160103",
"Pv 	c #442814",
"Qv 	c #3F1D0E",
"Rv 	c #986E25",
"Sv 	c #D6AF3C",
"Tv 	c #FAE76B",
"Uv 	c #FEF788",
"Vv 	c #FDEC6E",
"Wv 	c #EDC94C",
"Xv 	c #B4822C",
"Yv 	c #643013",
"Zv 	c #542511",
"`v 	c #45270A",
" w 	c #DEBA47",
".w 	c #F9E264",
"+w 	c #FEEE78",
"@w 	c #F1D86A",
"#w 	c #B2822B",
"$w 	c #773F18",
"%w 	c #491E11",
"&w 	c #502613",
"*w 	c #190103",
"=w 	c #1C0202",
"-w 	c #2E0604",
";w 	c #270402",
">w 	c #390402",
",w 	c #2E0304",
"'w 	c #4F0803",
")w 	c #A22001",
"!w 	c #C12700",
"~w 	c #B41900",
"{w 	c #B41600",
"]w 	c #BF1800",
"^w 	c #AF1100",
"/w 	c #AA1100",
"(w 	c #941401",
"_w 	c #8E0C02",
":w 	c #6A0B02",
"<w 	c #4B0A04",
"[w 	c #67230D",
"}w 	c #9B5D2A",
"|w 	c #A77F38",
"1w 	c #D6BA5C",
"2w 	c #F9E376",
"3w 	c #EECE5E",
"4w 	c #997334",
"5w 	c #441D0D",
"6w 	c #BFAA5A",
"7w 	c #E9CC68",
"8w 	c #CDA349",
"9w 	c #7E5B29",
"0w 	c #CFA44A",
"aw 	c #EFD263",
"bw 	c #E0C75D",
"cw 	c #5E3817",
"dw 	c #D0A248",
"ew 	c #D6A848",
"fw 	c #9B6A2C",
"gw 	c #5C421B",
"hw 	c #DFB64C",
"iw 	c #E9CC63",
"jw 	c #92642D",
"kw 	c #C2A349",
"lw 	c #F6D560",
"mw 	c #C6953F",
"nw 	c #76451E",
"ow 	c #C19741",
"pw 	c #E8D370",
"qw 	c #FDF085",
"rw 	c #DFBE5E",
"sw 	c #AE7935",
"tw 	c #4B2612",
"uw 	c #2B0104",
"vw 	c #690702",
"ww 	c #9F1201",
"xw 	c #8F1103",
"yw 	c #8E0F02",
"zw 	c #580203",
"Aw 	c #2E0104",
"Bw 	c #C12B00",
"Cw 	c #DB4100",
"Dw 	c #F75700",
"Ew 	c #E53800",
"Fw 	c #941101",
"Gw 	c #981001",
"Hw 	c #880F02",
"Iw 	c #2D0204",
"Jw 	c #1E0408",
"Kw 	c #1A0206",
"Lw 	c #190206",
"Mw 	c #502D15",
"Nw 	c #936623",
"Ow 	c #C4963A",
"Pw 	c #ECC852",
"Qw 	c #FCEF76",
"Rw 	c #FEF686",
"Sw 	c #FDEA6E",
"Tw 	c #CFB54C",
"Uw 	c #87531E",
"Vw 	c #5D2A13",
"Ww 	c #4B1E0F",
"Xw 	c #2B1407",
"Yw 	c #CBA53C",
"Zw 	c #E9C34E",
"`w 	c #FBE772",
" x 	c #FFF58B",
".x 	c #F9E67B",
"+x 	c #BF9D40",
"@x 	c #9B6027",
"#x 	c #582C15",
"$x 	c #2C0805",
"%x 	c #1F0404",
"&x 	c #310505",
"*x 	c #360207",
"=x 	c #C61700",
"-x 	c #570604",
";x 	c #8D1002",
">x 	c #C21D01",
",x 	c #520802",
"'x 	c #6E1704",
")x 	c #6C2912",
"!x 	c #946F32",
"~x 	c #D3BC5F",
"{x 	c #F9EA7F",
"]x 	c #D9B050",
"^x 	c #8B6830",
"/x 	c #663B1D",
"(x 	c #D3C673",
"_x 	c #FAEA87",
":x 	c #DCBF5A",
"<x 	c #6B461D",
"[x 	c #CFA147",
"}x 	c #F4D969",
"|x 	c #E2C45C",
"1x 	c #815327",
"2x 	c #ECD56D",
"3x 	c #F3D464",
"4x 	c #B99540",
"5x 	c #5A451D",
"6x 	c #E8C558",
"7x 	c #F2D569",
"8x 	c #BE9344",
"9x 	c #D2B454",
"0x 	c #FAE069",
"ax 	c #C99A42",
"bx 	c #835528",
"cx 	c #BE973E",
"dx 	c #E9D46E",
"ex 	c #FCEF83",
"fx 	c #CCAF50",
"gx 	c #7D4622",
"hx 	c #6E0902",
"ix 	c #A21200",
"jx 	c #991001",
"kx 	c #B21701",
"lx 	c #950E00",
"mx 	c #7E0702",
"nx 	c #2C0106",
"ox 	c #430405",
"px 	c #A51F01",
"qx 	c #F14C00",
"rx 	c #7C1C03",
"sx 	c #600903",
"tx 	c #1E0205",
"ux 	c #140003",
"vx 	c #160004",
"wx 	c #180205",
"xx 	c #1F0408",
"yx 	c #1C0208",
"zx 	c #1A0107",
"Ax 	c #1B0206",
"Bx 	c #563116",
"Cx 	c #653D19",
"Dx 	c #BA8A34",
"Ex 	c #E7C961",
"Fx 	c #F7E171",
"Gx 	c #FCE96C",
"Hx 	c #FCEC76",
"Ix 	c #F8DD61",
"Jx 	c #C3A03F",
"Kx 	c #673B19",
"Lx 	c #40130D",
"Mx 	c #2B0E06",
"Nx 	c #A47A2C",
"Ox 	c #C89C40",
"Px 	c #FBEE88",
"Qx 	c #FFF896",
"Rx 	c #FCF28C",
"Sx 	c #D4AC4B",
"Tx 	c #D5A241",
"Ux 	c #BA8434",
"Vx 	c #502C12",
"Wx 	c #39160D",
"Xx 	c #280806",
"Yx 	c #1D0202",
"Zx 	c #170105",
"`x 	c #2A0106",
" y 	c #3F0104",
".y 	c #C31500",
"+y 	c #8E0A00",
"@y 	c #510502",
"#y 	c #650903",
"$y 	c #8C0E01",
"%y 	c #921001",
"&y 	c #530603",
"*y 	c #790C01",
"=y 	c #8F0F00",
"-y 	c #B01700",
";y 	c #C81E00",
">y 	c #620901",
",y 	c #680B01",
"'y 	c #5C1309",
")y 	c #8D5F28",
"!y 	c #D8C066",
"~y 	c #F8E983",
"{y 	c #CC9D45",
"]y 	c #5C3518",
"^y 	c #744D1F",
"/y 	c #DACA77",
"(y 	c #FBED89",
"_y 	c #D9BE59",
":y 	c #5B3817",
"<y 	c #CC9D43",
"[y 	c #F4D664",
"}y 	c #DBBC57",
"|y 	c #7A5228",
"1y 	c #F2E482",
"2y 	c #F6DF72",
"3y 	c #B99944",
"4y 	c #5F451D",
"5y 	c #E8C65B",
"6y 	c #F1D368",
"7y 	c #B0813A",
"8y 	c #D5B759",
"9y 	c #F7E06C",
"0y 	c #C19340",
"ay 	c #673C1A",
"by 	c #B38537",
"cy 	c #EAD671",
"dy 	c #FBF088",
"ey 	c #C69F47",
"fy 	c #875227",
"gy 	c #401F0F",
"hy 	c #9A0F01",
"iy 	c #A61101",
"jy 	c #5A0702",
"ky 	c #8C1201",
"ly 	c #B22200",
"my 	c #CF3801",
"ny 	c #B42601",
"oy 	c #2D0106",
"py 	c #1B0102",
"qy 	c #160003",
"ry 	c #170004",
"sy 	c #180104",
"ty 	c #1C0107",
"uy 	c #1C0106",
"vy 	c #361A0E",
"wy 	c #5F3516",
"xy 	c #9C6A29",
"yy 	c #D6B14B",
"zy 	c #FCEC7E",
"Ay 	c #FAE574",
"By 	c #FBE365",
"Cy 	c #F2D05A",
"Dy 	c #E3BA4B",
"Ey 	c #C2923B",
"Fy 	c #5E3417",
"Gy 	c #441E10",
"Hy 	c #321007",
"Iy 	c #4A210E",
"Jy 	c #A07631",
"Ky 	c #F4E274",
"Ly 	c #FCF087",
"My 	c #FDF590",
"Ny 	c #F2D564",
"Oy 	c #F0CF62",
"Py 	c #CD9B43",
"Qy 	c #67421A",
"Ry 	c #431A0D",
"Sy 	c #3E180D",
"Ty 	c #260808",
"Uy 	c #230308",
"Vy 	c #1F0307",
"Wy 	c #180005",
"Xy 	c #1A0005",
"Yy 	c #A50F00",
"Zy 	c #B51200",
"`y 	c #BE1500",
" z 	c #B91500",
".z 	c #5A0500",
"+z 	c #8B0F02",
"@z 	c #C43700",
"#z 	c #CF3900",
"$z 	c #961E01",
"%z 	c #C43F01",
"&z 	c #A02A00",
"*z 	c #8D0F00",
"=z 	c #BC1F00",
"-z 	c #CC3500",
";z 	c #9B2500",
">z 	c #7C0B00",
",z 	c #780D01",
"'z 	c #660E02",
")z 	c #3E0604",
"!z 	c #72401A",
"~z 	c #D1A94B",
"{z 	c #F2D161",
"]z 	c #CEA54A",
"^z 	c #42200D",
"/z 	c #6D481C",
"(z 	c #D2B955",
"_z 	c #F3D768",
":z 	c #D4B350",
"<z 	c #512C13",
"[z 	c #A57632",
"}z 	c #C5A647",
"|z 	c #9F7C34",
"1z 	c #956C32",
"2z 	c #F0D971",
"3z 	c #FAE57B",
"4z 	c #D0AE51",
"5z 	c #5D3216",
"6z 	c #A07937",
"7z 	c #A89044",
"8z 	c #976E30",
"9z 	c #D7C163",
"0z 	c #E8D365",
"az 	c #805322",
"bz 	c #572813",
"cz 	c #A67432",
"dz 	c #D9C668",
"ez 	c #F5E37D",
"fz 	c #BB943C",
"gz 	c #633315",
"hz 	c #290606",
"iz 	c #890B02",
"jz 	c #A10F01",
"kz 	c #830B02",
"lz 	c #660603",
"mz 	c #270205",
"nz 	c #380304",
"oz 	c #731602",
"pz 	c #841201",
"qz 	c #220203",
"rz 	c #200203",
"sz 	c #140103",
"tz 	c #150003",
"uz 	c #1B0105",
"vz 	c #260B04",
"wz 	c #280E05",
"xz 	c #572C13",
"yz 	c #703F18",
"zz 	c #AD7A31",
"Az 	c #DCB44E",
"Bz 	c #F9E36F",
"Cz 	c #F7D965",
"Dz 	c #F7DC68",
"Ez 	c #D9AE4B",
"Fz 	c #BE8D3A",
"Gz 	c #40180E",
"Hz 	c #341208",
"Iz 	c #C28C30",
"Jz 	c #C28F2D",
"Kz 	c #CA9933",
"Lz 	c #421E0E",
"Mz 	c #8A5E26",
"Nz 	c #E0BD4F",
"Oz 	c #EFD367",
"Pz 	c #FDF488",
"Qz 	c #FAE775",
"Rz 	c #FAE877",
"Sz 	c #CB9D49",
"Tz 	c #965F2A",
"Uz 	c #5F3016",
"Vz 	c #42170C",
"Wz 	c #532614",
"Xz 	c #502A1A",
"Yz 	c #270B0B",
"Zz 	c #250208",
"`z 	c #27040A",
" A 	c #210308",
".A 	c #1C0206",
"+A 	c #1A0105",
"@A 	c #220107",
"#A 	c #AB0F00",
"$A 	c #630701",
"%A 	c #E13D00",
"&A 	c #E14500",
"*A 	c #F04B00",
"=A 	c #C23501",
"-A 	c #851000",
";A 	c #C52700",
">A 	c #9B2400",
",A 	c #871300",
"'A 	c #5E0B01",
")A 	c #410504",
"!A 	c #421206",
"~A 	c #AA8534",
"{A 	c #D8B04A",
"]A 	c #C3913B",
"^A 	c #360C04",
"/A 	c #350805",
"(A 	c #A37E39",
"_A 	c #E6BF59",
":A 	c #BC943D",
"<A 	c #2C0906",
"[A 	c #663718",
"}A 	c #824F25",
"|A 	c #42200F",
"1A 	c #B19248",
"2A 	c #F6E480",
"3A 	c #F5DF77",
"4A 	c #CAA64A",
"5A 	c #340D08",
"6A 	c #7F5626",
"7A 	c #E0CB67",
"8A 	c #E0C862",
"9A 	c #4A2310",
"0A 	c #2E0706",
"aA 	c #835828",
"bA 	c #D1BC63",
"cA 	c #F2E07B",
"dA 	c #B08E35",
"eA 	c #4B0905",
"fA 	c #670E03",
"gA 	c #790A03",
"hA 	c #7C0803",
"iA 	c #680C02",
"jA 	c #CC2800",
"kA 	c #DC2600",
"lA 	c #CD1F00",
"mA 	c #7F0901",
"nA 	c #150004",
"oA 	c #1A0004",
"pA 	c #180004",
"qA 	c #1B0004",
"rA 	c #170205",
"sA 	c #160105",
"tA 	c #230B06",
"uA 	c #2A0C05",
"vA 	c #96752D",
"wA 	c #A4742E",
"xA 	c #9D6C2A",
"yA 	c #AE7E33",
"zA 	c #DAAC49",
"AA 	c #F0CD5E",
"BA 	c #EAC155",
"CA 	c #DEB650",
"DA 	c #BC8E3B",
"EA 	c #8D5726",
"FA 	c #4E2311",
"GA 	c #431910",
"HA 	c #2D0B08",
"IA 	c #CA9B3A",
"JA 	c #E4B944",
"KA 	c #EDC443",
"LA 	c #C59930",
"MA 	c #341709",
"NA 	c #532D11",
"OA 	c #B07831",
"PA 	c #CFA54B",
"QA 	c #FDF081",
"RA 	c #FCE872",
"SA 	c #FBE875",
"TA 	c #D1A54C",
"UA 	c #B8853A",
"VA 	c #834F23",
"WA 	c #502212",
"XA 	c #7B4B24",
"YA 	c #7D4C26",
"ZA 	c #3B190C",
"`A 	c #1B0005",
" B 	c #400504",
".B 	c #3B0506",
"+B 	c #960A01",
"@B 	c #A60E01",
"#B 	c #A70F01",
"$B 	c #7E0900",
"%B 	c #670601",
"&B 	c #890E01",
"*B 	c #C52500",
"=B 	c #C82000",
"-B 	c #D92E00",
";B 	c #B02401",
">B 	c #B72200",
",B 	c #E74200",
"'B 	c #AB2000",
")B 	c #931300",
"!B 	c #831100",
"~B 	c #911400",
"{B 	c #5C0803",
"]B 	c #330303",
"^B 	c #441507",
"/B 	c #8A4315",
"(B 	c #B8621B",
"_B 	c #320402",
":B 	c #330404",
"<B 	c #55250F",
"[B 	c #CBA346",
"}B 	c #AA853A",
"|B 	c #2B0304",
"1B 	c #300505",
"2B 	c #2C0706",
"3B 	c #69542B",
"4B 	c #EFDC77",
"5B 	c #F0D86C",
"6B 	c #B09544",
"7B 	c #280504",
"8B 	c #A98B3F",
"9B 	c #D2AB4D",
"0B 	c #6C3B1B",
"aB 	c #D1B957",
"bB 	c #F2DA66",
"cB 	c #8A6327",
"dB 	c #270006",
"eB 	c #7A1404",
"fB 	c #AE1C01",
"gB 	c #4C0404",
"hB 	c #6C0503",
"iB 	c #7F0D01",
"jB 	c #CE1F01",
"kB 	c #DE2701",
"lB 	c #C52201",
"mB 	c #A01001",
"nB 	c #9A0E01",
"oB 	c #750A02",
"pB 	c #560503",
"qB 	c #470405",
"rB 	c #1C0005",
"sB 	c #1D0005",
"tB 	c #1F0005",
"uB 	c #190004",
"vB 	c #1A0006",
"wB 	c #220807",
"xB 	c #40170C",
"yB 	c #B69C41",
"zB 	c #E0B34B",
"AB 	c #CFA041",
"BB 	c #885622",
"CB 	c #D0A143",
"DB 	c #E4B64D",
"EB 	c #CE9B40",
"FB 	c #9C682E",
"GB 	c #9C692E",
"HB 	c #572914",
"IB 	c #39110C",
"JB 	c #4F2314",
"KB 	c #341409",
"LB 	c #C99F42",
"MB 	c #FAE063",
"NB 	c #F6DC5B",
"OB 	c #AE8229",
"PB 	c #936525",
"QB 	c #220804",
"RB 	c #4B2711",
"SB 	c #B5883A",
"TB 	c #FBE36B",
"UB 	c #FDEF7D",
"VB 	c #FBEB7D",
"WB 	c #F0CF65",
"XB 	c #F2D265",
"YB 	c #B38940",
"ZB 	c #7B4622",
"`B 	c #905A2A",
" C 	c #9B632D",
".C 	c #542D15",
"+C 	c #200206",
"@C 	c #260107",
"#C 	c #4D0606",
"$C 	c #881003",
"%C 	c #771004",
"&C 	c #580704",
"*C 	c #460304",
"=C 	c #7C0B02",
"-C 	c #BE2500",
";C 	c #750E01",
">C 	c #7A1702",
",C 	c #D03300",
"'C 	c #E84800",
")C 	c #A51F00",
"!C 	c #7B0E01",
"~C 	c #650802",
"{C 	c #941200",
"]C 	c #6B0902",
"^C 	c #4E1006",
"/C 	c #A53E0D",
"(C 	c #9A2501",
"_C 	c #470501",
":C 	c #320101",
"<C 	c #3A0403",
"[C 	c #8F6829",
"}C 	c #4F2C11",
"|C 	c #2B0103",
"1C 	c #301007",
"2C 	c #674620",
"3C 	c #5B3F1D",
"4C 	c #3D240F",
"5C 	c #300404",
"6C 	c #49220C",
"7C 	c #502D11",
"8C 	c #380605",
"9C 	c #603016",
"0C 	c #BB983F",
"aC 	c #D2A744",
"bC 	c #4B3714",
"cC 	c #961504",
"dC 	c #BD1D01",
"eC 	c #941300",
"fC 	c #A41800",
"gC 	c #660902",
"hC 	c #5A0703",
"iC 	c #230006",
"jC 	c #210005",
"kC 	c #320306",
"lC 	c #240006",
"mC 	c #180007",
"nC 	c #190007",
"oC 	c #210107",
"pC 	c #1C0006",
"qC 	c #180402",
"rC 	c #542716",
"sC 	c #B8953F",
"tC 	c #D6A647",
"uC 	c #E6BE54",
"vC 	c #AF8135",
"wC 	c #A57130",
"xC 	c #B48337",
"yC 	c #B88639",
"zC 	c #895527",
"AC 	c #7C4C23",
"BC 	c #370F0D",
"CC 	c #4E1B0F",
"DC 	c #2F1109",
"EC 	c #BF9844",
"FC 	c #FCE972",
"GC 	c #FBEC78",
"HC 	c #C79E3A",
"IC 	c #D1A737",
"JC 	c #7A5823",
"KC 	c #1C0502",
"LC 	c #3C190D",
"MC 	c #805325",
"NC 	c #785825",
"OC 	c #F0C959",
"PC 	c #F1D56A",
"QC 	c #FCE979",
"RC 	c #F9DD6B",
"SC 	c #F9E475",
"TC 	c #B89B53",
"UC 	c #7B4621",
"VC 	c #925B29",
"WC 	c #AF7735",
"XC 	c #633C1A",
"YC 	c #49120B",
"ZC 	c #2C0208",
"`C 	c #910F04",
" D 	c #9B0F02",
".D 	c #600604",
"+D 	c #440102",
"@D 	c #C83C00",
"#D 	c #EB4900",
"$D 	c #6A0B01",
"%D 	c #510401",
"&D 	c #570A01",
"*D 	c #892501",
"=D 	c #E15400",
"-D 	c #AF1F00",
";D 	c #811101",
">D 	c #961400",
",D 	c #6B1203",
"'D 	c #BC2E02",
")D 	c #A51D00",
"!D 	c #780D00",
"~D 	c #3F0102",
"{D 	c #4A0603",
"]D 	c #612B0C",
"^D 	c #470402",
"/D 	c #2D0504",
"(D 	c #3E0705",
"_D 	c #3A0605",
":D 	c #390404",
"<D 	c #450E07",
"[D 	c #815A23",
"}D 	c #9F6828",
"|D 	c #311309",
"1D 	c #801002",
"2D 	c #B41A01",
"3D 	c #6D0903",
"4D 	c #B51B00",
"5D 	c #9E1200",
"6D 	c #BC1C00",
"7D 	c #510404",
"8D 	c #250006",
"9D 	c #831002",
"0D 	c #981601",
"aD 	c #9F1801",
"bD 	c #B01C02",
"cD 	c #A11903",
"dD 	c #660B04",
"eD 	c #7F0F04",
"fD 	c #220006",
"gD 	c #1D0006",
"hD 	c #1B0006",
"iD 	c #1F0107",
"jD 	c #211007",
"kD 	c #4A3413",
"lD 	c #84602B",
"mD 	c #845627",
"nD 	c #C59943",
"oD 	c #D09F45",
"pD 	c #F4D364",
"qD 	c #D6A94B",
"rD 	c #B98B3A",
"sD 	c #7A4820",
"tD 	c #804F23",
"uD 	c #955E2C",
"vD 	c #74441F",
"wD 	c #42120D",
"xD 	c #521E0F",
"yD 	c #CCA241",
"zD 	c #F9EA7A",
"AD 	c #FEF888",
"BD 	c #EECB4F",
"CD 	c #E7B73C",
"DD 	c #8B5D1F",
"ED 	c #1A0803",
"FD 	c #310E0A",
"GD 	c #6C411D",
"HD 	c #5F3C17",
"ID 	c #DBB24D",
"JD 	c #E3BD57",
"KD 	c #E9C660",
"LD 	c #F3D468",
"MD 	c #E5BF5D",
"ND 	c #A07A3F",
"OD 	c #6B381C",
"PD 	c #834C24",
"QD 	c #A36831",
"RD 	c #623719",
"SD 	c #380708",
"TD 	c #3A0808",
"UD 	c #290107",
"VD 	c #6C0703",
"WD 	c #710902",
"XD 	c #560504",
"YD 	c #B82E01",
"ZD 	c #EC5100",
"`D 	c #EA5100",
" E 	c #7F1100",
".E 	c #570501",
"+E 	c #530501",
"@E 	c #7F2700",
"#E 	c #D53900",
"$E 	c #B82200",
"%E 	c #B71F00",
"&E 	c #8E1601",
"*E 	c #701002",
"=E 	c #9E1A02",
"-E 	c #3A0505",
";E 	c #3C0705",
">E 	c #491709",
",E 	c #2F0306",
"'E 	c #B61A00",
")E 	c #D52800",
"!E 	c #C11800",
"~E 	c #7C0B03",
"{E 	c #620803",
"]E 	c #720D02",
"^E 	c #981E02",
"/E 	c #9B1C04",
"(E 	c #921803",
"_E 	c #831603",
":E 	c #430404",
"<E 	c #5E461E",
"[E 	c #BE9142",
"}E 	c #A87737",
"|E 	c #9B6B32",
"1E 	c #C29645",
"2E 	c #C59744",
"3E 	c #F0D265",
"4E 	c #D6AC4F",
"5E 	c #BE8A3B",
"6E 	c #95612A",
"7E 	c #7D4A21",
"8E 	c #65391A",
"9E 	c #380F0A",
"0E 	c #CB9A3A",
"aE 	c #F4E373",
"bE 	c #FEF889",
"cE 	c #F6DA58",
"dE 	c #9F732B",
"eE 	c #240C08",
"fE 	c #3A0B0B",
"gE 	c #532E12",
"hE 	c #CC9A3F",
"iE 	c #DDB151",
"jE 	c #E8BE57",
"kE 	c #CE9D47",
"lE 	c #754722",
"mE 	c #4F1C10",
"nE 	c #6F391C",
"oE 	c #955729",
"pE 	c #562A13",
"qE 	c #330506",
"rE 	c #400104",
"sE 	c #AC2C01",
"tE 	c #E86701",
"uE 	c #F07200",
"vE 	c #941D00",
"wE 	c #630A01",
"xE 	c #5B0F01",
"yE 	c #793502",
"zE 	c #C33F00",
"AE 	c #B82000",
"BE 	c #932600",
"CE 	c #C24A00",
"DE 	c #872201",
"EE 	c #760C01",
"FE 	c #840B00",
"GE 	c #350205",
"HE 	c #4C0403",
"IE 	c #B81B00",
"JE 	c #D02500",
"KE 	c #7A0A03",
"LE 	c #290104",
"ME 	c #200004",
"NE 	c #740701",
"OE 	c #4A0503",
"PE 	c #360103",
"QE 	c #360706",
"RE 	c #4A240F",
"SE 	c #6F4B20",
"TE 	c #AF7E38",
"UE 	c #9A6730",
"VE 	c #89562A",
"WE 	c #96642D",
"XE 	c #C59845",
"YE 	c #BF9241",
"ZE 	c #C08B3C",
"`E 	c #B27E36",
" F 	c #4A2510",
".F 	c #511E12",
"+F 	c #390E0B",
"@F 	c #2A0406",
"#F 	c #2B0A07",
"$F 	c #2B1309",
"%F 	c #513410",
"&F 	c #A47A1F",
"*F 	c #C08E21",
"=F 	c #B27F2D",
"-F 	c #EAD468",
";F 	c #FEFA92",
">F 	c #FFF88E",
",F 	c #FAE86A",
"'F 	c #AF7D2E",
")F 	c #865B1A",
"!F 	c #513313",
"~F 	c #4C2A13",
"{F 	c #30160A",
"]F 	c #410F0C",
"^F 	c #45180A",
"/F 	c #925B24",
"(F 	c #C08F3F",
"_F 	c #C69342",
":F 	c #BD873B",
"<F 	c #6D3C1B",
"[F 	c #3D0C09",
"}F 	c #2E0907",
"|F 	c #350306",
"1F 	c #400205",
"2F 	c #2B0006",
"3F 	c #6D1101",
"4F 	c #C02600",
"5F 	c #CC3700",
"6F 	c #E77801",
"7F 	c #DFA401",
"8F 	c #F3B801",
"9F 	c #E94800",
"0F 	c #C62500",
"aF 	c #DA6600",
"bF 	c #B06E01",
"cF 	c #4C0302",
"dF 	c #350003",
"eF 	c #860B01",
"fF 	c #AB1700",
"gF 	c #D22800",
"hF 	c #C92000",
"iF 	c #A01401",
"jF 	c #560403",
"kF 	c #650702",
"lF 	c #660602",
"mF 	c #3B0105",
"nF 	c #4F0404",
"oF 	c #560C06",
"pF 	c #4E0E06",
"qF 	c #320806",
"rF 	c #A77334",
"sF 	c #805126",
"tF 	c #7C5126",
"uF 	c #A57333",
"vF 	c #885828",
"wF 	c #92602B",
"xF 	c #AA7333",
"yF 	c #A16C2F",
"zF 	c #522813",
"AF 	c #2D0607",
"BF 	c #36160A",
"CF 	c #946A1E",
"DF 	c #EFC949",
"EF 	c #F1CA45",
"FF 	c #976628",
"GF 	c #EDD05E",
"HF 	c #FEF481",
"IF 	c #FFF78C",
"JF 	c #FDEC73",
"KF 	c #C99436",
"LF 	c #B57D26",
"MF 	c #87581A",
"NF 	c #461B0D",
"OF 	c #381E0E",
"PF 	c #2A0F06",
"QF 	c #3A0D0C",
"RF 	c #49140E",
"SF 	c #47130C",
"TF 	c #592312",
"UF 	c #A06F31",
"VF 	c #A36E35",
"WF 	c #7E4F26",
"XF 	c #BC8138",
"YF 	c #764520",
"ZF 	c #3A0A08",
"`F 	c #370708",
" G 	c #400506",
".G 	c #3F0405",
"+G 	c #600402",
"@G 	c #4D0305",
"#G 	c #430205",
"$G 	c #5E0403",
"%G 	c #510300",
"&G 	c #800C01",
"*G 	c #D55400",
"=G 	c #F7C301",
"-G 	c #FEDF01",
";G 	c #FEEC02",
">G 	c #FC9500",
",G 	c #F84100",
"'G 	c #EF6800",
")G 	c #FDB300",
"!G 	c #B96600",
"~G 	c #4A0200",
"{G 	c #600600",
"]G 	c #4D0401",
"^G 	c #5B0302",
"/G 	c #4B0102",
"(G 	c #450102",
"_G 	c #3D0102",
":G 	c #400102",
"<G 	c #3C0102",
"[G 	c #3C0002",
"}G 	c #E03000",
"|G 	c #791001",
"1G 	c #6A0702",
"2G 	c #830901",
"3G 	c #880C02",
"4G 	c #931202",
"5G 	c #881B06",
"6G 	c #641607",
"7G 	c #380707",
"8G 	c #5A2E17",
"9G 	c #6B3D1C",
"0G 	c #9E642D",
"aG 	c #915A29",
"bG 	c #96602D",
"cG 	c #9E6930",
"dG 	c #844E24",
"eG 	c #622C16",
"fG 	c #300D08",
"gG 	c #300C08",
"hG 	c #87621F",
"iG 	c #CB9E35",
"jG 	c #FBE668",
"kG 	c #E9C754",
"lG 	c #8F611E",
"mG 	c #7B4E1F",
"nG 	c #D5B54B",
"oG 	c #FDEE78",
"pG 	c #FFF78B",
"qG 	c #FEF17C",
"rG 	c #E9C351",
"sG 	c #CC9531",
"tG 	c #BF8C2B",
"uG 	c #4A200F",
"vG 	c #200605",
"wG 	c #3B0A09",
"xG 	c #440F0C",
"yG 	c #45100B",
"zG 	c #4F170E",
"AG 	c #7F4A22",
"BG 	c #A16732",
"CG 	c #673E1C",
"DG 	c #A6682C",
"EG 	c #643018",
"FG 	c #470D08",
"GG 	c #390707",
"HG 	c #410505",
"IG 	c #711004",
"JG 	c #500703",
"KG 	c #420205",
"LG 	c #350206",
"MG 	c #650704",
"NG 	c #770902",
"OG 	c #750801",
"PG 	c #590303",
"QG 	c #600500",
"RG 	c #730C00",
"SG 	c #CA4601",
"TG 	c #EF9B00",
"UG 	c #F9C200",
"VG 	c #FFD900",
"WG 	c #FC9700",
"XG 	c #EC4D00",
"YG 	c #F66600",
"ZG 	c #FDA300",
"`G 	c #BE4400",
" H 	c #A01200",
".H 	c #A71400",
"+H 	c #7B0D00",
"@H 	c #800900",
"#H 	c #550202",
"$H 	c #440606",
"%H 	c #3A0406",
"&H 	c #390506",
"*H 	c #360305",
"=H 	c #B31501",
"-H 	c #B01F00",
";H 	c #D93300",
">H 	c #E73D00",
",H 	c #E84000",
"'H 	c #600C02",
")H 	c #530404",
"!H 	c #710802",
"~H 	c #810901",
"{H 	c #6B0602",
"]H 	c #890C00",
"^H 	c #9B1F02",
"/H 	c #5B1006",
"(H 	c #410A09",
"_H 	c #4E1F11",
":H 	c #773F1D",
"<H 	c #864C23",
"[H 	c #865023",
"}H 	c #64381A",
"|H 	c #854F26",
"1H 	c #8E5828",
"2H 	c #6C3A1B",
"3H 	c #40110C",
"4H 	c #260306",
"5H 	c #270406",
"6H 	c #200805",
"7H 	c #6C4C1D",
"8H 	c #CAA83C",
"9H 	c #EEC94A",
"0H 	c #D7B149",
"aH 	c #C2A041",
"bH 	c #F5E06D",
"cH 	c #FEF891",
"dH 	c #FEF17A",
"eH 	c #FAE873",
"fH 	c #F1C649",
"gH 	c #E3AF37",
"hH 	c #7F5617",
"iH 	c #331205",
"jH 	c #74471A",
"kH 	c #380A0B",
"lH 	c #410B0A",
"mH 	c #440E0B",
"nH 	c #572213",
"oH 	c #642D16",
"pH 	c #5B2513",
"qH 	c #804621",
"rH 	c #6E361A",
"sH 	c #4B0F0A",
"tH 	c #480806",
"uH 	c #600E04",
"vH 	c #A72C01",
"wH 	c #C75301",
"xH 	c #791F04",
"yH 	c #831904",
"zH 	c #4C0607",
"AH 	c #520303",
"BH 	c #810902",
"CH 	c #600503",
"DH 	c #8B0D02",
"EH 	c #A21201",
"FH 	c #C22300",
"GH 	c #A61300",
"HH 	c #860600",
"IH 	c #690301",
"JH 	c #620400",
"KH 	c #6D0900",
"LH 	c #B43C01",
"MH 	c #CF4A00",
"NH 	c #F2B200",
"OH 	c #FFB100",
"PH 	c #FC7800",
"QH 	c #FC7D00",
"RH 	c #FD9400",
"SH 	c #FE9200",
"TH 	c #B04A00",
"UH 	c #8C0E00",
"VH 	c #B92E00",
"WH 	c #D82C00",
"XH 	c #B21F00",
"YH 	c #AC1000",
"ZH 	c #5D0301",
"`H 	c #4A0103",
" I 	c #460202",
".I 	c #490906",
"+I 	c #460A06",
"@I 	c #4C130B",
"#I 	c #370406",
"$I 	c #BC1E01",
"%I 	c #D73200",
"&I 	c #F14800",
"*I 	c #D83501",
"=I 	c #580702",
"-I 	c #680703",
";I 	c #530302",
">I 	c #760601",
",I 	c #B41A00",
"'I 	c #CB2500",
")I 	c #B01900",
"!I 	c #770802",
"~I 	c #B21900",
"{I 	c #B21A00",
"]I 	c #921602",
"^I 	c #804204",
"/I 	c #9B5A04",
"(I 	c #55190B",
"_I 	c #9B4016",
":I 	c #662510",
"<I 	c #773717",
"[I 	c #6F3917",
"}I 	c #411A0D",
"|I 	c #6A391A",
"1I 	c #612F17",
"2I 	c #4F1D0E",
"3I 	c #5B2A12",
"4I 	c #2D0906",
"5I 	c #240606",
"6I 	c #532E11",
"7I 	c #7F541B",
"8I 	c #E0B944",
"9I 	c #FDE967",
"0I 	c #F2CF53",
"aI 	c #C08C30",
"bI 	c #4A1E0E",
"cI 	c #AC8333",
"dI 	c #E0BE54",
"eI 	c #FBEC7E",
"fI 	c #FEF07A",
"gI 	c #FDF180",
"hI 	c #FADF63",
"iI 	c #EFCD59",
"jI 	c #B9852C",
"kI 	c #9E6F28",
"lI 	c #B87E2D",
"mI 	c #6E4517",
"nI 	c #31100B",
"oI 	c #36080C",
"pI 	c #3F0909",
"qI 	c #3D0708",
"rI 	c #43100C",
"sI 	c #52170D",
"tI 	c #5B1E0F",
"uI 	c #682C15",
"vI 	c #682F18",
"wI 	c #5A160C",
"xI 	c #690F05",
"yI 	c #761103",
"zI 	c #D74D00",
"AI 	c #9C2301",
"BI 	c #771003",
"CI 	c #430406",
"DI 	c #4A0606",
"EI 	c #6D0702",
"FI 	c #960E02",
"GI 	c #A00B01",
"HI 	c #6C0400",
"II 	c #941C00",
"JI 	c #A71E00",
"KI 	c #E58C00",
"LI 	c #FFB900",
"MI 	c #FECE00",
"NI 	c #FEC500",
"OI 	c #FD9201",
"PI 	c #FD6800",
"QI 	c #ED4A00",
"RI 	c #EB3C00",
"SI 	c #B11400",
"TI 	c #610302",
"UI 	c #600302",
"VI 	c #670301",
"WI 	c #650300",
"XI 	c #680301",
"YI 	c #630301",
"ZI 	c #4F0001",
"`I 	c #560201",
" J 	c #450103",
".J 	c #480103",
"+J 	c #642B0E",
"@J 	c #7B4119",
"#J 	c #622712",
"$J 	c #561C0D",
"%J 	c #3C0806",
"&J 	c #3F0504",
"*J 	c #390202",
"=J 	c #BB2000",
"-J 	c #FA5200",
";J 	c #E93900",
">J 	c #C62601",
",J 	c #840C01",
"'J 	c #7D0800",
")J 	c #AF1900",
"!J 	c #E42D00",
"~J 	c #F53B00",
"{J 	c #DE2800",
"]J 	c #DE2D00",
"^J 	c #810600",
"/J 	c #6D0501",
"(J 	c #850801",
"_J 	c #C31900",
":J 	c #BE1B00",
"<J 	c #B31900",
"[J 	c #8C3502",
"}J 	c #751405",
"|J 	c #AB2704",
"1J 	c #651306",
"2J 	c #62210D",
"3J 	c #692B11",
"4J 	c #3A0A07",
"5J 	c #390D0A",
"6J 	c #41140C",
"7J 	c #45130B",
"8J 	c #4F190D",
"9J 	c #300606",
"0J 	c #290306",
"aJ 	c #2D0D09",
"bJ 	c #886D27",
"cJ 	c #DCC552",
"dJ 	c #EFCF55",
"eJ 	c #FCE360",
"fJ 	c #E7B73F",
"gJ 	c #9F6B21",
"hJ 	c #3E140B",
"iJ 	c #7B4D1D",
"jJ 	c #B88B37",
"kJ 	c #F3D864",
"lJ 	c #FEF37D",
"mJ 	c #FDF079",
"nJ 	c #FDEE7C",
"oJ 	c #FBEA77",
"pJ 	c #F3CA52",
"qJ 	c #F1C950",
"rJ 	c #D7A53F",
"sJ 	c #8F5C20",
"tJ 	c #35190D",
"uJ 	c #1E0406",
"vJ 	c #1B0404",
"wJ 	c #330709",
"xJ 	c #3C0808",
"yJ 	c #3A0608",
"zJ 	c #3D0A0A",
"AJ 	c #6B3116",
"BJ 	c #632A14",
"CJ 	c #6A3118",
"DJ 	c #63160A",
"EJ 	c #731105",
"FJ 	c #670B03",
"GJ 	c #B62C01",
"HJ 	c #EA5000",
"IJ 	c #D53002",
"JJ 	c #A41902",
"KJ 	c #750D04",
"LJ 	c #600704",
"MJ 	c #630601",
"NJ 	c #730602",
"OJ 	c #750602",
"PJ 	c #A61201",
"QJ 	c #D12300",
"RJ 	c #BE1900",
"SJ 	c #990D00",
"TJ 	c #960E00",
"UJ 	c #890900",
"VJ 	c #8D0900",
"WJ 	c #A21800",
"XJ 	c #E57E01",
"YJ 	c #FDAD00",
"ZJ 	c #FFD500",
"`J 	c #FE6700",
" K 	c #F55500",
".K 	c #EA3500",
"+K 	c #E73300",
"@K 	c #B51300",
"#K 	c #A90F00",
"$K 	c #8F0901",
"%K 	c #5A0101",
"&K 	c #6A0500",
"*K 	c #490806",
"=K 	c #743E17",
"-K 	c #9A5A24",
";K 	c #80451B",
">K 	c #3D0B08",
",K 	c #480704",
"'K 	c #BD2300",
")K 	c #F34E00",
"!K 	c #DA3100",
"~K 	c #B72302",
"{K 	c #920B00",
"]K 	c #E12C00",
"^K 	c #EA2E00",
"/K 	c #760902",
"(K 	c #891001",
"_K 	c #7E0D01",
":K 	c #792703",
"<K 	c #A92A00",
"[K 	c #7B0D02",
"}K 	c #A21901",
"|K 	c #55190A",
"1K 	c #61230E",
"2K 	c #3A0707",
"3K 	c #3B0908",
"4K 	c #3E0C09",
"5K 	c #320506",
"6K 	c #311E07",
"7K 	c #BCA142",
"8K 	c #FEF277",
"9K 	c #FEEB6C",
"0K 	c #FBE35E",
"aK 	c #CD9C36",
"bK 	c #85531B",
"cK 	c #441C0E",
"dK 	c #94652A",
"eK 	c #C89840",
"fK 	c #F4D65E",
"gK 	c #FCEB79",
"hK 	c #FEF07E",
"iK 	c #FEE76F",
"jK 	c #FAE16E",
"kK 	c #F2CE53",
"lK 	c #D9AB43",
"mK 	c #AD7A32",
"nK 	c #5E3D1A",
"oK 	c #170204",
"pK 	c #200807",
"qK 	c #310308",
"rK 	c #300408",
"sK 	c #40110B",
"tK 	c #4A1A0E",
"uK 	c #47140D",
"vK 	c #420505",
"wK 	c #560704",
"xK 	c #A02A02",
"yK 	c #F27400",
"zK 	c #E72A00",
"AK 	c #D43300",
"BK 	c #5A0602",
"CK 	c #490305",
"DK 	c #5A0300",
"EK 	c #9B1000",
"FK 	c #9A2800",
"GK 	c #8D2100",
"HK 	c #A22100",
"IK 	c #D97201",
"JK 	c #FB8C00",
"KK 	c #FFC500",
"LK 	c #FFB700",
"MK 	c #FE6E00",
"NK 	c #E43E00",
"OK 	c #E94200",
"PK 	c #EC4800",
"QK 	c #A00D00",
"RK 	c #A31900",
"SK 	c #C33A00",
"TK 	c #BD3200",
"UK 	c #6E0B01",
"VK 	c #4C0A05",
"WK 	c #8D6229",
"XK 	c #BC833B",
"YK 	c #8D5729",
"ZK 	c #51160A",
"`K 	c #871703",
" L 	c #6A0C02",
".L 	c #B01A00",
"+L 	c #D03001",
"@L 	c #D33400",
"#L 	c #8B1701",
"$L 	c #580C02",
"%L 	c #A60B00",
"&L 	c #FB4600",
"*L 	c #F03900",
"=L 	c #C82200",
"-L 	c #8D0E01",
";L 	c #B21500",
">L 	c #980E01",
",L 	c #4C0201",
"'L 	c #310002",
")L 	c #900E01",
"!L 	c #5A0503",
"~L 	c #480405",
"{L 	c #380506",
"]L 	c #1E0203",
"^L 	c #1C0503",
"/L 	c #331309",
"(L 	c #532F12",
"_L 	c #654917",
":L 	c #E4CC57",
"<L 	c #FFFA84",
"[L 	c #EBC245",
"}L 	c #A46C27",
"|L 	c #633213",
"1L 	c #2E0B09",
"2L 	c #350F0A",
"3L 	c #7D5222",
"4L 	c #AF7C34",
"5L 	c #DBB049",
"6L 	c #F3D665",
"7L 	c #FDEB79",
"8L 	c #FEF284",
"9L 	c #F8E26B",
"0L 	c #E2BC52",
"aL 	c #9F7736",
"bL 	c #50381C",
"cL 	c #170005",
"dL 	c #310207",
"eL 	c #370709",
"fL 	c #440B0B",
"gL 	c #3D0608",
"hL 	c #E05300",
"iL 	c #EE6D00",
"jL 	c #F8AA01",
"kL 	c #C65800",
"lL 	c #981500",
"mL 	c #901301",
"nL 	c #4D0402",
"oL 	c #460205",
"pL 	c #8B0B01",
"qL 	c #5A0201",
"rL 	c #5F0300",
"sL 	c #6A0400",
"tL 	c #7F0B00",
"uL 	c #D72E00",
"vL 	c #DE3D00",
"wL 	c #F18703",
"xL 	c #F29903",
"yL 	c #EA8B00",
"zL 	c #CF4900",
"AL 	c #F06000",
"BL 	c #FFA200",
"CL 	c #FF7E00",
"DL 	c #FE9400",
"EL 	c #F87100",
"FL 	c #C62100",
"GL 	c #B11300",
"HL 	c #C21700",
"IL 	c #C51800",
"JL 	c #C91C00",
"KL 	c #E12500",
"LL 	c #E83A00",
"ML 	c #FE5F00",
"NL 	c #CE1E00",
"OL 	c #480604",
"PL 	c #5A1208",
"QL 	c #9B8B4C",
"RL 	c #F1DA6F",
"SL 	c #E2BD5B",
"TL 	c #8A5427",
"UL 	c #802B0F",
"VL 	c #AA2904",
"WL 	c #871402",
"XL 	c #690E01",
"YL 	c #520D02",
"ZL 	c #370203",
"`L 	c #B51000",
" M 	c #D91F00",
".M 	c #F03400",
"+M 	c #FD5C00",
"@M 	c #FC6800",
"#M 	c #EF3A00",
"$M 	c #E42C00",
"%M 	c #DA1C00",
"&M 	c #DF1E00",
"*M 	c #D83C00",
"=M 	c #860D00",
"-M 	c #CB1A00",
";M 	c #CF2200",
">M 	c #A21701",
",M 	c #550504",
"'M 	c #1A0103",
")M 	c #200504",
"!M 	c #260B06",
"~M 	c #7D6021",
"{M 	c #E9C645",
"]M 	c #F4D659",
"^M 	c #FFFA85",
"/M 	c #F7E068",
"(M 	c #613614",
"_M 	c #4C210D",
":M 	c #290908",
"<M 	c #2F0807",
"[M 	c #754C21",
"}M 	c #A26F30",
"|M 	c #BB8C3C",
"1M 	c #D1A54A",
"2M 	c #DCB958",
"3M 	c #FBEE82",
"4M 	c #FDF188",
"5M 	c #F7D963",
"6M 	c #D1A243",
"7M 	c #D29E41",
"8M 	c #6A4C20",
"9M 	c #270107",
"0M 	c #2C0207",
"aM 	c #300106",
"bM 	c #860C01",
"cM 	c #F77100",
"dM 	c #E95800",
"eM 	c #841701",
"fM 	c #A42000",
"gM 	c #B53B00",
"hM 	c #B33900",
"iM 	c #B23201",
"jM 	c #920B01",
"kM 	c #5B0701",
"lM 	c #AF4001",
"mM 	c #D76000",
"nM 	c #F9AB00",
"oM 	c #FCBB00",
"pM 	c #FED501",
"qM 	c #FED901",
"rM 	c #FED500",
"sM 	c #FDD500",
"tM 	c #FDCB01",
"uM 	c #FD9C00",
"vM 	c #FF9500",
"wM 	c #FEDA01",
"xM 	c #FEDC06",
"yM 	c #FEDA2D",
"zM 	c #FCB422",
"AM 	c #F99100",
"BM 	c #CA6001",
"CM 	c #C81900",
"DM 	c #F54300",
"EM 	c #F64300",
"FM 	c #F94700",
"GM 	c #FD5B00",
"HM 	c #D33700",
"IM 	c #BC2200",
"JM 	c #E93B00",
"KM 	c #B11B00",
"LM 	c #961101",
"MM 	c #701204",
"NM 	c #360503",
"OM 	c #7A4218",
"PM 	c #B89F55",
"QM 	c #FBEC88",
"RM 	c #EBCA68",
"SM 	c #925929",
"TM 	c #71200A",
"UM 	c #C22D02",
"VM 	c #D02900",
"WM 	c #A61800",
"XM 	c #2E0003",
"YM 	c #1E0003",
"ZM 	c #E53300",
"`M 	c #F65900",
" N 	c #F96100",
".N 	c #F65B00",
"+N 	c #F65D00",
"@N 	c #EE4100",
"#N 	c #DC2D00",
"$N 	c #EF3500",
"%N 	c #F23C00",
"&N 	c #D12700",
"*N 	c #A41501",
"=N 	c #720602",
"-N 	c #3C0205",
";N 	c #240806",
">N 	c #32120C",
",N 	c #1F0505",
"'N 	c #A3812A",
")N 	c #D5A53D",
"!N 	c #F7DE63",
"~N 	c #F3CF54",
"{N 	c #FBE971",
"]N 	c #E3C758",
"^N 	c #976627",
"/N 	c #47200D",
"(N 	c #37120B",
"_N 	c #502011",
":N 	c #A97837",
"<N 	c #B0803B",
"[N 	c #BF9543",
"}N 	c #F7E073",
"|N 	c #EFD168",
"1N 	c #EFC752",
"2N 	c #DCAD47",
"3N 	c #E6B84E",
"4N 	c #8C672D",
"5N 	c #3D150E",
"6N 	c #3A0C0A",
"7N 	c #2E0208",
"8N 	c #4A0406",
"9N 	c #E13400",
"0N 	c #FB6F00",
"aN 	c #FA6600",
"bN 	c #BA3700",
"cN 	c #E34100",
"dN 	c #A50D00",
"eN 	c #8F2500",
"fN 	c #E05601",
"gN 	c #F46100",
"hN 	c #FEAF00",
"iN 	c #FFE800",
"jN 	c #FFEB00",
"kN 	c #FFE500",
"lN 	c #FFE700",
"mN 	c #FFEC01",
"nN 	c #FEEF04",
"oN 	c #FCD102",
"pN 	c #FD7200",
"qN 	c #FD7800",
"rN 	c #FEC200",
"sN 	c #FED90D",
"tN 	c #FEE842",
"uN 	c #FDD334",
"vN 	c #FCA600",
"wN 	c #BE5D01",
"xN 	c #A41300",
"yN 	c #C11600",
"zN 	c #BC1400",
"AN 	c #E32500",
"BN 	c #E63400",
"CN 	c #F03D00",
"DN 	c #FA4D00",
"EN 	c #D22C00",
"FN 	c #E93A00",
"GN 	c #F44500",
"HN 	c #FA5600",
"IN 	c #B12C01",
"JN 	c #810C02",
"KN 	c #750D03",
"LN 	c #540B05",
"MN 	c #390605",
"NN 	c #986C29",
"ON 	c #CFB764",
"PN 	c #FAF291",
"QN 	c #CEB05F",
"RN 	c #8F4F25",
"SN 	c #8B300E",
"TN 	c #AD1F01",
"UN 	c #7E0C01",
"VN 	c #2D0002",
"WN 	c #280003",
"XN 	c #2A0103",
"YN 	c #B21700",
"ZN 	c #D53000",
"`N 	c #FD7100",
" O 	c #FF6800",
".O 	c #FC5F00",
"+O 	c #EE3800",
"@O 	c #EE3400",
"#O 	c #F33500",
"$O 	c #F43800",
"%O 	c #C92100",
"&O 	c #A31201",
"*O 	c #240407",
"=O 	c #543814",
"-O 	c #D2B543",
";O 	c #EFCA51",
">O 	c #FCEC71",
",O 	c #EFC64F",
"'O 	c #F0C650",
")O 	c #C49B3D",
"!O 	c #844A1F",
"~O 	c #390B08",
"{O 	c #42110D",
"]O 	c #4B2111",
"^O 	c #B5893D",
"/O 	c #D9B350",
"(O 	c #C69B44",
"_O 	c #CE9F42",
":O 	c #D8A545",
"<O 	c #DCAB48",
"[O 	c #93682F",
"}O 	c #572717",
"|O 	c #3D0E0A",
"1O 	c #6B0704",
"2O 	c #B21600",
"3O 	c #E34E00",
"4O 	c #F87700",
"5O 	c #FC6B00",
"6O 	c #E53900",
"7O 	c #911000",
"8O 	c #AD1100",
"9O 	c #B21300",
"0O 	c #C21800",
"aO 	c #7C0B01",
"bO 	c #6F0F00",
"cO 	c #DD5A01",
"dO 	c #F87300",
"eO 	c #FE8F00",
"fO 	c #FFEA00",
"gO 	c #FFE900",
"hO 	c #FFEC00",
"iO 	c #FFF001",
"jO 	c #FFEC05",
"kO 	c #FEDE07",
"lO 	c #FCA505",
"mO 	c #FB8600",
"nO 	c #FEAA00",
"oO 	c #FFCD03",
"pO 	c #FEE22E",
"qO 	c #FCE343",
"rO 	c #FBC228",
"sO 	c #CE7F19",
"tO 	c #C03601",
"uO 	c #C01A00",
"vO 	c #E62600",
"wO 	c #D32800",
"xO 	c #E63800",
"yO 	c #F55000",
"zO 	c #F44300",
"AO 	c #F33A00",
"BO 	c #F13E00",
"CO 	c #F95900",
"DO 	c #8E2702",
"EO 	c #2B0404",
"FO 	c #6E451E",
"GO 	c #B68F43",
"HO 	c #E4CA66",
"IO 	c #FCF187",
"JO 	c #D1BC6C",
"KO 	c #8C4B22",
"LO 	c #9A360F",
"MO 	c #9F1A01",
"NO 	c #C42800",
"OO 	c #9A1A01",
"PO 	c #400202",
"QO 	c #2A0003",
"RO 	c #590202",
"SO 	c #570202",
"TO 	c #620302",
"UO 	c #AC2301",
"VO 	c #F14500",
"WO 	c #F34500",
"XO 	c #F54600",
"YO 	c #F45D00",
"ZO 	c #F33900",
"`O 	c #F03700",
" P 	c #EF3600",
".P 	c #E92D00",
"+P 	c #DD2700",
"@P 	c #9E0F00",
"#P 	c #8F0C01",
"$P 	c #7D0901",
"%P 	c #9C1401",
"&P 	c #9D1101",
"*P 	c #350004",
"=P 	c #97722C",
"-P 	c #EECD50",
";P 	c #F4D054",
">P 	c #EFCB53",
",P 	c #DCAD45",
"'P 	c #D5A140",
")P 	c #A77C2F",
"!P 	c #370909",
"~P 	c #320A08",
"{P 	c #3D120C",
"]P 	c #6D3719",
"^P 	c #854F23",
"/P 	c #925E29",
"(P 	c #B37D36",
"_P 	c #9B672D",
":P 	c #8F5C29",
"<P 	c #C69241",
"[P 	c #D29E46",
"}P 	c #BD8B3C",
"|P 	c #270F09",
"1P 	c #200207",
"2P 	c #1F0007",
"3P 	c #240007",
"4P 	c #790B02",
"5P 	c #930E01",
"6P 	c #DB2E00",
"7P 	c #EE4700",
"8P 	c #F55200",
"9P 	c #DA3F00",
"0P 	c #C61B00",
"aP 	c #AD0E00",
"bP 	c #A81000",
"cP 	c #800801",
"dP 	c #861200",
"eP 	c #A73601",
"fP 	c #F7A500",
"gP 	c #FD8100",
"hP 	c #F98300",
"iP 	c #FFDF00",
"jP 	c #FFE600",
"kP 	c #FEE700",
"lP 	c #FEE900",
"mP 	c #FFD600",
"nP 	c #FEDD15",
"oP 	c #FFF025",
"pP 	c #FED300",
"qP 	c #FFA301",
"rP 	c #FEB50B",
"sP 	c #FDDE4F",
"tP 	c #FDEF6C",
"uP 	c #F8C94D",
"vP 	c #F18F0A",
"wP 	c #E73400",
"xP 	c #F94500",
"yP 	c #F23600",
"zP 	c #EF3300",
"AP 	c #FB5700",
"BP 	c #FD6000",
"CP 	c #F75100",
"DP 	c #F24000",
"EP 	c #F35500",
"FP 	c #761D02",
"GP 	c #3B0B03",
"HP 	c #471505",
"IP 	c #3E0D07",
"JP 	c #AB7E36",
"KP 	c #DFCA6A",
"LP 	c #EFD366",
"MP 	c #FBEC83",
"NP 	c #C4A95A",
"OP 	c #7D3C1C",
"PP 	c #8D2E12",
"QP 	c #A21A01",
"RP 	c #950F00",
"SP 	c #EA6300",
"TP 	c #F44A00",
"UP 	c #791101",
"VP 	c #460103",
"WP 	c #B81700",
"XP 	c #CF1900",
"YP 	c #CD2401",
"ZP 	c #B93200",
"`P 	c #CA2300",
" Q 	c #BA2100",
".Q 	c #FB4D00",
"+Q 	c #F94300",
"@Q 	c #8C0900",
"#Q 	c #440104",
"$Q 	c #450104",
"%Q 	c #300207",
"&Q 	c #422113",
"*Q 	c #AB8136",
"=Q 	c #C6963D",
"-Q 	c #DBAC46",
";Q 	c #EDC756",
">Q 	c #BD8535",
",Q 	c #A86E2C",
"'Q 	c #845722",
")Q 	c #6A4018",
"!Q 	c #47140C",
"~Q 	c #41100B",
"{Q 	c #300A08",
"]Q 	c #36110B",
"^Q 	c #4F1C0F",
"/Q 	c #5D2D15",
"(Q 	c #70431D",
"_Q 	c #A66E31",
":Q 	c #693E1A",
"<Q 	c #70411D",
"[Q 	c #9E6B2F",
"}Q 	c #B07934",
"|Q 	c #210C06",
"1Q 	c #1D0007",
"2Q 	c #210007",
"3Q 	c #5E0302",
"4Q 	c #7B0600",
"5Q 	c #DD3500",
"6Q 	c #FA5400",
"7Q 	c #CF2900",
"8Q 	c #DA3500",
"9Q 	c #8D0A01",
"0Q 	c #AA0D00",
"aQ 	c #770501",
"bQ 	c #D74200",
"cQ 	c #DC5100",
"dQ 	c #F2B302",
"eQ 	c #F9A600",
"fQ 	c #F24D00",
"gQ 	c #ED3400",
"hQ 	c #F84600",
"iQ 	c #FB7A01",
"jQ 	c #FEDD00",
"kQ 	c #FFE400",
"lQ 	c #FEDB00",
"mQ 	c #FFCB00",
"nQ 	c #FFD301",
"oQ 	c #FEE501",
"pQ 	c #FFE100",
"qQ 	c #FED900",
"rQ 	c #FE8D01",
"sQ 	c #FDA607",
"tQ 	c #FDD842",
"uQ 	c #FDED6E",
"vQ 	c #FDE76D",
"wQ 	c #EBB223",
"xQ 	c #B11A00",
"yQ 	c #CD2000",
"zQ 	c #DC2C00",
"AQ 	c #F23900",
"BQ 	c #E72F00",
"CQ 	c #E32A00",
"DQ 	c #D62B00",
"EQ 	c #C63400",
"FQ 	c #E14E01",
"GQ 	c #D14601",
"HQ 	c #A42201",
"IQ 	c #B12503",
"JQ 	c #B82D03",
"KQ 	c #A43B07",
"LQ 	c #85330A",
"MQ 	c #76300E",
"NQ 	c #3C0C08",
"OQ 	c #926B2D",
"PQ 	c #DECB6D",
"QQ 	c #F9E675",
"RQ 	c #FBF295",
"SQ 	c #C5AD63",
"TQ 	c #8E461D",
"UQ 	c #82270C",
"VQ 	c #BC2300",
"WQ 	c #E35800",
"XQ 	c #D53100",
"YQ 	c #730C01",
"ZQ 	c #910F01",
"`Q 	c #B11301",
" R 	c #9E0E01",
".R 	c #900E00",
"+R 	c #991400",
"@R 	c #DC3300",
"#R 	c #F43B00",
"$R 	c #F33800",
"%R 	c #CD1A00",
"&R 	c #B91300",
"*R 	c #A60F00",
"=R 	c #AB1000",
"-R 	c #D62200",
";R 	c #D01E00",
">R 	c #B90E00",
",R 	c #B41000",
"'R 	c #940901",
")R 	c #380807",
"!R 	c #684324",
"~R 	c #B68B3C",
"{R 	c #BC8838",
"]R 	c #B68335",
"^R 	c #BA8937",
"/R 	c #B17A30",
"(R 	c #88501F",
"_R 	c #501B0D",
":R 	c #48150A",
"<R 	c #240506",
"[R 	c #350E0B",
"}R 	c #47170D",
"|R 	c #3F110C",
"1R 	c #471C0F",
"2R 	c #75421E",
"3R 	c #66361B",
"4R 	c #5E2D17",
"5R 	c #6C3C1A",
"6R 	c #5F381A",
"7R 	c #730803",
"8R 	c #860901",
"9R 	c #770701",
"0R 	c #620502",
"aR 	c #540203",
"bR 	c #B72500",
"cR 	c #FC7600",
"dR 	c #F17D01",
"eR 	c #B92800",
"fR 	c #650601",
"gR 	c #E95E00",
"hR 	c #F9A100",
"iR 	c #FDB800",
"jR 	c #FB7700",
"kR 	c #EE3B00",
"lR 	c #FB8602",
"mR 	c #FFE601",
"nR 	c #FEC900",
"oR 	c #FEBB00",
"pR 	c #FED200",
"qR 	c #FFC400",
"rR 	c #F7AE00",
"sR 	c #F66200",
"tR 	c #F3851B",
"uR 	c #F9D54E",
"vR 	c #FCEB78",
"wR 	c #DB942F",
"xR 	c #A32604",
"yR 	c #A91C00",
"zR 	c #CF2B00",
"AR 	c #BD2901",
"BR 	c #BA2600",
"CR 	c #9B2202",
"DR 	c #C95B09",
"ER 	c #993708",
"FR 	c #450C05",
"GR 	c #511007",
"HR 	c #77290A",
"IR 	c #C8A748",
"JR 	c #E0BC5F",
"KR 	c #BC9E47",
"LR 	c #4D2311",
"MR 	c #9B8049",
"NR 	c #E0CF78",
"OR 	c #FBE470",
"PR 	c #FAEE84",
"QR 	c #CBB462",
"RR 	c #83401A",
"SR 	c #91240C",
"TR 	c #BF1C00",
"UR 	c #B21800",
"VR 	c #C33000",
"WR 	c #D04C00",
"XR 	c #9B2600",
"YR 	c #660A01",
"ZR 	c #710800",
"`R 	c #A61C00",
" S 	c #CC2400",
".S 	c #CD1C00",
"+S 	c #CA1D01",
"@S 	c #D22300",
"#S 	c #CB1500",
"$S 	c #BD1400",
"%S 	c #9B0A00",
"&S 	c #980A00",
"*S 	c #360907",
"=S 	c #5A341C",
"-S 	c #A57A33",
";S 	c #C38D3C",
">S 	c #A06A2C",
",S 	c #905723",
"'S 	c #79411A",
")S 	c #3B0C08",
"!S 	c #290A09",
"~S 	c #230307",
"{S 	c #300709",
"]S 	c #41150D",
"^S 	c #4D1F12",
"/S 	c #592D15",
"(S 	c #4E2811",
"_S 	c #3B0B09",
":S 	c #280006",
"<S 	c #6D0602",
"[S 	c #D73601",
"}S 	c #E55C00",
"|S 	c #EC7B00",
"1S 	c #D16101",
"2S 	c #971001",
"3S 	c #880A00",
"4S 	c #A61701",
"5S 	c #760602",
"6S 	c #931601",
"7S 	c #9A2201",
"8S 	c #B63101",
"9S 	c #F18800",
"0S 	c #FC8200",
"aS 	c #FEA800",
"bS 	c #FDDF00",
"cS 	c #FC8100",
"dS 	c #FEB300",
"eS 	c #FFAE00",
"fS 	c #E87500",
"gS 	c #D93F02",
"hS 	c #F3A924",
"iS 	c #FDE25D",
"jS 	c #FDEF7B",
"kS 	c #D3A34A",
"lS 	c #A74C13",
"mS 	c #9D1500",
"nS 	c #710A02",
"oS 	c #5D0B02",
"pS 	c #771804",
"qS 	c #9F2A06",
"rS 	c #A42203",
"sS 	c #74270A",
"tS 	c #73240C",
"uS 	c #57200F",
"vS 	c #45140B",
"wS 	c #3B0404",
"xS 	c #CBB458",
"yS 	c #F1D86D",
"zS 	c #E2C255",
"AS 	c #734F23",
"BS 	c #8B7034",
"CS 	c #D2BD69",
"DS 	c #F6DD6D",
"ES 	c #EFD762",
"FS 	c #8D612C",
"GS 	c #64250E",
"HS 	c #8D1503",
"IS 	c #BE2800",
"JS 	c #C02700",
"KS 	c #D55801",
"LS 	c #E56001",
"MS 	c #934202",
"NS 	c #400302",
"OS 	c #460102",
"PS 	c #4D0203",
"QS 	c #951001",
"RS 	c #A81400",
"SS 	c #A81301",
"TS 	c #9B1301",
"US 	c #D22B00",
"VS 	c #CC1E00",
"WS 	c #CE2200",
"XS 	c #E36900",
"YS 	c #DA6900",
"ZS 	c #D62800",
"`S 	c #BB1500",
" T 	c #7C0601",
".T 	c #890A01",
"+T 	c #380D08",
"@T 	c #5D381B",
"#T 	c #774920",
"$T 	c #A46B2E",
"%T 	c #9B642C",
"&T 	c #874C20",
"*T 	c #652D13",
"=T 	c #350807",
"-T 	c #340807",
";T 	c #250708",
">T 	c #1F0207",
",T 	c #2C0607",
"'T 	c #300707",
")T 	c #915627",
"!T 	c #5F3817",
"~T 	c #9D1B02",
"{T 	c #C12A00",
"]T 	c #840600",
"^T 	c #9D0F01",
"/T 	c #890D01",
"(T 	c #5D0503",
"_T 	c #C93000",
":T 	c #E83900",
"<T 	c #EB2E00",
"[T 	c #E66400",
"}T 	c #FAAB00",
"|T 	c #FDBF00",
"1T 	c #FEE200",
"2T 	c #FFE000",
"3T 	c #FEC400",
"4T 	c #FC7300",
"5T 	c #FFB800",
"6T 	c #EE6F00",
"7T 	c #DF2100",
"8T 	c #D43E02",
"9T 	c #EFA527",
"0T 	c #FBE163",
"aT 	c #FDF48F",
"bT 	c #B68F4C",
"cT 	c #A33610",
"dT 	c #C92D03",
"eT 	c #C12701",
"fT 	c #5C0C04",
"gT 	c #3B0604",
"hT 	c #712109",
"iT 	c #6F1D07",
"jT 	c #340404",
"kT 	c #6A240C",
"lT 	c #89461F",
"mT 	c #7A391B",
"nT 	c #5A2412",
"oT 	c #390D07",
"pT 	c #9E7837",
"qT 	c #E3C664",
"rT 	c #EECA61",
"sT 	c #A3823E",
"tT 	c #421A09",
"uT 	c #D0BD6A",
"vT 	c #EAC95D",
"wT 	c #EBD263",
"xT 	c #6C421C",
"yT 	c #5F1103",
"zT 	c #9C1901",
"AT 	c #E83E00",
"BT 	c #DC3400",
"CT 	c #D64800",
"DT 	c #F8A501",
"ET 	c #F27000",
"FT 	c #CA7703",
"GT 	c #480102",
"HT 	c #AB1501",
"IT 	c #6E0502",
"JT 	c #BF2000",
"KT 	c #DD2B00",
"LT 	c #DE2500",
"MT 	c #EF3000",
"NT 	c #F69C01",
"OT 	c #F99E01",
"PT 	c #F43D00",
"QT 	c #F94600",
"RT 	c #FD5E00",
"ST 	c #9E0C01",
"TT 	c #880700",
"UT 	c #6B0D04",
"VT 	c #380508",
"WT 	c #6A3D1B",
"XT 	c #81481F",
"YT 	c #663116",
"ZT 	c #5C2912",
"`T 	c #41100A",
" U 	c #310607",
".U 	c #1F0605",
"+U 	c #3B0D0A",
"@U 	c #602D14",
"#U 	c #6C391B",
"$U 	c #310F09",
"%U 	c #2A0208",
"&U 	c #3A0306",
"*U 	c #420305",
"=U 	c #570302",
"-U 	c #6F0902",
";U 	c #6D0A02",
">U 	c #AC1700",
",U 	c #A81A00",
"'U 	c #CF2600",
")U 	c #E82D00",
"!U 	c #F04900",
"~U 	c #FDEA02",
"{U 	c #FFEF01",
"]U 	c #FFF313",
"^U 	c #FFF107",
"/U 	c #FFEE00",
"(U 	c #FEDC00",
"_U 	c #FB9F00",
":U 	c #F56600",
"<U 	c #F99B01",
"[U 	c #FE9600",
"}U 	c #F78C00",
"|U 	c #DB3101",
"1U 	c #D75914",
"2U 	c #F5B63A",
"3U 	c #F9DB68",
"4U 	c #E7CF75",
"5U 	c #AE8346",
"6U 	c #CC9C48",
"7U 	c #BC6B2B",
"8U 	c #B36324",
"9U 	c #4B0C05",
"0U 	c #4D1105",
"aU 	c #985F29",
"bU 	c #82491E",
"cU 	c #471607",
"dU 	c #591907",
"eU 	c #9C6B2A",
"fU 	c #AC7F39",
"gU 	c #864C21",
"hU 	c #72371A",
"iU 	c #50210D",
"jU 	c #A67835",
"kU 	c #D4B35C",
"lU 	c #F9E785",
"mU 	c #C69F57",
"nU 	c #714118",
"oU 	c #C8AC5A",
"pU 	c #ECD16A",
"qU 	c #DEBC57",
"rU 	c #703F19",
"sU 	c #B83802",
"tU 	c #FB5F00",
"uU 	c #DE3900",
"vU 	c #AD2400",
"wU 	c #BD4B01",
"xU 	c #D34000",
"yU 	c #AC2503",
"zU 	c #590402",
"AU 	c #5B0603",
"BU 	c #7C0A01",
"CU 	c #B21400",
"DU 	c #BB1600",
"EU 	c #C11C00",
"FU 	c #B91C00",
"GU 	c #C72300",
"HU 	c #F13C00",
"IU 	c #F64F00",
"JU 	c #F68101",
"KU 	c #F87C00",
"LU 	c #FB5800",
"MU 	c #FA3A00",
"NU 	c #F23400",
"OU 	c #E42400",
"PU 	c #C91A00",
"QU 	c #740702",
"RU 	c #7B0B02",
"SU 	c #5A0907",
"TU 	c #2E0207",
"UU 	c #2B0208",
"VU 	c #350B09",
"WU 	c #210407",
"XU 	c #3F110A",
"YU 	c #3E0F0B",
"ZU 	c #2D0107",
"`U 	c #370306",
" V 	c #790802",
".V 	c #9A1301",
"+V 	c #710901",
"@V 	c #9B1600",
"#V 	c #C11E00",
"$V 	c #D82600",
"%V 	c #EA3C00",
"&V 	c #EF5C00",
"*V 	c #F76E00",
"=V 	c #F67200",
"-V 	c #FCA100",
";V 	c #FFF10A",
">V 	c #FFED05",
",V 	c #FFED00",
"'V 	c #F5CA00",
")V 	c #F19801",
"!V 	c #EC7C00",
"~V 	c #E74D00",
"{V 	c #C32501",
"]V 	c #DF7601",
"^V 	c #FB7100",
"/V 	c #FBA900",
"(V 	c #F65D01",
"_V 	c #F3AC50",
":V 	c #F6C252",
"<V 	c #DF9637",
"[V 	c #9E6831",
"}V 	c #B58C44",
"|V 	c #ECD578",
"1V 	c #DAB55D",
"2V 	c #CEBC5B",
"3V 	c #5D200F",
"4V 	c #8A4C20",
"5V 	c #C5A253",
"6V 	c #B39F5F",
"7V 	c #51220E",
"8V 	c #9C5F21",
"9V 	c #DEBE5A",
"0V 	c #DAC364",
"aV 	c #A26D34",
"bV 	c #AE813E",
"cV 	c #815123",
"dV 	c #B29957",
"eV 	c #FDF08E",
"fV 	c #E5BE60",
"gV 	c #9E6D2C",
"hV 	c #B6893B",
"iV 	c #DFC666",
"jV 	c #764F25",
"kV 	c #791F08",
"lV 	c #BF3500",
"mV 	c #FB7800",
"nV 	c #F55100",
"oV 	c #E03D00",
"pV 	c #6F1801",
"qV 	c #480602",
"rV 	c #7C1602",
"sV 	c #800902",
"tV 	c #540503",
"uV 	c #8E1202",
"vV 	c #D22100",
"wV 	c #D72300",
"xV 	c #590401",
"yV 	c #960B01",
"zV 	c #CC1F00",
"AV 	c #C91900",
"BV 	c #EC5000",
"CV 	c #FD7700",
"DV 	c #FE9A01",
"EV 	c #FF6500",
"FV 	c #F84E00",
"GV 	c #E02100",
"HV 	c #DA2200",
"IV 	c #CB1B00",
"JV 	c #8F0900",
"KV 	c #760401",
"LV 	c #2A0107",
"MV 	c #2A0306",
"NV 	c #150103",
"OV 	c #320508",
"PV 	c #280107",
"QV 	c #A31000",
"RV 	c #690603",
"SV 	c #5E0503",
"TV 	c #4D0404",
"UV 	c #951401",
"VV 	c #830C00",
"WV 	c #951000",
"XV 	c #AF2700",
"YV 	c #DB4000",
"ZV 	c #F66E00",
"`V 	c #FE8A00",
" W 	c #FD8B00",
".W 	c #FDA001",
"+W 	c #FFED06",
"@W 	c #FFF007",
"#W 	c #FFF003",
"$W 	c #FFEF05",
"%W 	c #FFDD00",
"&W 	c #FAB000",
"*W 	c #F17900",
"=W 	c #F77300",
"-W 	c #E93700",
";W 	c #E33200",
">W 	c #D32A00",
",W 	c #DB6500",
"'W 	c #FA7900",
")W 	c #F2A23D",
"!W 	c #DA9E40",
"~W 	c #BE7B2F",
"{W 	c #552511",
"]W 	c #A0793C",
"^W 	c #D3B45F",
"/W 	c #DEB85B",
"(W 	c #D1BB60",
"_W 	c #6B3B1C",
":W 	c #CCA95F",
"<W 	c #E5C566",
"[W 	c #C3B575",
"}W 	c #6C3C1C",
"|W 	c #B8863D",
"1W 	c #EFDD7D",
"2W 	c #E0CF76",
"3W 	c #8A5D2D",
"4W 	c #DCBE69",
"5W 	c #DCBE66",
"6W 	c #896230",
"7W 	c #BFA75F",
"8W 	c #FDF297",
"9W 	c #DEBC67",
"0W 	c #96682C",
"aW 	c #693618",
"bW 	c #A37A3C",
"cW 	c #703214",
"dW 	c #A62A02",
"eW 	c #DC4401",
"fW 	c #FC9800",
"gW 	c #ED5A00",
"hW 	c #E54200",
"iW 	c #811B01",
"jW 	c #520401",
"kW 	c #430305",
"lW 	c #921301",
"mW 	c #AE1E00",
"nW 	c #DA2600",
"oW 	c #E52B00",
"pW 	c #C62201",
"qW 	c #930D01",
"rW 	c #7B0601",
"sW 	c #CD1B00",
"tW 	c #D82100",
"uW 	c #D63600",
"vW 	c #DB3300",
"wW 	c #FA4700",
"xW 	c #F95A00",
"yW 	c #FFD002",
"zW 	c #FFA201",
"AW 	c #FFAC00",
"BW 	c #FF9E00",
"CW 	c #F02E00",
"DW 	c #D31A00",
"EW 	c #D41C00",
"FW 	c #D61E00",
"GW 	c #E22600",
"HW 	c #860801",
"IW 	c #250107",
"JW 	c #510504",
"KW 	c #AA1800",
"LW 	c #810C01",
"MW 	c #CE3D00",
"NW 	c #FC5100",
"OW 	c #EA4A00",
"PW 	c #E85C00",
"QW 	c #FAA300",
"RW 	c #FDCE00",
"SW 	c #FEAB00",
"TW 	c #FEC801",
"UW 	c #FEEB0E",
"VW 	c #FFEE16",
"WW 	c #FFF10D",
"XW 	c #FFF210",
"YW 	c #FFF203",
"ZW 	c #F97100",
"`W 	c #F13800",
" X 	c #E62D00",
".X 	c #D72C00",
"+X 	c #DA4100",
"@X 	c #FC5300",
"#X 	c #FC5E00",
"$X 	c #FC8300",
"%X 	c #F97302",
"&X 	c #B44F10",
"*X 	c #6C3B15",
"=X 	c #783B16",
"-X 	c #D4BD63",
";X 	c #F8E379",
">X 	c #D4B960",
",X 	c #795228",
"'X 	c #EED973",
")X 	c #F3DB7F",
"!X 	c #D6C280",
"~X 	c #956630",
"{X 	c #E2C463",
"]X 	c #FCF391",
"^X 	c #DFD88B",
"/X 	c #9B7A43",
"(X 	c #F8EA8F",
"_X 	c #F5DF82",
":X 	c #98743F",
"<X 	c #B49A54",
"[X 	c #F8EA89",
"}X 	c #D6BD68",
"|X 	c #715828",
"1X 	c #441106",
"2X 	c #7B2E04",
"3X 	c #B05102",
"4X 	c #F39000",
"5X 	c #F16700",
"6X 	c #FDA900",
"7X 	c #EF8900",
"8X 	c #A82D00",
"9X 	c #6C0E00",
"0X 	c #C42100",
"aX 	c #6B0803",
"bX 	c #CA1B00",
"cX 	c #E43800",
"dX 	c #FE5000",
"eX 	c #FEAC00",
"fX 	c #FE9100",
"gX 	c #FD6A00",
"hX 	c #FFA600",
"iX 	c #FF8700",
"jX 	c #FF9D00",
"kX 	c #FF8F00",
"lX 	c #FF6E00",
"mX 	c #FD5400",
"nX 	c #F13000",
"oX 	c #DD2100",
"pX 	c #E02300",
"qX 	c #EF2A00",
"rX 	c #EE2B00",
"sX 	c #1D0607",
"tX 	c #1E0407",
"uX 	c #230107",
"vX 	c #3E0405",
"wX 	c #4A0405",
"xX 	c #640501",
"yX 	c #B01401",
"zX 	c #D12400",
"AX 	c #A91A01",
"BX 	c #810701",
"CX 	c #6C0702",
"DX 	c #A81201",
"EX 	c #880B01",
"FX 	c #680B02",
"GX 	c #C13100",
"HX 	c #F23F00",
"IX 	c #E36F00",
"JX 	c #FBAF00",
"KX 	c #FCC200",
"LX 	c #FFBF00",
"MX 	c #FED702",
"NX 	c #FEEA0D",
"OX 	c #FFF115",
"PX 	c #FFF20E",
"QX 	c #FFF101",
"RX 	c #F66400",
"SX 	c #EE4300",
"TX 	c #E63700",
"UX 	c #E23100",
"VX 	c #FA5700",
"WX 	c #E05202",
"XX 	c #823508",
"YX 	c #441007",
"ZX 	c #864D1F",
"`X 	c #DBC86C",
" Y 	c #FAE77C",
".Y 	c #D4BF68",
"+Y 	c #845E2F",
"@Y 	c #EED367",
"#Y 	c #FCEC87",
"$Y 	c #D5C37E",
"%Y 	c #8A6130",
"&Y 	c #E4CC6B",
"*Y 	c #F9EA84",
"=Y 	c #DAD079",
"-Y 	c #9A804C",
";Y 	c #FCF4A1",
">Y 	c #F9EA92",
",Y 	c #937442",
"'Y 	c #937A44",
")Y 	c #F9EC89",
"!Y 	c #F2DA71",
"~Y 	c #715728",
"{Y 	c #531204",
"]Y 	c #BA5702",
"^Y 	c #FA8600",
"/Y 	c #F67F00",
"(Y 	c #E16B00",
"_Y 	c #6A1800",
":Y 	c #5A0403",
"<Y 	c #A41301",
"[Y 	c #B31700",
"}Y 	c #DA2700",
"|Y 	c #EC2F00",
"1Y 	c #EE3000",
"2Y 	c #EB3100",
"3Y 	c #E22900",
"4Y 	c #CC1B00",
"5Y 	c #690501",
"6Y 	c #FF8200",
"7Y 	c #FFC100",
"8Y 	c #FA5C00",
"9Y 	c #F66100",
"0Y 	c #FE9500",
"aY 	c #FF8A00",
"bY 	c #EC2C00",
"cY 	c #DC1F00",
"dY 	c #DC2100",
"eY 	c #E01F00",
"fY 	c #E32100",
"gY 	c #A40C00",
"hY 	c #330106",
"iY 	c #190003",
"jY 	c #170203",
"kY 	c #4F0204",
"lY 	c #6C0701",
"mY 	c #A41101",
"nY 	c #E32800",
"oY 	c #E02800",
"pY 	c #BB2800",
"qY 	c #BF2600",
"rY 	c #991200",
"sY 	c #820D01",
"tY 	c #9C1301",
"uY 	c #760A02",
"vY 	c #951201",
"wY 	c #770D02",
"xY 	c #C52A00",
"yY 	c #E63F00",
"zY 	c #C52F00",
"AY 	c #EB8800",
"BY 	c #FEE701",
"CY 	c #FFEC2C",
"DY 	c #FEF329",
"EY 	c #FFF20F",
"FY 	c #FFF128",
"GY 	c #FFD404",
"HY 	c #F88900",
"IY 	c #F36600",
"JY 	c #EB4200",
"KY 	c #EE4D00",
"LY 	c #F85200",
"MY 	c #F84F00",
"NY 	c #E64A00",
"OY 	c #DE3B00",
"PY 	c #D94000",
"QY 	c #DE6800",
"RY 	c #E34800",
"SY 	c #E77803",
"TY 	c #5D1703",
"UY 	c #5E2C0F",
"VY 	c #B0934B",
"WY 	c #EDDD7C",
"XY 	c #C1B266",
"YY 	c #724D24",
"ZY 	c #EED06C",
"`Y 	c #FDF498",
" Z 	c #CABC6E",
".Z 	c #724825",
"+Z 	c #ECDD81",
"@Z 	c #FCEC85",
"#Z 	c #DDD485",
"$Z 	c #98814C",
"%Z 	c #FBF091",
"&Z 	c #F7EB8B",
"*Z 	c #816C39",
"=Z 	c #7F6334",
"-Z 	c #E7CD71",
";Z 	c #D5AE5B",
">Z 	c #8B4018",
",Z 	c #B04205",
"'Z 	c #DF5601",
")Z 	c #FA7200",
"!Z 	c #FB9200",
"~Z 	c #EA6700",
"{Z 	c #E86700",
"]Z 	c #C14601",
"^Z 	c #530D03",
"/Z 	c #7B0A02",
"(Z 	c #740802",
"_Z 	c #A81101",
":Z 	c #DB2100",
"<Z 	c #E42700",
"[Z 	c #E82C00",
"}Z 	c #BD1A00",
"|Z 	c #A91301",
"1Z 	c #790901",
"2Z 	c #A10E00",
"3Z 	c #E03E00",
"4Z 	c #FE6D00",
"5Z 	c #FF7A00",
"6Z 	c #FECC01",
"7Z 	c #FFC600",
"8Z 	c #FEAA05",
"9Z 	c #FA8705",
"0Z 	c #F25501",
"aZ 	c #F43000",
"bZ 	c #FE7800",
"cZ 	c #FC5200",
"dZ 	c #F83A00",
"eZ 	c #F63A00",
"fZ 	c #EC3800",
"gZ 	c #1A0306",
"hZ 	c #160102",
"iZ 	c #1E0006",
"jZ 	c #6F0701",
"kZ 	c #BF1600",
"lZ 	c #D11F00",
"mZ 	c #BC1A00",
"nZ 	c #E53500",
"oZ 	c #E22E00",
"pZ 	c #AF1800",
"qZ 	c #480504",
"rZ 	c #AE1F01",
"sZ 	c #A31C01",
"tZ 	c #731202",
"uZ 	c #E34700",
"vZ 	c #F34800",
"wZ 	c #EC5F00",
"xZ 	c #CD5800",
"yZ 	c #FD8800",
"zZ 	c #FCAA00",
"AZ 	c #FDE53B",
"BZ 	c #FEF438",
"CZ 	c #FFEE07",
"DZ 	c #FFF121",
"EZ 	c #FEDD0C",
"FZ 	c #F68A01",
"GZ 	c #EB6E01",
"HZ 	c #ED4100",
"IZ 	c #DB4200",
"JZ 	c #DA3300",
"KZ 	c #F54900",
"LZ 	c #F55300",
"MZ 	c #C82700",
"NZ 	c #CF4200",
"OZ 	c #ED6500",
"PZ 	c #F99A00",
"QZ 	c #C66300",
"RZ 	c #802F04",
"SZ 	c #8B5D28",
"TZ 	c #9E8042",
"UZ 	c #4D1F0E",
"VZ 	c #68512B",
"WZ 	c #F4DE7A",
"XZ 	c #FCEF8F",
"YZ 	c #C1B566",
"ZZ 	c #764A25",
"`Z 	c #E7D97D",
" ` 	c #F9E981",
".` 	c #CCBB70",
"+` 	c #7F5F39",
"@` 	c #F5E882",
"#` 	c #E3D17A",
"$` 	c #644A2A",
"%` 	c #775128",
"&` 	c #C7974B",
"*` 	c #965626",
"=` 	c #B94407",
"-` 	c #E56E01",
";` 	c #F39C02",
">` 	c #F59500",
",` 	c #C03300",
"'` 	c #6A0A02",
")` 	c #9C0F01",
"!` 	c #A61000",
"~` 	c #D01B00",
"{` 	c #D21C00",
"]` 	c #D51F00",
"^` 	c #C71E00",
"/` 	c #A31401",
"(` 	c #8D0D00",
"_` 	c #900D00",
":` 	c #FB7200",
"<` 	c #FFC200",
"[` 	c #FFC802",
"}` 	c #FFAA00",
"|` 	c #FED824",
"1` 	c #FEC717",
"2` 	c #FEC707",
"3` 	c #FF6400",
"4` 	c #FF6000",
"5` 	c #FE4F00",
"6` 	c #FB3B00",
"7` 	c #D72D00",
"8` 	c #D12500",
"9` 	c #120002",
"0` 	c #140104",
"a` 	c #170003",
"b` 	c #A70F00",
"c` 	c #C71B00",
"d` 	c #B91900",
"e` 	c #E32D00",
"f` 	c #E43500",
"g` 	c #E33500",
"h` 	c #EB4800",
"i` 	c #CF2701",
"j` 	c #590703",
"k` 	c #B21B01",
"l` 	c #AF1F01",
"m` 	c #EF4100",
"n` 	c #F75D00",
"o` 	c #F46000",
"p` 	c #EC6200",
"q` 	c #C52100",
"r` 	c #E96300",
"s` 	c #FCA500",
"t` 	c #FCCD00",
"u` 	c #FDC30E",
"v` 	c #FFEF12",
"w` 	c #FFEB04",
"x` 	c #FFF005",
"y` 	c #FFF301",
"z` 	c #FDB701",
"A` 	c #DF7C01",
"B` 	c #CA2900",
"C` 	c #DC2B00",
"D` 	c #CC3200",
"E` 	c #F74500",
"F` 	c #ED3800",
"G` 	c #D73300",
"H` 	c #E14C00",
"I` 	c #FA8700",
"J` 	c #9F4503",
"K` 	c #823C13",
"L` 	c #6B3718",
"M` 	c #3E120A",
"N` 	c #624C24",
"O` 	c #EDD36C",
"P` 	c #F3DE79",
"Q` 	c #B8A655",
"R` 	c #4D2715",
"S` 	c #D7C97A",
"T` 	c #EBDA7E",
"U` 	c #997139",
"V` 	c #7A5F32",
"W` 	c #F8ED7F",
"X` 	c #C9B362",
"Y` 	c #4C2E1A",
"Z` 	c #581A09",
"`` 	c #97320B",
"  .	c #BB3605",
". .	c #E75300",
"+ .	c #FA9100",
"@ .	c #FFB000",
"# .	c #FCC100",
"$ .	c #D26101",
"% .	c #791A01",
"& .	c #6F0B00",
"* .	c #A11001",
"= .	c #CA1900",
"- .	c #BC1600",
"; .	c #710702",
"> .	c #AB1801",
", .	c #8F1300",
"' .	c #7C0E02",
") .	c #F76000",
"! .	c #FFB600",
"~ .	c #FFCA01",
"{ .	c #FFA100",
"] .	c #FDE023",
"^ .	c #FEE634",
"/ .	c #FEDA1A",
"( .	c #FF6F00",
"_ .	c #FF6900",
": .	c #FE5800",
"< .	c #FB4800",
"[ .	c #8E0B01",
"} .	c #A40E00",
"| .	c #450205",
"1 .	c #130003",
"2 .	c #4C0405",
"3 .	c #AA1400",
"4 .	c #9D1900",
"5 .	c #A71800",
"6 .	c #C31E00",
"7 .	c #C42A00",
"8 .	c #ED3E00",
"9 .	c #FA5300",
"0 .	c #EC4700",
"a .	c #BF2400",
"b .	c #5F0801",
"c .	c #E74E00",
"d .	c #C61E00",
"e .	c #F78800",
"f .	c #FEE201",
"g .	c #FEA600",
"h .	c #FFE001",
"i .	c #FC9701",
"j .	c #D06D00",
"k .	c #A41900",
"l .	c #C92600",
"m .	c #C22200",
"n .	c #BE2400",
"o .	c #B31E00",
"p .	c #AC2700",
"q .	c #F45900",
"r .	c #FC6D00",
"s .	c #EF7C00",
"t .	c #DD5D01",
"u .	c #691805",
"v .	c #3A0B07",
"w .	c #603314",
"x .	c #D29D45",
"y .	c #CD9C48",
"z .	c #99763A",
"A .	c #3B160D",
"B .	c #9B7E4A",
"C .	c #C6AD60",
"D .	c #94743C",
"E .	c #926A31",
"F .	c #EBD168",
"G .	c #9F813D",
"H .	c #5C1506",
"I .	c #941A03",
"J .	c #E75800",
"K .	c #FA8000",
"L .	c #FA7D00",
"M .	c #F69400",
"N .	c #8B3300",
"O .	c #630C00",
"P .	c #7A0800",
"Q .	c #8A0901",
"R .	c #9D1701",
"S .	c #9F1901",
"T .	c #B81F01",
"U .	c #B92900",
"V .	c #CB3100",
"W .	c #D82E00",
"X .	c #CC2600",
"Y .	c #D21E00",
"Z .	c #F64200",
"` .	c #FE8800",
" ..	c #F86001",
"...	c #FB6701",
"+..	c #FC6400",
"@..	c #FD5000",
"#..	c #FC4400",
"$..	c #FC4800",
"%..	c #FD4D00",
"&..	c #E13F00",
"*..	c #D32B00",
"=..	c #9D0B00",
"-..	c #B41100",
";..	c #C11400",
">..	c #160005",
",..	c #200006",
"'..	c #910A01",
")..	c #970A00",
"!..	c #970C00",
"~..	c #9C0C01",
"{..	c #880801",
"]..	c #8D0C01",
"^..	c #9F0B00",
"/..	c #C61900",
"(..	c #D42400",
"_..	c #B03201",
":..	c #7F0A00",
"<..	c #BD2000",
"[..	c #E64300",
"}..	c #EA4100",
"|..	c #DB4A00",
"1..	c #B06702",
"2..	c #B94601",
"3..	c #D13900",
"4..	c #E63A00",
"5..	c #EB3200",
"6..	c #E83400",
"7..	c #E16400",
"8..	c #E44500",
"9..	c #F57400",
"0..	c #FEB800",
"a..	c #FEEC00",
"b..	c #FFBD00",
"c..	c #FFD501",
"d..	c #FCC202",
"e..	c #D97E02",
"f..	c #981000",
"g..	c #B61300",
"h..	c #A80F00",
"i..	c #ED4B00",
"j..	c #FA6500",
"k..	c #F47600",
"l..	c #8D1E02",
"m..	c #3D0402",
"n..	c #5D0E03",
"o..	c #915B24",
"p..	c #8C5927",
"q..	c #703B1A",
"r..	c #52150A",
"s..	c #63341A",
"t..	c #542C17",
"u..	c #642612",
"v..	c #944919",
"w..	c #A98230",
"x..	c #93511C",
"y..	c #B02D02",
"z..	c #D43A00",
"A..	c #F77D00",
"B..	c #F67500",
"C..	c #EF7A01",
"D..	c #F78500",
"E..	c #950D01",
"F..	c #AC2F01",
"G..	c #C03A00",
"H..	c #CC2E00",
"I..	c #D93400",
"J..	c #F04400",
"K..	c #CC2500",
"L..	c #FA4400",
"M..	c #FE4C00",
"N..	c #FEB400",
"O..	c #FCA200",
"P..	c #F63200",
"Q..	c #F83800",
"R..	c #F73F00",
"S..	c #FD4C00",
"T..	c #FD4600",
"U..	c #FE4800",
"V..	c #FB4500",
"W..	c #960A00",
"X..	c #C42000",
"Y..	c #BD1500",
"Z..	c #B61100",
"`..	c #B81100",
" +.	c #6C0502",
".+.	c #620503",
"++.	c #3C0306",
"@+.	c #B71A00",
"#+.	c #BE2300",
"$+.	c #AB2C00",
"%+.	c #7E0D00",
"&+.	c #D22E00",
"*+.	c #EA5800",
"=+.	c #F18300",
"-+.	c #DB3800",
";+.	c #E93F00",
">+.	c #FC4E00",
",+.	c #FB4E00",
"'+.	c #F04800",
")+.	c #F25B00",
"!+.	c #FBB900",
"~+.	c #FBBD00",
"{+.	c #FFD700",
"]+.	c #FFC300",
"^+.	c #FDC300",
"/+.	c #EC6600",
"(+.	c #CF5600",
"_+.	c #B65401",
":+.	c #871001",
"<+.	c #CF2400",
"[+.	c #B72600",
"}+.	c #F96C00",
"|+.	c #F86500",
"1+.	c #D64200",
"2+.	c #C85100",
"3+.	c #D86100",
"4+.	c #C94104",
"5+.	c #BB2804",
"6+.	c #CC4302",
"7+.	c #C05D02",
"8+.	c #C45502",
"9+.	c #C25C02",
"0+.	c #D26304",
"a+.	c #E16403",
"b+.	c #E35500",
"c+.	c #F96000",
"d+.	c #FC7000",
"e+.	c #FEAE00",
"f+.	c #F98A00",
"g+.	c #D96500",
"h+.	c #9A3400",
"i+.	c #C95600",
"j+.	c #A31C00",
"k+.	c #890B00",
"l+.	c #880A01",
"m+.	c #F64900",
"n+.	c #F54A00",
"o+.	c #F74A00",
"p+.	c #E75500",
"q+.	c #E14F01",
"r+.	c #B72601",
"s+.	c #FA4500",
"t+.	c #F85600",
"u+.	c #FB4100",
"v+.	c #FB8400",
"w+.	c #EE4800",
"x+.	c #DA3200",
"y+.	c #F74100",
"z+.	c #DC4600",
"A+.	c #A70E00",
"B+.	c #AD1800",
"C+.	c #950C01",
"D+.	c #830902",
"E+.	c #120003",
"F+.	c #1B0104",
"G+.	c #180006",
"H+.	c #2B0107",
"I+.	c #590504",
"J+.	c #5B0303",
"K+.	c #AB1E00",
"L+.	c #DD3000",
"M+.	c #B61C01",
"N+.	c #DB3500",
"O+.	c #680701",
"P+.	c #740B01",
"Q+.	c #E75700",
"R+.	c #FD8E00",
"S+.	c #FA4A00",
"T+.	c #FD4B00",
"U+.	c #FB4B00",
"V+.	c #FC5400",
"W+.	c #FE6400",
"X+.	c #FDC100",
"Y+.	c #FFDE00",
"Z+.	c #FFB200",
"`+.	c #FF9800",
" @.	c #FDB700",
".@.	c #FDAA00",
"+@.	c #E17901",
"@@.	c #CE4000",
"#@.	c #B77002",
"$@.	c #720D00",
"%@.	c #9D1200",
"&@.	c #C72D00",
"*@.	c #FB5000",
"=@.	c #ED4D00",
"-@.	c #EB3B00",
";@.	c #FF7600",
">@.	c #FF9700",
",@.	c #FF9C00",
"'@.	c #FF7C00",
")@.	c #FEB700",
"!@.	c #EF6900",
"~@.	c #CE3A00",
"{@.	c #7A1200",
"]@.	c #9C1700",
"^@.	c #FD5300",
"/@.	c #FA4C00",
"(@.	c #800A01",
"_@.	c #E73200",
":@.	c #E02900",
"<@.	c #FB4400",
"[@.	c #F73000",
"}@.	c #FB3D00",
"|@.	c #FE4900",
"1@.	c #FC7A00",
"2@.	c #CB2000",
"3@.	c #F33300",
"4@.	c #FC4900",
"5@.	c #E43B00",
"6@.	c #BA1300",
"7@.	c #100003",
"8@.	c #380206",
"9@.	c #550304",
"0@.	c #B02000",
"a@.	c #EC3900",
"b@.	c #E33800",
"c@.	c #E33A00",
"d@.	c #C13F00",
"e@.	c #5A0701",
"f@.	c #991A01",
"g@.	c #F35B00",
"h@.	c #FE7900",
"i@.	c #FB5300",
"j@.	c #FA4B00",
"k@.	c #FEE300",
"l@.	c #FFD800",
"m@.	c #FC8C00",
"n@.	c #FB8F01",
"o@.	c #F98700",
"p@.	c #FDCD00",
"q@.	c #FF8100",
"r@.	c #FE7F00",
"s@.	c #EB7000",
"t@.	c #D23600",
"u@.	c #C33600",
"v@.	c #AC6502",
"w@.	c #9C1000",
"x@.	c #B81300",
"y@.	c #B51601",
"z@.	c #9B1100",
"A@.	c #830F00",
"B@.	c #D43500",
"C@.	c #FE6900",
"D@.	c #FA6B00",
"E@.	c #F44D00",
"F@.	c #F24300",
"G@.	c #F85F00",
"H@.	c #F77800",
"I@.	c #FA8F00",
"J@.	c #FB9900",
"K@.	c #E85900",
"L@.	c #C23001",
"M@.	c #EC7200",
"N@.	c #FB8300",
"O@.	c #F3A001",
"P@.	c #E0A501",
"Q@.	c #C65900",
"R@.	c #B63800",
"S@.	c #6B0700",
"T@.	c #790900",
"U@.	c #B52E00",
"V@.	c #E64200",
"W@.	c #B21E00",
"X@.	c #8E0C01",
"Y@.	c #C01C00",
"Z@.	c #E24E00",
"`@.	c #F84800",
" #.	c #F83B00",
".#.	c #F93A00",
"+#.	c #E52A00",
"@#.	c #DE2900",
"##.	c #F63B00",
"$#.	c #BF1900",
"%#.	c #580303",
"&#.	c #B52601",
"*#.	c #D72F00",
"=#.	c #D42600",
"-#.	c #D22500",
";#.	c #C02800",
">#.	c #D73C00",
",#.	c #B42201",
"'#.	c #610601",
")#.	c #AB2500",
"!#.	c #EA5D00",
"~#.	c #F97900",
"{#.	c #FC8500",
"]#.	c #FC6900",
"^#.	c #F75300",
"/#.	c #F04E00",
"(#.	c #FA7300",
"_#.	c #FD9200",
":#.	c #FFD000",
"<#.	c #FEE800",
"[#.	c #FFDC00",
"}#.	c #F05600",
"|#.	c #F64D00",
"1#.	c #FFA300",
"2#.	c #F47000",
"3#.	c #DF4300",
"4#.	c #C94200",
"5#.	c #AA4A00",
"6#.	c #6A0600",
"7#.	c #C71A00",
"8#.	c #950F01",
"9#.	c #8A1600",
"0#.	c #CC3400",
"a#.	c #DF5200",
"b#.	c #842A00",
"c#.	c #811501",
"d#.	c #821601",
"e#.	c #811A02",
"f#.	c #772001",
"g#.	c #A52800",
"h#.	c #B82D01",
"i#.	c #AF2A01",
"j#.	c #B42B00",
"k#.	c #B61900",
"l#.	c #720800",
"m#.	c #A72F01",
"n#.	c #E35600",
"o#.	c #B72D00",
"p#.	c #871301",
"q#.	c #880D01",
"r#.	c #901300",
"s#.	c #B32A00",
"t#.	c #D83800",
"u#.	c #AF2F00",
"v#.	c #AA3300",
"w#.	c #AA1A00",
"x#.	c #DE1E00",
"y#.	c #E12900",
"z#.	c #F54000",
"A#.	c #FA4200",
"B#.	c #ED3100",
"C#.	c #F84200",
"D#.	c #FD4F00",
"E#.	c #F93900",
"F#.	c #FA4300",
"G#.	c #F43C00",
"H#.	c #E53400",
"I#.	c #780901",
"J#.	c #840901",
"K#.	c #4E0103",
"L#.	c #390206",
"M#.	c #930B01",
"N#.	c #C92F00",
"O#.	c #F13D00",
"P#.	c #F43F00",
"Q#.	c #A32400",
"R#.	c #7C1002",
"S#.	c #820C01",
"T#.	c #AD2000",
"U#.	c #D93A00",
"V#.	c #D13C00",
"W#.	c #EC5A00",
"X#.	c #FFC701",
"Y#.	c #FB8101",
"Z#.	c #FBAA00",
"`#.	c #FECB00",
" $.	c #FFDB00",
".$.	c #F34300",
"+$.	c #ED5D00",
"@$.	c #FEAD00",
"#$.	c #FC9F00",
"$$.	c #E17600",
"%$.	c #A02D00",
"&$.	c #A03100",
"*$.	c #7F0D00",
"=$.	c #971101",
"-$.	c #6B0D01",
";$.	c #811200",
">$.	c #F75400",
",$.	c #EA5A00",
"'$.	c #811400",
")$.	c #4F0400",
"!$.	c #520702",
"~$.	c #820E01",
"{$.	c #AC1600",
"]$.	c #AD2800",
"^$.	c #E45A00",
"/$.	c #FA7600",
"($.	c #D54D00",
"_$.	c #5F0701",
":$.	c #2C0002",
"<$.	c #230002",
"[$.	c #340003",
"}$.	c #490102",
"|$.	c #981701",
"1$.	c #CA2D01",
"2$.	c #D33001",
"3$.	c #D03501",
"4$.	c #B53600",
"5$.	c #BA5000",
"6$.	c #CD5A01",
"7$.	c #FA6C00",
"8$.	c #FB6B00",
"9$.	c #DB4700",
"0$.	c #AE1000",
"a$.	c #CE1A00",
"b$.	c #DF3200",
"c$.	c #F44800",
"d$.	c #E93000",
"e$.	c #F93E00",
"f$.	c #FC4600",
"g$.	c #FD4700",
"h$.	c #FE4B00",
"i$.	c #F13200",
"j$.	c #C41E00",
"k$.	c #A20E01",
"l$.	c #C12C00",
"m$.	c #E42F00",
"n$.	c #EA3600",
"o$.	c #B72400",
"p$.	c #750D01",
"q$.	c #770B01",
"r$.	c #9E1600",
"s$.	c #DA4B00",
"t$.	c #FEB200",
"u$.	c #FF9A00",
"v$.	c #FAA301",
"w$.	c #F57100",
"x$.	c #F8B501",
"y$.	c #FFE801",
"z$.	c #F86200",
"A$.	c #991300",
"B$.	c #C54400",
"C$.	c #FDB601",
"D$.	c #FEB401",
"E$.	c #F37B00",
"F$.	c #DC6C00",
"G$.	c #D26400",
"H$.	c #AD4F00",
"I$.	c #9E3500",
"J$.	c #A01A00",
"K$.	c #751301",
"L$.	c #BD4B00",
"M$.	c #E76700",
"N$.	c #EE7000",
"O$.	c #BE2D00",
"P$.	c #A32901",
"Q$.	c #941601",
"R$.	c #941E01",
"S$.	c #AB2601",
"T$.	c #972300",
"U$.	c #B92F00",
"V$.	c #E84100",
"W$.	c #C42C00",
"X$.	c #D75301",
"Y$.	c #DD6000",
"Z$.	c #C55901",
"`$.	c #6B0C00",
" %.	c #460302",
".%.	c #2F0003",
"+%.	c #3E0102",
"@%.	c #470102",
"#%.	c #3A0003",
"$%.	c #500102",
"%%.	c #470103",
"&%.	c #4C0301",
"*%.	c #871401",
"=%.	c #EA3300",
"-%.	c #F35600",
";%.	c #F46200",
">%.	c #F96500",
",%.	c #FB5C00",
"'%.	c #CF2000",
")%.	c #8C0B01",
"!%.	c #6B0702",
"~%.	c #6E0802",
"{%.	c #A61200",
"]%.	c #B51700",
"^%.	c #E02A00",
"/%.	c #FA4E00",
"(%.	c #FC4F00",
"_%.	c #F84D00",
":%.	c #E43A00",
"<%.	c #190303",
"[%.	c #1F0006",
"}%.	c #330005",
"|%.	c #800701",
"1%.	c #B12201",
"2%.	c #CE2100",
"3%.	c #D02400",
"4%.	c #921201",
"5%.	c #AF1B00",
"6%.	c #D04400",
"7%.	c #F26B00",
"8%.	c #F96D00",
"9%.	c #E57200",
"0%.	c #D77200",
"a%.	c #E04500",
"b%.	c #DB8D01",
"c%.	c #E02B00",
"d%.	c #D02000",
"e%.	c #A83500",
"f%.	c #F78A00",
"g%.	c #FD6D00",
"h%.	c #FEA500",
"i%.	c #FCA800",
"j%.	c #DF6601",
"k%.	c #7D1000",
"l%.	c #630B01",
"m%.	c #460401",
"n%.	c #C46201",
"o%.	c #D99201",
"p%.	c #AB3200",
"q%.	c #EF5800",
"r%.	c #B05400",
"s%.	c #A82401",
"t%.	c #E23600",
"u%.	c #F14600",
"v%.	c #F24A00",
"w%.	c #F04C00",
"x%.	c #F24800",
"y%.	c #AB1C01",
"z%.	c #8D2602",
"A%.	c #731401",
"B%.	c #771801",
"C%.	c #6D0901",
"D%.	c #750803",
"E%.	c #760802",
"F%.	c #FA6E00",
"G%.	c #FF7400",
"H%.	c #FE7200",
"I%.	c #FF7000",
"J%.	c #F34400",
"K%.	c #690502",
"L%.	c #C82D00",
"M%.	c #F94400",
"N%.	c #E62E00",
"O%.	c #E23500",
"P%.	c #D72900",
"Q%.	c #B31300",
"R%.	c #790601",
"S%.	c #6E0602",
"T%.	c #7B0C00",
"U%.	c #B71D00",
"V%.	c #880F00",
"W%.	c #D03400",
"X%.	c #EB5200",
"Y%.	c #C64C00",
"Z%.	c #810F00",
"`%.	c #B92000",
" &.	c #C97B01",
".&.	c #FEDA00",
"+&.	c #FEE101",
"@&.	c #F34000",
"#&.	c #EA3400",
"$&.	c #D92B00",
"%&.	c #BA2800",
"&&.	c #E95400",
"*&.	c #DA3600",
"=&.	c #FFAB00",
"-&.	c #CC3F00",
";&.	c #C83300",
">&.	c #A32C02",
",&.	c #641302",
"'&.	c #4F0201",
")&.	c #A54001",
"!&.	c #AD2C00",
"~&.	c #6A1301",
"{&.	c #B93501",
"]&.	c #C34F00",
"^&.	c #DF4400",
"/&.	c #F16500",
"(&.	c #EA5200",
"_&.	c #F25700",
":&.	c #600801",
"<&.	c #952300",
"[&.	c #B82A00",
"}&.	c #881201",
"|&.	c #370102",
"1&.	c #3D0002",
"2&.	c #5B0201",
"3&.	c #BE1400",
"4&.	c #D31900",
"5&.	c #EF6200",
"6&.	c #E75400",
"7&.	c #CF2C00",
"8&.	c #A11400",
"9&.	c #F73A00",
"0&.	c #E83000",
"a&.	c #A11700",
"b&.	c #9C1101",
"c&.	c #7C0801",
"d&.	c #971700",
"e&.	c #E33C00",
"f&.	c #EC5500",
"g&.	c #FFC900",
"h&.	c #EF4F00",
"i&.	c #B73900",
"j&.	c #730800",
"k&.	c #810A00",
"l&.	c #E29000",
"m&.	c #FEBD00",
"n&.	c #FB4900",
"o&.	c #F84400",
"p&.	c #9E1700",
"q&.	c #902600",
"r&.	c #881800",
"s&.	c #BA2300",
"t&.	c #D03900",
"u&.	c #FC8D00",
"v&.	c #FD8200",
"w&.	c #F04700",
"x&.	c #D54000",
"y&.	c #8B1600",
"z&.	c #420504",
"A&.	c #520703",
"B&.	c #BE3301",
"C&.	c #891200",
"D&.	c #700F01",
"E&.	c #7C1800",
"F&.	c #901B00",
"G&.	c #CA4500",
"H&.	c #D85100",
"I&.	c #A12600",
"J&.	c #AC6001",
"K&.	c #BC5401",
"L&.	c #D63E00",
"M&.	c #922C03",
"N&.	c #310003",
"O&.	c #930800",
"P&.	c #A30B00",
"Q&.	c #BB1300",
"R&.	c #D11C00",
"S&.	c #DC3500",
"T&.	c #F03A00",
"U&.	c #EB3E00",
"V&.	c #CB2100",
"W&.	c #A91800",
"X&.	c #CB2300",
"Y&.	c #DC2700",
"Z&.	c #410104",
"`&.	c #DE2700",
" *.	c #830701",
".*.	c #180404",
"+*.	c #360004",
"@*.	c #810900",
"#*.	c #921400",
"$*.	c #D33F00",
"%*.	c #E24600",
"&*.	c #DF3D00",
"**.	c #FFA500",
"=*.	c #FCB200",
"-*.	c #DE4D00",
";*.	c #B83700",
">*.	c #670800",
",*.	c #E4A100",
"'*.	c #F25100",
")*.	c #F55B00",
"!*.	c #F26600",
"~*.	c #D24B00",
"{*.	c #F47400",
"]*.	c #F05E00",
"^*.	c #F56B00",
"/*.	c #F17000",
"(*.	c #DE4000",
"_*.	c #CF3300",
":*.	c #B83100",
"<*.	c #680601",
"[*.	c #B63001",
"}*.	c #E23D00",
"|*.	c #BD3500",
"1*.	c #6C0801",
"2*.	c #270102",
"3*.	c #981D00",
"4*.	c #881F00",
"5*.	c #E96100",
"6*.	c #F88100",
"7*.	c #955301",
"8*.	c #881601",
"9*.	c #390003",
"0*.	c #910800",
"a*.	c #B81D00",
"b*.	c #BA1D00",
"c*.	c #D22600",
"d*.	c #BF3400",
"e*.	c #EA4600",
"f*.	c #960E01",
"g*.	c #600603",
"h*.	c #4A0305",
"i*.	c #9B0C01",
"j*.	c #5D0403",
"k*.	c #130204",
"l*.	c #7E0800",
"m*.	c #7F0900",
"n*.	c #ED4800",
"o*.	c #BF1B00",
"p*.	c #CB3000",
"q*.	c #DE5C00",
"r*.	c #E08000",
"s*.	c #E29F00",
"t*.	c #F59E00",
"u*.	c #DF4E00",
"v*.	c #CB4100",
"w*.	c #7C1100",
"x*.	c #C12D00",
"y*.	c #F1AB01",
"z*.	c #FECB01",
"A*.	c #FC9900",
"B*.	c #F95400",
"C*.	c #FB5600",
"D*.	c #FA5A00",
"E*.	c #E43600",
"F*.	c #D72500",
"G*.	c #EA4D00",
"H*.	c #FA6D00",
"I*.	c #E85A00",
"J*.	c #D13E00",
"K*.	c #C45300",
"L*.	c #A12E00",
"M*.	c #A31D00",
"N*.	c #911501",
"O*.	c #7C0C01",
"P*.	c #6F0800",
"Q*.	c #952301",
"R*.	c #C33B01",
"S*.	c #882701",
"T*.	c #841802",
"U*.	c #921700",
"V*.	c #7C1501",
"W*.	c #901B01",
"X*.	c #DC5000",
"Y*.	c #FB9000",
"Z*.	c #E97400",
"`*.	c #7E3D01",
" =.	c #610300",
".=.	c #690400",
"+=.	c #6F0400",
"@=.	c #7E0500",
"#=.	c #E53E00",
"$=.	c #DB2B00",
"%=.	c #C72600",
"&=.	c #F85900",
"*=.	c #F65100",
"==.	c #B82001",
"-=.	c #920F01",
";=.	c #570504",
">=.	c #450305",
",=.	c #440205",
"'=.	c #A01301",
")=.	c #170102",
"!=.	c #861102",
"~=.	c #620601",
"{=.	c #A11F00",
"]=.	c #EB3F00",
"^=.	c #BE1E00",
"/=.	c #8E1801",
"(=.	c #D24600",
"_=.	c #ED5700",
":=.	c #DC4F00",
"<=.	c #961700",
"[=.	c #960D00",
"}=.	c #EF5700",
"|=.	c #F69000",
"1=.	c #F99D00",
"2=.	c #D63701",
"3=.	c #B12D01",
"4=.	c #DE4901",
"5=.	c #E84A00",
"6=.	c #F95000",
"7=.	c #FF8C00",
"8=.	c #FD8600",
"9=.	c #FA7100",
"0=.	c #D37D01",
"a=.	c #570B00",
"b=.	c #670D01",
"c=.	c #7D1602",
"d=.	c #460300",
"e=.	c #690E00",
"f=.	c #752302",
"g=.	c #DE5C01",
"h=.	c #DD7902",
"i=.	c #701E02",
"j=.	c #370101",
"k=.	c #5E0201",
"l=.	c #710401",
"m=.	c #570301",
"n=.	c #EE4E00",
"o=.	c #A01B01",
"p=.	c #C85700",
"q=.	c #E75E00",
"r=.	c #F05500",
"s=.	c #D65300",
"t=.	c #DE6000",
"u=.	c #E55400",
"v=.	c #C42F01",
"w=.	c #610602",
"x=.	c #970D01",
"y=.	c #710501",
"z=.	c #1A0203",
"A=.	c #AF1B01",
"B=.	c #A30E00",
"C=.	c #E93400",
"D=.	c #A81F00",
"E=.	c #690F02",
"F=.	c #873401",
"G=.	c #D25A01",
"H=.	c #CB4F00",
"I=.	c #860C00",
"J=.	c #EB4A00",
"K=.	c #F66900",
"L=.	c #CF4400",
"M=.	c #8D1801",
"N=.	c #D32300",
"O=.	c #E95600",
"P=.	c #F95500",
"Q=.	c #D35D00",
"R=.	c #E76400",
"S=.	c #F44C00",
"T=.	c #FD7B00",
"U=.	c #F25F00",
"V=.	c #C55800",
"W=.	c #A01600",
"X=.	c #AC1B00",
"Y=.	c #600700",
"Z=.	c #B51A00",
"`=.	c #C12300",
" -.	c #3B0401",
".-.	c #712901",
"+-.	c #723402",
"@-.	c #460601",
"#-.	c #A50F01",
"$-.	c #A71001",
"%-.	c #A10E01",
"&-.	c #990D01",
"*-.	c #FA7400",
"=-.	c #EC7900",
"--.	c #F68A00",
";-.	c #F57900",
">-.	c #F06A00",
",-.	c #F35300",
"'-.	c #F95E00",
")-.	c #FD7400",
"!-.	c #F06200",
"~-.	c #CD2E00",
"{-.	c #C13200",
"]-.	c #8A0E02",
"^-.	c #7F0802",
"/-.	c #560203",
"(-.	c #350005",
"_-.	c #110001",
":-.	c #1D0102",
"<-.	c #700602",
"[-.	c #931001",
"}-.	c #681001",
"|-.	c #D74401",
"1-.	c #DB2D00",
"2-.	c #B92100",
"3-.	c #D03700",
"4-.	c #FB5200",
"5-.	c #D85301",
"6-.	c #861702",
"7-.	c #931102",
"8-.	c #882401",
"9-.	c #9C2800",
"0-.	c #831600",
"a-.	c #F85B00",
"b-.	c #DF4A01",
"c-.	c #EB3800",
"d-.	c #FD7300",
"e-.	c #F26000",
"f-.	c #D23400",
"g-.	c #E76300",
"h-.	c #F26900",
"i-.	c #F74F00",
"j-.	c #F96200",
"k-.	c #D44100",
"l-.	c #BA2200",
"m-.	c #BA1B00",
"n-.	c #BA1A00",
"o-.	c #3B0102",
"p-.	c #4B0201",
"q-.	c #AE1800",
"r-.	c #C22B01",
"s-.	c #B52F02",
"t-.	c #450602",
"u-.	c #2C0102",
"v-.	c #D11600",
"w-.	c #D22000",
"x-.	c #C22E00",
"y-.	c #F15B00",
"z-.	c #FD8D00",
"A-.	c #FDB101",
"B-.	c #FEAD05",
"C-.	c #FD7C01",
"D-.	c #E74800",
"E-.	c #BB2E00",
"F-.	c #B03702",
"G-.	c #AE1701",
"H-.	c #7B0A03",
"I-.	c #420306",
"J-.	c #A41201",
"K-.	c #500404",
"L-.	c #560702",
"M-.	c #BA2701",
"N-.	c #DB2800",
"O-.	c #D32D00",
"P-.	c #FA4800",
"Q-.	c #CE4202",
"R-.	c #550703",
"S-.	c #630802",
"T-.	c #7E0E00",
"U-.	c #E34C00",
"V-.	c #FB6600",
"W-.	c #FDA200",
"X-.	c #EF5B00",
"Y-.	c #F06C00",
"Z-.	c #FD7F00",
"`-.	c #F56800",
" ;.	c #FBC000",
".;.	c #F96800",
"+;.	c #D84B00",
"@;.	c #AD4C00",
"#;.	c #A63300",
"$;.	c #9C1400",
"%;.	c #C62600",
"&;.	c #CE2500",
"*;.	c #BA1900",
"=;.	c #AC1500",
"-;.	c #360002",
";;.	c #AA1601",
">;.	c #D21A00",
",;.	c #DD1B00",
"';.	c #D61D00",
");.	c #DA2100",
"!;.	c #E93800",
"~;.	c #FF7800",
"{;.	c #FE5A00",
"];.	c #F94200",
"^;.	c #FC4B00",
"/;.	c #DD4E00",
"(;.	c #CB2A01",
"_;.	c #7A0702",
":;.	c #8B0A01",
"<;.	c #9D0D01",
"[;.	c #B81200",
"};.	c #3F0103",
"|;.	c #500504",
"1;.	c #620603",
"2;.	c #790A02",
"3;.	c #840B02",
"4;.	c #800B03",
"5;.	c #320005",
"6;.	c #370004",
"7;.	c #690602",
"8;.	c #9E1001",
"9;.	c #D21D00",
"0;.	c #CE2000",
"a;.	c #BB3E02",
"b;.	c #560304",
"c;.	c #750903",
"d;.	c #700902",
"e;.	c #5C0602",
"f;.	c #730901",
"g;.	c #C32300",
"h;.	c #DA4A00",
"i;.	c #DE4700",
"j;.	c #DB5800",
"k;.	c #BE3001",
"l;.	c #E94E00",
"m;.	c #F04F00",
"n;.	c #F25A00",
"o;.	c #FDB400",
"p;.	c #FE9F00",
"q;.	c #FC8A00",
"r;.	c #FA8D00",
"s;.	c #F37800",
"t;.	c #EA4E00",
"u;.	c #F35C00",
"v;.	c #F37200",
"w;.	c #DD4500",
"x;.	c #B81800",
"y;.	c #4E0402",
"z;.	c #BD1E00",
"A;.	c #E34301",
"B;.	c #E73B00",
"C;.	c #EC3F00",
"D;.	c #F04000",
"E;.	c #FD5700",
"F;.	c #FA4F00",
"G;.	c #931101",
"H;.	c #2D0006",
"I;.	c #2C0006",
"J;.	c #350106",
"K;.	c #6A0803",
"L;.	c #7F0B01",
"M;.	c #3D0505",
"N;.	c #330403",
"O;.	c #140002",
"P;.	c #640803",
"Q;.	c #820B02",
"R;.	c #931401",
"S;.	c #860D01",
"T;.	c #660803",
"U;.	c #5C0504",
"V;.	c #690803",
"W;.	c #650703",
"X;.	c #A21000",
"Y;.	c #840C00",
"Z;.	c #600701",
"`;.	c #8B1B01",
" >.	c #B74B01",
".>.	c #F76200",
"+>.	c #FC7E00",
"@>.	c #FEA401",
"#>.	c #F86D00",
"$>.	c #E46100",
"%>.	c #D35F00",
"&>.	c #F16000",
"*>.	c #FB5B00",
"=>.	c #D34400",
"->.	c #F7A201",
";>.	c #FFB300",
">>.	c #FFBE00",
",>.	c #FD7E00",
"'>.	c #FE6200",
")>.	c #E23700",
"!>.	c #CA2200",
"~>.	c #E92E00",
"{>.	c #E82A00",
"]>.	c #A91300",
"^>.	c #330003",
"/>.	c #4E0202",
"(>.	c #510101",
"_>.	c #FB4A00",
":>.	c #FE4D00",
"<>.	c #FD4A00",
"[>.	c #FD6500",
"}>.	c #FE7100",
"|>.	c #FEA603",
"1>.	c #FC8400",
"2>.	c #FD8700",
"3>.	c #FE6800",
"4>.	c #F36D00",
"5>.	c #E84C00",
"6>.	c #D72600",
"7>.	c #BA1000",
"8>.	c #6F0602",
"9>.	c #370206",
"0>.	c #270305",
"a>.	c #170002",
"b>.	c #7D0A01",
"c>.	c #8B2101",
"d>.	c #CB4400",
"e>.	c #FA7A01",
"f>.	c #FC9401",
"g>.	c #9C1D00",
"h>.	c #E75100",
"i>.	c #FEC300",
"j>.	c #DB3100",
"k>.	c #870901",
"l>.	c #AE2301",
"m>.	c #E05D00",
"n>.	c #E84300",
"o>.	c #F65300",
"p>.	c #FF5200",
"q>.	c #FF5400",
"r>.	c #FF7B00",
"s>.	c #FF8C01",
"t>.	c #FEC22C",
"u>.	c #FEC425",
"v>.	c #FEA40E",
"w>.	c #FCA900",
"x>.	c #FD6C00",
"y>.	c #F93F00",
"z>.	c #D31E00",
"A>.	c #BF1200",
"B>.	c #6C0603",
"C>.	c #6C0602",
"D>.	c #6D0703",
"E>.	c #710804",
"F>.	c #380106",
"G>.	c #3E0105",
"H>.	c #400306",
"I>.	c #3B0306",
"J>.	c #AA1B00",
"K>.	c #C05000",
"L>.	c #E14100",
"M>.	c #F59E01",
"N>.	c #FDE302",
"O>.	c #F57501",
"P>.	c #E83D00",
"Q>.	c #F56700",
"R>.	c #FB7C00",
"S>.	c #E32F00",
"T>.	c #C32000",
"U>.	c #3F0002",
"V>.	c #8C1200",
"W>.	c #C92400",
"X>.	c #DA3E00",
"Y>.	c #ED8E00",
"Z>.	c #FDD303",
"`>.	c #F77901",
" ,.	c #FF8900",
".,.	c #FE9101",
"+,.	c #FED30D",
"@,.	c #FDD710",
"#,.	c #FFC106",
"$,.	c #FFB003",
"%,.	c #FEE242",
"&,.	c #FEF446",
"*,.	c #FEEF3D",
"=,.	c #FFD418",
"-,.	c #FED202",
";,.	c #FE4200",
">,.	c #FC4100",
",,.	c #F84300",
"',.	c #C81600",
"),.	c #3D0105",
"!,.	c #540304",
"~,.	c #3F0306",
"{,.	c #240104",
"],.	c #1A0003",
"^,.	c #640404",
"/,.	c #840902",
"(,.	c #971200",
"_,.	c #8C1100",
":,.	c #961600",
"<,.	c #D44E01",
"[,.	c #F49A01",
"},.	c #FDAB00",
"|,.	c #FEA700",
"1,.	c #F6A700",
"2,.	c #FCAD00",
"3,.	c #FBAE01",
"4,.	c #F95800",
"5,.	c #FA6900",
"6,.	c #DE3400",
"7,.	c #B42700",
"8,.	c #700900",
"9,.	c #370003",
"0,.	c #FEE50F",
"a,.	c #FFAA0E",
"b,.	c #FE7F02",
"c,.	c #FFAF00",
"d,.	c #FECC10",
"e,.	c #FDE53F",
"f,.	c #FDEE43",
"g,.	c #FEF03C",
"h,.	c #FEE422",
"i,.	c #FEF459",
"j,.	c #FEF241",
"k,.	c #FDE72E",
"l,.	c #FEAE02",
"m,.	c #FDBE00",
"n,.	c #F85500",
"o,.	c #FB3A00",
"p,.	c #FD3F00",
"q,.	c #FD5800",
"r,.	c #EE4500",
"s,.	c #790702",
"t,.	c #820902",
"u,.	c #4B0404",
"v,.	c #630501",
"w,.	c #8C0A01",
"x,.	c #1A0102",
"y,.	c #880701",
"z,.	c #900B01",
"A,.	c #730801",
"B,.	c #B62B00",
"C,.	c #D55B00",
"D,.	c #FD9100",
"E,.	c #FE9A00",
"F,.	c #FFD601",
"G,.	c #FFD100",
"H,.	c #FFC800",
"I,.	c #FFCE00",
"J,.	c #FEAA03",
"K,.	c #FDAB0C",
"L,.	c #FDA70E",
"M,.	c #F59203",
"N,.	c #D65600",
"O,.	c #C12900",
"P,.	c #A81E00",
"Q,.	c #991D00",
"R,.	c #770C01",
"S,.	c #6C0600",
"T,.	c #900800",
"U,.	c #EF5500",
"V,.	c #FEE421",
"W,.	c #FEED28",
"X,.	c #FFC70A",
"Y,.	c #FFC000",
"Z,.	c #FEC602",
"`,.	c #FEE30A",
" '.	c #FEEC2C",
".'.	c #FDEE2B",
"+'.	c #FDF037",
"@'.	c #FEF433",
"#'.	c #FEF529",
"$'.	c #FDF123",
"%'.	c #FEDD09",
"&'.	c #FF9001",
"*'.	c #FD7000",
"='.	c #F74400",
"-'.	c #FA3B00",
";'.	c #F33400",
">'.	c #D72B00",
",'.	c #8D0901",
"''.	c #A00F01",
")'.	c #3A0206",
"!'.	c #3D0306",
"~'.	c #640402",
"{'.	c #600501",
"]'.	c #210404",
"^'.	c #6A0402",
"/'.	c #890801",
"('.	c #850701",
"_'.	c #780C01",
":'.	c #AB1900",
"<'.	c #D53300",
"['.	c #B11D01",
"}'.	c #9C1900",
"|'.	c #F27300",
"1'.	c #F87000",
"2'.	c #F07B00",
"3'.	c #FAA303",
"4'.	c #FD9E01",
"5'.	c #FDB100",
"6'.	c #FFCE01",
"7'.	c #FFDD04",
"8'.	c #FFE411",
"9'.	c #FEF335",
"0'.	c #FEF63E",
"a'.	c #FEEA1B",
"b'.	c #FDA800",
"c'.	c #F56A00",
"d'.	c #F25D00",
"e'.	c #EF5D00",
"f'.	c #DA5C00",
"g'.	c #7E0E01",
"h'.	c #600901",
"i'.	c #5C0501",
"j'.	c #530602",
"k'.	c #9D1001",
"l'.	c #8E0D00",
"m'.	c #991000",
"n'.	c #D92700",
"o'.	c #F75301",
"p'.	c #FDDA04",
"q'.	c #FFD603",
"r'.	c #FED801",
"s'.	c #FED700",
"t'.	c #FDEA00",
"u'.	c #FFF207",
"v'.	c #FEF410",
"w'.	c #FCD80C",
"x'.	c #FED708",
"y'.	c #FEC705",
"z'.	c #FE8F07",
"A'.	c #FE8905",
"B'.	c #FE8903",
"C'.	c #F52F00",
"D'.	c #F22D00",
"E'.	c #EB2600",
"F'.	c #EA2400",
"G'.	c #D62000",
"H'.	c #8B0801",
"I'.	c #AF1200",
"J'.	c #290006",
"K'.	c #860700",
"L'.	c #810601",
"M'.	c #7A0501",
"N'.	c #690402",
"O'.	c #7E0602",
"P'.	c #5D0404",
"Q'.	c #7F0600",
"R'.	c #910901",
"S'.	c #990C01",
"T'.	c #7D0501",
"U'.	c #650302",
"V'.	c #9F1401",
"W'.	c #870801",
"X'.	c #B01E01",
"Y'.	c #F02F00",
"Z'.	c #E52E00",
"`'.	c #ED3500",
" ).	c #A21400",
".).	c #D54300",
"+).	c #DC5500",
"@).	c #CE4E00",
"#).	c #C95E00",
"$).	c #F57600",
"%).	c #FFB400",
"&).	c #FFE407",
"*).	c #FEE515",
"=).	c #FED806",
"-).	c #FDA700",
";).	c #FCB600",
">).	c #FDA601",
",).	c #F79000",
"').	c #E25F00",
")).	c #E15600",
"!).	c #D23300",
"~).	c #C92B00",
"{).	c #BC1E00",
"]).	c #C42801",
"^).	c #DC3F00",
"/).	c #DC3C00",
"().	c #D92000",
"_).	c #F95100",
":).	c #FEA501",
"<).	c #FEA101",
"[).	c #FEA002",
"}).	c #FE9C01",
"|).	c #FD8400",
"1).	c #FD8A01",
"2).	c #F62D00",
"3).	c #F72D00",
"4).	c #F83300",
"5).	c #EE2400",
"6).	c #EE2300",
"7).	c #E62200",
"8).	c #E42200",
"9).	c #A90B00",
"0).	c #9A0A00",
"a).	c #990A01",
"b).	c #970A01",
"c).	c #A80D00",
"d).	c #900A01",
"e).	c #A10C00",
"f).	c #940B01",
"g).	c #A00D01",
"h).	c #A50E00",
"i).	c #840701",
"j).	c #8A0701",
"k).	c #8B0901",
"l).	c #941400",
"m).	c #A71901",
"n).	c #F23300",
"o).	c #E52700",
"p).	c #E62A00",
"q).	c #EC3200",
"r).	c #F23A00",
"s).	c #DC3E00",
"t).	c #E85500",
"u).	c #FEB600",
"v).	c #FDD102",
"w).	c #FDC701",
"x).	c #FFC700",
"y).	c #EB4500",
"z).	c #AB1300",
"A).	c #720502",
"B).	c #720A02",
"C).	c #A71900",
"D).	c #E22C00",
"E).	c #C01500",
"F).	c #DE3A00",
"G).	c #FE6100",
"H).	c #FE7B00",
"I).	c #FD8C00",
"J).	c #FE5400",
"K).	c #FF5700",
"L).	c #FF5100",
"M).	c #FC4300",
"N).	c #F92E00",
"O).	c #F82B00",
"P).	c #F62900",
"Q).	c #F02600",
"R).	c #E92200",
"S).	c #D71D00",
"T).	c #9E0A00",
"U).	c #740602",
"V).	c #B21000",
"W).	c #C71900",
"X).	c #6F0503",
"Y).	c #A51100",
"Z).	c #7A0802",
"`).	c #3D0405",
" !.	c #3F0505",
".!.	c #300006",
"+!.	c #A01D00",
"@!.	c #ED2800",
"#!.	c #EC2200",
"$!.	c #D91C00",
"%!.	c #D91D00",
"&!.	c #DA1D00",
"*!.	c #8C1002",
"=!.	c #C41500",
"-!.	c #CB1900",
";!.	c #D91E00",
">!.	c #CB2B00",
",!.	c #C11500",
"'!.	c #FA4100",
")!.	c #FF9B00",
"!!.	c #FA5500",
"~!.	c #EC4200",
"{!.	c #C51D00",
"]!.	c #9E0B00",
"^!.	c #7C0501",
"/!.	c #3E0206",
"(!.	c #BB2601",
"_!.	c #ED3200",
":!.	c #E13800",
"<!.	c #FD8000",
"[!.	c #FE5B00",
"}!.	c #FA3F00",
"|!.	c #F33100",
"1!.	c #F92F00",
"2!.	c #FA3300",
"3!.	c #FB3800",
"4!.	c #FC3900",
"5!.	c #FC3C00",
"6!.	c #FD3B00",
"7!.	c #FB3000",
"8!.	c #F83000",
"9!.	c #EE2900",
"0!.	c #E72100",
"a!.	c #CC2100",
"b!.	c #AC0E00",
"c!.	c #BA1200",
"d!.	c #CF1E00",
"e!.	c #C72500",
"f!.	c #C52400",
"g!.	c #B50F00",
"h!.	c #A10900",
"i!.	c #820802",
"j!.	c #8A0801",
"k!.	c #520203",
"l!.	c #1C0103",
"m!.	c #290405",
"n!.	c #3C0407",
"o!.	c #4F0707",
"p!.	c #2D0203",
"q!.	c #2E0006",
"r!.	c #F53E00",
"s!.	c #F02D00",
"t!.	c #F02A00",
"u!.	c #BD1B00",
"v!.	c #A71A01",
"w!.	c #E73600",
"x!.	c #EA3000",
"y!.	c #EA4200",
"z!.	c #D44800",
"A!.	c #BD1C00",
"B!.	c #EE3300",
"C!.	c #FA5000",
"D!.	c #F94B00",
"E!.	c #F97D00",
"F!.	c #FDBB00",
"G!.	c #FB7500",
"H!.	c #780501",
"I!.	c #400206",
"J!.	c #D22400",
"K!.	c #F55F00",
"L!.	c #F36000",
"M!.	c #FB5E00",
"N!.	c #F22E00",
"O!.	c #E91E00",
"P!.	c #ED2200",
"Q!.	c #F63300",
"R!.	c #F53000",
"S!.	c #D81E00",
"T!.	c #F02300",
"U!.	c #FB3600",
"V!.	c #FA3700",
"W!.	c #FA3900",
"X!.	c #DA2500",
"Y!.	c #C41300",
"Z!.	c #DE2400",
"`!.	c #E42800",
" ~.	c #EF2B00",
".~.	c #D92200",
"+~.	c #E73000",
"@~.	c #DF2500",
"#~.	c #990800",
"$~.	c #890600",
"%~.	c #3C0506",
"&~.	c #440607",
"*~.	c #230104",
"=~.	c #230404",
"-~.	c #7F0601",
";~.	c #DE3200",
">~.	c #F84900",
",~.	c #F12C00",
"'~.	c #EC2400",
")~.	c #DE2000",
"!~.	c #D82000",
"~~.	c #C41A00",
"{~.	c #FA3C00",
"]~.	c #F94100",
"^~.	c #F53800",
"/~.	c #F94900",
"(~.	c #F98D01",
"_~.	c #F87F00",
":~.	c #C21600",
"<~.	c #FC5900",
"[~.	c #FD6700",
"}~.	c #F83900",
"|~.	c #F42D00",
"1~.	c #F63400",
"2~.	c #EF2C00",
"3~.	c #C51C00",
"4~.	c #980C01",
"5~.	c #9D0B01",
"6~.	c #A71000",
"7~.	c #F87A00",
"8~.	c #F44B00",
"9~.	c #F43200",
"0~.	c #EC2B00",
"a~.	c #9A0900",
"b~.	c #A40B00",
"c~.	c #4A0507",
"d~.	c #470507",
"e~.	c #490506",
"f~.	c #410405",
"g~.	c #270104",
"h~.	c #200302",
"i~.	c #150102",
"j~.	c #1C0003",
"k~.	c #780602",
"l~.	c #C82C00",
"m~.	c #CC4400",
"n~.	c #F94800",
"o~.	c #FB4C00",
"p~.	c #EB3000",
"q~.	c #F63600",
"r~.	c #CA1600",
"s~.	c #D11700",
"t~.	c #AC1101",
"u~.	c #6F0803",
"v~.	c #D01A00",
"w~.	c #D31C00",
"x~.	c #D52C00",
"y~.	c #A91200",
"z~.	c #AB1901",
"A~.	c #C23701",
"B~.	c #A42600",
"C~.	c #B52D01",
"D~.	c #C71600",
"E~.	c #C82300",
"F~.	c #961A01",
"G~.	c #E95D00",
"H~.	c #ED6000",
"I~.	c #F53700",
"J~.	c #F02B00",
"K~.	c #F63900",
"L~.	c #FE5E00",
"M~.	c #FF5E00",
"N~.	c #FC4C00",
"O~.	c #F43600",
"P~.	c #F12F00",
"Q~.	c #CA2C00",
"R~.	c #BA1F00",
"S~.	c #910D02",
"T~.	c #920E01",
"U~.	c #820A02",
"V~.	c #6B0603",
"W~.	c #7C0702",
"X~.	c #5F0303",
"Y~.	c #8E0600",
"Z~.	c #FD5900",
"`~.	c #FDA402",
" {.	c #FC4200",
".{.	c #FC3F00",
"+{.	c #F32A00",
"@{.	c #E62300",
"#{.	c #D81B00",
"${.	c #DC1E00",
"%{.	c #BD1300",
"&{.	c #B30E00",
"*{.	c #AF0D00",
"={.	c #1C0203",
"-{.	c #290204",
";{.	c #FE5C00",
">{.	c #C51200",
",{.	c #9C0D01",
"'{.	c #EA3D00",
"){.	c #E12800",
"!{.	c #780500",
"~{.	c #CC1C00",
"{{.	c #9D1D00",
"]{.	c #C71800",
"^{.	c #A00E01",
"/{.	c #9F1001",
"({.	c #E02000",
"_{.	c #E52600",
":{.	c #F54200",
"<{.	c #FB5900",
"[{.	c #FD5F00",
"}{.	c #FA6000",
"|{.	c #A51101",
"1{.	c #5B0503",
"2{.	c #380004",
"3{.	c #660402",
"4{.	c #C51400",
"5{.	c #E72700",
"6{.	c #F24600",
"7{.	c #FE9701",
"8{.	c #FEB601",
"9{.	c #FD9600",
"0{.	c #F16D00",
"a{.	c #E61D00",
"b{.	c #E92400",
"c{.	c #E21F00",
"d{.	c #CB1700",
"e{.	c #B10E00",
"f{.	c #B60E00",
"g{.	c #C91300",
"h{.	c #DB2000",
"i{.	c #1F0406",
"j{.	c #5D0504",
"k{.	c #AD1200",
"l{.	c #C91800",
"m{.	c #FA6F00",
"n{.	c #F05000",
"o{.	c #F86B00",
"p{.	c #B21401",
"q{.	c #740603",
"r{.	c #870F01",
"s{.	c #9C1802",
"t{.	c #900D01",
"u{.	c #830D00",
"v{.	c #750500",
"w{.	c #950F02",
"x{.	c #D02800",
"y{.	c #D74C00",
"z{.	c #C82E00",
"A{.	c #D62300",
"B{.	c #590404",
"C{.	c #510304",
"D{.	c #F57300",
"E{.	c #F78100",
"F{.	c #E82400",
"G{.	c #D81D00",
"H{.	c #DF1D00",
"I{.	c #E22200",
"J{.	c #910D00",
"K{.	c #360705",
"L{.	c #34080A",
"M{.	c #220409",
"N{.	c #210106",
"O{.	c #8C1202",
"P{.	c #C32700",
"Q{.	c #DD3800",
"R{.	c #E24100",
"S{.	c #D52D00",
"T{.	c #F03500",
"U{.	c #B10D00",
"V{.	c #A20D01",
"W{.	c #580404",
"X{.	c #850600",
"Y{.	c #CF3F01",
"Z{.	c #D85000",
"`{.	c #D33C00",
" ].	c #9F1A00",
".].	c #891201",
"+].	c #580604",
"@].	c #5F0703",
"#].	c #770F01",
"$].	c #760B01",
"%].	c #870802",
"&].	c #7B0903",
"*].	c #680903",
"=].	c #470305",
"-].	c #D61600",
";].	c #EA2800",
">].	c #FE8200",
",].	c #E22700",
"'].	c #E11E00",
")].	c #DB1E00",
"!].	c #670503",
"~].	c #6B0703",
"{].	c #5B0504",
"]].	c #330305",
"^].	c #36060B",
"/].	c #30050A",
"(].	c #240708",
"_].	c #470104",
":].	c #5E0303",
"<].	c #640302",
"[].	c #FC4D00",
"}].	c #FB4300",
"|].	c #E42A00",
"1].	c #EB2C00",
"2].	c #D51900",
"3].	c #EC3600",
"4].	c #B50E00",
"5].	c #660503",
"6].	c #440803",
"7].	c #6D1A03",
"8].	c #6F0B03",
"9].	c #850A02",
"0].	c #E56F00",
"a].	c #E64100",
"b].	c #BE2600",
"c].	c #B01C00",
"d].	c #410206",
"e].	c #6D0500",
"f].	c #A00A00",
"g].	c #C01400",
"h].	c #E82000",
"i].	c #F22900",
"j].	c #F42C00",
"k].	c #FD4300",
"l].	c #FEA201",
"m].	c #F77500",
"n].	c #F35200",
"o].	c #EE3A00",
"p].	c #EC2900",
"q].	c #8A0B01",
"r].	c #440306",
"s].	c #360408",
"t].	c #340308",
"u].	c #3E0606",
"v].	c #680402",
"w].	c #A61702",
"x].	c #C12600",
"y].	c #DE2200",
"z].	c #FA4000",
"A].	c #CF1600",
"B].	c #C11200",
"C].	c #420103",
"D].	c #9F2A02",
"E].	c #ED4D01",
"F].	c #860B02",
"G].	c #901101",
"H].	c #EF6A00",
"I].	c #F59A01",
"J].	c #FE5100",
"K].	c #B01C01",
"L].	c #951602",
"M].	c #390106",
"N].	c #370106",
"O].	c #490205",
"P].	c #700401",
"Q].	c #D61C00",
"R].	c #E92300",
"S].	c #EF2800",
"T].	c #F62B00",
"U].	c #FA2D00",
"V].	c #FE3F00",
"W].	c #FE5900",
"X].	c #F95600",
"Y].	c #DA2D00",
"Z].	c #CE3400",
"`].	c #A71C00",
" ^.	c #6A0703",
".^.	c #5A0504",
"+^.	c #640403",
"@^.	c #550203",
"#^.	c #9A1500",
"$^.	c #D73000",
"%^.	c #410406",
"&^.	c #390407",
"*^.	c #BD1600",
"=^.	c #CF1200",
"-^.	c #C61200",
";^.	c #F83700",
">^.	c #DE1B00",
",^.	c #C11300",
"'^.	c #480205",
")^.	c #1E0002",
"!^.	c #740903",
"~^.	c #B82201",
"{^.	c #F14001",
"]^.	c #F75900",
"^^.	c #C01700",
"/^.	c #870D01",
"(^.	c #CC1900",
"_^.	c #E73100",
":^.	c #A51701",
"<^.	c #801101",
"[^.	c #830E02",
"}^.	c #650503",
"|^.	c #660504",
"1^.	c #790903",
"2^.	c #420003",
"3^.	c #4C0502",
"4^.	c #AB1601",
"5^.	c #C01100",
"6^.	c #D01500",
"7^.	c #CD1200",
"8^.	c #E72500",
"9^.	c #F53100",
"0^.	c #F93000",
"a^.	c #FE4700",
"b^.	c #FD5500",
"c^.	c #FC5800",
"d^.	c #FA5E00",
"e^.	c #C63900",
"f^.	c #4F0405",
"g^.	c #490405",
"h^.	c #490306",
"i^.	c #480406",
"j^.	c #360307",
"k^.	c #400105",
"l^.	c #9F1701",
"m^.	c #C91700",
"n^.	c #EC2D00",
"o^.	c #CC4C01",
"p^.	c #BC1000",
"q^.	c #B30F01",
"r^.	c #8D0C02",
"s^.	c #3B0101",
"t^.	c #230001",
"u^.	c #250202",
"v^.	c #DC2000",
"w^.	c #3B0004",
"x^.	c #BC2000",
"y^.	c #DF2000",
"z^.	c #A82501",
"A^.	c #9D1801",
"B^.	c #260103",
"C^.	c #1C0102",
"D^.	c #1E0102",
"E^.	c #360101",
"F^.	c #D22301",
"G^.	c #E32C00",
"H^.	c #790800",
"I^.	c #BD1200",
"J^.	c #F43400",
"K^.	c #FD3D00",
"L^.	c #F83500",
"M^.	c #FC3E00",
"N^.	c #FC4A00",
"O^.	c #F74900",
"P^.	c #DE2B00",
"Q^.	c #4D0405",
"R^.	c #470406",
"S^.	c #3D0207",
"T^.	c #300107",
"U^.	c #270607",
"V^.	c #720A03",
"W^.	c #9A0C01",
"X^.	c #A10B00",
"Y^.	c #E62C00",
"Z^.	c #710502",
"`^.	c #200202",
" /.	c #1E0103",
"./.	c #851701",
"+/.	c #961F00",
"@/.	c #951E01",
"#/.	c #8A1C02",
"$/.	c #741001",
"%/.	c #DA1E00",
"&/.	c #D92101",
"*/.	c #A01102",
"=/.	c #A50D01",
"-/.	c #D51C00",
";/.	c #EB3500",
">/.	c #F74800",
",/.	c #7F0902",
"'/.	c #9D0E01",
")/.	c #460602",
"!/.	c #6D0700",
"~/.	c #DE3000",
"{/.	c #DB3200",
"]/.	c #890D00",
"^/.	c #B51400",
"//.	c #F54D00",
"(/.	c #F22500",
"_/.	c #F12700",
":/.	c #F63000",
"</.	c #FA3E00",
"[/.	c #F83E00",
"}/.	c #EF4300",
"|/.	c #DC4100",
"1/.	c #C72B01",
"2/.	c #760B02",
"3/.	c #4B0405",
"4/.	c #880E01",
"5/.	c #851102",
"6/.	c #820D02",
"7/.	c #6F0804",
"8/.	c #580605",
"9/.	c #2F0207",
"0/.	c #1F0203",
"a/.	c #7D0C02",
"b/.	c #AA1201",
"c/.	c #980F01",
"d/.	c #5F0504",
"e/.	c #360106",
"f/.	c #AE0E00",
"g/.	c #E22300",
"h/.	c #B50C00",
"i/.	c #CA1400",
"j/.	c #D21900",
"k/.	c #BC1300",
"l/.	c #280303",
"m/.	c #1A0001",
"n/.	c #E32E00",
"o/.	c #B10F00",
"p/.	c #AE1501",
"q/.	c #C21C01",
"r/.	c #450302",
"s/.	c #911401",
"t/.	c #AB2C01",
"u/.	c #971C01",
"v/.	c #E42B00",
"w/.	c #F03600",
"x/.	c #E32B00",
"y/.	c #570404",
"z/.	c #961100",
"A/.	c #EC2600",
"B/.	c #E62500",
"C/.	c #ED2900",
"D/.	c #F64100",
"E/.	c #C12100",
"F/.	c #780B02",
"G/.	c #A31901",
"H/.	c #C91D01",
"I/.	c #9C1402",
"J/.	c #760803",
"K/.	c #1C0406",
"L/.	c #3B0607",
"M/.	c #670803",
"N/.	c #7E1402",
"O/.	c #952E02",
"P/.	c #C02201",
"Q/.	c #610504",
"R/.	c #860701",
"S/.	c #D91B00",
"T/.	c #B50D00",
"U/.	c #9D0800",
"V/.	c #840601",
"W/.	c #910D01",
"X/.	c #E43100",
"Y/.	c #CE1C00",
"Z/.	c #5D0C02",
"`/.	c #A02301",
" (.	c #CD3900",
".(.	c #AD2F00",
"+(.	c #971801",
"@(.	c #941801",
"#(.	c #901202",
"$(.	c #660703",
"%(.	c #8B0E01",
"&(.	c #CF2300",
"*(.	c #C71F00",
"=(.	c #960F01",
"-(.	c #550404",
";(.	c #580504",
">(.	c #AA1C00",
",(.	c #E32700",
"'(.	c #EA2A00",
")(.	c #8D0E02",
"!(.	c #6B0402",
"~(.	c #730401",
"{(.	c #DF3000",
"](.	c #D32900",
"^(.	c #AF1001",
"/(.	c #740A03",
"((.	c #F04D00",
"_(.	c #580202",
":(.	c #C71400",
"<(.	c #C71200",
"[(.	c #340002",
"}(.	c #270002",
"|(.	c #1C0002",
"1(.	c #710903",
"2(.	c #880F01",
"3(.	c #9D1B01",
"4(.	c #A72701",
"5(.	c #9C1302",
"6(.	c #5D0303",
"7(.	c #9A3202",
"8(.	c #D46101",
"9(.	c #F66500",
"0(.	c #CB1C00",
"a(.	c #E72800",
"b(.	c #BB1801",
"c(.	c #AC1900",
"d(.	c #B91400",
"e(.	c #700402",
"f(.	c #811201",
"g(.	c #BB1400",
"h(.	c #870C02",
"i(.	c #3B0206",
"j(.	c #BC1800",
"k(.	c #EA4800",
"l(.	c #C41B00",
"m(.	c #ED4700",
"n(.	c #F43A00",
"o(.	c #F23200",
"p(.	c #E02500",
"q(.	c #B41401",
"r(.	c #EA4700",
"s(.	c #CE2F00",
"t(.	c #AA0C00",
"u(.	c #690302",
"v(.	c #A81001",
"w(.	c #B71401",
"x(.	c #700600",
"y(.	c #340201",
"z(.	c #2E0102",
"A(.	c #B42800",
"B(.	c #F05C00",
"C(.	c #FA7B00",
"D(.	c #D14C00",
"E(.	c #941E00",
"F(.	c #CE1D00",
"G(.	c #E82800",
"H(.	c #D82F00",
"I(.	c #B41E00",
"J(.	c #AD1900",
"K(.	c #680504",
"L(.	c #6D0604",
"M(.	c #6F0703",
"N(.	c #700703",
"O(.	c #5A0505",
"P(.	c #350207",
"Q(.	c #F55A00",
"R(.	c #EB4F01",
"S(.	c #EB3300",
"T(.	c #F75200",
"U(.	c #F53F00",
"V(.	c #EF3400",
"W(.	c #710603",
"X(.	c #150002",
"Y(.	c #CD1800",
"Z(.	c #B70F00",
"`(.	c #7A0703",
" _.	c #420206",
"._.	c #AA1000",
"+_.	c #310201",
"@_.	c #A93100",
"#_.	c #E14D00",
"$_.	c #F9B600",
"%_.	c #EB6C00",
"&_.	c #E84600",
"*_.	c #920D02",
"=_.	c #CC2A00",
"-_.	c #ED4400",
";_.	c #9C0E01",
">_.	c #600504",
",_.	c #330503",
"'_.	c #F27302",
")_.	c #FDC903",
"!_.	c #FEC700",
"~_.	c #FE9C00",
"{_.	c #FEA000",
"]_.	c #F15700",
"^_.	c #A70E01",
"/_.	c #4C0205",
"(_.	c #D41600",
"__.	c #CE1500",
":_.	c #A90C00",
"<_.	c #8E0D02",
"[_.	c #380202",
"}_.	c #210101",
"|_.	c #7F0E01",
"1_.	c #B32F00",
"2_.	c #DB5600",
"3_.	c #F9B301",
"4_.	c #DE3800",
"5_.	c #B62001",
"6_.	c #EB4700",
"7_.	c #FB6000",
"8_.	c #F14400",
"9_.	c #D72700",
"0_.	c #720703",
"a_.	c #2F0402",
"b_.	c #550701",
"c_.	c #7D0B00",
"d_.	c #430306",
"e_.	c #F87C01",
"f_.	c #FEBD02",
"g_.	c #FE6A00",
"h_.	c #C41600",
"i_.	c #C21300",
"j_.	c #9E0D01",
"k_.	c #5A0304",
"l_.	c #5A0404",
"m_.	c #CB1300",
"n_.	c #DE1D00",
"o_.	c #E21E00",
"p_.	c #DE1900",
"q_.	c #DE1800",
"r_.	c #9F0A00",
"s_.	c #800B01",
"t_.	c #B01501",
"u_.	c #620303",
"v_.	c #830702",
"w_.	c #880A02",
"x_.	c #8F0E02",
"y_.	c #910F02",
"z_.	c #7F0A02",
"A_.	c #AA1A01",
"B_.	c #F9A001",
"C_.	c #FE8700",
"D_.	c #EF6F00",
"E_.	c #CA2F00",
"F_.	c #961301",
"G_.	c #8C1D00",
"H_.	c #C65400",
"I_.	c #D06100",
"J_.	c #D24A00",
"K_.	c #C63100",
"L_.	c #840B03",
"M_.	c #720603",
"N_.	c #740803",
"O_.	c #7A0803",
"P_.	c #7A0B03",
"Q_.	c #6E0A04",
"R_.	c #5C0604",
"S_.	c #510405",
"T_.	c #4E0405",
"U_.	c #670804",
"V_.	c #FE7501",
"W_.	c #FE8D00",
"X_.	c #FD5200",
"Y_.	c #B81400",
"Z_.	c #8D0700",
"`_.	c #4F0305",
" :.	c #370307",
".:.	c #B00D00",
"+:.	c #C20D00",
"@:.	c #D11400",
"#:.	c #DD1900",
"$:.	c #D81700",
"%:.	c #E01900",
"&:.	c #870701",
"*:.	c #921A02",
"=:.	c #A81401",
"-:.	c #4A0302",
";:.	c #780603",
">:.	c #670500",
",:.	c #F99900",
"':.	c #F75E00",
"):.	c #E94F00",
"!:.	c #C42400",
"~:.	c #670700",
"{:.	c #B12B00",
"]:.	c #C85800",
"^:.	c #BD4E00",
"/:.	c #C63000",
"(:.	c #871101",
"_:.	c #790B01",
"::.	c #730903",
"<:.	c #590305",
"[:.	c #610505",
"}:.	c #280102",
"|:.	c #270203",
"1:.	c #3C0502",
"2:.	c #480202",
"3:.	c #3F0207",
"4:.	c #440407",
"5:.	c #640804",
"6:.	c #5D0805",
"7:.	c #530505",
"8:.	c #DE2A00",
"9:.	c #FF5C00",
"0:.	c #FF6B00",
"a:.	c #EF4000",
"b:.	c #EA3A01",
"c:.	c #CD1900",
"d:.	c #7A0B02",
"e:.	c #851C02",
"f:.	c #B23100",
"g:.	c #540300",
"h:.	c #2F0100",
"i:.	c #290102",
"j:.	c #A81D00",
"k:.	c #EC4B00",
"l:.	c #FA5900",
"m:.	c #F95D00",
"n:.	c #921300",
"o:.	c #FB6C00",
"p:.	c #FA6200",
"q:.	c #7C0802",
"r:.	c #6A0503",
"s:.	c #AD1000",
"t:.	c #960D02",
"u:.	c #390401",
"v:.	c #340402",
"w:.	c #3B0502",
"x:.	c #5E0D04",
"y:.	c #470803",
"z:.	c #3F0403",
"A:.	c #450406",
"B:.	c #3E0306",
"C:.	c #C13500",
"D:.	c #F26500",
"E:.	c #FF8B00",
"F:.	c #D21B00",
"G:.	c #C61500",
"H:.	c #500204",
"I:.	c #E55100",
"J:.	c #E66B00",
"K:.	c #FB4200",
"L:.	c #F64400",
"M:.	c #EF5900",
"N:.	c #EC5300",
"O:.	c #CF1801",
"P:.	c #810A02",
"Q:.	c #360102",
"R:.	c #1E0101",
"S:.	c #CD2200",
"T:.	c #C51600",
"U:.	c #EA4300",
"V:.	c #F86900",
"W:.	c #EF3D00",
"X:.	c #E95000",
"Y:.	c #FB6200",
"Z:.	c #E92900",
"`:.	c #6F0603",
" <.	c #200002",
".<.	c #910E01",
"+<.	c #830802",
"@<.	c #8A0E01",
"#<.	c #A82101",
"$<.	c #CD1700",
"%<.	c #D91900",
"&<.	c #7F0702",
"*<.	c #470205",
"=<.	c #350305",
"-<.	c #1B0304",
";<.	c #220002",
"><.	c #410003",
",<.	c #480101",
"'<.	c #852F01",
")<.	c #B43100",
"!<.	c #F05800",
"~<.	c #EF4A00",
"{<.	c #A51001",
"]<.	c #DE3100",
"^<.	c #870C00",
"/<.	c #A72100",
"(<.	c #CD3300",
"_<.	c #E75B00",
":<.	c #EC6900",
"<<.	c #ED5800",
"[<.	c #F64B00",
"}<.	c #FC6200",
"|<.	c #D11D00",
"1<.	c #C61A00",
"2<.	c #5B0304",
"3<.	c #630403",
"4<.	c #510605",
"5<.	c #C53800",
"6<.	c #FE7000",
"7<.	c #FC6100",
"8<.	c #FC7500",
"9<.	c #F02900",
"0<.	c #EC6E00",
"a<.	c #BD1100",
"b<.	c #C61300",
"c<.	c #932002",
"d<.	c #9D3501",
"e<.	c #AB3D00",
"f<.	c #C52600",
"g<.	c #BE4C01",
"h<.	c #9E3601",
"i<.	c #570E02",
"j<.	c #9E2E01",
"k<.	c #F43E00",
"l<.	c #290103",
"m<.	c #5B0202",
"n<.	c #D42B00",
"o<.	c #E43400",
"p<.	c #F24200",
"q<.	c #E63200",
"r<.	c #980900",
"s<.	c #F13A00",
"t<.	c #F84000",
"u<.	c #F34100",
"v<.	c #AF1501",
"w<.	c #9C1001",
"x<.	c #360005",
"y<.	c #430206",
"z<.	c #3C0106",
"A<.	c #6E0703",
"B<.	c #1F0102",
"C<.	c #1E0301",
"D<.	c #951502",
"E<.	c #AF1A01",
"F<.	c #610903",
"G<.	c #4F0704",
"H<.	c #711F04",
"I<.	c #851801",
"J<.	c #C83100",
"K<.	c #931400",
"L<.	c #6B0503",
"M<.	c #EC8A00",
"N<.	c #FF6C00",
"O<.	c #FF6100",
"P<.	c #DF4100",
"Q<.	c #730502",
"R<.	c #520304",
"S<.	c #470306",
"T<.	c #CE1B00",
"U<.	c #E73800",
"V<.	c #F96A00",
"W<.	c #F34600",
"X<.	c #952602",
"Y<.	c #821401",
"Z<.	c #A33600",
"`<.	c #F43700",
" [.	c #AF1101",
".[.	c #770803",
"+[.	c #240204",
"@[.	c #BF2100",
"#[.	c #EF3C00",
"$[.	c #A71F00",
"%[.	c #E43C00",
"&[.	c #ED3000",
"*[.	c #9E0F02",
"=[.	c #921401",
"-[.	c #BC1A01",
";[.	c #840E02",
">[.	c #A12302",
",[.	c #CB2C00",
"'[.	c #D42300",
")[.	c #E85D00",
"![.	c #FF7100",
"~[.	c #ED2100",
"{[.	c #E75C00",
"][.	c #BD1D00",
"^[.	c #B71000",
"/[.	c #BB1200",
"([.	c #D82300",
"_[.	c #D41E00",
":[.	c #C01600",
"<[.	c #D42C00",
"[[.	c #F06300",
"}[.	c #F46B00",
"|[.	c #FA7F00",
"1[.	c #F15D00",
"2[.	c #F36701",
"3[.	c #820501",
"4[.	c #CF1700",
"5[.	c #CD1701",
"6[.	c #B81001",
"7[.	c #A70B01",
"8[.	c #1B0101",
"9[.	c #8A0A02",
"0[.	c #C11F00",
"a[.	c #810E01",
"b[.	c #E32300",
"c[.	c #990F01",
"d[.	c #700903",
"e[.	c #640702",
"f[.	c #420501",
"g[.	c #871002",
"h[.	c #801001",
"i[.	c #A22600",
"j[.	c #D94600",
"k[.	c #E54400",
"l[.	c #FA4900",
"m[.	c #FE4600",
"n[.	c #D03401",
"o[.	c #800802",
"p[.	c #1D0103",
"q[.	c #E02600",
"r[.	c #FA5D00",
"s[.	c #DE5000",
"t[.	c #E13C00",
"u[.	c #720402",
"v[.	c #280203",
"w[.	c #5D0202",
"x[.	c #AE1100",
"y[.	c #370005",
"z[.	c #8C0A02",
"A[.	c #8B0A02",
"B[.	c #870D02",
"C[.	c #981100",
"D[.	c #9F1C00",
"E[.	c #CA4D00",
"F[.	c #F76700",
"G[.	c #D74100",
"H[.	c #BB2900",
"I[.	c #911001",
"J[.	c #FE5500",
"K[.	c #FD4E00",
"L[.	c #D92D00",
"M[.	c #D13A00",
"N[.	c #D63F00",
"O[.	c #1F0202",
"P[.	c #510501",
"Q[.	c #6D0400",
"R[.	c #C21F00",
"S[.	c #F58000",
"T[.	c #FB6A00",
"U[.	c #AE1101",
"V[.	c #9D0A01",
"W[.	c #980D01",
"X[.	c #5C0202",
"Y[.	c #2C0503",
"Z[.	c #C34A01",
"`[.	c #E23F00",
" }.	c #DB2A00",
".}.	c #D53601",
"+}.	c #AF1600",
"@}.	c #3C0202",
"#}.	c #570100",
"$}.	c #D24200",
"%}.	c #FF9400",
"&}.	c #FE7A00",
"*}.	c #8F0700",
"=}.	c #790500",
"-}.	c #5F0202",
";}.	c #780F02",
">}.	c #260203",
",}.	c #200102",
"'}.	c #530405",
")}.	c #220307",
"!}.	c #C32D02",
"~}.	c #260304",
"{}.	c #710C02",
"]}.	c #A51E01",
"^}.	c #DF3A00",
"/}.	c #DF3300",
"(}.	c #FF6700",
"_}.	c #EC3C00",
":}.	c #A20A00",
"<}.	c #8A0601",
"[}.	c #6D0A03",
"}}.	c #E92C00",
"|}.	c #FF8600",
"1}.	c #ED5100",
"2}.	c #520102",
"3}.	c #710400",
"4}.	c #DD2300",
"5}.	c #240002",
"6}.	c #1D0001",
"7}.	c #550405",
"8}.	c #C41800",
"9}.	c #DD1F00",
"0}.	c #B01001",
"a}.	c #900901",
"b}.	c #950B01",
"c}.	c #DE3201",
"d}.	c #BE3203",
"e}.	c #890F01",
"f}.	c #B63300",
"g}.	c #F75B00",
"h}.	c #6F0500",
"i}.	c #F73500",
"j}.	c #FD5A00",
"k}.	c #C41200",
"l}.	c #BD1000",
"m}.	c #440301",
"n}.	c #820601",
"o}.	c #F75000",
"p}.	c #ED3C00",
"q}.	c #CC1400",
"r}.	c #A50B00",
"s}.	c #900801",
"t}.	c #D62401",
"u}.	c #200103",
"v}.	c #240203",
"w}.	c #1F0003",
"x}.	c #780502",
"y}.	c #A30F02",
"z}.	c #B31302",
"A}.	c #B61401",
"B}.	c #A61001",
"C}.	c #7B1002",
"D}.	c #800F02",
"E}.	c #5A0604",
"F}.	c #F24400",
"G}.	c #EE2F00",
"H}.	c #EB2400",
"I}.	c #940C01",
"J}.	c #610303",
"K}.	c #660403",
"L}.	c #6A0403",
"M}.	c #E24202",
"N}.	c #E13B00",
"O}.	c #E95104",
"P}.	c #330703",
"Q}.	c #830E03",
"R}.	c #B92600",
"S}.	c #F45400",
"T}.	c #D02A00",
"U}.	c #951801",
"V}.	c #DF2E00",
"W}.	c #F13600",
"X}.	c #F53C00",
"Y}.	c #B31500",
"Z}.	c #E03C00",
"`}.	c #DC3000",
" |.	c #C22400",
".|.	c #C32C01",
"+|.	c #C42200",
"@|.	c #910701",
"#|.	c #700301",
"$|.	c #630302",
"%|.	c #6F0401",
"&|.	c #FC8B00",
"*|.	c #CB2A00",
"=|.	c #DD1600",
"-|.	c #E82200",
";|.	c #E72400",
">|.	c #D61500",
",|.	c #B90F00",
"'|.	c #A23400",
")|.	c #9F2701",
"!|.	c #BE2501",
"~|.	c #DD2600",
"{|.	c #E92B00",
"]|.	c #1B0003",
"^|.	c #9A1001",
"/|.	c #3B0002",
"(|.	c #E73900",
"_|.	c #E33100",
":|.	c #871201",
"<|.	c #F13400",
"[|.	c #8D0801",
"}|.	c #E94202",
"||.	c #F55600",
"1|.	c #310503",
"2|.	c #350303",
"3|.	c #720E03",
"4|.	c #DD4400",
"5|.	c #F94F00",
"6|.	c #E94400",
"7|.	c #8E0901",
"8|.	c #F13700",
"9|.	c #D23500",
"0|.	c #D63300",
"a|.	c #F65700",
"b|.	c #EA5600",
"c|.	c #C32200",
"d|.	c #860A02",
"e|.	c #410904",
"f|.	c #680F05",
"g|.	c #7D0D02",
"h|.	c #AD1401",
"i|.	c #AE0D00",
"j|.	c #B72800",
"k|.	c #D31600",
"l|.	c #ED2D00",
"m|.	c #D41800",
"n|.	c #9A1100",
"o|.	c #F65000",
"p|.	c #320204",
"q|.	c #DF2300",
"r|.	c #ED3A00",
"s|.	c #A20C00",
"t|.	c #6C0402",
"u|.	c #1E0001",
"v|.	c #1F0001",
"w|.	c #220000",
"x|.	c #280301",
"y|.	c #EC4A02",
"z|.	c #F15400",
"A|.	c #FD8C01",
"B|.	c #FA6300",
"C|.	c #E95D02",
"D|.	c #3B0302",
"E|.	c #7F1003",
"F|.	c #931100",
"G|.	c #EC3B00",
"H|.	c #F54800",
"I|.	c #E43300",
"J|.	c #D71E00",
"K|.	c #BE2000",
"L|.	c #ED2A00",
"M|.	c #EF3F00",
"N|.	c #FB4700",
"O|.	c #D02200",
"P|.	c #770F02",
"Q|.	c #B32F02",
"R|.	c #C53701",
"S|.	c #7C1502",
"T|.	c #CB1E00",
"U|.	c #D11B00",
"V|.	c #600E01",
"W|.	c #A71D00",
"X|.	c #B31D00",
"Y|.	c #ED5B00",
"Z|.	c #FC8900",
"`|.	c #FD9D01",
" 1.	c #D41700",
".1.	c #CC1600",
"+1.	c #AF0F01",
"@1.	c #E22F00",
"#1.	c #EF3700",
"$1.	c #EE3100",
"%1.	c #EE2E00",
"&1.	c #CB2800",
"*1.	c #970B01",
"=1.	c #C22001",
"-1.	c #CE2601",
";1.	c #BE1901",
">1.	c #F63C00",
",1.	c #F99804",
"'1.	c #350804",
")1.	c #490705",
"!1.	c #650C05",
"~1.	c #D13400",
"{1.	c #CD2700",
"]1.	c #9F1501",
"^1.	c #D42601",
"/1.	c #FF5900",
"(1.	c #FE5700",
"_1.	c #540702",
":1.	c #E54000",
"<1.	c #F14200",
"[1.	c #EC3500",
"}1.	c #DA1F00",
"|1.	c #ED7E06",
"11.	c #DF6902",
"21.	c #530102",
"31.	c #DF4700",
"41.	c #F46600",
"51.	c #F56100",
"61.	c #EB5900",
"71.	c #D83600",
"81.	c #8E0701",
"91.	c #831201",
"01.	c #E54D00",
"a1.	c #F34F00",
"b1.	c #F74E00",
"c1.	c #F73200",
"d1.	c #E92100",
"e1.	c #E51E00",
"f1.	c #D81800",
"g1.	c #BF1300",
"h1.	c #2D0506",
"i1.	c #EA2C00",
"j1.	c #CB1800",
"k1.	c #9D1000",
"l1.	c #760B03",
"m1.	c #FC5101",
"n1.	c #350A05",
"o1.	c #490604",
"p1.	c #490505",
"q1.	c #AD1D00",
"r1.	c #B11F00",
"s1.	c #AE1D00",
"t1.	c #DF2B00",
"u1.	c #E12600",
"v1.	c #DC4000",
"w1.	c #BE3401",
"x1.	c #CE2900",
"y1.	c #FD4900",
"z1.	c #7B0902",
"A1.	c #360603",
"B1.	c #C42600",
"C1.	c #D62F00",
"D1.	c #E96D08",
"E1.	c #CE5003",
"F1.	c #8C0F01",
"G1.	c #FF7900",
"H1.	c #CB2900",
"I1.	c #720401",
"J1.	c #7A0502",
"K1.	c #BC3701",
"L1.	c #C32B00",
"M1.	c #E52200",
"N1.	c #DD1E00",
"O1.	c #BE1100",
"P1.	c #B91800",
"Q1.	c #B61800",
"R1.	c #B71701",
"S1.	c #FE6901",
"T1.	c #FFA803",
"U1.	c #FDBA05",
"V1.	c #3E0703",
"W1.	c #360505",
"X1.	c #810F02",
"Y1.	c #8C1101",
"Z1.	c #E63500",
"`1.	c #AA1E00",
" 2.	c #950E01",
".2.	c #FE7C01",
"+2.	c #FFB301",
"@2.	c #F53A00",
"#2.	c #CA3201",
"$2.	c #F46505",
"%2.	c #E74A06",
"&2.	c #D65412",
"*2.	c #BF450F",
"=2.	c #820C02",
"-2.	c #E52900",
";2.	c #D61F00",
">2.	c #DA3000",
",2.	c #4D0103",
"'2.	c #EB5600",
")2.	c #F99200",
"!2.	c #650400",
"~2.	c #190002",
"{2.	c #940C02",
"]2.	c #B31801",
"^2.	c #FB5001",
"/2.	c #FDAB05",
"(2.	c #FFD50C",
"_2.	c #FAD10B",
":2.	c #320707",
"<2.	c #650701",
"[2.	c #8E0F01",
"}2.	c #E83B00",
"|2.	c #E54300",
"12.	c #BC2F00",
"22.	c #6B0600",
"32.	c #FC6901",
"42.	c #FE9402",
"52.	c #FFC513",
"62.	c #FFC605",
"72.	c #FFB303",
"82.	c #FE6300",
"92.	c #C92500",
"02.	c #CD4704",
"a2.	c #F9AF1A",
"b2.	c #EF8920",
"c2.	c #F5C349",
"d2.	c #EBA53B",
"e2.	c #A7541A",
"f2.	c #A74010",
"g2.	c #AC1400",
"h2.	c #D63200",
"i2.	c #D03301",
"j2.	c #8C1301",
"k2.	c #650A01",
"l2.	c #5F0600",
"m2.	c #B92F01",
"n2.	c #F33F00",
"o2.	c #E42900",
"p2.	c #E73F01",
"q2.	c #D93B01",
"r2.	c #1D0003",
"s2.	c #8D0D01",
"t2.	c #600300",
"u2.	c #A30F01",
"v2.	c #F85001",
"w2.	c #FD5B01",
"x2.	c #FED01C",
"y2.	c #FED61E",
"z2.	c #FDAE06",
"A2.	c #FCA803",
"B2.	c #F56D07",
"C2.	c #E14C04",
"D2.	c #E55305",
"E2.	c #831102",
"F2.	c #931700",
"G2.	c #FEA809",
"H2.	c #FEE329",
"I2.	c #FFD517",
"J2.	c #FFB406",
"K2.	c #FD6400",
"L2.	c #320305",
"M2.	c #600D01",
"N2.	c #9C1200",
"O2.	c #B4510E",
"P2.	c #F4B82C",
"Q2.	c #F6B134",
"R2.	c #F5D765",
"S2.	c #F8D55B",
"T2.	c #EBAA43",
"U2.	c #E49431",
"V2.	c #9D2A05",
"W2.	c #D83D00",
"X2.	c #A41400",
"Y2.	c #B62300",
"Z2.	c #8E1300",
"`2.	c #D33600",
" 3.	c #D45B02",
".3.	c #5F0802",
"+3.	c #340102",
"@3.	c #260204",
"#3.	c #210202",
"$3.	c #1D0101",
"%3.	c #3E0003",
"&3.	c #590601",
"*3.	c #911100",
"=3.	c #991C00",
"-3.	c #FC6001",
";3.	c #FED712",
">3.	c #FFB906",
",3.	c #F55101",
"'3.	c #500605",
")3.	c #800E01",
"!3.	c #9F1500",
"~3.	c #9D1300",
"{3.	c #9E1301",
"]3.	c #700800",
"^3.	c #CD2F00",
"/3.	c #EE6E01",
"(3.	c #F8B205",
"_3.	c #FBAB02",
":3.	c #CC2900",
"<3.	c #5C1F01",
"[3.	c #E16F01",
"}3.	c #903603",
"|3.	c #830D01",
"13.	c #A44D13",
"23.	c #F0B535",
"33.	c #F3B239",
"43.	c #F6DA62",
"53.	c #F9DB62",
"63.	c #ECAD44",
"73.	c #E49D39",
"83.	c #832205",
"93.	c #A21A00",
"03.	c #590701",
"a3.	c #B31F01",
"b3.	c #B52501",
"c3.	c #971500",
"d3.	c #940F01",
"e3.	c #AB1001",
"f3.	c #B31101",
"g3.	c #C81C00",
"h3.	c #D14C01",
"i3.	c #B34802",
"j3.	c #5F0702",
"k3.	c #4D0102",
"l3.	c #760502",
"m3.	c #BC5B00",
"n3.	c #DA8200",
"o3.	c #D18100",
"p3.	c #B83500",
"q3.	c #A51201",
"r3.	c #A50E02",
"s3.	c #AB3300",
"t3.	c #C85B00",
"u3.	c #D26900",
"v3.	c #E06A00",
"w3.	c #F74000",
"x3.	c #980B01",
"y3.	c #490401",
"z3.	c #5A0901",
"A3.	c #760D01",
"B3.	c #6D1303",
"C3.	c #ED4801",
"D3.	c #FDC604",
"E3.	c #FEA402",
"F3.	c #E44001",
"G3.	c #370407",
"H3.	c #B71900",
"I3.	c #BE1D00",
"J3.	c #4F0401",
"K3.	c #A41700",
"L3.	c #D83100",
"M3.	c #A42101",
"N3.	c #290302",
"O3.	c #5D1C02",
"P3.	c #D64F00",
"Q3.	c #771D02",
"R3.	c #8B1002",
"S3.	c #9C4110",
"T3.	c #E8AA3B",
"U3.	c #F4C04B",
"V3.	c #F6D768",
"W3.	c #FBE97B",
"X3.	c #F3CB62",
"Y3.	c #E1A442",
"Z3.	c #984E22",
"`3.	c #681706",
" 4.	c #840D00",
".4.	c #B81A00",
"+4.	c #DA2A00",
"@4.	c #A41500",
"#4.	c #9C0B01",
"$4.	c #6E0402",
"%4.	c #980F02",
"&4.	c #3E0101",
"*4.	c #E95F00",
"=4.	c #FA9900",
"-4.	c #C41F00",
";4.	c #CA1500",
">4.	c #CE2B00",
",4.	c #E82900",
"'4.	c #3F0105",
")4.	c #640A01",
"!4.	c #791603",
"~4.	c #FC6C01",
"{4.	c #FDCA0A",
"]4.	c #FF9403",
"^4.	c #FE7C00",
"/4.	c #D93902",
"(4.	c #B71C00",
"_4.	c #500502",
":4.	c #BA1C00",
"<4.	c #E52F00",
"[4.	c #CA2500",
"}4.	c #340303",
"|4.	c #300101",
"14.	c #3E0202",
"24.	c #580603",
"34.	c #9D1501",
"44.	c #B12401",
"54.	c #962002",
"64.	c #7A1B06",
"74.	c #884A20",
"84.	c #B5752F",
"94.	c #DABA64",
"04.	c #F4D86F",
"a4.	c #FAE379",
"b4.	c #F9E280",
"c4.	c #E7C269",
"d4.	c #713A1A",
"e4.	c #850E00",
"f4.	c #E23300",
"g4.	c #E83600",
"h4.	c #1D0002",
"i4.	c #450002",
"j4.	c #9C1100",
"k4.	c #EB4000",
"l4.	c #DA2701",
"m4.	c #E52400",
"n4.	c #F46301",
"o4.	c #FD8202",
"p4.	c #FEE711",
"q4.	c #FEA805",
"r4.	c #DA4B02",
"s4.	c #330203",
"t4.	c #8E0E01",
"u4.	c #B92400",
"v4.	c #D72A00",
"w4.	c #1B0202",
"x4.	c #3D0202",
"y4.	c #4A0502",
"z4.	c #5F0B02",
"A4.	c #741303",
"B4.	c #7C1405",
"C4.	c #630D06",
"D4.	c #771E0C",
"E4.	c #AF8D44",
"F4.	c #CA9D4D",
"G4.	c #E2C773",
"H4.	c #FDEE8D",
"I4.	c #F2EE8E",
"J4.	c #634E2C",
"K4.	c #480506",
"L4.	c #660302",
"M4.	c #E93300",
"N4.	c #4A0102",
"O4.	c #E93100",
"P4.	c #FB7F00",
"Q4.	c #DF2D00",
"R4.	c #D52700",
"S4.	c #520204",
"T4.	c #B54A03",
"U4.	c #FD9003",
"V4.	c #FFDD08",
"W4.	c #FE9103",
"X4.	c #FB9401",
"Y4.	c #870B00",
"Z4.	c #790E01",
"`4.	c #860E00",
" 5.	c #D62900",
".5.	c #4B0504",
"+5.	c #280204",
"@5.	c #610703",
"#5.	c #600703",
"$5.	c #520E07",
"%5.	c #7C5027",
"&5.	c #8F5B29",
"*5.	c #C09654",
"=5.	c #FBE782",
"-5.	c #F7EF9B",
";5.	c #745039",
">5.	c #B41500",
",5.	c #B91600",
"'5.	c #240304",
")5.	c #3C0004",
"!5.	c #F44700",
"~5.	c #CD1600",
"{5.	c #AF1401",
"]5.	c #B21100",
"^5.	c #A40E01",
"/5.	c #9B0E02",
"(5.	c #E44F01",
"_5.	c #F27002",
":5.	c #FAA501",
"<5.	c #F46300",
"[5.	c #6E0801",
"}5.	c #4A0301",
"|5.	c #740C00",
"15.	c #5F0601",
"25.	c #D93D00",
"35.	c #DC3A00",
"45.	c #991800",
"55.	c #7D0C01",
"65.	c #7C0900",
"75.	c #7A0B01",
"85.	c #3E100B",
"95.	c #6D4122",
"05.	c #E6D271",
"a5.	c #F4E793",
"b5.	c #6C503B",
"c5.	c #390305",
"d5.	c #260202",
"e5.	c #6C0500",
"f5.	c #E62400",
"g5.	c #E11D00",
"h5.	c #790501",
"i5.	c #410105",
"j5.	c #850D00",
"k5.	c #F67A03",
"l5.	c #FE9C03",
"m5.	c #FEA902",
"n5.	c #D35300",
"o5.	c #B64800",
"p5.	c #EE7700",
"q5.	c #D85401",
"r5.	c #1B0302",
"s5.	c #670902",
"t5.	c #BC4701",
"u5.	c #D26600",
"v5.	c #BD4100",
"w5.	c #A72300",
"x5.	c #BC2D01",
"y5.	c #AB1D01",
"z5.	c #B93E00",
"A5.	c #D85400",
"B5.	c #DC4400",
"C5.	c #F45100",
"D5.	c #220303",
"E5.	c #765D36",
"F5.	c #C9B876",
"G5.	c #F0E585",
"H5.	c #6A5133",
"I5.	c #4C0102",
"J5.	c #390303",
"K5.	c #300403",
"L5.	c #E72200",
"M5.	c #DD1D00",
"N5.	c #9B0900",
"O5.	c #CD1D00",
"P5.	c #FDC606",
"Q5.	c #FFDA08",
"R5.	c #FFD103",
"S5.	c #FFD004",
"T5.	c #DC9A01",
"U5.	c #953000",
"V5.	c #AE3604",
"W5.	c #470302",
"X5.	c #DD4A00",
"Y5.	c #EB5700",
"Z5.	c #E74000",
"`5.	c #B82600",
" 6.	c #C32A00",
".6.	c #DF3600",
"+6.	c #CB2E01",
"@6.	c #760900",
"#6.	c #DF4A00",
"$6.	c #EB5300",
"%6.	c #B92701",
"&6.	c #A31E01",
"*6.	c #900A02",
"=6.	c #3F2A14",
"-6.	c #AA8B42",
";6.	c #683D1C",
">6.	c #500505",
",6.	c #3C0504",
"'6.	c #2B0605",
")6.	c #C91E01",
"!6.	c #E02400",
"~6.	c #3D0003",
"{6.	c #D61B00",
"]6.	c #FCCF16",
"^6.	c #FEED1E",
"/6.	c #FFCB07",
"(6.	c #FECA01",
"_6.	c #E57100",
":6.	c #951701",
"<6.	c #DE3801",
"[6.	c #831800",
"}6.	c #812401",
"|6.	c #6A0C04",
"16.	c #8F0F01",
"26.	c #8E1101",
"36.	c #FBC908",
"46.	c #FFE70A",
"56.	c #FEB901",
"66.	c #E45000",
"76.	c #D84000",
"86.	c #AD2201",
"96.	c #AA2602",
"06.	c #C82A01",
"a6.	c #A82905",
"b6.	c #500603",
"c6.	c #8D2101",
"d6.	c #AD3000",
"e6.	c #C64800",
"f6.	c #DC4E00",
"g6.	c #E03100",
"h6.	c #820E02",
"i6.	c #901201",
"j6.	c #5D0602",
"k6.	c #7D0E03",
"l6.	c #7D0B02",
"m6.	c #3A0404",
"n6.	c #931C00",
"o6.	c #9A2B00",
"p6.	c #A72801",
"q6.	c #C02501",
"r6.	c #D63100",
"s6.	c #C62A00",
"t6.	c #9B1101",
"u6.	c #C51900",
"v6.	c #EC6100",
"w6.	c #F7B703",
"x6.	c #FDDA01",
"y6.	c #F46900",
"z6.	c #D82A00",
"A6.	c #AC2201",
"B6.	c #AB2903",
"C6.	c #9C2202",
"D6.	c #330603",
"E6.	c #8F3102",
"F6.	c #DD4D00",
"G6.	c #F66300",
"H6.	c #DD3600",
"I6.	c #E44400",
"J6.	c #C82600",
"K6.	c #921000",
"L6.	c #6A0902",
"M6.	c #CE1D01",
"N6.	c #B22800",
"O6.	c #981401",
"P6.	c #7A0F02",
"Q6.	c #670A03",
"R6.	c #1C0304",
"S6.	c #3F0501",
"T6.	c #7B0B00",
"U6.	c #AA1300",
"V6.	c #EA4400",
"W6.	c #EA3E00",
"X6.	c #4E0204",
"Y6.	c #961102",
"Z6.	c #630704",
"`6.	c #6C0803",
" 7.	c #2A0305",
".7.	c #850E01",
"+7.	c #7A0D02",
"@7.	c #710D02",
"#7.	c #720E02",
"$7.	c #961F01",
"%7.	c #D52600",
"&7.	c #CC1700",
"*7.	c #CF3B01",
"=7.	c #EC4B01",
"-7.	c #790E02",
";7.	c #A51501",
">7.	c #B42001",
",7.	c #EB3400",
"'7.	c #D53A00",
")7.	c #F96B00",
"!7.	c #FE8400",
"~7.	c #DA5800",
"{7.	c #E34900",
"]7.	c #A12A03",
"^7.	c #BE2C02",
"/7.	c #892B09",
"(7.	c #BA4104",
"_7.	c #DD5902",
":7.	c #F55800",
"<7.	c #C93C00",
"[7.	c #D53800",
"}7.	c #A31F01",
"|7.	c #D92F00",
"17.	c #B61E01",
"27.	c #E52000",
"37.	c #E93101",
"47.	c #E02E02",
"57.	c #A51A02",
"67.	c #470301",
"77.	c #B62A00",
"87.	c #CE2E00",
"97.	c #D52900",
"07.	c #D22200",
"a7.	c #C93D00",
"b7.	c #B22400",
"c7.	c #A41001",
"d7.	c #290202",
"e7.	c #E12F00",
"f7.	c #6E1403",
"g7.	c #B92D01",
"h7.	c #7D0702",
"i7.	c #8A0902",
"j7.	c #CF4A01",
"k7.	c #D44200",
"l7.	c #992D00",
"m7.	c #FD7600",
"n7.	c #F86700",
"o7.	c #E34A00",
"p7.	c #8C1800",
"q7.	c #BD2800",
"r7.	c #F25800",
"s7.	c #F97001",
"t7.	c #E25D01",
"u7.	c #BE3F04",
"v7.	c #A9480A",
"w7.	c #E2680A",
"x7.	c #EE7105",
"y7.	c #F26703",
"z7.	c #F86400",
"A7.	c #971D01",
"B7.	c #A01300",
"C7.	c #981900",
"D7.	c #E31E00",
"E7.	c #EE2A00",
"F7.	c #F73900",
"G7.	c #F64000",
"H7.	c #250305",
"I7.	c #CF3402",
"J7.	c #CF5510",
"K7.	c #8E2505",
"L7.	c #710C03",
"M7.	c #7D1005",
"N7.	c #610704",
"O7.	c #7E0B02",
"P7.	c #4B0505",
"Q7.	c #2F0403",
"R7.	c #B91901",
"S7.	c #B81E00",
"T7.	c #9A1200",
"U7.	c #DC2500",
"V7.	c #DA2000",
"W7.	c #BA1E01",
"X7.	c #C93100",
"Y7.	c #F15300",
"Z7.	c #DD3B01",
"`7.	c #7B0D01",
" 8.	c #8C0D01",
".8.	c #A91D01",
"+8.	c #B02100",
"@8.	c #C52901",
"#8.	c #DB3000",
"$8.	c #FF7700",
"%8.	c #FE8900",
"&8.	c #E56700",
"*8.	c #BA3600",
"=8.	c #9E1A00",
"-8.	c #F78400",
";8.	c #D35401",
">8.	c #9D3200",
",8.	c #5C0B01",
"'8.	c #4D0B02",
")8.	c #4B0E02",
"!8.	c #3B130A",
"~8.	c #431009",
"{8.	c #923F10",
"]8.	c #D44F0E",
"^8.	c #D84904",
"/8.	c #B22901",
"(8.	c #BC2C00",
"_8.	c #C83500",
":8.	c #EE4900",
"<8.	c #DA3700",
"[8.	c #6D0A01",
"}8.	c #C22D00",
"|8.	c #B02F01",
"18.	c #D42D00",
"28.	c #C42900",
"38.	c #EA4C01",
"48.	c #E54608",
"58.	c #E68B29",
"68.	c #CC8730",
"78.	c #AC6727",
"88.	c #7D3E17",
"98.	c #5D0C06",
"08.	c #310203",
"a8.	c #AD1A00",
"b8.	c #880500",
"c8.	c #D64400",
"d8.	c #D71C00",
"e8.	c #B91F00",
"f8.	c #7A0901",
"g8.	c #9C1B01",
"h8.	c #D43B00",
"i8.	c #A51E00",
"j8.	c #BD2101",
"k8.	c #CF3500",
"l8.	c #E12300",
"m8.	c #B52901",
"n8.	c #B61E00",
"o8.	c #E14E00",
"p8.	c #D74400",
"q8.	c #F78700",
"r8.	c #9E2201",
"s8.	c #6C1B02",
"t8.	c #460501",
"u8.	c #450502",
"v8.	c #4B0602",
"w8.	c #3E0601",
"x8.	c #8B581F",
"y8.	c #8D591E",
"z8.	c #995519",
"A8.	c #DA7D20",
"B8.	c #DD7A16",
"C8.	c #A9490A",
"D8.	c #991601",
"E8.	c #E04100",
"F8.	c #A11E01",
"G8.	c #610E02",
"H8.	c #E14000",
"I8.	c #E65C00",
"J8.	c #EA5101",
"K8.	c #C42301",
"L8.	c #B82700",
"M8.	c #991600",
"N8.	c #8A0D02",
"O8.	c #530401",
"P8.	c #DD3700",
"Q8.	c #D23E0B",
"R8.	c #EAA63E",
"S8.	c #F1C557",
"T8.	c #E9BE5F",
"U8.	c #DDAD51",
"V8.	c #824F22",
"W8.	c #590804",
"X8.	c #690905",
"Y8.	c #590705",
"Z8.	c #4D0505",
"`8.	c #6E0803",
" 9.	c #890802",
".9.	c #960B02",
"+9.	c #F85700",
"@9.	c #B11801",
"#9.	c #C12301",
"$9.	c #D11900",
"%9.	c #E03700",
"&9.	c #DB4B00",
"*9.	c #A91500",
"=9.	c #EC4500",
"-9.	c #E94500",
";9.	c #E85700",
">9.	c #EB8501",
",9.	c #4E0602",
"'9.	c #400A04",
")9.	c #4E0E04",
"!9.	c #4E1205",
"~9.	c #45240C",
"{9.	c #D8A835",
"]9.	c #E8B53D",
"^9.	c #E5AF39",
"/9.	c #F1A72F",
"(9.	c #EC9825",
"_9.	c #E4AB2D",
":9.	c #8E3408",
"<9.	c #BE2201",
"[9.	c #DE3D01",
"}9.	c #991F01",
"|9.	c #BA2D01",
"19.	c #E44800",
"29.	c #EE5F01",
"39.	c #DA5102",
"49.	c #5F0803",
"59.	c #A41F01",
"69.	c #DF2900",
"79.	c #850D02",
"89.	c #6F0B02",
"99.	c #470706",
"09.	c #2E0605",
"a9.	c #4A0201",
"b9.	c #A44316",
"c9.	c #D59A40",
"d9.	c #F6D568",
"e9.	c #FCE881",
"f9.	c #F6E081",
"g9.	c #C79A4A",
"h9.	c #794B1C",
"i9.	c #540E09",
"j9.	c #460306",
"k9.	c #300302",
"l9.	c #5C0B04",
"m9.	c #C81A00",
"n9.	c #ED4600",
"o9.	c #991002",
"p9.	c #4F0505",
"q9.	c #4F0102",
"r9.	c #B81A01",
"s9.	c #AE1600",
"t9.	c #860601",
"u9.	c #890500",
"v9.	c #D92C00",
"w9.	c #E24200",
"x9.	c #C61C00",
"y9.	c #F79900",
"z9.	c #FDC901",
"A9.	c #C03000",
"B9.	c #E64500",
"C9.	c #F15100",
"D9.	c #FA8500",
"E9.	c #901801",
"F9.	c #620C03",
"G9.	c #4D1006",
"H9.	c #5B0A06",
"I9.	c #450905",
"J9.	c #350905",
"K9.	c #684013",
"L9.	c #93611A",
"M9.	c #E6B837",
"N9.	c #F4C742",
"O9.	c #FCDB52",
"P9.	c #FAC541",
"Q9.	c #F5AA31",
"R9.	c #F3C73D",
"S9.	c #A93E0D",
"T9.	c #8E1C02",
"U9.	c #871B02",
"V9.	c #840D02",
"W9.	c #9D1602",
"X9.	c #931003",
"Y9.	c #680804",
"Z9.	c #490606",
"`9.	c #260405",
" 0.	c #6F0700",
".0.	c #BE2905",
"+0.	c #E0AB48",
"@0.	c #E7B94F",
"#0.	c #F3D363",
"$0.	c #F9E57B",
"%0.	c #FBEC8A",
"&0.	c #F5D66E",
"*0.	c #D2AD57",
"=0.	c #806133",
"-0.	c #5E0604",
";0.	c #830C02",
">0.	c #6C0903",
",0.	c #7F1004",
"'0.	c #520405",
")0.	c #DA2C00",
"!0.	c #AE2700",
"~0.	c #E35700",
"{0.	c #AC1601",
"]0.	c #EE4200",
"^0.	c #C31C00",
"/0.	c #EB5100",
"(0.	c #FFD702",
"_0.	c #D14600",
":0.	c #EE5500",
"<0.	c #A51A00",
"[0.	c #690901",
"}0.	c #5E0C02",
"|0.	c #591104",
"10.	c #400503",
"20.	c #4C0706",
"30.	c #4B0706",
"40.	c #3E0605",
"50.	c #360905",
"60.	c #71441C",
"70.	c #996F1E",
"80.	c #DB9D2B",
"90.	c #F1CB4A",
"00.	c #FEE55F",
"a0.	c #FEEB6B",
"b0.	c #FBD955",
"c0.	c #EBAD3C",
"d0.	c #DB9630",
"e0.	c #B84C13",
"f0.	c #822209",
"g0.	c #751605",
"h0.	c #8A0E00",
"i0.	c #7A0E03",
"j0.	c #740B02",
"k0.	c #610803",
"l0.	c #510604",
"m0.	c #DB2700",
"n0.	c #C12101",
"o0.	c #AF2404",
"p0.	c #9E2006",
"q0.	c #710C04",
"r0.	c #520906",
"s0.	c #320301",
"t0.	c #420201",
"u0.	c #8B2207",
"v0.	c #CB8233",
"w0.	c #E19F42",
"x0.	c #EDC45C",
"y0.	c #FBEB81",
"z0.	c #FCED86",
"A0.	c #FBE880",
"B0.	c #FAE67B",
"C0.	c #D5C065",
"D0.	c #574323",
"E0.	c #4A0706",
"F0.	c #690D06",
"G0.	c #570605",
"H0.	c #B41C01",
"I0.	c #FFA800",
"J0.	c #FD6200",
"K0.	c #A81500",
"L0.	c #CB2D00",
"M0.	c #E94900",
"N0.	c #871400",
"O0.	c #CB3C00",
"P0.	c #CA2800",
"Q0.	c #4A0402",
"R0.	c #440403",
"S0.	c #460703",
"T0.	c #784C1B",
"U0.	c #C49D31",
"V0.	c #F3C039",
"W0.	c #F6D657",
"X0.	c #FEEF70",
"Y0.	c #FEF070",
"Z0.	c #F5D255",
"`0.	c #D59E3A",
" a.	c #C99034",
".a.	c #D58B32",
"+a.	c #A05420",
"@a.	c #853112",
"#a.	c #741E0C",
"$a.	c #6D1107",
"%a.	c #590704",
"&a.	c #450405",
"*a.	c #C01F00",
"=a.	c #A42D08",
"-a.	c #D77C29",
";a.	c #EBB94D",
">a.	c #C36620",
",a.	c #A94A17",
"'a.	c #7A1F09",
")a.	c #560C07",
"!a.	c #631606",
"~a.	c #BD5D1D",
"{a.	c #BA6224",
"]a.	c #DCA547",
"^a.	c #EEC759",
"/a.	c #F7D96A",
"(a.	c #FCED84",
"_a.	c #FBEB80",
":a.	c #FAEB7C",
"<a.	c #DCCD73",
"[a.	c #887843",
"}a.	c #2B1409",
"|a.	c #430707",
"1a.	c #690600",
"2a.	c #2E0404",
"3a.	c #C11A00",
"4a.	c #F03200",
"5a.	c #8C0701",
"6a.	c #660200",
"7a.	c #831E01",
"8a.	c #8F3B00",
"9a.	c #A83100",
"0a.	c #BF4100",
"aa.	c #F27800",
"ba.	c #EA2F00",
"ca.	c #EF4400",
"da.	c #9F1400",
"ea.	c #851101",
"fa.	c #FDAE00",
"ga.	c #FF7500",
"ha.	c #FC8501",
"ia.	c #FC6A00",
"ja.	c #FF5A00",
"ka.	c #FC5500",
"la.	c #CC3001",
"ma.	c #C02100",
"na.	c #774B1E",
"oa.	c #946921",
"pa.	c #DCB23B",
"qa.	c #F9D03F",
"ra.	c #F1C745",
"sa.	c #FDEA67",
"ta.	c #F8DD5B",
"ua.	c #C89534",
"va.	c #AA7429",
"wa.	c #9E6126",
"xa.	c #BC7830",
"ya.	c #9A5623",
"za.	c #762B13",
"Aa.	c #62180D",
"Ba.	c #4E0A08",
"Ca.	c #3E0406",
"Da.	c #3D0206",
"Ea.	c #790902",
"Fa.	c #981B02",
"Ga.	c #BE812F",
"Ha.	c #F2C44E",
"Ia.	c #EFC95A",
"Ja.	c #C1762A",
"Ka.	c #964016",
"La.	c #711B09",
"Ma.	c #5D0F07",
"Na.	c #793E1F",
"Oa.	c #C0722E",
"Pa.	c #B8672C",
"Qa.	c #BE8137",
"Ra.	c #CFA145",
"Sa.	c #ECC45B",
"Ta.	c #F2CE67",
"Ua.	c #FAEB83",
"Va.	c #FCF28B",
"Wa.	c #F4E683",
"Xa.	c #C8BF7B",
"Ya.	c #6B6037",
"Za.	c #2C0B0A",
"`a.	c #5B0400",
" b.	c #EB2800",
".b.	c #F73800",
"+b.	c #C64400",
"@b.	c #FEA400",
"#b.	c #F56400",
"$b.	c #EE3F00",
"%b.	c #890D02",
"&b.	c #3C0003",
"*b.	c #B11501",
"=b.	c #DF1F00",
"-b.	c #B91100",
";b.	c #DC2E00",
">b.	c #FEBE01",
",b.	c #FFCF03",
"'b.	c #FEDF05",
")b.	c #FDAE01",
"!b.	c #370403",
"~b.	c #5E3418",
"{b.	c #4F2B12",
"]b.	c #B9993A",
"^b.	c #ECC846",
"/b.	c #FBDA4C",
"(b.	c #F6CE42",
"_b.	c #EFC645",
":b.	c #E0AF39",
"<b.	c #BE882E",
"[b.	c #945A21",
"}b.	c #6E3916",
"|b.	c #A05E26",
"1b.	c #A66127",
"2b.	c #703114",
"3b.	c #480809",
"4b.	c #3C0408",
"5b.	c #420406",
"6b.	c #440405",
"7b.	c #921603",
"8b.	c #BA8337",
"9b.	c #E7D05D",
"0b.	c #F1C04B",
"ab.	c #D99F3B",
"bb.	c #A95D21",
"cb.	c #934218",
"db.	c #72210C",
"eb.	c #5C1209",
"fb.	c #300307",
"gb.	c #5C371E",
"hb.	c #683D1E",
"ib.	c #854825",
"jb.	c #A15F2F",
"kb.	c #AD7637",
"lb.	c #D3A54D",
"mb.	c #DCAE52",
"nb.	c #DDB85A",
"ob.	c #EBD875",
"pb.	c #E3D77F",
"qb.	c #E2D982",
"rb.	c #E3D986",
"sb.	c #D5B664",
"tb.	c #A28F59",
"ub.	c #655B3C",
"vb.	c #660701",
"wb.	c #F32D00",
"xb.	c #FC3D00",
"yb.	c #C93500",
"zb.	c #F93D00",
"Ab.	c #FD7C00",
"Bb.	c #EF2600",
"Cb.	c #D21500",
"Db.	c #FE7300",
"Eb.	c #FFD203",
"Fb.	c #FF9600",
"Gb.	c #FF8E00",
"Hb.	c #F42E00",
"Ib.	c #EF2F00",
"Jb.	c #E22000",
"Kb.	c #3E0505",
"Lb.	c #4B0C04",
"Mb.	c #48250E",
"Nb.	c #AE8A39",
"Ob.	c #E7CA5A",
"Pb.	c #F9E465",
"Qb.	c #F9DA58",
"Rb.	c #F5CC41",
"Sb.	c #E1AD39",
"Tb.	c #BE8931",
"Ub.	c #4F220D",
"Vb.	c #3D160B",
"Wb.	c #84461C",
"Xb.	c #985521",
"Yb.	c #521D0C",
"Zb.	c #3A0507",
"`b.	c #430506",
" c.	c #4A0505",
".c.	c #460406",
"+c.	c #3B0307",
"@c.	c #5E0705",
"#c.	c #790B03",
"$c.	c #8A1101",
"%c.	c #A52704",
"&c.	c #C0933C",
"*c.	c #E4BC45",
"=c.	c #F2CB4F",
"-c.	c #F0C14C",
";c.	c #C2812E",
">c.	c #9B4F1D",
",c.	c #96481A",
"'c.	c #7A2F11",
")c.	c #52150B",
"!c.	c #300507",
"~c.	c #170104",
"{c.	c #3F0404",
"]c.	c #3D0406",
"^c.	c #36120C",
"/c.	c #562416",
"(c.	c #804B26",
"_c.	c #7E562A",
":c.	c #6E5128",
"<c.	c #340E09",
"[c.	c #72552B",
"}c.	c #948350",
"|c.	c #625437",
"1c.	c #3E0402",
"2c.	c #C41900",
"3c.	c #FE4A00",
"4c.	c #FF4F00",
"5c.	c #FE4500",
"6c.	c #FB4000",
"7c.	c #F62C00",
"8c.	c #FA3800",
"9c.	c #F72800",
"0c.	c #F12200",
"ac.	c #DD1A00",
"bc.	c #BE1000",
"cc.	c #850C02",
"dc.	c #EE3500",
"ec.	c #FF6200",
"fc.	c #FD8401",
"gc.	c #FDDE04",
"hc.	c #F43300",
"ic.	c #F62E00",
"jc.	c #EB2900",
"kc.	c #E22500",
"lc.	c #C81700",
"mc.	c #370302",
"nc.	c #69451C",
"oc.	c #D5BF5A",
"pc.	c #F6E26C",
"qc.	c #FDE96B",
"rc.	c #F0C54A",
"sc.	c #E2AF36",
"tc.	c #96611E",
"uc.	c #613C14",
"vc.	c #330607",
"wc.	c #360707",
"xc.	c #461009",
"yc.	c #440B08",
"zc.	c #380207",
"Ac.	c #3E0307",
"Bc.	c #500406",
"Cc.	c #590603",
"Dc.	c #801503",
"Ec.	c #8C2709",
"Fc.	c #A67337",
"Gc.	c #E7C655",
"Hc.	c #F9DA5A",
"Ic.	c #F7D258",
"Jc.	c #E7B346",
"Kc.	c #B06B26",
"Lc.	c #A45B22",
"Mc.	c #92471B",
"Nc.	c #6E250E",
"Oc.	c #4D100A",
"Pc.	c #3F0607",
"Qc.	c #2C0302",
"Rc.	c #2A0102",
"Sc.	c #D93800",
"Tc.	c #E15200",
"Uc.	c #E53000",
"Vc.	c #EC4F00",
"Wc.	c #F16100",
"Xc.	c #FB3E00",
"Yc.	c #F35400",
"Zc.	c #F12400",
"`c.	c #F22700",
" d.	c #EC2000",
".d.	c #400003",
"+d.	c #921100",
"@d.	c #CE3600",
"#d.	c #F53900",
"$d.	c #4F2B10",
"%d.	c #CDBA61",
"&d.	c #FCEC70",
"*d.	c #F4D351",
"=d.	c #D6A538",
"-d.	c #A77924",
";d.	c #623411",
">d.	c #471208",
",d.	c #460F07",
"'d.	c #380806",
")d.	c #2C0505",
"!d.	c #370707",
"~d.	c #3B0507",
"{d.	c #490507",
"]d.	c #560806",
"^d.	c #5B0705",
"/d.	c #510505",
"(d.	c #530705",
"_d.	c #4F0605",
":d.	c #591808",
"<d.	c #C29044",
"[d.	c #EAC565",
"}d.	c #EDC051",
"|d.	c #F7D75C",
"1d.	c #E7BE50",
"2d.	c #C68E39",
"3d.	c #9D5C25",
"4d.	c #9B5824",
"5d.	c #8C441A",
"6d.	c #5F200D",
"7d.	c #7B0702",
"8d.	c #7E0902",
"9d.	c #DD4900",
"0d.	c #FF7300",
"ad.	c #FE5300",
"bd.	c #E13000",
"cd.	c #F32300",
"dd.	c #F22800",
"ed.	c #E32000",
"fd.	c #720400",
"gd.	c #750400",
"hd.	c #831C01",
"id.	c #FC6500",
"jd.	c #B40F00",
"kd.	c #B11100",
"ld.	c #8B1001",
"md.	c #440605",
"nd.	c #490B05",
"od.	c #512F11",
"pd.	c #C2B35F",
"qd.	c #FCE763",
"rd.	c #E7B738",
"sd.	c #C98F2D",
"td.	c #6E4214",
"ud.	c #4C2510",
"vd.	c #37170B",
"wd.	c #38150B",
"xd.	c #2B0D05",
"yd.	c #200603",
"zd.	c #100100",
"Ad.	c #220703",
"Bd.	c #2E0806",
"Cd.	c #470506",
"Dd.	c #4C0506",
"Ed.	c #500805",
"Fd.	c #6E5431",
"Gd.	c #CAB366",
"Hd.	c #F1D477",
"Id.	c #EAC05B",
"Jd.	c #F3D460",
"Kd.	c #CD9B40",
"Ld.	c #8C5021",
"Md.	c #7F411E",
"Nd.	c #632711",
"Od.	c #390908",
"Pd.	c #430403",
"Qd.	c #2F0303",
"Rd.	c #410303",
"Sd.	c #D11A00",
"Td.	c #C31600",
"Ud.	c #F06600",
"Vd.	c #DF1C00",
"Wd.	c #D32000",
"Xd.	c #5B0200",
"Yd.	c #8D1001",
"Zd.	c #E13A00",
"`d.	c #FB7600",
" e.	c #CC1D00",
".e.	c #851602",
"+e.	c #573115",
"@e.	c #BFAA4F",
"#e.	c #FBE154",
"$e.	c #EBBB37",
"%e.	c #C1882C",
"&e.	c #5F330F",
"*e.	c #2F0C09",
"=e.	c #3E0407",
"-e.	c #4B0607",
";e.	c #3C0307",
">e.	c #330207",
",e.	c #340207",
"'e.	c #5A523B",
")e.	c #B7B075",
"!e.	c #F4E075",
"~e.	c #F9EA89",
"{e.	c #F5DB77",
"]e.	c #BF9641",
"^e.	c #AC742F",
"/e.	c #7D491F",
"(e.	c #430D0A",
"_e.	c #340306",
":e.	c #660A03",
"<e.	c #9D1201",
"[e.	c #470503",
"}e.	c #630201",
"|e.	c #DB1800",
"1e.	c #CD1300",
"2e.	c #F32F00",
"3e.	c #F93C00",
"4e.	c #FB9D02",
"5e.	c #DD2000",
"6e.	c #E21500",
"7e.	c #DC1600",
"8e.	c #730302",
"9e.	c #920901",
"0e.	c #7C0A02",
"ae.	c #C83700",
"be.	c #E94700",
"ce.	c #FB7A00",
"de.	c #F77A00",
"ee.	c #830E00",
"fe.	c #850F00",
"ge.	c #8A1701",
"he.	c #DA3E02",
"ie.	c #C44C04",
"je.	c #B5A544",
"ke.	c #FBE35D",
"le.	c #EAC13C",
"me.	c #845A1A",
"ne.	c #140102",
"oe.	c #1A0304",
"pe.	c #270606",
"qe.	c #360605",
"re.	c #3A0607",
"se.	c #520907",
"te.	c #490607",
"ue.	c #2C0308",
"ve.	c #150001",
"we.	c #3A2914",
"xe.	c #9E945B",
"ye.	c #EDD67A",
"ze.	c #F7DE6E",
"Ae.	c #F2D464",
"Be.	c #E7C559",
"Ce.	c #BF943B",
"De.	c #714B1E",
"Ee.	c #320509",
"Fe.	c #330408",
"Ge.	c #901501",
"He.	c #520605",
"Ie.	c #6F0301",
"Je.	c #7B0400",
"Ke.	c #CF1300",
"Le.	c #B30D00",
"Me.	c #F72E00",
"Ne.	c #FEB302",
"Oe.	c #FFD303",
"Pe.	c #FF6600",
"Qe.	c #F33200",
"Re.	c #E51600",
"Se.	c #DE1700",
"Te.	c #660303",
"Ue.	c #AB1101",
"Ve.	c #EF3800",
"We.	c #7C0A03",
"Xe.	c #9D1601",
"Ye.	c #DC5A00",
"Ze.	c #E56B01",
"`e.	c #E93600",
" f.	c #E64400",
".f.	c #EA6600",
"+f.	c #D15C00",
"@f.	c #F14100",
"#f.	c #EA3900",
"$f.	c #D43000",
"%f.	c #760E01",
"&f.	c #620801",
"*f.	c #3A0502",
"=f.	c #A62102",
"-f.	c #EF5402",
";f.	c #C02A03",
">f.	c #BAA33F",
",f.	c #F2D555",
"'f.	c #E0BA3C",
")f.	c #320207",
"!f.	c #3D1C11",
"~f.	c #C1B05D",
"{f.	c #D2B45C",
"]f.	c #E6CA6B",
"^f.	c #F2D875",
"/f.	c #DFC45F",
"(f.	c #CCAB4C",
"_f.	c #8A6930",
":f.	c #5A1A0A",
"<f.	c #460E08",
"[f.	c #340709",
"}f.	c #C23101",
"|f.	c #E33F00",
"1f.	c #500606",
"2f.	c #530806",
"3f.	c #550705",
"4f.	c #270405",
"5f.	c #B80F00",
"6f.	c #FFB302",
"7f.	c #FFCE02",
"8f.	c #FE5600",
"9f.	c #EA1D00",
"0f.	c #E71D00",
"af.	c #AE1201",
"bf.	c #CC1800",
"cf.	c #EF3900",
"df.	c #FB8000",
"ef.	c #EE4C00",
"ff.	c #861A02",
"gf.	c #680A02",
"hf.	c #5A0A01",
"if.	c #A81E01",
"jf.	c #E74801",
"kf.	c #CF3C01",
"lf.	c #981F04",
"mf.	c #B9A140",
"nf.	c #E3CF54",
"of.	c #956F20",
"pf.	c #310E09",
"qf.	c #A47C3F",
"rf.	c #D9B95F",
"sf.	c #E5C465",
"tf.	c #E9C95F",
"uf.	c #DDBE5C",
"vf.	c #AC863E",
"wf.	c #724D22",
"xf.	c #40120A",
"yf.	c #4A0504",
"zf.	c #4E0504",
"Af.	c #7F1901",
"Bf.	c #D04700",
"Cf.	c #F04100",
"Df.	c #2D0303",
"Ef.	c #760F03",
"Ff.	c #6D1203",
"Gf.	c #520A06",
"Hf.	c #6B0F05",
"If.	c #650C06",
"Jf.	c #3A0503",
"Kf.	c #C01900",
"Lf.	c #FD4500",
"Mf.	c #FE3C00",
"Nf.	c #E11B00",
"Of.	c #9E0F01",
"Pf.	c #B61601",
"Qf.	c #B30F00",
"Rf.	c #E84200",
"Sf.	c #DD3400",
"Tf.	c #F55700",
"Uf.	c #A21F00",
"Vf.	c #700B02",
"Wf.	c #6D0B02",
"Xf.	c #721101",
"Yf.	c #5B0902",
"Zf.	c #AC2002",
"`f.	c #CD2F01",
" g.	c #B92C01",
".g.	c #42300E",
"+g.	c #371C0C",
"@g.	c #260606",
"#g.	c #AF8847",
"$g.	c #87572C",
"%g.	c #7F6536",
"&g.	c #7C6B34",
"*g.	c #706230",
"=g.	c #401F10",
"-g.	c #B12600",
";g.	c #DC7001",
">g.	c #DB3900",
",g.	c #3A0202",
"'g.	c #A61B01",
")g.	c #CE3301",
"!g.	c #BF2604",
"~g.	c #C77534",
"{g.	c #B74917",
"]g.	c #B25222",
"^g.	c #835229",
"/g.	c #6E2510",
"(g.	c #61120A",
"_g.	c #530706",
":g.	c #4A0506",
"<g.	c #780A04",
"[g.	c #560605",
"}g.	c #4E0505",
"|g.	c #360303",
"1g.	c #D23900",
"2g.	c #F44200",
"3g.	c #BF2700",
"4g.	c #FF5800",
"5g.	c #FB3400",
"6g.	c #F62F00",
"7g.	c #EB2300",
"8g.	c #9B0D01",
"9g.	c #510102",
"0g.	c #B51D00",
"ag.	c #C22500",
"bg.	c #F83400",
"cg.	c #E83700",
"dg.	c #F63D00",
"eg.	c #610B02",
"fg.	c #540801",
"gg.	c #9F1D01",
"hg.	c #B02301",
"ig.	c #A62E03",
"jg.	c #240E08",
"kg.	c #280208",
"lg.	c #370507",
"mg.	c #330307",
"ng.	c #9E2300",
"og.	c #961500",
"pg.	c #D17D09",
"qg.	c #EC6F0F",
"rg.	c #EEA33B",
"sg.	c #EFBD55",
"tg.	c #EAC66A",
"ug.	c #DAC379",
"vg.	c #CDB369",
"wg.	c #B19B60",
"xg.	c #816D3F",
"yg.	c #694B23",
"zg.	c #3B0407",
"Ag.	c #450606",
"Bg.	c #480607",
"Cg.	c #2E0305",
"Dg.	c #F65600",
"Eg.	c #EB5400",
"Fg.	c #890902",
"Gg.	c #5F0304",
"Hg.	c #3E0002",
"Ig.	c #8A0D00",
"Jg.	c #D33200",
"Kg.	c #FEB500",
"Lg.	c #FEC800",
"Mg.	c #FD4400",
"Ng.	c #E55000",
"Og.	c #EB6300",
"Pg.	c #FC9200",
"Qg.	c #F56000",
"Rg.	c #540603",
"Sg.	c #3F0503",
"Tg.	c #731603",
"Ug.	c #982101",
"Vg.	c #CE5A00",
"Wg.	c #A83701",
"Xg.	c #340D07",
"Yg.	c #740A02",
"Zg.	c #C62300",
"`g.	c #6B0A02",
" h.	c #410402",
".h.	c #2C0202",
"+h.	c #240504",
"@h.	c #7E0C02",
"#h.	c #B4731F",
"$h.	c #EA7B15",
"%h.	c #ECA13C",
"&h.	c #EBB84C",
"*h.	c #EFC95C",
"=h.	c #F4D66D",
"-h.	c #FBEF96",
";h.	c #FAEF98",
">h.	c #F8EA92",
",h.	c #E3C667",
"'h.	c #99874A",
")h.	c #402A1A",
"!h.	c #3C0706",
"~h.	c #410607",
"{h.	c #520B07",
"]h.	c #4E0807",
"^h.	c #2E0607",
"/h.	c #3B0201",
"(h.	c #600802",
"_h.	c #A62E01",
":h.	c #9C2000",
"<h.	c #CC2B00",
"[h.	c #F92C00",
"}h.	c #E81F00",
"|h.	c #AE0B00",
"1h.	c #9B0B01",
"2h.	c #7B0602",
"3h.	c #7A0602",
"4h.	c #4C0103",
"5h.	c #BA2000",
"6h.	c #E53200",
"7h.	c #E93500",
"8h.	c #FC8700",
"9h.	c #F97A00",
"0h.	c #C93800",
"ah.	c #810E02",
"bh.	c #7F1101",
"ch.	c #5F0901",
"dh.	c #8D1400",
"eh.	c #BD4601",
"fh.	c #CA3B01",
"gh.	c #380307",
"hh.	c #2C0107",
"ih.	c #771202",
"jh.	c #B12302",
"kh.	c #E28612",
"lh.	c #E36D06",
"mh.	c #DE5103",
"nh.	c #6C1C03",
"oh.	c #761D06",
"ph.	c #CAB45E",
"qh.	c #DDC05E",
"rh.	c #E6C55D",
"sh.	c #E6BF5B",
"th.	c #F1D674",
"uh.	c #F9EC90",
"vh.	c #FCF196",
"wh.	c #FDF594",
"xh.	c #F8EE8F",
"yh.	c #E8DF92",
"zh.	c #9C874E",
"Ah.	c #633B1F",
"Bh.	c #3F1A0D",
"Ch.	c #AD0E01",
"Dh.	c #E53600",
"Eh.	c #F74B00",
"Fh.	c #D12E00",
"Gh.	c #D52000",
"Hh.	c #FCB300",
"Ih.	c #F69900",
"Jh.	c #FFC001",
"Kh.	c #E33B00",
"Lh.	c #A11601",
"Mh.	c #AB1B01",
"Nh.	c #770D01",
"Oh.	c #981E00",
"Ph.	c #8A1E01",
"Qh.	c #2F0506",
"Rh.	c #450506",
"Sh.	c #4D0705",
"Th.	c #460506",
"Uh.	c #673411",
"Vh.	c #AD6222",
"Wh.	c #E4863A",
"Xh.	c #F59A21",
"Yh.	c #FA9515",
"Zh.	c #F57107",
"`h.	c #E73E00",
" i.	c #E13E01",
".i.	c #B42300",
"+i.	c #5D0803",
"@i.	c #6C0F06",
"#i.	c #824D21",
"$i.	c #C08C41",
"%i.	c #BB863F",
"&i.	c #F0D36B",
"*i.	c #E9D072",
"=i.	c #F0D773",
"-i.	c #F9E57C",
";i.	c #FBEB84",
">i.	c #F0D56B",
",i.	c #DCB85A",
"'i.	c #BBA054",
")i.	c #977B43",
"!i.	c #4E3219",
"~i.	c #DB3600",
"{i.	c #FC4700",
"]i.	c #FC6F00",
"^i.	c #F73B00",
"/i.	c #F53400",
"(i.	c #970801",
"_i.	c #710402",
":i.	c #930A01",
"<i.	c #AD1301",
"[i.	c #7D0902",
"}i.	c #A21601",
"|i.	c #B72901",
"1i.	c #C83400",
"2i.	c #F67300",
"3i.	c #9B1A01",
"4i.	c #C12400",
"5i.	c #A41B00",
"6i.	c #5D0901",
"7i.	c #3E0603",
"8i.	c #3F0A08",
"9i.	c #470807",
"0i.	c #5C0905",
"ai.	c #5D0804",
"bi.	c #4C0707",
"ci.	c #390406",
"di.	c #3B0807",
"ei.	c #E2B851",
"fi.	c #FBF586",
"gi.	c #FBDE55",
"hi.	c #F8AF2C",
"ii.	c #EE8010",
"ji.	c #CF2F01",
"ki.	c #9C1501",
"li.	c #8A0F01",
"mi.	c #790D03",
"ni.	c #360506",
"oi.	c #510C07",
"pi.	c #592C13",
"qi.	c #8B5C2D",
"ri.	c #B38446",
"si.	c #DCBD63",
"ti.	c #DBBE64",
"ui.	c #E3C366",
"vi.	c #E7CC6B",
"wi.	c #E6D073",
"xi.	c #E8D586",
"yi.	c #E6D385",
"zi.	c #EDDF7D",
"Ai.	c #CDC067",
"Bi.	c #766234",
"Ci.	c #361E10",
"Di.	c #3A0307",
"Ei.	c #210406",
"Fi.	c #260B09",
"Gi.	c #D06200",
"Hi.	c #C36201",
"Ii.	c #F73D00",
"Ji.	c #EE2D00",
"Ki.	c #7B0401",
"Li.	c #770401",
"Mi.	c #800A02",
"Ni.	c #1B0002",
"Oi.	c #1A0002",
"Pi.	c #F33E00",
"Qi.	c #F63500",
"Ri.	c #E42100",
"Si.	c #A51600",
"Ti.	c #C55100",
"Ui.	c #FCAA01",
"Vi.	c #FECA00",
"Wi.	c #FEC601",
"Xi.	c #D02C00",
"Yi.	c #9D2702",
"Zi.	c #671003",
"`i.	c #430803",
" j.	c #3E0607",
".j.	c #5C0A05",
"+j.	c #5D0904",
"@j.	c #3E0506",
"#j.	c #612916",
"$j.	c #B18E3E",
"%j.	c #EECE61",
"&j.	c #FDF582",
"*j.	c #F9D853",
"=j.	c #EDA72D",
"-j.	c #C96810",
";j.	c #9A2304",
">j.	c #7C1204",
",j.	c #731104",
"'j.	c #630C05",
")j.	c #3B0708",
"!j.	c #3A0708",
"~j.	c #310A08",
"{j.	c #3F2915",
"]j.	c #452C15",
"^j.	c #563B20",
"/j.	c #5C4123",
"(j.	c #5B4224",
"_j.	c #745330",
":j.	c #564533",
"<j.	c #514332",
"[j.	c #4C4124",
"}j.	c #58381C",
"|j.	c #480706",
"1j.	c #3D0407",
"2j.	c #390405",
"3j.	c #631004",
"4j.	c #631406",
"5j.	c #2C0B05",
"6j.	c #4D0603",
"7j.	c #E64700",
"8j.	c #FA7800",
"9j.	c #880601",
"0j.	c #F02800",
"aj.	c #D22D00",
"bj.	c #B92300",
"cj.	c #870B01",
"dj.	c #751602",
"ej.	c #420805",
"fj.	c #2A0703",
"gj.	c #2B0606",
"hj.	c #614222",
"ij.	c #C2AC62",
"jj.	c #E2C966",
"kj.	c #F6D35E",
"lj.	c #FDF17A",
"mj.	c #F6D65D",
"nj.	c #DC9A37",
"oj.	c #A45015",
"pj.	c #4F0905",
"qj.	c #380406",
"rj.	c #270506",
"sj.	c #2A0B08",
"tj.	c #3F0407",
"uj.	c #450707",
"vj.	c #490905",
"wj.	c #761F05",
"xj.	c #A44716",
"yj.	c #926C2C",
"zj.	c #CAA84D",
"Aj.	c #BA9B43",
"Bj.	c #471F10",
"Cj.	c #30110B",
"Dj.	c #510A03",
"Ej.	c #EE5E00",
"Fj.	c #FF9100",
"Gj.	c #FD6F00",
"Hj.	c #FB3C00",
"Ij.	c #B60B00",
"Jj.	c #AF0E00",
"Kj.	c #390005",
"Lj.	c #E52500",
"Mj.	c #DF2200",
"Nj.	c #FC5B00",
"Oj.	c #CA3400",
"Pj.	c #3E0303",
"Qj.	c #380405",
"Rj.	c #500705",
"Sj.	c #4B0605",
"Tj.	c #4B0606",
"Uj.	c #3F0406",
"Vj.	c #2D0907",
"Wj.	c #654620",
"Xj.	c #D0B259",
"Yj.	c #F4E581",
"Zj.	c #FBE97A",
"`j.	c #FADA62",
" k.	c #FAE66E",
".k.	c #F0C452",
"+k.	c #C78534",
"@k.	c #8B4119",
"#k.	c #350407",
"$k.	c #260007",
"%k.	c #410507",
"&k.	c #3C0C0A",
"*k.	c #2B0207",
"=k.	c #530E06",
"-k.	c #69240B",
";k.	c #BB9E51",
">k.	c #FAEE79",
",k.	c #FBEB75",
"'k.	c #EAC859",
")k.	c #D4A33F",
"!k.	c #B48332",
"~k.	c #875A27",
"{k.	c #2F110C",
"]k.	c #3D0502",
"^k.	c #AC1401",
"/k.	c #D63900",
"(k.	c #FE9001",
"_k.	c #DF1B00",
":k.	c #DA1800",
"<k.	c #C21000",
"[k.	c #850601",
"}k.	c #B00F00",
"|k.	c #8B0B02",
"1k.	c #8E0700",
"2k.	c #EE3700",
"3k.	c #C22701",
"4k.	c #BA2700",
"5k.	c #F96300",
"6k.	c #ED5200",
"7k.	c #DF4200",
"8k.	c #B41B00",
"9k.	c #9B1800",
"0k.	c #D62C00",
"ak.	c #B61000",
"bk.	c #630A03",
"ck.	c #290404",
"dk.	c #380507",
"ek.	c #480505",
"fk.	c #440505",
"gk.	c #4F3519",
"hk.	c #7F6D3D",
"ik.	c #C7AF62",
"jk.	c #E8D477",
"kk.	c #FAE77D",
"lk.	c #F8E170",
"mk.	c #F1CF5F",
"nk.	c #F2D664",
"ok.	c #DBB44D",
"pk.	c #A48238",
"qk.	c #7A4F1F",
"rk.	c #4D1B0E",
"sk.	c #210504",
"tk.	c #4A0705",
"uk.	c #6B0F08",
"vk.	c #5D110B",
"wk.	c #51130F",
"xk.	c #5A2414",
"yk.	c #5D2B15",
"zk.	c #410808",
"Ak.	c #310408",
"Bk.	c #360409",
"Ck.	c #470606",
"Dk.	c #4C0507",
"Ek.	c #5D1607",
"Fk.	c #7B3A15",
"Gk.	c #E1C664",
"Hk.	c #F4D870",
"Ik.	c #F2DC7A",
"Jk.	c #D7AE50",
"Kk.	c #C6963F",
"Lk.	c #BD8B3F",
"Mk.	c #98642F",
"Nk.	c #431D0D",
"Ok.	c #AD1801",
"Pk.	c #A21600",
"Qk.	c #FDAD01",
"Rk.	c #FDB804",
"Sk.	c #E31800",
"Tk.	c #D51B00",
"Uk.	c #C91400",
"Vk.	c #971100",
"Wk.	c #BD1701",
"Xk.	c #AF1201",
"Yk.	c #2B0001",
"Zk.	c #230201",
"`k.	c #EE3E00",
" l.	c #720D03",
".l.	c #2D0606",
"+l.	c #340307",
"@l.	c #3B0406",
"#l.	c #2E0A09",
"$l.	c #86703E",
"%l.	c #D5B467",
"&l.	c #E3CA81",
"*l.	c #E5CB7E",
"=l.	c #F1DC7D",
"-l.	c #DACA79",
";l.	c #C8B868",
">l.	c #C1AB54",
",l.	c #AA853E",
"'l.	c #7D4C22",
")l.	c #4E1D0D",
"!l.	c #3D0E09",
"~l.	c #2B0202",
"{l.	c #7E1404",
"]l.	c #8D1D03",
"^l.	c #841403",
"/l.	c #751006",
"(l.	c #650D07",
"_l.	c #560E09",
":l.	c #6F3B18",
"<l.	c #825124",
"[l.	c #60200F",
"}l.	c #3D0A0B",
"|l.	c #380609",
"1l.	c #2F0308",
"2l.	c #420607",
"3l.	c #410407",
"4l.	c #591508",
"5l.	c #6A3115",
"6l.	c #DFC461",
"7l.	c #E0B653",
"8l.	c #F3DC75",
"9l.	c #FAEE8F",
"0l.	c #E4C96D",
"al.	c #B48638",
"bl.	c #9C7233",
"cl.	c #573016",
"dl.	c #37160D",
"el.	c #4C0602",
"fl.	c #A91801",
"gl.	c #B11E00",
"hl.	c #FA7500",
"il.	c #EF4600",
"jl.	c #EF4200",
"kl.	c #E51B00",
"ll.	c #D11100",
"ml.	c #AE0C01",
"nl.	c #810501",
"ol.	c #E44F00",
"pl.	c #BE1E01",
"ql.	c #C01300",
"rl.	c #8F0801",
"sl.	c #B11E01",
"tl.	c #BC2700",
"ul.	c #A81900",
"vl.	c #A23202",
"wl.	c #FC7F01",
"xl.	c #EB5D00",
"yl.	c #A31600",
"zl.	c #DE4300",
"Al.	c #F56500",
"Bl.	c #D42100",
"Cl.	c #D81C00",
"Dl.	c #B31401",
"El.	c #6C0902",
"Fl.	c #3D0C07",
"Gl.	c #370607",
"Hl.	c #938347",
"Il.	c #AB9551",
"Jl.	c #AC984E",
"Kl.	c #B09C56",
"Ll.	c #AA9560",
"Ml.	c #624531",
"Nl.	c #340707",
"Ol.	c #8C1602",
"Pl.	c #AE2201",
"Ql.	c #B02B08",
"Rl.	c #8C3513",
"Sl.	c #A4742D",
"Tl.	c #C99540",
"Ul.	c #CFA046",
"Vl.	c #C29541",
"Wl.	c #B17B38",
"Xl.	c #AD8D41",
"Yl.	c #5F5326",
"Zl.	c #390607",
"`l.	c #3A0506",
" m.	c #420A09",
".m.	c #48220E",
"+m.	c #2A0606",
"@m.	c #3B1C0F",
"#m.	c #A2924D",
"$m.	c #AA8F42",
"%m.	c #AA9446",
"&m.	c #B8AF66",
"*m.	c #9B8442",
"=m.	c #613712",
"-m.	c #38170C",
";m.	c #410503",
">m.	c #E85200",
",m.	c #ED2700",
"'m.	c #F12D00",
")m.	c #F83600",
"!m.	c #EC1E00",
"~m.	c #B91000",
"{m.	c #EA2700",
"]m.	c #E11C00",
"^m.	c #E01C00",
"/m.	c #5C0203",
"(m.	c #EC5800",
"_m.	c #C73000",
":m.	c #AE1B00",
"<m.	c #B82401",
"[m.	c #D62E00",
"}m.	c #E82B00",
"|m.	c #E52300",
"1m.	c #692C11",
"2m.	c #712A0F",
"3m.	c #5B1808",
"4m.	c #490D08",
"5m.	c #450907",
"6m.	c #510B06",
"7m.	c #560906",
"8m.	c #390507",
"9m.	c #220505",
"0m.	c #4D0604",
"am.	c #941B02",
"bm.	c #B12001",
"cm.	c #AB3307",
"dm.	c #B9833F",
"em.	c #DA9D40",
"fm.	c #D49A40",
"gm.	c #E7BE5A",
"hm.	c #CA9A47",
"im.	c #CD9F48",
"jm.	c #E9C45C",
"km.	c #C59A47",
"lm.	c #6B4E24",
"mm.	c #31270E",
"nm.	c #3E2009",
"om.	c #7C4316",
"pm.	c #915820",
"qm.	c #AB752E",
"rm.	c #220906",
"sm.	c #291208",
"tm.	c #280E07",
"um.	c #34150B",
"vm.	c #38180B",
"wm.	c #3E1C0C",
"xm.	c #3C1A0B",
"ym.	c #2E0F06",
"zm.	c #D12C00",
"Am.	c #BD2801",
"Bm.	c #FC4500",
"Cm.	c #EB2500",
"Dm.	c #C71300",
"Em.	c #EA2200",
"Fm.	c #E61A00",
"Gm.	c #C70F00",
"Hm.	c #B22C00",
"Im.	c #FD8500",
"Jm.	c #FC9400",
"Km.	c #F25600",
"Lm.	c #B31B00",
"Mm.	c #C42901",
"Nm.	c #C31300",
"Om.	c #743715",
"Pm.	c #8A4418",
"Qm.	c #944416",
"Rm.	c #7A290D",
"Sm.	c #5D1509",
"Tm.	c #611008",
"Um.	c #6A1307",
"Vm.	c #550906",
"Wm.	c #390408",
"Xm.	c #5F0A04",
"Ym.	c #1A0503",
"Zm.	c #430604",
"`m.	c #A52D04",
" n.	c #A74516",
".n.	c #A3692D",
"+n.	c #D1963F",
"@n.	c #DCA749",
"#n.	c #F7DF75",
"$n.	c #F5E179",
"%n.	c #F1D36B",
"&n.	c #F9E77B",
"*n.	c #F3E182",
"=n.	c #EFDF7A",
"-n.	c #EDD45E",
";n.	c #D19038",
">n.	c #BB6D26",
",n.	c #B36823",
"'n.	c #9E5D24",
")n.	c #D32600",
"!n.	c #B22A01",
"~n.	c #C91200",
"{n.	c #FE6600",
"]n.	c #F12B00",
"^n.	c #ED2400",
"/n.	c #EF2500",
"(n.	c #B70D00",
"_n.	c #920700",
":n.	c #460104",
"<n.	c #B32201",
"[n.	c #7B441B",
"}n.	c #97521F",
"|n.	c #964618",
"1n.	c #75280D",
"2n.	c #681708",
"3n.	c #691207",
"4n.	c #731306",
"5n.	c #500806",
"6n.	c #4A0807",
"7n.	c #480707",
"8n.	c #450607",
"9n.	c #500604",
"0n.	c #8B1000",
"an.	c #650803",
"bn.	c #531306",
"cn.	c #953E18",
"dn.	c #C89646",
"en.	c #D6A84E",
"fn.	c #F5DC74",
"gn.	c #FBEC84",
"hn.	c #FBF08E",
"in.	c #F8DE6E",
"jn.	c #FAE474",
"kn.	c #EEC761",
"ln.	c #D4963C",
"mn.	c #D6862B",
"nn.	c #AC6421",
"on.	c #360402",
"pn.	c #260002",
"qn.	c #DC3100",
"rn.	c #D41A00",
"sn.	c #5B0804",
"tn.	c #A82901",
"un.	c #DF4C00",
"vn.	c #D31B00",
"wn.	c #821302",
"xn.	c #8B1301",
"yn.	c #911601",
"zn.	c #C02000",
"An.	c #8C1500",
"Bn.	c #6F0B01",
"Cn.	c #4B2614",
"Dn.	c #3E140D",
"En.	c #3C100B",
"Fn.	c #260706",
"Gn.	c #4C2410",
"Hn.	c #9E732B",
"In.	c #BF8333",
"Jn.	c #C38331",
"Kn.	c #894D1C",
"Ln.	c #88270D",
"Mn.	c #961E05",
"Nn.	c #A01902",
"On.	c #7B1405",
"Pn.	c #691006",
"Qn.	c #570907",
"Rn.	c #590A04",
"Sn.	c #6F1005",
"Tn.	c #6A0B04",
"Un.	c #860F01",
"Vn.	c #530604",
"Wn.	c #2F0D08",
"Xn.	c #290705",
"Yn.	c #43140B",
"Zn.	c #481B0C",
"`n.	c #582514",
" o.	c #A67B39",
".o.	c #D3AA4E",
"+o.	c #F3E280",
"@o.	c #F7EF97",
"#o.	c #F8F192",
"$o.	c #E9C75B",
"%o.	c #D19B3B",
"&o.	c #C18434",
"*o.	c #B5762B",
"=o.	c #91561F",
"-o.	c #613618",
";o.	c #620D04",
">o.	c #F85400",
",o.	c #E51D00",
"'o.	c #AA0B00",
")o.	c #310302",
"!o.	c #9F1200",
"~o.	c #900F00",
"{o.	c #670801",
"]o.	c #C42501",
"^o.	c #E12A00",
"/o.	c #D23100",
"(o.	c #6F4520",
"_o.	c #4A2612",
":o.	c #3C110A",
"<o.	c #51180D",
"[o.	c #532A0D",
"}o.	c #8D5B24",
"|o.	c #BB8C38",
"1o.	c #D79E40",
"2o.	c #DCA13E",
"3o.	c #97521C",
"4o.	c #8C260A",
"5o.	c #9C2203",
"6o.	c #AB2001",
"7o.	c #A92003",
"8o.	c #911904",
"9o.	c #3C0607",
"0o.	c #460905",
"ao.	c #410605",
"bo.	c #6A0B03",
"co.	c #640802",
"do.	c #460505",
"eo.	c #480705",
"fo.	c #2F0404",
"go.	c #511F0F",
"ho.	c #471C11",
"io.	c #6D3D1B",
"jo.	c #B68634",
"ko.	c #B48A3B",
"lo.	c #8D5E2A",
"mo.	c #C58C33",
"no.	c #B07226",
"oo.	c #764013",
"po.	c #683712",
"qo.	c #764217",
"ro.	c #550102",
"so.	c #7C1402",
"to.	c #F23000",
"uo.	c #D71800",
"vo.	c #A20900",
"wo.	c #A60A00",
"xo.	c #3B0202",
"yo.	c #270301",
"zo.	c #CA3801",
"Ao.	c #D02B00",
"Bo.	c #290506",
"Co.	c #543114",
"Do.	c #7A5625",
"Eo.	c #8F6C36",
"Fo.	c #A07E3E",
"Go.	c #957638",
"Ho.	c #745325",
"Io.	c #C0943C",
"Jo.	c #E8BF4E",
"Ko.	c #F3CE59",
"Lo.	c #CA8F38",
"Mo.	c #9F4011",
"No.	c #B43206",
"Oo.	c #BD2E03",
"Po.	c #C62801",
"Qo.	c #801003",
"Ro.	c #360407",
"So.	c #520A07",
"To.	c #470806",
"Uo.	c #510A06",
"Vo.	c #420707",
"Wo.	c #6E2A0F",
"Xo.	c #783311",
"Yo.	c #6F2409",
"Zo.	c #782107",
"`o.	c #5F1A06",
" p.	c #671205",
".p.	c #640A03",
"+p.	c #3B0405",
"@p.	c #370504",
"#p.	c #2A0604",
"$p.	c #45240E",
"%p.	c #593419",
"&p.	c #5A3317",
"*p.	c #52210D",
"=p.	c #6F2F0D",
"-p.	c #6D330E",
";p.	c #612F12",
">p.	c #831C02",
",p.	c #C43D01",
"'p.	c #CF1500",
")p.	c #AB0C00",
"!p.	c #750502",
"~p.	c #2B0102",
"{p.	c #E23800",
"]p.	c #961401",
"^p.	c #B22700",
"/p.	c #800F01",
"(p.	c #AB2301",
"_p.	c #4C2B11",
":p.	c #74461C",
"<p.	c #AD7D31",
"[p.	c #E3BD53",
"}p.	c #F7E578",
"|p.	c #FAEA79",
"1p.	c #F2D766",
"2p.	c #EAD469",
"3p.	c #F3DD6B",
"4p.	c #EAC854",
"5p.	c #E9BA48",
"6p.	c #EEBF4D",
"7p.	c #BD7C2F",
"8p.	c #AB3F0D",
"9p.	c #C23906",
"0p.	c #D33101",
"ap.	c #B41D01",
"bp.	c #8F1101",
"cp.	c #671307",
"dp.	c #3C0505",
"ep.	c #500D08",
"fp.	c #560A07",
"gp.	c #31150D",
"hp.	c #3A2314",
"ip.	c #543D1B",
"jp.	c #935021",
"kp.	c #B26023",
"lp.	c #B85417",
"mp.	c #BA4A0F",
"np.	c #993A0E",
"op.	c #772007",
"pp.	c #640E05",
"qp.	c #2E0505",
"rp.	c #1B0303",
"sp.	c #750B03",
"tp.	c #A12501",
"up.	c #EF4900",
"vp.	c #A70B00",
"wp.	c #790401",
"xp.	c #5F0400",
"yp.	c #640400",
"zp.	c #A34A02",
"Ap.	c #E35B00",
"Bp.	c #EE2700",
"Cp.	c #930F01",
"Dp.	c #8B0D00",
"Ep.	c #B31F00",
"Fp.	c #AB1701",
"Gp.	c #881401",
"Hp.	c #DA3A00",
"Ip.	c #4F0502",
"Jp.	c #3A1D0D",
"Kp.	c #926324",
"Lp.	c #BA8C36",
"Mp.	c #EBD065",
"Np.	c #F5E376",
"Op.	c #FEF386",
"Pp.	c #FCEC7C",
"Qp.	c #FBE871",
"Rp.	c #F9E167",
"Sp.	c #F2CF56",
"Tp.	c #ECBF4E",
"Up.	c #C88D34",
"Vp.	c #A44E17",
"Wp.	c #BA3B08",
"Xp.	c #B13203",
"Yp.	c #6B1607",
"Zp.	c #4B1107",
"`p.	c #430B07",
" q.	c #520F0A",
".q.	c #47301C",
"+q.	c #B69D5F",
"@q.	c #D9C275",
"#q.	c #DEBB59",
"$q.	c #C78939",
"%q.	c #C87A2E",
"&q.	c #B6561A",
"*q.	c #A03709",
"=q.	c #802A0B",
"-q.	c #701D09",
";q.	c #530C05",
">q.	c #270505",
",q.	c #B91A01",
"'q.	c #A21102",
")q.	c #A50C01",
"!q.	c #3A0604",
"~q.	c #720902",
"{q.	c #F66800",
"]q.	c #D12F00",
"^q.	c #981300",
"/q.	c #A61A00",
"(q.	c #DE3500",
"_q.	c #881501",
":q.	c #361B0B",
"<q.	c #977A2E",
"[q.	c #D0A844",
"}q.	c #E4BB51",
"|q.	c #F6D864",
"1q.	c #F3DA64",
"2q.	c #F3DB5A",
"3q.	c #F2DA5E",
"4q.	c #EFCD57",
"5q.	c #E7BC4F",
"6q.	c #E5C455",
"7q.	c #CC9F44",
"8q.	c #A57C2E",
"9q.	c #924715",
"0q.	c #5C1306",
"aq.	c #540B06",
"bq.	c #460B0A",
"cq.	c #400A08",
"dq.	c #512814",
"eq.	c #BDA754",
"fq.	c #F0D66A",
"gq.	c #E8C859",
"hq.	c #D8A742",
"iq.	c #C69539",
"jq.	c #9F5A21",
"kq.	c #984919",
"lq.	c #70260C",
"mq.	c #551108",
"nq.	c #220201",
"oq.	c #1C0302",
"pq.	c #960D01",
"qq.	c #880B02",
"rq.	c #9E1201",
"sq.	c #8D1301",
"tq.	c #370604",
"uq.	c #D43101",
"vq.	c #EF5F01",
"wq.	c #EC4300",
"xq.	c #FC8000",
"yq.	c #610701",
"zq.	c #9C2201",
"Aq.	c #CF3C00",
"Bq.	c #C63200",
"Cq.	c #E44B00",
"Dq.	c #A81C00",
"Eq.	c #3C240F",
"Fq.	c #341F0B",
"Gq.	c #694517",
"Hq.	c #835E21",
"Iq.	c #916929",
"Jq.	c #B59338",
"Kq.	c #C59E3E",
"Lq.	c #C99B3F",
"Mq.	c #B18D3E",
"Nq.	c #786A2D",
"Oq.	c #73612B",
"Pq.	c #422810",
"Qq.	c #492F17",
"Rq.	c #BFA859",
"Sq.	c #F0D466",
"Tq.	c #E9BC4E",
"Uq.	c #DBA541",
"Vq.	c #D89D3C",
"Wq.	c #C98B35",
"Xq.	c #B4742D",
"Yq.	c #89481C",
"Zq.	c #6E3515",
"`q.	c #410E07",
" r.	c #300905",
".r.	c #4B0301",
"+r.	c #4C0505",
"@r.	c #E93E00",
"#r.	c #EE3C00",
"$r.	c #B62100",
"%r.	c #E46800",
"&r.	c #F35100",
"*r.	c #E74400",
"=r.	c #540504",
"-r.	c #633C1D",
";r.	c #663F19",
">r.	c #43220D",
",r.	c #2E0D07",
"'r.	c #250505",
")r.	c #5D5734",
"!r.	c #514529",
"~r.	c #360E08",
"{r.	c #310A07",
"]r.	c #452811",
"^r.	c #D3B556",
"/r.	c #F6E477",
"(r.	c #F5D564",
"_r.	c #DFAB46",
":r.	c #DBA33F",
"<r.	c #CF943A",
"[r.	c #CC9C3E",
"}r.	c #B98735",
"|r.	c #965721",
"1r.	c #351106",
"2r.	c #2A0905",
"3r.	c #490A03",
"4r.	c #3F0101",
"5r.	c #410201",
"6r.	c #E62700",
"7r.	c #C11D00",
"8r.	c #AD1E00",
"9r.	c #B23300",
"0r.	c #F28B00",
"ar.	c #FB7D00",
"br.	c #EA3200",
"cr.	c #391C0C",
"dr.	c #351007",
"er.	c #250405",
"fr.	c #1C0703",
"gr.	c #846A2A",
"hr.	c #C8B75D",
"ir.	c #E7DA7C",
"jr.	c #A79852",
"kr.	c #918B4D",
"lr.	c #A79140",
"mr.	c #EFCE56",
"nr.	c #F4CD54",
"or.	c #ECC554",
"pr.	c #CD973B",
"qr.	c #D19B3C",
"rr.	c #D19C3F",
"sr.	c #D8AC4A",
"tr.	c #845D25",
"ur.	c #5D2411",
"vr.	c #270603",
"wr.	c #D92900",
"xr.	c #AB1800",
"yr.	c #2A0002",
"zr.	c #6E0903",
"Ar.	c #D81900",
"Br.	c #F03000",
"Cr.	c #D32100",
"Dr.	c #D46500",
"Er.	c #E17100",
"Fr.	c #FBC101",
"Gr.	c #FC9D01",
"Hr.	c #E83100",
"Ir.	c #270404",
"Jr.	c #3F2111",
"Kr.	c #2D0F0A",
"Lr.	c #310E07",
"Mr.	c #B78C3A",
"Nr.	c #CE9C3E",
"Or.	c #E5BB4E",
"Pr.	c #EDC959",
"Qr.	c #FDF172",
"Rr.	c #FAE363",
"Sr.	c #EABA44",
"Tr.	c #DEA63B",
"Ur.	c #D29B3A",
"Vr.	c #D2A240",
"Wr.	c #CC993C",
"Xr.	c #A27131",
"Yr.	c #64441E",
"Zr.	c #230604",
"`r.	c #2B0904",
" s.	c #3D1D0C",
".s.	c #450300",
"+s.	c #DE3C00",
"@s.	c #D42200",
"#s.	c #6D0603",
"$s.	c #6D0803",
"%s.	c #310101",
"&s.	c #9E1101",
"*s.	c #AA1301",
"=s.	c #D01900",
"-s.	c #D72100",
";s.	c #BE4200",
">s.	c #FA9700",
",s.	c #FEB000",
"'s.	c #FEBC00",
")s.	c #643A17",
"!s.	c #C08627",
"~s.	c #D4962B",
"{s.	c #D39630",
"]s.	c #EEC548",
"^s.	c #EFCD53",
"/s.	c #E1B545",
"(s.	c #D3A942",
"_s.	c #CC9E40",
":s.	c #BB9235",
"<s.	c #A17327",
"[s.	c #3B200A",
"}s.	c #2B0C05",
"|s.	c #280D05",
"1s.	c #530B03",
"2s.	c #520602",
"3s.	c #CB1600",
"4s.	c #310006",
"5s.	c #650604",
"6s.	c #B31701",
"7s.	c #BB1E00",
"8s.	c #BD2600",
"9s.	c #7F0B02",
"0s.	c #A20F01",
"as.	c #6F0801",
"bs.	c #951600",
"cs.	c #E96800",
"ds.	c #FD8F00",
"es.	c #FDB301",
"fs.	c #EC4900",
"gs.	c #971000",
"hs.	c #4E2D0E",
"is.	c #A6731F",
"js.	c #C48D26",
"ks.	c #C6942C",
"ls.	c #D0A53A",
"ms.	c #C2A241",
"ns.	c #AE7824",
"os.	c #6F3C12",
"ps.	c #603116",
"qs.	c #361105",
"rs.	c #401508",
"ss.	c #3C1E0B",
"ts.	c #620F03",
"us.	c #E62800",
"vs.	c #DD4100",
"ws.	c #DB1B00",
"xs.	c #BB1100",
"ys.	c #350502",
"zs.	c #FE8000",
"As.	c #563612",
"Bs.	c #6A3E16",
"Cs.	c #4C270E",
"Ds.	c #391B0C",
"Es.	c #8B0E00",
"Fs.	c #F36300",
"Gs.	c #EB2A00",
"Hs.	c #F14E00",
"Is.	c #DE2300",
"Js.	c #3F0202",
"Ks.	c #560505",
"Ls.	c #4C0504",
"Ms.	c #C31F00",
"Ns.	c #B51900",
"Os.	c #FD4000",
"Ps.	c #FB3F00",
"Qs.	c #FC7901",
"Rs.	c #AE1F00",
"Ss.	c #F97400",
"Ts.	c #F73600",
"Us.	c #FDC802",
"Vs.	c #1F0201",
"Ws.	c #2F0504",
"Xs.	c #340505",
"Ys.	c #AD1700",
"Zs.	c #F22F00",
"`s.	c #FD3800",
" t.	c #FC3800",
".t.	c #F93500",
"+t.	c #260404",
"@t.	c #FED005",
"#t.	c #FFA001",
"$t.	c #230303",
"%t.	c #1C0001",
"&t.	c #890F02",
"*t.	c #A91802",
"=t.	c #B93300",
"-t.	c #EF7601",
";t.	c #FEBA05",
">t.	c #FFB704",
",t.	c #E62000",
"'t.	c #340203",
")t.	c #310504",
"!t.	c #821700",
"~t.	c #D03C00",
"{t.	c #FFA901",
"]t.	c #FF9201",
"^t.	c #FA3500",
"/t.	c #E42000",
"(t.	c #D71A00",
"_t.	c #620604",
":t.	c #670903",
"<t.	c #E83F00",
"[t.	c #751601",
"}t.	c #BA3D00",
"|t.	c #E25000",
"1t.	c #C81500",
"2t.	c #4D0503",
"3t.	c #520603",
"4t.	c #991401",
"5t.	c #F86800",
"6t.	c #862501",
"7t.	c #D13000",
"8t.	c #A62D00",
"9t.	c #E84D00",
"0t.	c #CD1400",
"at.	c #540605",
"bt.	c #B31601",
"ct.	c #380403",
"dt.	c #290203",
"et.	c #A54D01",
"ft.	c #FA3400",
"gt.	c #F72C00",
"ht.	c #E12200",
"it.	c #F12E00",
"jt.	c #CF1400",
"kt.	c #CB1100",
"lt.	c #5D0604",
"mt.	c #190102",
"nt.	c #731B01",
"ot.	c #CB3B00",
"pt.	c #DD3F00",
"qt.	c #AA1101",
"rt.	c #390102",
"st.	c #770A02",
"tt.	c #992701",
"ut.	c #AF0F00",
"vt.	c #300301",
"wt.	c #A41600",
"xt.	c #BE1F00",
"yt.	c #9B0E01",
"zt.	c #8B0C01",
"At.	c #2B0403",
"Bt.	c #2C0100",
"Ct.	c #5E0703",
"Dt.	c #400201",
"Et.	c #A52801",
"Ft.	c #D83E00",
"Gt.	c #E13900",
"Ht.	c #C53A00",
"It.	c #D64500",
"Jt.	c #870B02",
"Kt.	c #240303",
"Lt.	c #EC2700",
"Mt.	c #8C0F02",
"Nt.	c #2F0101",
"Ot.	c #DC3200",
"Pt.	c #B51801",
"Qt.	c #F6A301",
"Rt.	c #F7AE01",
"St.	c #210001",
"Tt.	c #861302",
"Ut.	c #D41D00",
"Vt.	c #D12000",
"Wt.	c #931602",
"Xt.	c #2B0302",
"Yt.	c #400200",
"Zt.	c #960C01",
"`t.	c #740703",
" u.	c #EAA002",
".u.	c #F5A503",
"+u.	c #210403",
"@u.	c #BF1F01",
"#u.	c #530902",
"$u.	c #C91E00",
"%u.	c #790602",
"&u.	c #820C03",
"*u.	c #280202",
"=u.	c #F49903",
"-u.	c #FAC703",
";u.	c #F47702",
">u.	c #F38E09",
",u.	c #2E0203",
"'u.	c #B71901",
")u.	c #B61901",
"!u.	c #2B0301",
"~u.	c #AD1F03",
"{u.	c #AD2003",
"]u.	c #410805",
"^u.	c #F56302",
"/u.	c #FC8E00",
"(u.	c #FD7D00",
"_u.	c #FAC903",
":u.	c #360302",
"<u.	c #590604",
"[u.	c #4B0502",
"}u.	c #3A0504",
"|u.	c #3B0702",
"1u.	c #440A03",
"2u.	c #5E0A02",
"3u.	c #400401",
"4u.	c #4E1501",
"5u.	c #F36201",
"6u.	c #FD9000",
"7u.	c #F55C00",
"8u.	c #F39101",
"9u.	c #901000",
"0u.	c #560601",
"au.	c #490601",
"bu.	c #4A0604",
"cu.	c #450603",
"du.	c #250302",
"eu.	c #4D0601",
"fu.	c #9D1002",
"gu.	c #911101",
"hu.	c #890C02",
"iu.	c #920E02",
"ju.	c #7A0A02",
"ku.	c #AE7503",
"lu.	c #F0BE07",
"mu.	c #E86102",
"nu.	c #E35202",
"ou.	c #FCA70B",
"pu.	c #FDAF07",
"qu.	c #FDB702",
"ru.	c #F8A400",
"su.	c #DD4C00",
"tu.	c #AF3200",
"uu.	c #B51E01",
"vu.	c #B81E01",
"wu.	c #AA1701",
"xu.	c #350401",
"yu.	c #430302",
"zu.	c #C78908",
"Au.	c #FEBF05",
"Bu.	c #FCA607",
"Cu.	c #FCB50B",
"Du.	c #FDD91A",
"Eu.	c #FBC813",
"Fu.	c #E25001",
"Gu.	c #B33F00",
"Hu.	c #6E0D00",
"Iu.	c #8F2601",
"Ju.	c #750B02",
"Ku.	c #830D02",
"Lu.	c #9F1300",
"Mu.	c #390302",
"Nu.	c #500A04",
"Ou.	c #921702",
"Pu.	c #EDA908",
"Qu.	c #FACA09",
"Ru.	c #F28304",
"Su.	c #FDBA07",
"Tu.	c #FDDB1D",
"Uu.	c #FBBE15",
"Vu.	c #6D1103",
"Wu.	c #780A02",
"Xu.	c #560604",
"Yu.	c #3C0302",
"Zu.	c #440602",
"`u.	c #A13A02",
" v.	c #B85503",
".v.	c #DD5601",
"+v.	c #E68401",
"@v.	c #EDA506",
"#v.	c #DA8602",
"$v.	c #BD2900",
"%v.	c #C12800",
"&v.	c #9A1101",
"*v.	c #860E02",
"=v.	c #A61801",
"-v.	c #B31A01",
";v.	c #4F0602",
">v.	c #3B0704",
",v.	c #730B00",
"'v.	c #A02601",
")v.	c #9C1F01",
"!v.	c #540600",
"~v.	c #650A02",
"{v.	c #3B0906",
"]v.	c #8C0D00",
"^v.	c #400300",
"/v.	c #700A03",
"(v.	c #E85507",
"_v.	c #DC5A07",
":v.	c #490406",
"<v.	c #AB1600",
"[v.	c #6C0B01",
"}v.	c #650B01",
"|v.	c #430502",
"1v.	c #7F0E02",
"2v.	c #8E1401",
"3v.	c #580800",
"4v.	c #EE5002",
"5v.	c #E56404",
"6v.	c #490501",
"7v.	c #3C0403",
"8v.	c #4E0702",
"9v.	c #F17C08",
"0v.	c #FE8A01",
"av.	c #F86B01",
"bv.	c #EC5E02",
"cv.	c #550505",
"dv.	c #720903",
"ev.	c #5D0701",
"fv.	c #730A01",
"gv.	c #850B00",
"hv.	c #2E0301",
"iv.	c #FB9203",
"jv.	c #EB5D06",
"kv.	c #DA5C0C",
"lv.	c #410306",
"mv.	c #F56203",
"nv.	c #FC6F01",
"ov.	c #FC9302",
"pv.	c #ED6F02",
"qv.	c #2F0006",
"rv.	c #FDA000",
"sv.	c #F89E02",
"tv.	c #310401",
"uv.	c #FFA501",
"vv.	c #F89D05",
"wv.	c #3F0302",
"xv.	c #510503",
"yv.	c #FE8501",
"zv.	c #FD9D06",
"Av.	c #FECC07",
"Bv.	c #FCC205",
"Cv.	c #6A0C01",
"Dv.	c #FFA704",
"Ev.	c #FEB20A",
"Fv.	c #FD7E01",
"Gv.	c #FEB702",
"Hv.	c #FFCB02",
"Iv.	c #D15601",
"Jv.	c #751000",
"Kv.	c #160001",
"Lv.	c #FA7102",
"Mv.	c #FD7902",
"Nv.	c #FF9D01",
"Ov.	c #FFB807",
"Pv.	c #FEBD1B",
"Qv.	c #FFA801",
"Rv.	c #F27A01",
"Sv.	c #AF2600",
"Tv.	c #B74D06",
"Uv.	c #FF9D02",
"Vv.	c #FEB11C",
"Wv.	c #FFC702",
"Xv.	c #EE6600",
"Yv.	c #AC2500",
"Zv.	c #370303",
"`v.	c #E15A01",
" w.	c #FF8F01",
".w.	c #FFD602",
"+w.	c #FFCC03",
"@w.	c #FF9F00",
"#w.	c #EA7100",
"$w.	c #AB4000",
"%w.	c #8F0D02",
"&w.	c #AB1301",
"*w.	c #610702",
"=w.	c #F46B02",
"-w.	c #F26F02",
";w.	c #FD7B01",
">w.	c #FFDC02",
",w.	c #FFD801",
"'w.	c #FBAA01",
")w.	c #F76401",
"!w.	c #E47000",
"~w.	c #983501",
"{w.	c #480206",
"]w.	c #670604",
"^w.	c #8F1003",
"/w.	c #810B02",
"(w.	c #A91402",
"_w.	c #500405",
":w.	c #500305",
"<w.	c #7B0B03",
"[w.	c #6F0802",
"}w.	c #2D0601",
"|w.	c #F06903",
"1w.	c #F97602",
"2w.	c #EB6C03",
"3w.	c #FBA718",
"4w.	c #FD6E01",
"5w.	c #FED403",
"6w.	c #F8A608",
"7w.	c #CD3C01",
"8w.	c #AB4801",
"9w.	c #710703",
"0w.	c #690704",
"aw.	c #E86401",
"bw.	c #F36E00",
"cw.	c #F77F01",
"dw.	c #FCCE31",
"ew.	c #FDC221",
"fw.	c #FECC00",
"gw.	c #FED107",
"hw.	c #F5990C",
"iw.	c #D13601",
"jw.	c #7C1001",
"kw.	c #9B1201",
"lw.	c #770903",
"mw.	c #770B02",
"nw.	c #E86402",
"ow.	c #F67100",
"pw.	c #F69601",
"qw.	c #F99B0D",
"rw.	c #F9AF14",
"sw.	c #EB7504",
"tw.	c #FEE265",
"uw.	c #FFB210",
"vw.	c #FE7004",
"ww.	c #FC6404",
"xw.	c #EB5201",
"yw.	c #A91101",
"zw.	c #4C0406",
"Aw.	c #FB8D02",
"Bw.	c #F88501",
"Cw.	c #F4780A",
"Dw.	c #FBA60F",
"Ew.	c #FC9906",
"Fw.	c #FC8901",
"Gw.	c #FBC50D",
"Hw.	c #F6A417",
"Iw.	c #FDE03F",
"Jw.	c #FFC107",
"Kw.	c #FEC202",
"Lw.	c #FDD21D",
"Mw.	c #FCC92B",
"Nw.	c #FB9500",
"Ow.	c #C21B01",
"Pw.	c #3B0803",
"Qw.	c #F25C01",
"Rw.	c #FA8101",
"Sw.	c #FC8604",
"Tw.	c #FA9506",
"Uw.	c #F36B07",
"Vw.	c #EC5204",
"Ww.	c #F27E02",
"Xw.	c #FB9E01",
"Yw.	c #FA9B06",
"Zw.	c #FED614",
"`w.	c #D85D01",
" x.	c #DE5B00",
".x.	c #840C02",
"+x.	c #680803",
"@x.	c #C61D01",
"#x.	c #F97202",
"$x.	c #FE9E03",
"%x.	c #FF8601",
"&x.	c #F87505",
"*x.	c #FC6F03",
"=x.	c #F76001",
"-x.	c #F45401",
";x.	c #C24003",
">x.	c #FB8201",
",x.	c #F79602",
"'x.	c #E79101",
")x.	c #B55302",
"!x.	c #892101",
"~x.	c #430505",
"{x.	c #450505",
"]x.	c #BF2901",
"^x.	c #7C0C02",
"/x.	c #F79D04",
"(x.	c #FEBD07",
"_x.	c #FFA603",
":x.	c #FEB607",
"<x.	c #FF9501",
"[x.	c #F96301",
"}x.	c #FA7702",
"|x.	c #F68606",
"1x.	c #FBBA09",
"2x.	c #FECB29",
"3x.	c #FCC443",
"4x.	c #FA9413",
"5x.	c #CD4F02",
"6x.	c #B11C01",
"7x.	c #BA4301",
"8x.	c #DE6601",
"9x.	c #D05F00",
"0x.	c #AC1D01",
"ax.	c #7C1201",
"bx.	c #8E1000",
"cx.	c #B42500",
"dx.	c #D64703",
"ex.	c #EA5501",
"fx.	c #F66102",
"gx.	c #FEB21E",
"hx.	c #FED41D",
"ix.	c #FED521",
"jx.	c #FEBF0A",
"kx.	c #FD8D02",
"lx.	c #F87803",
"mx.	c #F29301",
"nx.	c #EA8504",
"ox.	c #C35206",
"px.	c #F76402",
"qx.	c #F87D02",
"rx.	c #FAA00B",
"sx.	c #FCCE25",
"tx.	c #F9DE4E",
"ux.	c #F0951C",
"vx.	c #CE3701",
"wx.	c #810903",
"xx.	c #941002",
"yx.	c #A01601",
"zx.	c #901001",
"Ax.	c #630604",
"Bx.	c #2F0201",
"Cx.	c #8C1F02",
"Dx.	c #E16B01",
"Ex.	c #F35E01",
"Fx.	c #F84801",
"Gx.	c #FA6D07",
"Hx.	c #FFC309",
"Ix.	c #FFA802",
"Jx.	c #FFB404",
"Kx.	c #FEBA04",
"Lx.	c #FF9702",
"Mx.	c #FB8004",
"Nx.	c #F9A801",
"Ox.	c #FD9D04",
"Px.	c #F27F02",
"Qx.	c #F75901",
"Rx.	c #FD9B03",
"Sx.	c #FB9B05",
"Tx.	c #FAAD0C",
"Ux.	c #F9BB23",
"Vx.	c #E4930C",
"Wx.	c #9C2901",
"Xx.	c #971501",
"Yx.	c #BE2100",
"Zx.	c #9D0C01",
"`x.	c #B51902",
" y.	c #440406",
".y.	c #780A00",
"+y.	c #B51C00",
"@y.	c #DC2A00",
"#y.	c #901102",
"$y.	c #5A0E02",
"%y.	c #AF2102",
"&y.	c #E95801",
"*y.	c #FFB505",
"=y.	c #F88709",
"-y.	c #FCA801",
";y.	c #FEB909",
">y.	c #FCB107",
",y.	c #F5A609",
"'y.	c #DC5003",
")y.	c #F69D16",
"!y.	c #F8A50D",
"~y.	c #E37C03",
"{y.	c #BF7E0C",
"]y.	c #B55B05",
"^y.	c #824F07",
"/y.	c #721202",
"(y.	c #9E1100",
"_y.	c #B12301",
":y.	c #C43601",
"<y.	c #AA1700",
"[y.	c #E52800",
"}y.	c #BB1A01",
"|y.	c #AC1A02",
"1y.	c #A91501",
"2y.	c #8E1003",
"3y.	c #941403",
"4y.	c #891701",
"5y.	c #AC1801",
"6y.	c #C74C00",
"7y.	c #FE9301",
"8y.	c #FF9C03",
"9y.	c #FFB006",
"0y.	c #FBCE26",
"ay.	c #E24F01",
"by.	c #EE6502",
"cy.	c #F58C06",
"dy.	c #F6A00A",
"ey.	c #EE8404",
"fy.	c #C86D02",
"gy.	c #C63501",
"hy.	c #8A1702",
"iy.	c #BE3201",
"jy.	c #7F1301",
"ky.	c #831601",
"ly.	c #8D1101",
"my.	c #C51B01",
"ny.	c #7F0C03",
"oy.	c #4D0504",
"py.	c #300305",
"qy.	c #580805",
"ry.	c #8C0C01",
"sy.	c #A02901",
"ty.	c #A41B01",
"uy.	c #981402",
"vy.	c #961001",
"wy.	c #5E0500",
"xy.	c #8C3001",
"yy.	c #F48601",
"zy.	c #FEA901",
"Ay.	c #FC9E01",
"By.	c #FE7F04",
"Cy.	c #FEA107",
"Dy.	c #F9A209",
"Ey.	c #C74002",
"Fy.	c #EC4901",
"Gy.	c #F05D00",
"Hy.	c #E14804",
"Iy.	c #D43802",
"Jy.	c #C73202",
"Ky.	c #671D03",
"Ly.	c #C93401",
"My.	c #932301",
"Ny.	c #C22D01",
"Oy.	c #CE3900",
"Py.	c #690B02",
"Qy.	c #EB4E00",
"Ry.	c #981301",
"Sy.	c #991901",
"Ty.	c #931C02",
"Uy.	c #911D02",
"Vy.	c #541601",
"Wy.	c #D17802",
"Xy.	c #F06B00",
"Yy.	c #FBBA00",
"Zy.	c #F97803",
"`y.	c #E87902",
" z.	c #EF9305",
".z.	c #DB4300",
"+z.	c #E35101",
"@z.	c #C12001",
"#z.	c #B71B01",
"$z.	c #8F1201",
"%z.	c #720D01",
"&z.	c #540501",
"*z.	c #8A0C01",
"=z.	c #670302",
"-z.	c #9D2002",
";z.	c #991202",
">z.	c #E83F01",
",z.	c #BB1D01",
"'z.	c #4D0702",
")z.	c #793F01",
"!z.	c #E79400",
"~z.	c #FB9E00",
"{z.	c #F8C502",
"]z.	c #BA2301",
"^z.	c #E66300",
"/z.	c #F68D01",
"(z.	c #F5B806",
"_z.	c #931901",
":z.	c #BD2E02",
"<z.	c #D83202",
"[z.	c #680302",
"}z.	c #A11C00",
"|z.	c #6B0A04",
"1z.	c #370404",
"2z.	c #8B0F01",
"3z.	c #5C0603",
"4z.	c #DC2300",
"5z.	c #BF2D00",
"6z.	c #E03200",
"7z.	c #420802",
"8z.	c #9C3802",
"9z.	c #E45801",
"0z.	c #D55401",
"az.	c #C64000",
"bz.	c #FBAD02",
"cz.	c #F5A206",
"dz.	c #831602",
"ez.	c #A51B00",
"fz.	c #DC2900",
"gz.	c #940F02",
"hz.	c #D02201",
"iz.	c #700803",
"jz.	c #550605",
"kz.	c #A51401",
"lz.	c #A71501",
"mz.	c #8F1501",
"nz.	c #6F0D01",
"oz.	c #9E2200",
"pz.	c #881100",
"qz.	c #A13000",
"rz.	c #EF8200",
"sz.	c #FBAB01",
"tz.	c #F68E01",
"uz.	c #DB7504",
"vz.	c #740F01",
"wz.	c #861104",
"xz.	c #470206",
"yz.	c #8E0A02",
"zz.	c #931701",
"Az.	c #9B1901",
"Bz.	c #EE3200",
"Cz.	c #6E0D03",
"Dz.	c #3A0207",
"Ez.	c #4B0506",
"Fz.	c #4B0406",
"Gz.	c #700C02",
"Hz.	c #9D1400",
"Iz.	c #8B1102",
"Jz.	c #AB1A00",
"Kz.	c #800D00",
"Lz.	c #9B2800",
"Mz.	c #D58B02",
"Nz.	c #C77301",
"Oz.	c #9C4502",
"Pz.	c #3A0B04",
"Qz.	c #4F0606",
"Rz.	c #3E0207",
"Sz.	c #570405",
"Tz.	c #5F0604",
"Uz.	c #520505",
"Vz.	c #6A0B05",
"Wz.	c #961904",
"Xz.	c #6F0D03",
"Yz.	c #3C0304",
"Zz.	c #661102",
"`z.	c #6E2304",
" A.	c #461107",
".A.	c #380504",
"+A.	c #6F0A03",
"@A.	c #6D0C04",
"#A.	c #460606",
"$A.	c #4E0306",
"%A.	c #560405",
"&A.	c #570505",
"*A.	c #C92201",
"=A.	c #BE2702",
"-A.	c #AA2403",
";A.	c #841502",
">A.	c #8F1602",
",A.	c #5D0806",
"'A.	c #710B04",
")A.	c #770D03",
"!A.	c #C72502",
"~A.	c #CD2C02",
"{A.	c #C61E01",
"]A.	c #C61C01",
"^A.	c #AD1602",
"/A.	c #6B0804",
"(A.	c #721002",
"_A.	c #831302",
":A.	c #A41E02",
"<A.	c #B02001",
"[A.	c #BF2101",
"}A.	c #810E03",
"|A.	c #6E0804",
"1A.	c #6D0C02",
"2A.	c #7D0D00",
"3A.	c #380D04",
"4A.	c #3B0606",
"5A.	c #4D0805",
"6A.	c #580B06",
"7A.	c #450807",
"8A.	c #491009",
"9A.	c #420D08",
"0A.	c #521D0D",
"aA.	c #56270E",
"bA.	c #5F2912",
"cA.	c #571E0E",
"dA.	c #350909",
"eA.	c #590606",
"fA.	c #4E0506",
"gA.	c #540607",
"hA.	c #550707",
"iA.	c #811205",
"jA.	c #7D1204",
"kA.	c #5F0B05",
"lA.	c #AF1601",
"mA.	c #5A0705",
"nA.	c #A51601",
"oA.	c #AD1E01",
"pA.	c #AA1702",
"qA.	c #AB1401",
"rA.	c #9C1201",
"sA.	c #530605",
"tA.	c #761004",
"uA.	c #841302",
"vA.	c #A11A00",
"wA.	c #B12000",
"xA.	c #921600",
"yA.	c #A41A01",
"zA.	c #A81B00",
"AA.	c #941502",
"BA.	c #6A0904",
"CA.	c #7F1103",
"DA.	c #A71D02",
"EA.	c #9E1602",
"FA.	c #9E1102",
"GA.	c #9B1202",
"HA.	c #7E0D02",
"IA.	c #600803",
"JA.	c #4B0B05",
"KA.	c #431008",
"LA.	c #340D05",
"MA.	c #4E1507",
"NA.	c #7A2A0C",
"OA.	c #692A0F",
"PA.	c #400E08",
"QA.	c #5E2411",
"RA.	c #7E421D",
"SA.	c #A6692E",
"TA.	c #C08638",
"UA.	c #D59D44",
"VA.	c #835D29",
"WA.	c #3D0307",
"XA.	c #580707",
"YA.	c #550807",
"ZA.	c #540A08",
"`A.	c #410609",
" B.	c #3C1209",
".B.	c #814F1F",
"+B.	c #895220",
"@B.	c #4E1B0D",
"#B.	c #670D04",
"$B.	c #480306",
"%B.	c #430607",
"&B.	c #440708",
"*B.	c #3A180D",
"=B.	c #593014",
"-B.	c #4A1F0F",
";B.	c #4B0604",
">B.	c #4E0804",
",B.	c #620904",
"'B.	c #5D0704",
")B.	c #690804",
"!B.	c #4C0905",
"~B.	c #A21E02",
"{B.	c #A81B01",
"]B.	c #8D1501",
"^B.	c #650A03",
"/B.	c #6A0A03",
"(B.	c #870F02",
"_B.	c #780B03",
":B.	c #700C04",
"<B.	c #690A04",
"[B.	c #590903",
"}B.	c #500E07",
"|B.	c #2D0B07",
"1B.	c #360F07",
"2B.	c #774A1B",
"3B.	c #A18032",
"4B.	c #C89236",
"5B.	c #D09C3B",
"6B.	c #80481D",
"7B.	c #4E230F",
"8B.	c #7F4820",
"9B.	c #844C21",
"0B.	c #D59A3F",
"aB.	c #D39C3F",
"bB.	c #8B5927",
"cB.	c #490809",
"dB.	c #5C0C08",
"eB.	c #540C0A",
"fB.	c #5D3817",
"gB.	c #674119",
"hB.	c #7C4E1E",
"iB.	c #BF8435",
"jB.	c #BA7D36",
"kB.	c #6C2612",
"lB.	c #470709",
"mB.	c #A31704",
"nB.	c #B51C01",
"oB.	c #4C0A07",
"pB.	c #5B2F14",
"qB.	c #996029",
"rB.	c #97652A",
"sB.	c #885B26",
"tB.	c #55200C",
"uB.	c #410C08",
"vB.	c #3C0608",
"wB.	c #620703",
"xB.	c #5B0805",
"yB.	c #3D0603",
"zB.	c #6C1204",
"AB.	c #721704",
"BB.	c #761B06",
"CB.	c #6D1507",
"DB.	c #560805",
"EB.	c #400404",
"FB.	c #951101",
"GB.	c #A31301",
"HB.	c #B01801",
"IB.	c #440507",
"JB.	c #400407",
"KB.	c #4B0705",
"LB.	c #590805",
"MB.	c #5F1705",
"NB.	c #350604",
"OB.	c #2A0505",
"PB.	c #513514",
"QB.	c #765421",
"RB.	c #BB9A45",
"SB.	c #F8DE61",
"TB.	c #EBBB4C",
"UB.	c #D29F40",
"VB.	c #995E28",
"WB.	c #A4682D",
"XB.	c #9D6228",
"YB.	c #C8923B",
"ZB.	c #E1AA44",
"`B.	c #C78C38",
" C.	c #844820",
".C.	c #502010",
"+C.	c #3E060A",
"@C.	c #570C0A",
"#C.	c #440D0A",
"$C.	c #845E28",
"%C.	c #BA8437",
"&C.	c #DBA645",
"*C.	c #D5993E",
"=C.	c #C58B3C",
"-C.	c #722C15",
";C.	c #5C110B",
">C.	c #770A03",
",C.	c #991101",
"'C.	c #981202",
")C.	c #921102",
"!C.	c #440307",
"~C.	c #310509",
"{C.	c #927635",
"]C.	c #D39C44",
"^C.	c #D29740",
"/C.	c #C6883A",
"(C.	c #964E1F",
"_C.	c #581A0C",
":C.	c #4C0F0A",
"<C.	c #440C0A",
"[C.	c #390608",
"}C.	c #700B04",
"|C.	c #560705",
"1C.	c #390307",
"2C.	c #611207",
"3C.	c #7D220A",
"4C.	c #832B0D",
"5C.	c #661A0A",
"6C.	c #450909",
"7C.	c #3A0809",
"8C.	c #620C04",
"9C.	c #660A04",
"0C.	c #5C0704",
"aC.	c #6F0A05",
"bC.	c #570A05",
"cC.	c #580B05",
"dC.	c #4E0706",
"eC.	c #460607",
"fC.	c #430706",
"gC.	c #2F0406",
"hC.	c #2B1007",
"iC.	c #401C0B",
"jC.	c #7D5621",
"kC.	c #DFBF52",
"lC.	c #FAEA73",
"mC.	c #FDEA6F",
"nC.	c #E8BD4C",
"oC.	c #A47C31",
"pC.	c #6C3B19",
"qC.	c #B17934",
"rC.	c #DEAE4B",
"sC.	c #CF9940",
"tC.	c #EABA4E",
"uC.	c #F0C150",
"vC.	c #AE7931",
"wC.	c #390B0A",
"xC.	c #400B09",
"yC.	c #4E331C",
"zC.	c #C6AB5A",
"AC.	c #DDB650",
"BC.	c #F3D05B",
"CC.	c #DAA13F",
"DC.	c #A4692A",
"EC.	c #6C190A",
"FC.	c #7D190A",
"GC.	c #600C04",
"HC.	c #8E1502",
"IC.	c #8C1503",
"JC.	c #550905",
"KC.	c #440506",
"LC.	c #340407",
"MC.	c #614019",
"NC.	c #DDB14D",
"OC.	c #E3B54E",
"PC.	c #D39E43",
"QC.	c #CD923D",
"RC.	c #BC7A31",
"SC.	c #833B18",
"TC.	c #77280F",
"UC.	c #661C0C",
"VC.	c #3C0708",
"WC.	c #6B0904",
"XC.	c #7F0D04",
"YC.	c #610906",
"ZC.	c #290304",
"`C.	c #400604",
" D.	c #541009",
".D.	c #74230E",
"+D.	c #8F491F",
"@D.	c #BD9642",
"#D.	c #C2A54E",
"$D.	c #371608",
"%D.	c #520706",
"&D.	c #620B05",
"*D.	c #B41701",
"=D.	c #5E0804",
"-D.	c #561406",
";D.	c #501C0A",
">D.	c #3F0A09",
",D.	c #400707",
"'D.	c #700D03",
")D.	c #841103",
"!D.	c #6A1407",
"~D.	c #651308",
"{D.	c #6E1D0B",
"]D.	c #6E3215",
"^D.	c #6A471F",
"/D.	c #633115",
"(D.	c #662610",
"_D.	c #270B05",
":D.	c #3F1A0B",
"<D.	c #492F13",
"[D.	c #A78436",
"}D.	c #EAD96F",
"|D.	c #FFF48A",
"1D.	c #FBE974",
"2D.	c #D3A945",
"3D.	c #AD8E41",
"4D.	c #724321",
"5D.	c #9C682B",
"6D.	c #EFCA59",
"7D.	c #E8BB4F",
"8D.	c #A57530",
"9D.	c #45200C",
"0D.	c #330609",
"aD.	c #461A0D",
"bD.	c #886C34",
"cD.	c #EDD970",
"dD.	c #EDC255",
"eD.	c #C78635",
"fD.	c #8D3D15",
"gD.	c #9B2406",
"hD.	c #941A01",
"iD.	c #932105",
"jD.	c #982407",
"kD.	c #621307",
"lD.	c #440907",
"mD.	c #330308",
"nD.	c #865820",
"oD.	c #ECBE4F",
"pD.	c #EFC657",
"qD.	c #BF8D3C",
"rD.	c #B17834",
"sD.	c #965C26",
"tD.	c #7B3617",
"uD.	c #6B240F",
"vD.	c #5D180B",
"wD.	c #3E0709",
"xD.	c #740C04",
"yD.	c #7E0D04",
"zD.	c #3D0404",
"AD.	c #370606",
"BD.	c #3B0806",
"CD.	c #4B120A",
"DD.	c #742D14",
"ED.	c #AD7936",
"FD.	c #E4B852",
"GD.	c #F4DF76",
"HD.	c #D2C164",
"ID.	c #432712",
"JD.	c #5A0905",
"KD.	c #900F02",
"LD.	c #600804",
"MD.	c #621204",
"ND.	c #7F4814",
"OD.	c #AE6C1F",
"PD.	c #CA9E37",
"QD.	c #A5782C",
"RD.	c #583A12",
"SD.	c #390A09",
"TD.	c #440C0B",
"UD.	c #3A0407",
"VD.	c #621005",
"WD.	c #6D1407",
"XD.	c #721B0A",
"YD.	c #68240E",
"ZD.	c #96672F",
"`D.	c #C1A552",
" E.	c #F0D765",
".E.	c #D5B04E",
"+E.	c #B0893A",
"@E.	c #5E3111",
"#E.	c #592C12",
"$E.	c #260707",
"%E.	c #2F0C0A",
"&E.	c #45210E",
"*E.	c #775623",
"=E.	c #F2D864",
"-E.	c #FEF184",
";E.	c #EFD561",
">E.	c #8D642B",
",E.	c #452714",
"'E.	c #3D200F",
")E.	c #C2913B",
"!E.	c #DBAC48",
"~E.	c #E3B44C",
"{E.	c #AC7833",
"]E.	c #AF7631",
"^E.	c #704F20",
"/E.	c #402813",
"(E.	c #D8B958",
"_E.	c #F8E572",
":E.	c #F6DB6A",
"<E.	c #A66629",
"[E.	c #79280D",
"}E.	c #A21E01",
"|E.	c #AF2301",
"1E.	c #C55811",
"2E.	c #6E2208",
"3E.	c #220007",
"4E.	c #390508",
"5E.	c #210108",
"6E.	c #6A5121",
"7E.	c #C79D40",
"8E.	c #EFC350",
"9E.	c #EBBF53",
"0E.	c #9C6F2D",
"aE.	c #7E431F",
"bE.	c #894A21",
"cE.	c #5A1D0F",
"dE.	c #57160C",
"eE.	c #4D100B",
"fE.	c #3A0609",
"gE.	c #3C0404",
"hE.	c #43120A",
"iE.	c #5E220F",
"jE.	c #7F3C1A",
"kE.	c #7F3C1B",
"lE.	c #A1662C",
"mE.	c #E9BE57",
"nE.	c #FDEF88",
"oE.	c #E8CE67",
"pE.	c #502C14",
"qE.	c #570807",
"rE.	c #630A05",
"sE.	c #630904",
"tE.	c #510905",
"uE.	c #702A0B",
"vE.	c #CE9233",
"wE.	c #DBA83C",
"xE.	c #EFC94F",
"yE.	c #E5AE40",
"zE.	c #C38B32",
"AE.	c #91652B",
"BE.	c #3A170B",
"CE.	c #350307",
"DE.	c #6B1907",
"EE.	c #6C1A07",
"FE.	c #5C1B0D",
"GE.	c #8E5324",
"HE.	c #D4A84D",
"IE.	c #EACA60",
"JE.	c #FCEB7B",
"KE.	c #F4D35E",
"LE.	c #EDC953",
"ME.	c #B57A2E",
"NE.	c #2D0C08",
"OE.	c #845E1F",
"PE.	c #B28A3B",
"QE.	c #FAE46D",
"RE.	c #FDEC7A",
"SE.	c #ECCE66",
"TE.	c #D5B14C",
"UE.	c #6D5223",
"VE.	c #2A0808",
"WE.	c #2E150A",
"XE.	c #B17E34",
"YE.	c #D4A345",
"ZE.	c #E1B24B",
"`E.	c #BA8A3A",
" F.	c #A87332",
".F.	c #BA8539",
"+F.	c #745826",
"@F.	c #401911",
"#F.	c #967233",
"$F.	c #F5E577",
"%F.	c #FCEA76",
"&F.	c #E8C258",
"*F.	c #D0983C",
"=F.	c #A26528",
"-F.	c #772A0E",
";F.	c #A03207",
">F.	c #A32C04",
",F.	c #AB691A",
"'F.	c #471E07",
")F.	c #56190E",
"!F.	c #4B1D0D",
"~F.	c #947130",
"{F.	c #DEB44F",
"]F.	c #F2CD5D",
"^F.	c #DFB24E",
"/F.	c #8C5425",
"(F.	c #8B4E20",
"_F.	c #692D13",
":F.	c #631C0E",
"<F.	c #5C140B",
"[F.	c #460A0A",
"}F.	c #420403",
"|F.	c #6C3317",
"1F.	c #864920",
"2F.	c #A96E2E",
"3F.	c #AE7231",
"4F.	c #BF8939",
"5F.	c #F3CF63",
"6F.	c #FDEE84",
"7F.	c #F6EC8E",
"8F.	c #AA7D38",
"9F.	c #301609",
"0F.	c #4D0706",
"aF.	c #7A0C03",
"bF.	c #8A1002",
"cF.	c #710D04",
"dF.	c #691205",
"eF.	c #752109",
"fF.	c #A4531E",
"gF.	c #D6973B",
"hF.	c #E6B44B",
"iF.	c #F8E574",
"jF.	c #F8DC64",
"kF.	c #E0B347",
"lF.	c #B88632",
"mF.	c #6B4D1B",
"nF.	c #420907",
"oF.	c #3D0607",
"pF.	c #581307",
"qF.	c #661B09",
"rF.	c #804B20",
"sF.	c #B67B34",
"tF.	c #E0B651",
"uF.	c #F0CD5D",
"vF.	c #F3D05C",
"wF.	c #F5D661",
"xF.	c #DDAC47",
"yF.	c #9B6022",
"zF.	c #713613",
"AF.	c #4F1D0B",
"BF.	c #A47C2F",
"CF.	c #E7C95E",
"DF.	c #FCE971",
"EF.	c #FAE36D",
"FF.	c #DBC15D",
"GF.	c #C2A14A",
"HF.	c #32200D",
"IF.	c #290B07",
"JF.	c #8C5624",
"KF.	c #CC9940",
"LF.	c #C0933D",
"MF.	c #5E2E17",
"NF.	c #683A1A",
"OF.	c #573315",
"PF.	c #2E1409",
"QF.	c #220306",
"RF.	c #4D2A16",
"SF.	c #BB9942",
"TF.	c #F9E878",
"UF.	c #FCE975",
"VF.	c #E2BC55",
"WF.	c #D29A3D",
"XF.	c #B78135",
"YF.	c #40180C",
"ZF.	c #501709",
"`F.	c #240107",
" G.	c #A27132",
".G.	c #C08D3E",
"+G.	c #DBB24F",
"@G.	c #F9DE6B",
"#G.	c #DAB955",
"$G.	c #C8A14B",
"%G.	c #945D2B",
"&G.	c #7B3E1C",
"*G.	c #93501F",
"=G.	c #7D2E12",
"-G.	c #61160B",
";G.	c #3B0608",
">G.	c #350507",
",G.	c #350505",
"'G.	c #6B3217",
")G.	c #844620",
"!G.	c #9E632A",
"~G.	c #AD7332",
"{G.	c #BB8236",
"]G.	c #F1CE63",
"^G.	c #FCEA7C",
"/G.	c #F8EE95",
"(G.	c #B38441",
"_G.	c #4E2612",
":G.	c #500706",
"<G.	c #600D05",
"[G.	c #741F0B",
"}G.	c #71250C",
"|G.	c #A35B24",
"1G.	c #D5983D",
"2G.	c #E5B149",
"3G.	c #F8E26C",
"4G.	c #FCE874",
"5G.	c #EECD5C",
"6G.	c #D49D37",
"7G.	c #7E6621",
"8G.	c #3F0908",
"9G.	c #60240D",
"0G.	c #8D5424",
"aG.	c #AB702F",
"bG.	c #D5A849",
"cG.	c #E7C056",
"dG.	c #EDC75A",
"eG.	c #F5DB6C",
"fG.	c #F3D360",
"gG.	c #DEB446",
"hG.	c #8C5820",
"iG.	c #58240E",
"jG.	c #3B0A06",
"kG.	c #A78233",
"lG.	c #F1D25A",
"mG.	c #F0D159",
"nG.	c #E0BF54",
"oG.	c #6D5121",
"pG.	c #32150A",
"qG.	c #200407",
"rG.	c #280908",
"sG.	c #8E5B28",
"tG.	c #B88C3F",
"uG.	c #9B7230",
"vG.	c #705325",
"wG.	c #DCB24E",
"xG.	c #F7E06D",
"yG.	c #FBE46B",
"zG.	c #E8C458",
"AG.	c #DDB34B",
"BG.	c #4E3212",
"CG.	c #2E060B",
"DG.	c #340609",
"EG.	c #472C16",
"FG.	c #C09342",
"GG.	c #D5A447",
"HG.	c #E1B34D",
"IG.	c #E4B951",
"JG.	c #8A692F",
"KG.	c #482513",
"LG.	c #4D2212",
"MG.	c #46190D",
"NG.	c #4F200D",
"OG.	c #320308",
"PG.	c #310305",
"QG.	c #4B190E",
"RG.	c #733B1B",
"SG.	c #9A6029",
"TG.	c #A2682D",
"UG.	c #B98035",
"VG.	c #EBC75D",
"WG.	c #FDF492",
"XG.	c #ECD878",
"YG.	c #865D29",
"ZG.	c #3E0707",
"`G.	c #4A0707",
" H.	c #4F0F06",
".H.	c #A25B20",
"+H.	c #9B5822",
"@H.	c #9A5825",
"#H.	c #B87E33",
"$H.	c #D59F40",
"%H.	c #F5D761",
"&H.	c #FDED75",
"*H.	c #E9BD44",
"=H.	c #A37426",
"-H.	c #592A0F",
";H.	c #390A08",
">H.	c #5E2F13",
",H.	c #9E652A",
"'H.	c #D6A446",
")H.	c #B68337",
"!H.	c #C79841",
"~H.	c #E4C55B",
"{H.	c #F7D962",
"]H.	c #EEC450",
"^H.	c #C08935",
"/H.	c #915C23",
"(H.	c #461B0B",
"_H.	c #2B0A06",
":H.	c #B09847",
"<H.	c #F3D85F",
"[H.	c #AA8F3C",
"}H.	c #533517",
"|H.	c #381A0C",
"1H.	c #472913",
"2H.	c #5F4A24",
"3H.	c #8A7133",
"4H.	c #EECA5A",
"5H.	c #FBEB7C",
"6H.	c #EBCB5A",
"7H.	c #E0B54A",
"8H.	c #B3833D",
"9H.	c #250F07",
"0H.	c #9A7C3B",
"aH.	c #D8B756",
"bH.	c #EECC5E",
"cH.	c #EDD363",
"dH.	c #987C37",
"eH.	c #522F18",
"fH.	c #310508",
"gH.	c #290305",
"hH.	c #350608",
"iH.	c #420B09",
"jH.	c #3B0B0A",
"kH.	c #804A21",
"lH.	c #874E24",
"mH.	c #99612B",
"nH.	c #D1A64B",
"oH.	c #F3D364",
"pH.	c #FBE778",
"qH.	c #F6D969",
"rH.	c #C79845",
"sH.	c #4C3014",
"tH.	c #390808",
"uH.	c #632F14",
"vH.	c #AA6C2C",
"wH.	c #B1722F",
"xH.	c #8D5224",
"yH.	c #9F6228",
"zH.	c #CEA140",
"AH.	c #FCE463",
"BH.	c #FCE865",
"CH.	c #EEC248",
"DH.	c #DAA93B",
"EH.	c #9B6D26",
"FH.	c #3E1109",
"GH.	c #380A07",
"HH.	c #2F0F08",
"IH.	c #7D491E",
"JH.	c #8C5623",
"KH.	c #AA762F",
"LH.	c #9D6628",
"MH.	c #925C25",
"NH.	c #966126",
"OH.	c #CA9B3D",
"PH.	c #E9C153",
"QH.	c #EEC654",
"RH.	c #E9BF52",
"SH.	c #C9953C",
"TH.	c #7B4517",
"UH.	c #301108",
"VH.	c #61361A",
"WH.	c #A48336",
"XH.	c #E5D05D",
"YH.	c #827936",
"ZH.	c #290607",
"`H.	c #220208",
" I.	c #2C060A",
".I.	c #260208",
"+I.	c #2C110A",
"@I.	c #B29645",
"#I.	c #F2D360",
"$I.	c #F8E373",
"%I.	c #DBB44B",
"&I.	c #CEAD44",
"*I.	c #715527",
"=I.	c #240208",
"-I.	c #280506",
";I.	c #8A662E",
">I.	c #D0B152",
",I.	c #F0D363",
"'I.	c #E3CB62",
")I.	c #7D6730",
"!I.	c #240408",
"~I.	c #240405",
"{I.	c #360808",
"]I.	c #40130B",
"^I.	c #723B1C",
"/I.	c #743F1E",
"(I.	c #814B22",
"_I.	c #B88C3B",
":I.	c #E6BD54",
"<I.	c #FAE473",
"[I.	c #B9873B",
"}I.	c #67421C",
"|I.	c #400A0A",
"1I.	c #603115",
"2I.	c #AD712E",
"3I.	c #B07230",
"4I.	c #AB6E2F",
"5I.	c #A7692D",
"6I.	c #9B5E27",
"7I.	c #CC993A",
"8I.	c #F4CC4D",
"9I.	c #F9DD5A",
"0I.	c #FADD5A",
"aI.	c #EDC145",
"bI.	c #B7872E",
"cI.	c #A5712A",
"dI.	c #5B280F",
"eI.	c #491D0D",
"fI.	c #612A13",
"gI.	c #47190B",
"hI.	c #6E3E18",
"iI.	c #A2712A",
"jI.	c #C18E38",
"kI.	c #E2B349",
"lI.	c #E7B84C",
"mI.	c #D6A141",
"nI.	c #986625",
"oI.	c #2D0706",
"pI.	c #2E100A",
"qI.	c #533115",
"rI.	c #9F7C31",
"sI.	c #896828",
"tI.	c #36190A",
"uI.	c #2C1409",
"vI.	c #33150D",
"wI.	c #220407",
"xI.	c #1C0306",
"yI.	c #2A0907",
"zI.	c #38160D",
"AI.	c #351F0D",
"BI.	c #DBBF55",
"CI.	c #F5DD6C",
"DI.	c #EDD668",
"EI.	c #C59D3E",
"FI.	c #A07F32",
"GI.	c #270509",
"HI.	c #28060A",
"II.	c #220507",
"JI.	c #835C2C",
"KI.	c #DABD55",
"LI.	c #CCB553",
"MI.	c #897A3A",
"NI.	c #200007",
"OI.	c #330608",
"PI.	c #6B3619",
"QI.	c #572513",
"RI.	c #74431F",
"SI.	c #AA7935",
"TI.	c #DAAD4F",
"UI.	c #F1D162",
"VI.	c #643E19",
"WI.	c #8A5022",
"XI.	c #975D26",
"YI.	c #995B26",
"ZI.	c #965A25",
"`I.	c #AE7C2F",
" J.	c #D4A23C",
".J.	c #EBBF49",
"+J.	c #F9E566",
"@J.	c #F3CE50",
"#J.	c #D9A439",
"$J.	c #D2A13C",
"%J.	c #774116",
"&J.	c #2F0606",
"*J.	c #320B08",
"=J.	c #3E160A",
"-J.	c #491C0C",
";J.	c #340E07",
">J.	c #2E0B07",
",J.	c #451C0B",
"'J.	c #6D4119",
")J.	c #AE8133",
"!J.	c #DFB045",
"~J.	c #DCAC45",
"{J.	c #AB7D30",
"]J.	c #2F0A07",
"^J.	c #37170C",
"/J.	c #37100A",
"(J.	c #180303",
"_J.	c #1C0504",
":J.	c #3B200F",
"<J.	c #D0A645",
"[J.	c #F2D666",
"}J.	c #DBC35A",
"|J.	c #70411E",
"1J.	c #3D1309",
"2J.	c #300607",
"3J.	c #2B0A0B",
"4J.	c #2D0C0D",
"5J.	c #2D0D0E",
"6J.	c #230807",
"7J.	c #5C361A",
"8J.	c #E0C860",
"9J.	c #AE9344",
"0J.	c #250303",
"aJ.	c #1E0207",
"bJ.	c #370E0A",
"cJ.	c #492310",
"dJ.	c #986F30",
"eJ.	c #C79442",
"fJ.	c #EAC258",
"gJ.	c #F3D15D",
"hJ.	c #ECC956",
"iJ.	c #684B1D",
"jJ.	c #532810",
"kJ.	c #79421A",
"lJ.	c #9C5D26",
"mJ.	c #905824",
"nJ.	c #AF782F",
"oJ.	c #DAAB43",
"pJ.	c #F4E067",
"qJ.	c #F6D455",
"rJ.	c #D6A53B",
"sJ.	c #DBAD41",
"tJ.	c #A17528",
"uJ.	c #330604",
"vJ.	c #3E0B06",
"wJ.	c #330C0A",
"xJ.	c #33140C",
"yJ.	c #2B1006",
"zJ.	c #230705",
"AJ.	c #1E0504",
"BJ.	c #2C0A07",
"CJ.	c #BA8F3A",
"DJ.	c #DFB54D",
"EJ.	c #B68D39",
"FJ.	c #310B07",
"GJ.	c #300D07",
"HJ.	c #36140C",
"IJ.	c #492914",
"JJ.	c #D6AA44",
"KJ.	c #F7DE6A",
"LJ.	c #B3923D",
"MJ.	c #39170D",
"NJ.	c #270706",
"OJ.	c #572F17",
"PJ.	c #DFCA60",
"QJ.	c #A1853B",
"RJ.	c #522A14",
"SJ.	c #794D21",
"TJ.	c #C79641",
"UJ.	c #EDC554",
"VJ.	c #E8BD4F",
"WJ.	c #9F6F2C",
"XJ.	c #311008",
"YJ.	c #3E1A0B",
"ZJ.	c #6D4319",
"`J.	c #6D4018",
" K.	c #A06B29",
".K.	c #C89639",
"+K.	c #F0DA5D",
"@K.	c #F7D857",
"#K.	c #E9BE46",
"$K.	c #EABB45",
"%K.	c #D6B441",
"&K.	c #330705",
"*K.	c #470E06",
"=K.	c #1B0203",
"-K.	c #240404",
";K.	c #A58938",
">K.	c #B6963A",
",K.	c #2F0E08",
"'K.	c #4C2B14",
")K.	c #DBB84D",
"!K.	c #674E1F",
"~K.	c #200507",
"{K.	c #200A06",
"]K.	c #4A180E",
"^K.	c #4C2715",
"/K.	c #CDA54A",
"(K.	c #896429",
"_K.	c #340B08",
":K.	c #4C2A14",
"<K.	c #48220F",
"[K.	c #8F6229",
"}K.	c #A5722F",
"|K.	c #D5A647",
"1K.	c #F1C958",
"2K.	c #BC8735",
"3K.	c #3E1509",
"4K.	c #3D170B",
"5K.	c #5C3614",
"6K.	c #A46E2B",
"7K.	c #D4A941",
"8K.	c #E5B945",
"9K.	c #F2CE4F",
"0K.	c #D9C14B",
"aK.	c #310908",
"bK.	c #3F160B",
"cK.	c #1F0B04",
"dK.	c #331E09",
"eK.	c #5F3A18",
"fK.	c #2C0C07",
"gK.	c #563217",
"hK.	c #CC9A3C",
"iK.	c #785120",
"jK.	c #4C2717",
"kK.	c #240A07",
"lK.	c #3D120A",
"mK.	c #612714",
"nK.	c #33120C",
"oK.	c #66401A",
"pK.	c #431F0D",
"qK.	c #320E0A",
"rK.	c #986328",
"sK.	c #C9963F",
"tK.	c #EEC556",
"uK.	c #916529",
"vK.	c #3B0E08",
"wK.	c #45290E",
"xK.	c #9D672B",
"yK.	c #C39339",
"zK.	c #D6A63D",
"AK.	c #EECC4D",
"BK.	c #F1CC4E",
"CK.	c #DABE48",
"DK.	c #3E1709",
"EK.	c #2F1108",
"FK.	c #39190C",
"GK.	c #230706",
"HK.	c #442611",
"IK.	c #72481A",
"JK.	c #37170A",
"KK.	c #401D10",
"LK.	c #250705",
"MK.	c #270608",
"NK.	c #35110A",
"OK.	c #8A5F28",
"PK.	c #EFCA5A",
"QK.	c #866C2F",
"RK.	c #3B0F0A",
"SK.	c #270808",
"TK.	c #351008",
"UK.	c #5E3015",
"VK.	c #926326",
"WK.	c #AF792D",
"XK.	c #E7C14B",
"YK.	c #F7DC59",
"ZK.	c #E0CC50",
"`K.	c #562A0F",
" L.	c #2C0F07",
".L.	c #290B08",
"+L.	c #230804",
"@L.	c #1D0704",
"#L.	c #260A09",
"$L.	c #200607",
"%L.	c #230707",
"&L.	c #160203",
"*L.	c #2A0809",
"=L.	c #69411E",
"-L.	c #A57833",
";L.	c #EDC958",
">L.	c #745F28",
",L.	c #2A0C08",
"'L.	c #180304",
")L.	c #170304",
"!L.	c #2C0A08",
"~L.	c #33110B",
"{L.	c #BA8236",
"]L.	c #E1B849",
"^L.	c #F9E059",
"/L.	c #DED04E",
"(L.	c #2B120C",
"_L.	c #2B0908",
":L.	c #2B0808",
"<L.	c #775624",
"[L.	c #D7B04C",
"}L.	c #5D4119",
"|L.	c #2B0E0A",
"1L.	c #1E0506",
"2L.	c #250606",
"3L.	c #6A401A",
"4L.	c #D4AC44",
"5L.	c #EECA4C",
"6L.	c #D6BE43",
"7L.	c #3F2410",
"8L.	c #9A753A",
"9L.	c #503D1E",
"0L.	c #290708",
"aL.	c #1A0506",
"bL.	c #1D0506",
"cL.	c #230906",
"dL.	c #8B6D2D",
"eL.	c #A98D32",
"fL.	c #8D7829",
"gL.	c #35100C",
"hL.	c #2B0909",
"iL.	c #180504",
"jL.	c #190505",
"kL.	c #1A0505",
"lL.	c #1E0402",
"mL.	c #200604",
"nL.	c #2E0C09",
"                                                                                                                                                                                                                                                                                                                                                                                                                                                                                                                                                                                                                                                                                                                                                                                                                                                                                                                                                                                                                              ",
"                                                                                                                                                                                                                                                                                                                                                                                                                                                                                                                                                                                                                                                                                                                                                                                                                                                                                                                                                                                                                              ",
"                                                                                                                                                                                                                                                                                                                                                                                                                                                                                                                                                                                                                                                                                                                                                                                                                                                                                                                                                                                                                              ",
"                                                                                                                                                                                                                                                                                                                                                                                                                                                                                                                                                                                                                                                                                                                                                                                                                                                                                                                                                                                                                              ",
"                                                                                                                                                                                                                                                                                                                                                                                                                                                                                                                                                                                                                                                                                                                                                                                                                                                                                                                                                                                                                              ",
"                                                                                                                                                                                                                                                                                                                                                                                                                                                                                                                                                                                                                                                                                                                                                                                                                                                                                                                                                                                                                              ",
"                                                                                                                                                                                                                                                                                                                                                                                                                                                                                                                                                                                                                                                                                                                                                                                                                                                                                                                                                                                                                              ",
"                                                                                                                                                                                                                                                                                                                                                                                                                                                                                                                                                                                                                                                                                                                                                                                                                                                                                                                                                                                                                              ",
"                                                                                                                                                                                                                                                                                                                                                                                                                                                                                                                                                                                                                                                                                                                                                                                                                                                                                                                                                                                                                              ",
"                                                                                                                                                                                                                                                                                                                                                                                                                                                                                                                                                                                                                                                                                                                                                                                                                                                                                                                                                                                                                              ",
"                                                                                                                                                                                                                                                                                                                                                                                                                                                                                                                                                                                                                                                                                                                                                                                                                                                                                                                                                                                                                              ",
"                                                                                                                                                                                                                                                                                                                                                                                                                                                                                                                                                                                                                                                                                                                                                                                                                                                                                                                                                                                                                              ",
"                                                                                                                                                                                                                                                                                                                                                                                                                                                                                                                                                                                                                                                                                                                                                                                                                                                                                                                                                                                                                              ",
"                                                                                                                                                                                                                                                                                                                           .  +  @  #  $  %                                                                                                                                                                                                                                                                                                        &  *  =  -        ;     >                                                                                                                                                                                                                                                                                                                                                  ",
"                                                                                                                                                                                                                                                                                                                  ,  '  )  !  ~  {  ]  ^  /  (                                                                                                                                                                                                                                                                                                  _  :  <  [  }  |  1  2  3  4  5  6                                                                                                                                                                                                                                                                                                                                            ",
"                                                                                                                                                                                                                                                                                                               7  8  9  0  a  b  c  d  e                                                                                                                                                                                                                                                                                                                 f  g  h  i  j  k  l  m  n  o  p  q                                                                                                                                                                                                                                                                                                                                   ",
"                                                                                                                                                                                                                                                                                                r  s  t  u  v  w  x  y  z  A  B  C                                                                                                                                                                                                                                                                                                                          D  E  F  G  H  I  J  K  L  M  N  O                                                                                                                                                                                                                                                                                                                                ",
"                                                                                                                                                                                                                                                                                 P  Q     R  S  T  U  V  W  X  Y  Z  `   . .. +.                                                                                                                                                                                                                                                                                                                                     @. #. $. %. &. *. =. -. ;. >. ,. '. ).                                                                                                                                                                                                                                                                                                                   ",
"                                                                                                                                                                                                                                                                              !. ~. {. ]. ^. /. (. _. :. <. [. }. |. 1.                                                                                                                                                                                                                                                                                                                                                 2. 3. 4. 5. 6. 7. 8. 9. 0. a. b. '. c. d.                                                                                                                                                                                                                                                                                                             ",
"                                                                                                                                                                                                                                                                           e. f. g. h. i. j. k. l. m. n. o. p. q.                                                                                                                                                                                                                                                                                                                                                          r. s. t. u. v. w. x. y. z. A. B. C. D. E.                                                                                                                                                                                                                                                                                                          ",
"                                                                                                                                                                                                                                                                  F. G. H. I. J. K. L. M. N. O. P. Q. R. S. T.                                                                                                                                                                                                                                                                                                                                                                U. V. W. X. Y. Z. `.  + .+ ++ @+ #+ $+ %+                                                                                                                                                                                                                                                                                                       ",
"                                                                                                                                                                                                                                                               &+ *+ =+ -+ ;+ >+ ,+ '+ )+ !+ ~+ {+ ]+ ^+ /+                                                                                                                                                                                                                                                                                                                                                                      (+ _+ :+ <+ [+ }+ |+ 1+ 2+ 3+ 4+ 5+ 6+ 7+                                                                                                                                                                                                                                                                                                    ",
"                                                                                                                                                                                                                                                            8+ 9+ 0+ a+ b+ c+ d+ e+ f+ g+ h+ i+ j+ k+ l+                                                                                                                                                                                                                                                                                                                                                                               m+ n+ o+ p+ q+ r+ s+ t+ u+ v+ w+ x+ y+                                                                                                                                                                                                                                                                                                 ",
"                                                                                                                                                                                                                                                         z+ z+ A+ B+ C+ D+ E+ F+ G+ H+ I+ J+ K+ L+ M+ N+                                                                                                                                                                                                                                                                                                                                                                               O+ P+ Q+ R+ S+ T+ U+ V+ W+ X+ Y+ Z+ `+  @ .@                                                                                                                                                                                                                                                                                           ",
"                                                                                                                                                                                                                                                         +@ @@ #@ $@ %@ &@ *@ =@ -@ ;@ >@ ,@ '@ )@ !@                                                                                                                                                                                                                                                                                                                                                                                        ~@ {@ ]@ ^@ /@ (@ _@ :@ <@ [@ }@ |@ G.                                                                                                                                                                                                                                                                                           ",
"                                                                                                                                                                                                                                                   1@ 2@ *+ 3@ 4@ 5@ 6@ 7@ 8@ 9@ 0@ a@ b@ c@ d@ e@                                                                                                                                                                                                                                                                                                                                                                                           f@ g@ h@ i@ j@ k@ l@ m@ n@ o@ p@ q@ r@                                                                                                                                                                                                                                                                                           ",
"                                                                                                                                                                                                                                                   s@ t@ u@ v@ w@ x@ y@ z@ A@ B@ C@ D@ E@ F@ G@ H@                                                                                                                                                                                                                                                                                                                                                                                           I@ J@ K@ L@ M@ N@ O@ P@ Q@ R@ S@ T@ U@ V@                                                                                                                                                                                                                                                                                        ",
"                                                                                                                                                                                                                                                W@ X@ Y@ Z@ `@  # .# +# @# ## $# %# &# *# =# -#                                                                                                                                                                                                                                                                                                                                                                                           ;# ># ,# '# )# !# ~# {# ]# ^# /# (# _# :# <#                                                                                                                                                                                                                                                                                        ",
"                                                                                                                                                                                                                                                [# }# |# 1# 2# 3# 4# 5# 6# 7# 8# 9# 0# a# b# c#                                                                                                                                                                                                                                                                                                                                                                                        d# e# f# g# h# i# j# k# l# m# n# o# p# q# H. r# s#                                                                                                                                                                                                                                                                                     ",
"                                                                                                                                                                                                                                                t# u# v# w# x# y# z# A# B# C# D# E# F# G# H# I#                                                                                                                                                                                                                                                                                                                                                                                        J# K# L# M# N# O# P# Q# R# S# T# U# V# W# X# Y# Z# `#                                                                                                                                                                                                                                                                                  ",
"                                                                                                                                                                                                                                                 $ .$ +$ @$ #$ $$ %$ &$ *$ =$ -$ ;$ >$ ,$ '$ )$                                                                                                                                                                                                                                                                                                                                                                                        !$ ~$ {$ ]$ ^$ /$ ($ _$ :$ <$ [$ }$ |$ 1$ 2$ 3$ 4$ 5$                                                                                                                                                                                                                                                                                  ",
"                                                                                                                                                                                                                                                6$ 7$ 8$ 9$ 0$ a$ b$ c$ d$ e$ f$ g$ h$ i$ j$ k$                                                                                                                                                                                                                                                                                                                                                                                        l$ m$ n$ o$ p$ q$ r$ -@ s$ t$ u$ v$ w$ x$ y$ z$ A$ B$                                                                                                                                                                                                                                                                                  ",
"                                                                                                                                                                                                                                          5+ C$ D$ E$ r# F$ G$ H$ I$ J$ K$ L$ M$ N$ O$ P$ Q$ R$ S$ T$ U$                                                                                                                                                                                                                                                                                                                                                                               V$ W$ X$ Y$ Z$ `$  % .% +% @% #% $% %% &% *% =% -% ;% >% ,%                                                                                                                                                                                                                                                                            ",
"                                                                                                                                                                                                                                          '% )% !% ~% Y@ {% ]% ^% /% (% _% :% <% [% }% |% 1% 2% 3% 4% 5%                                                                                                                                                                                                                                                                                                                                                                            6% 7% 8% 9% 0% a% b% c% d% e% f% g% h% o@ i% j% k% l% m% n% o%                                                                                                                                                                                                                                                                            ",
"                                                                                                                                                                                                                                          p% q% r% s% t% u% v% w% x% y% z% A% B% C% D% E% F% G% H% I% J% K%                                                                                                                                                                                                                                                                                                                                                                         L% M% N% O% P% Q% R% S% T% U% V% W% X% Y% Z% `%  & .& +& @& #&                                                                                                                                                                                                                                                                            ",
"                                                                                                                                                                                                                                          $& %& && *& =& -& ;& >& ,& '& )& !& ~& {& ]& ^& /& (& _& :& <& [&                                                                                                                                                                                                                                                                                                                                                                      }& |& 1& 2& 3& 4& 5& 6& 7& 8& X+ 9& 0& a& b& c& d& e& f& g& h& i&                                                                                                                                                                                                                                                                            ",
"                                                                                                                                                                                                                                          j& k& l& m& n& o& p& q& r& s& t& u& v& w& x& y& z& A& B& C& D& E&                                                                                                                                                                                                                                                                                                                                                                      F& G& H& I& J& K& L& M& N& O& P& Q& R& S& T& U& V& W& X& Y& Z& `&                                                                                                                                                                                                                                                                            ",
"                                                                                                                                                                                                                                          9+  * .* +* @* #* $* %* &* ** =* -* ;* M@ >* ,* '* )* !* ~* {* ]* ^* /*                                                                                                                                                                                                                                                                                                                                                          (* t# _* :* <* [* }* |* 1* 2* 3* 4* 5* B$ 6* 7* 8* 9* 0* t@ a* b* c* d*                                                                                                                                                                                                                                                                            ",
"                                                                                                                                                                                                                                          e* f* g* h* i* j* k* ;% l* m* n* o* p* q* r* s* t* u* v* w* x* y* z* A* B*                                                                                                                                                                                                                                                                                                                                                    C* %& D* E* F* G* H* I* J* K* L* M* N* O* P* Q* R* S* T* U* V* W* X* :# `&                                                                                                                                                                                                                                                                            ",
"                                                                                                                                                                                                                                          Y* Z* `*  = .= += @= #= $= %= &= *= == -= ;= >= ,= '= )= != ~= {= X& ]= ^= /= (=                                                                                                                                                             _= := <= [= }= |= 1= 2= 3= 4= 5=                                                                                                                                                 6= 7= 8= 9= 0= a= b= c= d= e= f= g= h= i= j= k= l= m= n= o= p= q= r= s= s=                                                                                                                                                                                                                                                                            ",
"                                                                                                                                                                                                                                          t= u= v= w= x= y= z= A= B= C= z$ D= E= F= G= H= I= J= K= L= M= N= O= P= Q= R= S=                                                                                                                                                    T= U= V= W= X= Y= Z= `=  - .- +- @- #- $- %-                                                                                                                            &- *- =- --    ;- >- ,- '- )- !- ~- {- ]- ^- /- (- _- :- <- [- }- |- 1- 2- R* 3- 4- C$ 5-                                                                                                                                                                                                                                                                               ",
"                                                                                                                                                                                                                                          6- 7- 8- 9- m= 0- a- b- c- 0* R* d- e- f- g- h- i- j- k- l- m- n- o- p- q- r- s- t-       u- v-                                                                                                                      w- x- y- z- A- B- C- D- E- F- G- H- I- J- K- L- M- N- O- P- Q- R- S- T-                                                                                                                U- V- W- 9+ X- r@ Y- Z- `-  ; .; +; @; #; $; %; &; *; =; -; ;; A= >; ,; '; p% S* ); !;                                                                                                                                                                                                                                                                                  ",
"                                                                                                                                                                                                                                          $& r= Y* q% $& ~; {; ]; ^; /; ;% (; _; :; <; [; }; |; 1; 2; 3; 4; 5; 6; 7; 8; 9; 0; a; b; c; y= d;                            e; f;                                                                               g; h; i; j; k; l; m; n; o; p; q; r; s; t; u; v; w; x; y; z; A; B; C; D; E; F; G;                                                                                        H; I; J;       K; L; M; N; O; P; Q; R; S; T; U; V; W; X; Y; Z; `;  > .> +> @> A= #> $> %> &> *> => -> ;>                                                                                                                                                                                                                                                                                  ",
"                                                                                                                                                                                                                                          >> ,> Y* '> )> !> ~> {> ]> ^> /> (> ~; _> :> <> [> }> |> 1> 2> 3> 4> 5> X; 6> 7> 8> 9> 0> a> b> >> c> d>                      e> V@                                                                      f> g> h> i> j> B; k> l> m> n> o> p> p; q> p> r> s> t> u> v> w> x> y> z> A> B> C> D> E> F> G>                                                                                  H> I> J> K> L> M> N> O> P> Q> R> S> T> U> V> W> X> Y> Z> `>  , ., +, @, l& #, 6* #> $, ,; %, &, p% O; -> :#                                                                                                                                                                                                                                                                                  ",
"                                                                                                                                                                                                                                             U@ ); q% *> *, =, -, ;, >, ,, ', ), !, ~, 2; {, ], E= ^, /, (, _, :, <, [, }, |, 1, 2, 3, 4, 5, 6, 7, 8, 9, 0,       a, b, c, d, e,                                                                   f, g, h, i, j, A; k, l, m, n, o, p, q, r, s, t, u, v, w, x, y, z, A, B, C, D, B; E, F, G, H, I,                                                                               J, K, L, M, N, O, T* P, Q, R, S, T, U, V, W, X, Y, Z, `,  ' .' +' @' #' #> $' #= A= %' n= ,, z= X* O; r= )%                                                                                                                                                                                                                                                                                  ",
"                                                                                                                                                                                                                                                &' => ^> ^> *' =' -' ;' >' %, ,' '' )' !' ~' {' ]' ^' /' (' _' :' <' [' }' |' 1' 2' 3' 4' 5' 6' 7' s# 8' 9' 0' &- -> a' b' B$ ;% c' d'          e' n= 5-          f'    g'                   h' i' j' k' l' m' n' B> o' p' q' r' s' t' u' v' w' x' y' z' A' B' C' D' E' F' G' H' I' J' K' L' M' N' O' P'          Q' R' L>                                  S' T' U' V'    W' X' Y' Z' `'  ) .) +) @) #) $) %) &) *) =) -) ;) >) ,) ') )) !) ~) 7* {) ]) S* ^) /) A= () () ^> ,; $> _) ;> d*                                                                                                                                                                                                                                                                                  ",
"                                                                                                                                                                                                                                                :) c, %' <) => [) }) |) 1) 2) 3) 4) .$ 5) 6) 7) 8) 9) 0) a) b) c) d) e) f) g) h) i) j) k) l) m) D. n) o) p) q) r) s) t) u) v) w) x) y) z) A) B) C) D) E) F) G) H) I)    J) K) L) M) N)       O) P) Q) R) S) T) U) V) W) X) Y) Z) `)  ! .! +! @! #! $! %! &! *! =! -! ;! >! q, ,! '! )! !! ~! {! ]! ^! /!          (! _! :!       <!          [! }! |! 1! 2! 3! 4! 5! 6! t@ 7! 8! 9! 0! a! b! c! d! e! f! g! h! i! j! k! l! m! n! o! p! q! r! (> s! {) s! 5) /) .$ t! ^> () $> ,; u! O; v!                                                                                                                                                                                                                                                                                     ",
"                                                                                                                                                                                                                                                   C$ t= w! '' x! y! z! A! B! C! D! E! ^> F! G! H! I! J! K! L! M! N! O! P! Q! R! S! T! U! V! W! X! Y! Z! `!  ~ .~ +~ @~ #~ $~ %~ &~ *~ =~ -~ ;~ >~ ,~ '~ )~ :! !~ ~~ {~ ]~ ^~ /~ (~ _~    :~ <~ [~ !! }~ |~ 1~ 2~ 3~ 4~ 5~ 6~ 7~ 8~ 9~ 0~ a~ b~ c~ d~ e~ f~ g~ h~ i~ j~ k~ l~ m~ n~ o~ p~ q~ r~ s~ F, t~ u~ v~ w~ x~ y~ z~ A~ B~ C~       {~ D~ E~ F~ G~ H~ I~ J~ K~ L~ M~ N~ O~ P~ Q~ R~ S~ T~ U~ V~ W~ X~ Y~ Z~ `~  { .{ +{ @{ #{ ${ %{ &{ *{ ={ A= S* &* 6* -{ ;{ >{ $> _) $> O; U@                                                                                                                                                                                                                                                                                        ",
"                                                                                                                                                                                                                                                   ,{ '{ ){ &> !{ ~{ {{ ]{ ^{ /{ ({ _{ F! B$ :{ <{ ~$ [{ }{ |{ 1{ 2{ 3{ 4{ 5{ 6{ 7{ 8{ 9{ 0{ a{ b{ c{ d{ e{ f{ g{ h{ i{ j{ k{ l{ m{ n{ o{ p{ q{ r{ s{ t{ u{ v{ w{ x{ y{ z{ A{ B{ C{ D{ E{ F{ G{ H{ I{ n; C; J{ K{ L{ M{ N{ O{ P{ Q{ R{ S{ T{ U{ V{ W{ X{ Y{ Z{ `{  ] .] +] @] o' #] $] %] #] &] *] =] -] p~ ;] >] ,] '] )] !] ~] {] E~ ]] ^] /] (] _] :] <] [] }] |] 1] 2] 3] M$ 4] 5] 6] 7] 8] 9] 0] a] b] c] d] e] f] g] h] i] j] k] ]= l] >{ 6) A= 1- m] ~% 6* ;{ R* => '; => U@                                                                                                                                                                                                                                                                                           ",
"                                                                                                                                                                                                                                                         n] c' ={ t! o] {) p] p] /; ={ $, /; f& ~) q] r] s] t] u] v] w] x] y] z] A] B] C] D] E] F] G] H] I] J] K] L] M] N] O] P] Q] R] S] T] U] V] W] X] Y] Z] `] =] =]  ^ .^ +^ @^ #^ $^ %^ &^ *^ =^ -^ ;^ >^ ,^ '^ M{ )^ !^ ~^ {^ ]^ ^^ /^ (^ _^ :^ <^ [^ }^ |^ 1^ 2^ 3^ 4^ 5^ 6^ 7^ o> 8^ 9^ *] 0^ a^ b^ c^ d^ e^ f^ ~~ g^ h^ i^ j^ k^ l^ m^ n^ o^ p^ q^ r^ s^ t^ u^ v^ w^ x^ y^ z^ A^ B^ C^ 8] D^ E^ F^ G^ H^ I^ J^ K^ L^ M^ N^ O^ P^ >{ K, /) Q^ 1- ,; K, 6* N; R^ S^ T^ _) r@                                                                                                                                                                                                                                                                                           ",
"                                                                                                                                                                                                                                                         z) U^ H. t! 3- V^ m= S* $= .$ $> W^ X^ *, Y^ Z^ `^  / ./ +/ @/ #/ $/ %/ &/ Y- */ =/ -/ ;/ >/ ,/ '/ )/ !/ ~/ {/ ]/ ^/ // (/ _/ :/ </ [/ }/ |/ 1/ 2/ 3/ 4/ 5/ 6/ 7/ ~] 8/ 9/ 0/ a/ b/ c/ d/ e/ f/ g/ h/ i/ j/ k/ l/ m/ n/ o/ p/ q/ r/ s/ t/ u/ v/ w/ x/ y/ z/ A/ B/ C/ D/ E/ F/ G/ H/ I/ J/ K/ L/ M/ N/ O/ P/ Q/ i' R/ S/ T/ U/ V/ W/ X/ Y/ Z/ `/  ( .( +( @( #( $( %( d{ &( *( =( -( S; ;( >( ,( '( )( !( ~( L^ {( ]( ^( G! /( (( y= _( m] T^ X* X* 1- :( <( [( }( |( 1( v!                                                                                                                                                                                                                                                                                           ",
"                                                                                                                                                                                                                                                               r= => A= A= *' $= *> ^> s! _{ ={ ~> 2( 3( 4( 5( 6( 7( z! 8( 9( 0( a( b( c( d( e( f( g( h( i( j( k( l( m( n( o( p( q( r( s( t( u( v( w( x( y( z( A( j^ B( C( D( E( F( G( H( I( J( K( L( M( N( O( P( Q( R( S( T( U( V( W( X( Y( Z( `(  _ ._ +_ @_ #_ $_ %_ &_ *_ =_ -_ ;_ >_ ,_ '_ f/ p~ m' )_ !_ ~_ {_ ]_ ^_ /_ (_ __ :_ |] <_ [_ }_ |_ 1_ 2_ 3_ 4_ 5_ 6_ 7_ 8_ 9_ 0_ a_ b_ c_ d_ e_ f_ g_ h_ i_ j_ k_ l_ m_ n_ o_ p_ q_ k% r_ s_ t_ u! !% u_ X* v_ K, !% <( w_ x_ y_                                                                                                                                                                                                                                                                                           ",
"                                                                                                                                                                                                                                                               z_ ,> $, R^ A_ /; B_ () ^) C_ D_ ]; E_ *> $, 3( 2( .$ F_ t! >' G_ H_ I_ J_ K_ L_ a! M_ N_ O_ P_ Q_ R_ S_ T_ U_ V_ W_ X_ Y_ Z_ `_  : .: +: @: #: $: %: &: *: =: -: ;: >: ,: ': ): !: ~: {: ]: ^: /: (: _: :: <: [: }: |: 1: 2: 3: 4: x/ 5: 6: 7: 8: 9: 0: a: b: c: d: e: f: g: h: i: j: P) k: l: F/ m: n: o: p: q: r: s: t: u: v: w: x: y: z: A: B: x& C: D: E: F: G: H: I: J: <; K: L: M: N: O: P: Q: -% o= R: a> S: x= m] T: K* U: a> a> T^ T^ V: u_ u_ W: X: Y:                                                                                                                                                                                                                                                                                              ",
"                                                                                                                                                                                                                                                               Z: Z: `:  < .< +< B_ #> B_ ={ /; _{ /; @< #< ^) () 1( ,; $< %< &< *< .$ =< -< ;< >< ,< '< v] )< !< ~< {< ]< ^< /< (< _< :< << [< }< |< 1< 2< 3< 4< 5< 6< &: 7< 8< F( 9< 0< a< b< c< d< e< f< g< h< i< j< k< l< I( m< n< o< p< q< r< s< t< u< v< w< x< y< z< A< B< C< D< E< F< G< H< I< J< K< L< M< )% N< O< P< Q< R< S< T< U< V< W< X< Y< Z< `<  [ .[ +[ @[ #[ $[ %[ &[ *[ =[ c& -[ <( ;[ >[ ,[ '[ )[ ![ 0> 1- ~[ {[ ][ ^[ /[ ([ _[ :[ <[ [[ }[ |[ 1[ 2[                                                                                                                                                                                                                                                                                                       ",
"                                                                                                                                                                                                                                                               x+ 3[ 4[ q% @< 5[ 6[ 7[ ,; Q^ S^ B_ ~[ 8[ 9[ 8[ K, q% '; ^> 0[ a[ /; b[ H@ c[ d[ e[ f[ g[ h[ i[ j[ k[ l[ m[ n[ o[ p[ q[ r[ s[ t[ u[ v[ w[ x[ y[ z[ A[ B[ j^ C[ D[ E[ F[ G[ H[ I[ J[ K[ L[ M[ x{ N[ L/ O[ P[ Q[ R[ S[ T[ U[ V[ W[ X[ Y[ Z[ `[  } .} +} @} #} 6~ $} %} &} *} =} -} ;} >} ,} e* '} )} r: !} ~} {} ]} ^} /} :_ (} _} :} <} [} }} |} 1} 2} 3} 4} 5} 6} 7} 8} 9} 0} a} b} c} ^) d} e} f} b} g} 8) /) <( 6[ 7[ /) .$ .$ h} i} A_ q% j} k} l}                                                                                                                                                                                                                                                                                                          ",
"                                                                                                                                                                                                                                                                           m} n} o} () V/ p} w_ S^ A_ A_ <( 7[ t! 7[ .$ *' q} 3( /; A! r} s} &/ 7= .$ t} u} v} w} x} y} z} A} B} C} D} E} 9) F} G} H} I} J} K} L} M} N} O} P} Q} R} S} T} U} V} W} X} Y} Z} `}  | .| +| @| #| $| %| &| *| =| -| ;| >| ,| '| )| !| ~| {| ]| ^| /| (| _| :| <| [| }| || 1| 2| ~~ 3| 4| 5| 6| 7| 8| 9| 0| a| b| c| d| e| f| g| h| i| j| k| l| m| n| o| p| q| r| f- s| 0> t| .$ u| *' A= v| w| a[ C_ <( x| y| T^ T^ z| A| B| C| D| I) H)                                                                                                                                                                                                                                                                                                          ",
"                                                                                                                                                                                                                                                                           E| F| => q% T^ ~[ 9[ w= G| H| I| R^ _( B_ S^ T^ K, A= $, ^> $, a( v| J| o] ={ v| m= m= l= K| L| M| N| `+ O| P| Q| R| S| T| U| V| W| E[ X| Y| Z| `| k:  1 .1 +1 @1 #1 $1 %1 &1 y- *1 =1 -1 ;1 >1 ,1 '1 )1 !1 ~1 >! {1 ]1 ^1 /1 (1 _1 :1 <1 [1 }1 |1 11 21 31 41 51 61 71 81 -} 91 01 a1 b1 c1 d1 e1 f1 g1 h1 i1 j1 k1 l1 m1 n1 o1 p1 &% q1 r1 s1 t1 u1 v1 #= w1 x1 y1 z1 i} R^ m] 5) .$ Q^ S^ 7= f[ -{ I| A1 }( B1 B1 C1 D1 __ E1                                                                                                                                                                                                                                                                                                                   ",
"                                                                                                                                                                                                                                                                                    F1 V: 8[ B1 G1 H1 I1 J1 w= K1 K, L1 M1 ^' R^ 1- ={ s! A= $' 5[ *' F! N1 i} ;; ;{ *{ 3$ C_ A= O1 P1 i% Q1 R1 S1 T1 U1 V1 %^ W1 X1 Y1 l/ Z1 `1  2 .2 +2 @2 #2 $2 %2 &2 *2 =2 -2 =1 ;2 >2 ,2 '2 )2 !2 ~2 {2 w< ]2 ^2 /2 (2 _2 :2 <2 [2 }2 |2 12 22 G< 32 42 52 L) 62 72 82 92 l< 02 a2 b2 c2 d2 e2 .1 f2 g2 h2 i2 j2 k2 l2 m2 n2 o2 p2 q2 r2 s2 t2 u2 }( A_ #= v2 ~[ K1 9[ ~[ w2 x2 ~[ V/ y2 z2 A2 B2 A2 x2 C2 C1 D2 E2                                                                                                                                                                                                                                                                                                                      ",
"                                                                                                                                                                                                                                                                                       F2 c} G2 H2 I2 J2 K2 p} ~[ L2 M2 N2 O2 V/ B1 1- *> u! Q^ A_ $' }( l& J> q@ V^ X* K, T^ T^ 6) P2 Q2 R2 S2 T2 !~ U2 V2 W2 X2 Y2 Z2 `2  3 .3 +3 @3 #3 $3 %3 &3 *3 =3 -3 ;3 >3 ,3 '3 )3 !3 ~3 {3 =} ]3 ^3 /3 (3 _3 :3 <3 >^ [3 }3 |3 13 23 33 43 53 P) 63 73 83 93 03 a3 b3 c3 d3 e3 f3 g3 h3 i3 j3 k3 l3 m3 n3 o3 p3 q3 r3 s3 t3 u3 v3 w3 r[ I> x3 y3 D1 z3 A3 B3 V: 1[ C3 D3 E3 F3 G3 T/ H3 I3 A| J3 K3 |[ L3 M3                                                                                                                                                                                                                                                                                                                         ",
"                                                                                                                                                                                                                                                            N3 O3                         P3 Q3 R3 S3 T3 U3 V3 W3 _( K, R^ x| X3 Y3 |( u! ,; w_ R^ p} }( Z3 1- [[ ~[ ~[ z2 R^ 6* {[ }- :[ `3  4 .4 +4 @4 #4 $4 %4 &4 *4 =4 -4 ;4 >4 ,4 '4 )4 !4 ~4 {4 ]4 ^4 O{ /4 (4 _4 :4 <4 [4 }4 |4 14 24 34 44 54 64 74 84 94 04 a4 b4 c4 d4 e4 f4 g4 h4 i4 j4 k4 l4 m4 n4 o4 p4 q4 r4 g3 s4 t4 u4 v4 w4 x4 y4 z4 A4 B4 C4 D4 E4 F4 G4 v2 X3 A| z| H4 I4 J4 K4 L4 |[ K4 M4 Y3 N4 N4 O4 P4 Q4 R4 O4 S4 T4 *+ >>                         U4 V4 W4                                                                                                                                                                                                                                                                                           ",
"                                                                                                                                                                                                                                                            X4 T4 ;> Y4                            Z4 Z4 `4 f*  5 }[ .5 E2 +5 X3 @5 M4 #5 $5 $5 %5 y| A3 V/ W3 &5 ~[ A_ y| V/ y| y| K3 H| *5 =5 -5 C1 ;5 >5 ,5 '5 )5 !5 ~5 {5 ]5 ^5 /5 (5 _5 :5 <5 [5 }5 |5 15 25 35 84 45 =1 t~ 55 65 75 85 95 05 a5 A/ b5 c5 d5 e5 f5 g5 *2 h5 i5 j5 k5 l5 m5 n5 o5 p5 q5 r5 s5 t5 u5 *: v5 w5 a2 N{ x5 7/ y5 z5 H2 F3 A5 B5 C5 D5 2# E5 D) G3 F5 B2 G5 H5 H5 z| K3 }[ S4 .5 I3 I5 !~ J5 L3 K5 L5 M5 N5                               O5 P5 T' Q5                                                                                                                                                                                                                                                                                           ",
"                                                                                                                                                                                                                                                               Z4 A2 R5 S5                                     T5 U5       V5 A3 G5 W5 X5 M4 w_ R^ y2 Y5 B2 }[ V: A3 A_ c} M4 K3 Z5 I3 K4 |[ u_ `5  6 .6 +6 @6 #6 $6 %6 &6 i> *6 =6 i; -6 ;6 >6 ,6 '6 )6 !6 (1 ~6 45 j/ {6 ]6 ^6 /6 (6 _6 :6 <6 [6 }6 @] |6 16 26 36 46 56 66 76 h4 86 _2 96 06 a6 b6 c6 d6 e6 f6 g6 h6 i6 j6 k6 l6 m6 n6 o6 p6 q6 y[ r6 u2 s6 +> t6 u6 v6 w6 x6 y6 U/ R4 z6 R4 G5 +5 J3 y3 !~ A6 /_ p: B6 C6                                  T' D6 E6 F6 G6 H6 I6                                                                                                                                                                                                                                                                                           ",
"                                                                                                                                                                                                                                                               }! J6 K6 L6 M6 N6                                           1- B| O6 P6 r6 Q6 W5 A2 G1 R6 A2 v= X5 v6 S6 c} 9- J4 C1 G3 !~ T6 U6 U6 T6 V6 B[ W6 X6 {} g: Y6 i^ B- M/ /4 Z6 `6  7 .7 +7 @7 #7 $7 %7 &7 *7 =7 -7 ;7 &4 >7 ,7 '7 )7 !7 36 -^ ~7 {7 ]7 ^7 /7 (7 _7 :7 <7 [7 }7 |7 17 27 37 47 57 67 77 87 J< J< 97 >_ 07 a7 !} b7 c7 d7 e7 r6 f7 B| z3 H4 A6 r6 +5 +5 __ J3 I3 C1 .6 B| g7 +4 !~ K4 h7 i7 j7                                     k7 l7 ]~ m7 J6 n7                                                                                                                                                                                                                                                                                                 ",
"                                                                                                                                                                                                                                                                  o7 p7 q7 r7 s7 I/ t7                                        G2 K3 G5 G2 u7 +5 v7 w7 x7 y7 .6 z7 A7 B7 M4 V: W5 Y5 C7 C1 H4 R4 D7 E7 P4 /_ F7 F7 G7 H7 I7 k6 J7 K7 L7 M7 N7 I( O7 P7 Q7 R7 S7 T7 U7 V7 W7 X7 Y7 Z7 `7  8 .8 +8 @8 #8 $8 %8 {7 7~ &8 *8 =8 -8 ;8 >8 ,8 '8 )8 !8 ~8 {8 ]8 ^8 /8 (8 y{ _8 :8 <8 [8 %4 }8 9| |8 18 b7 28 38 r6 Q6 !~ D1 e7 48 !~ P4 58 Q4 +4 P4 68 78 88 u7 :! 98 08                                  || a8 b8 c8 m7 d8 e8 f8                                                                                                                                                                                                                                                                                                    ",
"                                                                                                                                                                                                                                                                  g8 h8 i8 /5 5^ j8 k8 l8 C; m8 n8                                        o8 P4 ;5 p8 e7 q8 r8 s8 T/ v= Z5 t8 B3 .4 u8 v8 P4 C1 V6 P4 w8 '} x8 x8 y8 z8 A8 B8 C8 D8 E8 F8 k/ G8 H8 I8 J8 K8 L8 M8 N8 O8 P8 Q8 R8 S8 T8 F( U8 ;^ n' p~ 9/ 8< V8 W8 X8 Y8 Z8 `8  9 .9 +9 @9 #9 $9 %9 &9 *9 =9 -9 3= ;9 >9 ,9 '9 )9 Y2 !9 ~9 e7 ]} {9 ]9 N< F7 ^9 V6 p: /9 (9 !~ +4 _9 +4 :9 (_ f1 <9 B[ [9 }9                               |9 19 29 39 49 59 *8 69 79 89 99                                                                                                                                                                                                                                                                                                    ",
"                                                                                                                                                                                                                                                                        09 a9 b9 c9 v; T) d9 e9 f9 g9 h9 i9 j9 y5                         k9 Q4 l9 m9 n9 P6 o9 p9 q9 R4 z6 K4 K4 g7 r9 ;5 p8 /9 Q4 +4 w8 s9 x8 w8 t9 u9 v9 m' w9 g/ x9 y9 Q) z9 A9 B9 c< C9 D9 E9 F9 G9 H9 I9 J9 K9 L9 M9 *^ N9 O9 ,3 P9 Q9 R9 S9 T9 U9 V9 W9 X9 Y9 Z9 `9  0 )^ .0 39 {] +0 B9  | @0 #0 ~} g3 $0 %0 &0 '9 66 *0 =0 ]} q: -0 ;0 ;0 >0 ,0 &: 66 &: {9 /_ t9 '0 )0 !0 >_ @0 ~0 {0 /~    ]0 ^0 /0 (0 _0 :0 <0 [0 }0 |0 10 20 30 40 50 60 W:                                                                                                                                                                                                                                                                                                       ",
"                                                                                                                                                                                                                                                                        <0 70 80 90 00 a0 b0 c0 d0 e0 f0 g0 h0 i0 z' j0 k0 l0 F, m0       n0 V6 o0 /9 =0 =0 p0 H5 .6 p9 68 !~ D7 K4 I4 q0 I5 %: 48 H4 Q6 p: r0 P< >0 P< s0 /: t0 b9 &^ u0 L/ v0 w0 x0 y0 a7 z0 A0 B0 C0 D0 E0 F0 G0 H0 I0 f5 J0 K0 /5 L0 @3 k5 M0 9~ N0 O0 P0 Q0 R0 S0 T0 U0 V0 W0 b^ A8 X0 )_ x0 >7 Y0 Z0 p6 `0  a .a +a ]} j^ j^ @a -0 ]} #a S/ P< {9 $a )9 Q- %a &a f4 *a =a -a |~ n' ;a M7 >a ,a 'a )a !a ~a {a ]a ^a Q9 /a (a _a :a <a [a }a :# H;                                                                                                                                                                                                                                                                                                       ",
"                                                                                                                                                                                                                                                                           |a 1a 2a 3a t~ x9 4a 5a y, E' 6a K0 7a 8a 9a 0a aa 4a ba ca da k' C( j6 ea fa Q( D[ ga ha ia ja ka 66 T6 la D7 Q< <8 F7 o9 ma t9 p: na oa 8| pa qa ra sa ta 55 >] ua va wa xa h9 ya za Aa Ba s< Ca Da Ea Fa Ga Ha Ia Ja Ka La Ma Na Oa Pa Qa  9 Ra W[ Sa Ta Ua Va Wa _4 Xa 7/ Ya Za `a K' m8  b .b +b @b #b $b %b &b j^ *b N< =b D[ {} Q< ]} -b ~! P) |= ;b >b ,b 'b 82 )b u0 |6 ;a !b ~b {b ]b ^b /b (b _b :b <b [b }b A~ {] @^ |b C[ 2[                                                                                                                                                                                                                                                                                                          ",
"                                                                                                                                                                                                                                                                           1b 2b 3b 4b 5b =b 6b 7b 8b 9b x9 0b ab bb cb db eb fb gb hb l8 ib jb B; kb lb mb nb ob pb ga 9/ qb rb sb -0 b7 G7 tb G7 s0 ub &a vb {9 J< wb xb yb c< zb Ab Bb Cb Db Eb Fb ~! Gb Hb Ib Jb Kb Lb Mb Nb Ob Pb Qb Rb >^  - Sb Tb Ub Vb Wb Xb Yb Zb `b  c .c +c @c 20 #c $c %c &c *c =c -c ;c >c ,c 'c #0 )c pa !c ~c %6 '5 {c ]c ^c %8 7^ 18 /c (c _c :c s, <c Z= <c [c }c |c 1c 2c 3c 4c 5c ,^ 6c 7c 8c 9c I0 0c ac F7 bc L3 H4 cc dc T5 ec                                                                                                                                                                                                                                                                                                          ",
"                                                                                                                                                                                                                                                                                 4= C[ <8 X6 _9 X6 fc $6 gc K6 hc ic jc kc lc mc G8 nc oc pc j< qc rc sc +8 tc }8 i9 $0 $0 uc vc +b wc '9 xc yc zc 8| {} `} Ac Bc G7 (9 `} Cc Dc Ec Fc Gc Hc Ic Jc Kc Lc Mc h< ob Nc Oc Pc Qc Rc Sc Tc Uc Vc Wc 39 j> L6 Xc Yc Zc `c  d .d +d @d #d ^a $d %d &d 1c b: *d =d -d ;d >d ,d 'd )d !d P) ga  8 (c ~d &0 {d ]d ^d /d (d _d :d <d [d }d |d 1d 2d 3d )! Q9 4d 5d 6d 7d >2 8d !7 s, 9d 0d ad bd 5/ J5 D1 T/ r8 U/ cd dd ed                                                                                                                                                                                                                                                                                                             ",
"                                                                                                                                                                                                                                                                                 fd gd hd yc @a b7 id jd F7 ,0 kd ld md nd od pd qd rd sd td ud vd wd xd i3 yd zd Ad Bd Cd 0^ Dd Ed ga Fd h^ Z0 Gd Hd Id Jd Kd c2 Ld Md Nd Od 92 Pd Qd Rd Sd Td Ud Vd Wd Xd Yd |4 }~ Zd `d  e .e +e @e #e n~ lb J' ,3 $e M[ %e &e *e =e -e ;e >e ba ,e 'e )e !e ~e {e ]e ^e /e (e _e %_ >2 D8 3a :e <e m' [e }e |e L/ 82 'b 1e 2e 3e 4e 5e 6e 7e z' 8e 9e 0e ae be ce de ee fe ge Ld he ie je ke b7 R/ le 88 n9 %: m9 +4 me                                                                                                                                                                                                                                                                                                                   ",
"                                                                                                                                                                                                                                                                                    (! 48 ne -b ob oe ja vb pe {9 |8 qe [9 re se te ue ve we xe ye ze R0 Ae Be Ce De Ee _4 Fe 2a Ge He r~ Ie Je Ke Le Me Ne .e Oe v9 )9 Pe Qe Re Se '7 Te Ue Ve We Xe Ye Ze `e  f .f j, +f @f #f $f &| %f =^ Zd &f *f =f -f ;f f: >f ,f 'f )f K/ -] !f ~f {f ]f ^f /f (f _f :f <f [f }f |f 1f j; h^ 2f [e !c g< 3f  b 1a 4f X0 #0 =6 5f 6f 7f 8f 9f 0f af bf cf df ef ff gf hf if tb *1 c4 jf kf lf mf nf *1 ,5 (9 re of pf                                                                                                                                                                                                                                                                                                                   ",
"                                                                                                                                                                                                                                                                                       qf rf =6 'c g< Hd B( sf tf uf -0 hd >0 X6 vf wf xf yf zf Af Bf ^1 Cf Df Ef Ff R( Gf Hf |6 ~b If Ed Jf i^ Kf Lf Mf Nf Of Pf 53 D[ :d Qf Rf Sf Tf Uf Vf Wf Xf Yf Zf `f  g .g +g @g #g i; $g %g &g *g =g -g ;g >g ,g j3 8d c8 'g )g !g ~g $b |~ %c {g ]g ^g /g (g _g :g <g [g }g |g @| 5^ 1g 2g 3g 4g 5g (: =6 t~ Ed 6g 7g 8g 9g 0g ag bg cg dg eg x/ fg gg hg ig jg kg lg mg ng og og pg pg qg rg sg tg %a ug L< vg                                                                                                                                                                                                                                                                                                                      ",
"                                                                                                                                                                                                                                                                                       wg w~ Gb 9d xg `7 y{ H< tg yg zg Ag @a qe sb Bg Cg Dg Eg Fg Gg Hg Ig Jg Kg Lg Mg Ng f/ Og Pg Ee Qg Rg Sg (c Tg Ug Vg Wg Xg Yg -2 Kf f: Zg E8 `g 0:  h .h +h @h @h #h $h %h &h *h =h J' -h ;h >h mb ,h 'h )h !h ~h {h ]h ^h Q( /h (h _h :h <h [h }h |h 1h 2h 3h 4h 5h 6h 7h R8 ]d >h .f =6 *6 /: 8h i, 9h 0h ah bh ch dh 23 eh fh gh yf hh ih jh kh lh mh nh oh ph qh rh sh G7 &: th uh vh e7 wh xh yh zh Ah ;> $&                                                                                                                                                                                                                                                                                                                      ",
"                                                                                                                                                                                                                                                                                          Bh Ch Dh Eh g4 f4 Md Z0 Fh f4 Gh  a Hh Ih Jh Kh _9 p: +4 }a q: Lh Mh Nh Oh Ph Qh H/ )d K7 Rh Sh )b Th Uh Vh Wh Xh Yh Zh `h  i .b Ya .i +i Kd @i #i $i %i &i *i =i -i ;i >i ,i 'i ^5 q~ )i !i ~i {i ]i ^i /i (i _i :i k~ <i [i }i |i 1i 2i 3i 4i 5i 6i 7i 8i 9i 0i ai 11 bi ci di 90 ei fi gi hi ii ji ki li mi ng S/ ni oi pi qi Y8 ri 00 si ti ui 13 vi ,0 Q4 Q6 wi /9 zc xi wc vh id yi zi Ai Bi Ci Di d*                                                                                                                                                                                                                                                                                                                         ",
"                                                                                                                                                                                                                                                                                                      Ei 5b Ld vi 5/ Ke Fi Gi $c ~7 uc Hi Ii D7 Ji r8 |8  6 ;0 Ki ': Li Mi Ni Oi j/ Pi Qi -^ Ri ci Dh Si Ti Ui Vi Wi Xi [3 Yi ~7 Zi G/ `i  j .j +j @j #j $j %j &j *j +3 Ma =j O9 -j ;j >j ,j 'j )j !j ~j {j ]j ^j /j (j _j :j <j [j }j |j 1j 2j 3j 4j 5j 6j 7j 8j 9j 0j If d9 aj bj =6 cj dj ej fj gj hj ij jj kj lj mj nj |3 !} oj pj qj 6b rj /_ T6 D7 sj tj uj $0 vj wj xj Le yj zj Aj fa Bj T5                                                                                                                                                                                                                                                                                                                            ",
"                                                                                                                                                                                                                                                                                                      Cj G5 Dj 53 Ej c8 wa Fj K/ Ni Gj n; :e I4 Hj  6  6 U6 T6 Ij %b Jj Kj Lj Mj Nj Ri n~ Oj Pj Qj Rj Sj Tj Uj Vj fh Wj Xj Yj Zj `j  k ;2 .k 0^ +k @k #k $k Q) %k &k *k =k *: -k ;k >k ,k 'k )k !k ~k {k ]k ^k /k /k (k _k :k <k [k }k |k 1k 2k 3k 4k 5k 6k 7k w; 8k 9k 0k O9 `h ak B9 bk ck 44 |g dk ek fk gk hk ik 92 jk kk !] _9 bc Q6 lk mk o0 >0 ma <9 q6 ^0 $b nk ij ok pk qk V8 m6 rk sk tk                                                                                                                                                                                                                                                                                                                            ",
"                                                                                                                                                                                                                                                                                                      uk U^ g' vk wk xk c9 c5 Y0 55 yk zk Dd fa Ak !~ K4 J4 `5  6 lk -0 V6 uf  a Bk Ck Dk Ek Fk lb qj Gk Hk Ik Jk Kk Lk Mk Nk Ok Pk Qk Rk Sk Tk Uk Vk Wk Xk Yk Zk `k $a  l .l +l @l #l $l %l &l *l =l -l ;l >l ,l 'l )l !l ~l {l @0 ]l ~! ya ^l y0 ]: ;7 /l (l Pi _l A> If :l 2a o, +i <l [l }l |l 1l ug 2l 7e U7 3l 4l 53 &a Q4  6 q0 w8 >0 Q4 -0 5l wh 6l D( zj $b vj +a 7l 8l 9l >7 yj 0l                                                                                                                                                                                                                                                                                                                                  ",
"                                                                                                                                                                                                                                                                                                                  al Z0 82 bl cl Je 07 dl el fl gl G7 H4 H5 !~ Q6 ma &: {9 lk zc 3f hl il jl kl 2f 8h ll ml nl ol pl ql rl =! sl tl ul vl wl xl #0 V8 ;a yl zl 3b A8 /6 p6 {c p~ e< Al Bl Cl Dl El Fl Gl Hl Il Jl Kl Ll Ml Nl >4 -6 Ol Pl (5 $k Pg >c Ql Rl Sl Tl ah Ul Vl Wl Xl Yl Zl `l Q0  m .m L} R/ Vh +m @m %9 #m @a V6 Lh x8 >0 $m D7 %m &m Bd Xi G' *m a4 =m -m ;m c8 2b P- >m g^                                                                                                                                                                                                                                                                                                                                     ",
"                                                                                                                                                                                                                                                                                                                  k9 wk =b ,m 'm Za )m !m ~m {m ]m qk ^m /m id (m ka th _m +4 ma j6 q~ K' :m <m [m }m Fd :m |m 1m 2m 3m 4m 5m 6m 7m 8m 9m 0m am bm hl cm dm em fm gm hm im jm ^: b^ km lm mm nm om pm qm rm sm f4 &m <m tm um vm wm xm ym zm Am Bm Cm Dm Em Fm Ja hi Gm Hm Im Jm Km Lm ]k Mm Nm Om Pm h, B( Qm Rm ^m ka Q6 V6 Lh $m X6 F7 38 sb *1 Sm _6 k8 Tm %d Um Vm Wm Vk vb sk Xm                                                       Ym Zm                                                                                                                                                                                                                                                                            ",
"                                                                                                                                                                                                                                                                                                                  dd z8 `m  n qk .n @0 +n @n #n $n %n $^ uh *1 uj Nd &n tb +4 !~ @a *n =n := %0 -n +b fi ;n ~! =: om >n ,n 'n )n !n ~n {n ]n ^n /n .0 j6 (n ]m _n ;h :n <n v' T9 Dk s0 ,] [n }n |n 1n 2n 3n [9 F7 4n $a 5n 6n 7n <3 8n 9n 0n an bn cn dn Oa en fn gn hn in jn kn ln mn nn on pn qn Ag rn .b >h E( Ld P4 D7 Q4 sn tn p6 xi G7 2= un 10 vn Tm F< qj wn xn yn dh zn                                                          An Bn Cn                                                                                                                                                                                                                                                                            ",
"                                                                                                                                                                                                                                                                                                Dn En Fn          Gn M5 of Hn In Jn  n Zg Kn Ln Mn Nn On Pn Mj Qn Rn wn Sn hd Tn kd Un *^ Vn ~7 Wn Xn Yn Zn `n  o .o +o @o #o $o %o &o *o =o 'k -o ;o >o ,o 'o )o !o :n ~o {o ]o Qj -h ^o ch ~} Bl /o (o q6 h, _o :o <o [o bm }o ~| |o 1o 2o 3o u; 4o 5o 6o 7o 8o 9o 0o ao bo co do eo fo yk 9/ (c go ho 26 io }m Q6 !~ jo uf ko lo Gk mo no oo  f po qo ro so ^0 ng A~ *2 k} to                                                          uo vo wo                                                                                                                                                                                                                                                                            ",
"                                                                                                                                                                                                                                                                                                xo yo zo             Ao Bo of Co Do Ih Za Eo Fo Go Ho Io Jo Ko Lo Mo No %b Ag ek 5b %b Oo 9h Po Sb Qo %b Ro =b So To Uo 6^ Vo Wo Xo Yo Zo `o I9  p fl 49 .p +p !0 @p )3 #p $p %p &p *p =p -p ;p >p ,p 'p *0 g3 )p !p ~p @2 {p 75 ]p ^p /p (p wm _p 2^ :p <p [p }p |p 1p 2p 3p 4p 5p 6p 7p 8p ga 9p 0p ap *] bp cp pg 58 |8 dp &0 Jj ep fp gp hp ip jp kp lp mp vi {9 S/ (_ 7- np                                                       op pp qp rp                                                                                                                                                                                                                                                                            ",
"                                                                                                                                                                                                                                                                                                sp tp up                   vp F~ J< 'm wp c8 xp yp zp Ap m8 yp qi Bp Cp Lj Yn tb Ii Ld *n Dp *] .8 dm Le sb sf &n Ep Fp >h Gp Hp Ip Jp hp Kp Lp (b Mp Fm Np Op Pp Qp Rp Ti Sp @e Tp Up nc Vp Wp Xp Yp Ka Zp Ka `p  q .q +q @q #q $q %q &q *q =q -q ;q >q ,q 'q )q !q ~q {q ]q ^q de /q (q _q Hi :q <q [q }q Gk %b |q ma (m fk %b %b f4 1q 2q 3q Lk 4q 1a >7 )5 '5 E7 5q ^] 6q 7q                                                       8q 9q 0q aq bq                                                                                                                                                                                                                                                                         ",
"                                                                                                                                                                                                                                                                                                cq dq eq                         fq gq hq iq <j a^ ]o G- jq Wi kq lq `p (c Ij le Ji X6 Co mq wp nq oq zh pq X6 &: ja %0 wn qq rq sq 6d tq jj uq vq wq xb xq yq zq Aq Bq Cq Dq Eq Fq ai Gq Hq Iq Jq Kq Lq Mq Fj ~: Nq Oq Pq Qq Rq Sq Tq Uq Vq Wq Xq Yq Zq `q  r .r +r @r #r $r %r &r *r =r -r zc ;r >r )m Gh no &n ,r W6 no Hd 'r wc )r !r $r ~r {r Y0 ]r ^r fc J< /r (r                                                                _r :r <r [r }r                                                                                                                                                                                                                                                                         ",
"                                                                                                                                                                                                                                                                                                |r 1r 2r 3r                            N6 4r !f g9 5r {b 6r =n 7r 8r 9r 0r ar br +4 id Lj ek :e >7 cr $0 r0 ;0 dr >m (c er fr Nj 7c gr og J< Cp hr ir @^ jr kr lr mr nr or pr pr qr rr sr tr ur vr wr xr yr zr Ar Br Cr Dr Er Fr Gr Hr Ir Jr Kr Lr Mr Nr Or Pr Qr Rr Vk Sr v' Tr Ur Vr Wr wc W6 yn Xr  n Yr jf &n |q jf zc tb xi Zr `r  s .s 9l Y0 c8 ~! +s Q< zn                                                                   @s #s $s %s [r &s                                                                                                                                                                                                                                                                         ",
"                                                                                                                                                                                                                                                                                                *s =s -s ;s >s                            ,s i^ 's +i 0j o> )s !s ~s C' ra %8 Ni Md ja Sn X6 *b 9g {s yn >0 la sn (c Xa id ]s ^s /s (s _s /6 :s <s [s }s |s 1s 2s O2 3s 4s 5s 6s 7s 8s 9s 0s as bs cs ds es fs Qq gs hs is js ks ls ms ns os ps qs rs B| ss ts gl *b 28 =b {r us vs ws xs ys ij Yr Hd sf lk ]} zc zs As Sn &4 Bs Cs Ds Es <k Fs ;h <j Gs Hs 4- Is                                                                Js Ks Ls Ms Ns Os Ps                                                                                                                                                                                                                                                                         ",
"                                                                                                                                                                                                                                                                                                Qs Rs Ss Ts Us Vs                         J, Ws U8 jb Xs Ys Zs }e *| `s  t +| .t +t `0 Cp >m j^ Za @t #t mk V6 Ji Lj m6 <8 {9 4n $t e7 %t bp &t *t =t -t ;t >t ,t M^ 't F4 )t U& !t ~t {t ]t ^t n/ /t |o (t _t :t <t [t }t |t 1t 2t 8$ 3t 4t 5t 6t 7t 8t 9t 0t K< 38 at vb s0  8 B( vb id Q6 +4 at bt p8 ma |8 ct dt ,r %t [b et ft gt ht .8 |6 =] <e %a E$                                                                      it jt kt lt mt nt ot                                                                                                                                                                                                                                                                         ",
"                                                                                                                                                                                                                                                                                                pt qt rt st tt ut                               vt  o |e Aj 7~ wt vn xt yt zt At Bt Ct Dt Et Ft 'e Gt zc Ht +4 q: 7/ ml It -0 X6 Jt K4 I5 o6 Kt Lt Mt Nt Ot Pt L_ Qt Rt St Tt Ut Vt Wt Xt Yt Zt `t  u .u +u @u #u $u %u &u *u =u -u ;u >u ,u 'u )u !u B2 ~u r8 P< ,0 ys %t H< <8 >0 >0 $m Ht V6 jo o0 |8 lk dp Bc {u Si ]u ^u /u (u 74 _u ^d *] @0 8h :u                                                                      <u [u }u |u 1u 2u 3u 4u                                                                                                                                                                                                                                                                         ",
"                                                                                                                                                                                                                                                                                                5u 6u 7u 8u 9u 0u au                            bu cu du eu E( .0 *a k< fu (2 gu hu U) $8 Fi }e 82 V8 vh ys |8 iu ju ku 8| C( lu mu wk -0 H< nu ou pu qu ru su tu uu vu wu xu yu zu Au Bu Cu Du Eu Fu Gu Hu 1! Iu Ju Ku Lu Mu Nu Ou Pu Qu Ru Su Tu Uu C3 v= Vu x8 *: /9 %t {9 w8 uf dr P< ,0 Q< Q6 Ht ys Kh Ie 39 Wu Xu Yu ,j gt Zu `u  v .v +v &a ^_ @v                                  #v $v                            %v &v *v =v -v ;v >v ,v 'v                                                                                                                                                                                                                                                                         ",
"                                                                                                                                                                                                                                                                                                )v !v ~v {v ]v ^v /v (v _v                            :v <v [v }v Y2 'q |v 1v .7 2v 3v ~o r, 1a x0 $b rn 4v 5v 6v f^ 7v }v }b mu bl qe qe id 8v 9v 0v av bv cv dv ev fv v1 gv hv iv jv kv lv mv nv ov pv qv rv sv tv uv vv wv xv yv zv Av Bv Cv Dv Ev &5 L4 L4 Fv =b _d Gv ,0 :9 %b xi $m |8 lk Hv lk _9 m9 ha Wu Iv O7 Jv Kv xe Lv Mv cm -0 |8 |8 of ^]                                  Nv Ov                      Pv Qv Rv Sv Tv Uv Vv Wv Xv Yv Zv                                                                                                                                                                                                                                                                         ",
"                                                                                                                                                                                                                                                                                                `v  w .w +w =v @w #w $w %w &w             O  *w =w       -w ;w >w ,w rs 'w )w !w ~w 'b {w ]w ^w /w Et >r [v I< zs (w 4q &6 =b _w Wi )i :w ^0 88 <w [w }w |w 1w 2w 3w 4w 5w 6w 7w 8w 9w 0w aw bw cw dw ew fw gw hw iw jw kw lw mw nw ow pw qw rw sw tw I4 `5  6 uw vw ww xw tb :8 yw pa zw D7 Aw uf /9 |8 p8 So (w Bw Cw Dw Ew 8c Fw Gw Hw !~ 68 o9 Iw to          Ov T4                Jw Kw Lw                      Mw Nw Ow Pw Qw Rw Sw Tw Uw Vw Ww                                                                                                                                                                                                                                                                         ",
"                                                                                                                                                                                                                                                                                                Xw Yw Zw `w  x .x +x @x #x 5(             $x c* c* %x          &x W3 Y5 *x Jo 2= )m 9d ,7 K0 =x =x Fi 6~ #]  l -x )i -6 [b ug ;x |4 20 >x {m D[ ,x 'x )x !x ~x {x ]x ^x /x (x _x :x <x [x }x |x 1x 2x 3x 4x 5x 6x 7x 8x 9x 0x ax bx cx dx ex fx gx 3) `5 `5  6 :9 hx ix jx ep f1 kx lx mx la P4 nx l9 .6 ox !} px t, qx {^ rx sx 18 48 ys |8 _9 |8 __ tx       T4 ux vx wx          xx yx zx Ax                   Bx Cx Dx Ex Fx Gx Hx Ix Jx Kx !) Lx                                                                                                                                                                                                                                                                         ",
"                                                                                                                                                                                                                                                                                                Mx Nx Ox Px Qx Rx Sx Tx Ux Vx Wx          Xx u= x_ y_ Yx          Zx 8- `x  y xj :e 16 26 gb j8 .y l8 +y 7^ @y #y $y %y Ld &y *y =y -y ;y $k iq >y ,y 'y )y !y ~y {y ]y ^y /y (y _y :y <y [y }y |y 1y 2y 3y 4y 5y 6y 7y 8y 9y 0y ay by cy dy ey fy gy q0 H4 z6 (_ 3e hy (n rb 7< Bp iy '_ lk ma wi nx B3 tn jy ky ly my ny Hd &: +4 P4 Ht D7 nx oy !~ Xm       py qy ry r@       sy ty uy uy Z:                vy wy xy yy zy Ay By Cy Dy Ey Fy ~; Gy                                                                                                                                                                                                                                                                         ",
"                                                                                                                                                                                                                                                                                                Hy Iy Jy Ky Ly My Ny Oy Py Qy Ry Sy       Ty j& Uy Vy y_ 6q    r@ z_ Wy Xy 1[ 58 Kh &] Yy Zy `y  z e5 5^ xk .z +z @z #z $z %z &z *z =z -z ;z >z ,z 'z )z !z ~z {z ]z ^z /z (z _z :z <z [z }z |z 1z 2z 3z 4z 5z 6z 7z 8z 9z 0z az bz cz dz ez fz gz hz Lh z6 +4 oa Md gc 'm iz jz kz lz _d uf uw o0 mz nz oz pz -: 'c !f pb jf p: `5 D7 D7 `5 Vu t8  *  * qz rz sz tz ry <#       uz uz uy Z& Zx          vz wz xz yz zz Az Bz Cz Dz Ez Fz s* Gz Hz                                                                                                                                                                                                                                                                            ",
"                                                                                                                                                                                                                                                   Iz Jz Kz                                     Lz Ev Mz Nz Oz Pz Qz Rz Sz Tz Uz Vz Wz Xz Yz Zz `z  A .A c* o% Lw +A Xy k} @A nx ys aj x9 |c #A W) Yy #c i< $A =j 9f %A &A *A =A -A ;A Er >A %9 ,A 'A )A !A ~A {A ]A ^A /A (A _A :A <A [A }A |A 1A 2A 3A 4A 9) Vz 5A 6A 7A 8A 9A 0A aA bA cA dA  6 Vu H4 |8 eA fA ]} 48 gA V) Yy hA Kj uh uf o0 o0 Mr iA jA kA lA l8 8/ mA wn 66 T6 U6 `5 L4 j} j} nA ux oA pA ry qA ry U@ rA sA Z: ,> u= Xy sA       tA uA vA wA xA yA zA AA BA CA DA EA FA GA HA                                                                                                                                                                                                                                                                            ",
"                                                                                                                                                                                                                                                   IA JA KA LA                                     MA NA OA PA QA RA SA TA UA VA WA XA YA ZA -> '; $> '; g& Xy `A y3  B .B J4 C1 !~ _7 b^ +B @B #B [c 9d $B %B &B *B =B -B :b ;B ya >B ,B 'B )B !B ~B {B ]B ^B /B (B _B :B <B [B }B |B 1B N> 2B 3B 4B 5B 6B ^] mz S4 7B 8B 9B c. K> 0B aB bB cB )} `5 dB F7 eB fB gB Aw Ej 4e ho hB id 5v Q6 w8 x8 1| iB jB kB lB mB nB oB pB qB T6 T6 `5 bc >0  6 np b* rB sB rB tB uB .A ty vB x_ @A g& ,> Z&       wB xB yB zB AB BB CB DB EB FB GB HB IB JB KB                                                                                                                                                                                                                                                                            ",
"                                                                                                                                                                                                                                                   LB MB NB OB PB                                  QB RB A} SB TB UB VB WB XB YB ZB `B  C .C +C k& => w2 @C 8- J3 #C $C %C &C *C +6 `5 :9 -0 sb  y &0 Hi ea i^ =C B' -C Wb ;C m0 >C ,C 'C )C !C ~C {C ]C Aw ^C /C (C _C :C <C [C }C [9 *b #a |C 1C 2C 3C 4C D2 y3 g7 5C 6C 7C G2 8C 9C 0C aC bC K4 z6 U6 Kh cC dC _o Lf eC fC )m ~c Tn >0 x8 h7 pB Zg 72 gC hC J6 o9 re of T6 iC q0 q0 jC Q< Pe *2 u7 /_ Vu kC lC L4 tB vB mC nC g& '; Zz oC pC x+ qC c> rC sC tC uC vC wC xC yC zC AC BC _{ CC DC                                                                                                                                                                                                                                                                            ",
"                                                                                                                                                                                                                                                   EC FC GC HC IC JC                               KC LC MC NC OC PC QC RC SC TC UC VC WC XC [[ YC %5 ZC +5 R4 p0 zs `C  D .D 68 pe o0 V6 lk ys F7 lk id Ag +D gl @D #D zt $D %D &D *D =D -D -c ;D >D m7 nz ,D 'D )D !D ~D {D ]D ^D er B( =0 q: (_ /D |B P4 $m Q4 Q6 p0 (D _D F7 :D <D [D }D |D |[ z6 Hj q: 1D 2D f4 3D #} 4D Bs xn >0 L3 x8 bc  ^ 5D 6D 7D q: (_ h7 L4 j} j} 8D la h7 M} 9D 0D aD bD cD dD eD uf q0 L4 fD gD hD hD iD x_ oC k& jD kD lD mD nD oD pD qD rD sD tD uD vD wD l* xD                                                                                                                                                                                                                                                                               ",
"                                                                                                                                                                                                                                                   yD zD AD BD CD DD                               ED FD GD HD ID JD KD LD MD ND OD PD QD RD SD TD F5 B| UD J4 W6 ok VD WD XD ;0 -0 >m Ro br Gv %t p8 =0 tb @a ^m YD ZD `D  E .E +E @E #E $E Qj wr %E &E *b *E =E Kq +k ch *1 gB Pn Pn zc f4 Ij Q< t9 Q< na P< !~ z6 /_ F7 |8 lk 4/ -E ;E >E ,E H5 .6 z6 q: *8 N7 wj i^ 'E )E !E ~E Ii p: (_ :9 &b Lf {E T6 bc Lh j} h7 L3 bc <8 ha wp <= ]E ^E /E (E _E :E zs tf |8 sj q9 C1 .6 C3 tB r= q0 Y* <E [E }E |E 1E 2E 3E 4E 5E 6E vD 7E 8E 9E /[                                                                                                                                                                                                                                                                                  ",
"                                                                                                                                                                                                                                                   0E aE bE ]v cE dE                               eE N1 fE gE hE k) iE jE kE lE mE nE oE pE F5 qE C7 r6 `x Z5 #6 !5 )9 Z0 lo Ji uf >m @a rE >m 4v sn @a Ag sb j6 sE tE uE vE wE xE yE zE AE !b BE CE DE oa ka v5 EE FE 63 g3 Ag Pn wj wj }b >m ,0 F7 <8 F7 38 E7 E7 $m /_ oa GE p8 5v 66 }a 58 H4 J4 o0 HE _c N( ^m hi IE JE :: KE Ii $m na LE x8 ys :9 q0 ME ME L3 x8 uw @a 63 NE M7 Sb OE Bj PE vb &: ,0 ct br sn ys o9 e7 lk C3 `5 C1 QE RE SE TE UE VE 2> WE XE YE ZE `E  F .F +F f' @F #F $F                            %F &F *F                                                                                                                                                                                                                                        ",
"                                                                                                                                                                                                                                                   =F -F ;F >F ,F 'F )F !F ~F                      {F ;; ]F ^F /F (F _F G: :F <F [F A1 }F A3 G5 K3 Z5 C1 |F lk 1F ^0 Cp Kf sf 2F 66 Cp cp Sn sf id Q4 uf Ii X6 @a &2 3F 4F 5F 6F 7F 8F  0 9F 0F aF Yo bF *0 @^ [n cF Q- `m }b ~} xj Cp ~} ch _7 dh H< PE dF *b dh ,0 {9 Ii vb Gv G7 r9 5v /9 A6 D1 H4 R/ qj eF 04 fF gF hF iF em lz dr $m o0 D7 V6 R/ T6 U6 x8  6 D7 t9 {9 B( )5 $0 3e jF tb  l  ^ kF lF Zn mF Yn G7 =0 ij ^m nF uw 66 oF pF qF R= rF sF O! tF uF vF wF xF yF zF N_ 0> AF c} ]) >> BF                         CF DF EF                                                                                                                                                                                                                                        ",
"                                                                                                                                                                                                                                                   FF GF HF IF JF KF LF MF NF OF                   PF QF RF SF TF UF VF WF XF YF ZF `F u2 Y5  G .G |8 ma +6 p8 4v &n gc +G @G Ji #G $G qj Cp Pn 'r Ht ,0 X6 qe C( ,9 %G &G *G =G -G ;G >G ,G Jk 'G )G !G ~G im )i {G ]G p6 3e ga #t ^G ]r /G (G _G :G _G <G [G X6 p8 _m Ro wc vb tb vh Kh /9 A6 T/ P4 /_ Ac bl L7 e/ 14 }G |G ja ;0 Q< E7 :9 U6 h7  6 bc Lh T6 la |8 ,0 {9 id Z0  o Le 1G gl c2 eF 2G wp tb mF wc {} 7/ ke jb fa 3G 4G 5G 6G 7G 8G Z, 9G 0G aG bG S! cG dG eG fG gG $= v_ ~% #> n]                         hG iG jG kG lG                                                                                                                                                                                                                                     ",
"                                                                                                                                                                                                                                                   mG nG oG pG qG rG sG tG uG vG                      wG xG yG zG AG BG CG DG EG FG GG M4 HG IG JG W6 uh 1F |q KG dp m6 7g wn LG MG NG so OG vj PG Yn Ld Je zh p~ [~ QG RG SG TG UG VG WG  } XG YG ZG `G j,  H .H +H wq @H cm fa Cp ^G #H fi %] <G +D +s L' L' 5b X6 G7 tb xi G7 fc W6 tf $H %H &H *H /_ 53 =H -H ;H >H ,H 'H /_ :9 ;0 ;0 D7 `5 jC P4 !~ p: {9 tb '5 )H ~c @b ga lF m6 !H dm OG j/ }4 ~H zc pe @a {H $4 ]H jb 2G Iv Y7 ^H /H (H _H :H e& <H [H }H |H 1H 2H 3H 4H V^ ,; 1- m= 5H 6H                      7H 8H 9H }u 0H                                                                                                                                                                                                                                        ",
"                                                                                                                                                                                                                                                   z% aH bH cH dH eH fH gH hH iH jH                   ;{ kH lH mH nH oH pH qH rH sH tH uH vH wH xH yH $H zH ok jF AH jF BH CH DH EH FH Wa GH HH IH /6 8g I7 !o #0 JH Fj @0 KH LH MH NH OH PH QH RH SH TH UH VH WH XH F8 YH +8 Aj #0 7g ZH =6 A8 ,9 J7 *6 3a E; gi `H  I ek &m dh {} HG .I +I @I += #I :D lm $I %I &I ^i *I =I )0 -I -0 w8  6 R/ t9 &b Md X6 Ag ;I Je V8 Jf Jf >I uc ,I 'I e/ )I 46 ho H/ .a c7 -0 !I +i 26 Ho ~I {I )I ]I ^I /I (I _I :I <I [I }I |I 1I 2I 3I 4I ~% 9[ !% #> 5I                      6I 7I 8I 9I 0I aI                                                                                                                                                                                                                                        ",
"                                                                                                                                                                                                                                                   bI cI dI eI fI gI hI iI jI kI lI mI nI             +& oI pI qI rI sI tI uI vI wI xI yI =7 zI AI BI CI DI %B $0 $G wn Dp EI FI bi <c Vr bi GI Ge T= fi fi p~ HI 2a jb Og 0^ II JI KI LI MI NI OI PI QI (b RI >l Bt SI `y #A |6 TI UI VI WI m8 XI -] B; YI ZI S) `I Fd ch  J .J }b 8v +J @J #J $J %J &J *J =J Tq -J ;J >J 5< ,J EI wc Lh T6 p: Q4 Hd ~} Lj `n #t Jf 0^ 90 'J Yi )J !J ~J {J ]J ro Ct ^J /J ^0 Gv m6 pa (J _J 7r :J <J Fw [J nh }J |J 1J 2J 3J 4J 5J 6J 7J 8J 9J Y3 0J 0J >; aJ                      bJ cJ dJ eJ fJ gJ                                                                                                                                                                                                                                        ",
"                                                                                                                                                                                                                                                   hJ iJ jJ kJ lJ mJ nJ oJ pJ qJ rJ sJ tJ uJ vJ          wJ xJ yJ zJ 9$ AJ BJ CJ DJ EJ FJ GJ HJ IJ JJ KJ LJ MJ mp yn wn NJ lz OJ PJ @n QJ RJ SJ ak T= /: 3a i^ Z6 J' 9l TJ UJ VJ WJ XJ YJ ZJ *l Aa `J  K .K +K (b Cs @K gb #K )s #] $K D, -] j, o, mb +y Fs %K H{ &K >_ <e Ke 53 Nd *K =K -K ;K W! >K ,K P5 'K vl )K !K ~K $t NG yj @a jC T6 Lh P< ja Gd #t Hd 8h #0 <k {K |6 N7 Lv ]K x< ^K Ef 9d 6~ C; V8 Pe xi /K ]H $f _a l8 {C (K _K :K <K [K }K sx |K 1K 2K w= 9[ 3K 4K :] 5K K3 u_ l}                      6K 7K 8K 9K 0K aK bK                                                                                                                                                                                                                                        ",
"                                                                                                                                                                                                                                                   {; cK dK eK fK gK hK iK jK kK lK mK nK %& tx oK    pK T* qK @5 rK sK tK uK x1 x6 vK wK xK yK zK AK )D r7 _c BK tn W6 CK Bc &0 #t >7 2G 9l 7~ 55 $] I7 DK p~ r~ q~ 30 EK FK GK HK IK JK KK LK n4 MK Ba NK OK PK `= )3 00 b0 [k (J QK |6 b0 RK SK TK l~ ci p~ Rg .0 Gi o, $4 UK zg VK WK _/ XK YK ZK `K  L .L +L @L #L $L P< ,5 @a x8 '} '} '} '} na Hd &0 Yn Ag ga *] @8 Pj %L Lo zK &L *L =L Fi bl -L &G }m wh ;L -p 2c Go >L ,L 'L Md D[ )L $B >c !L 66 ko ~L R4 J3 O6 B| .5 {L J3 ]L ^L                /L (L _L :L <L Sw [L }L |L                                                                                                                                                                                                                                        ",
"                                                                                                                                                                                                                                                   1L 2L 3L 4L 5L 6L 7L +w 8L 9L 0L aL bL => ]) Y& C$ cL ZC dL 8D Z5 eL fL gL C2 A2 dt XD iB hL iL jL kL Vl lL mL nL &a oL xi Sn Hd '5 }b <e pL <e gm qL i; rL sL tL uL vL wL xL yL zL AL )8 BL W{ CL <^ >G DL EL t' FL GL )! HL IL JL KL }6 LL ML Xh '3 16 Wc IL NL 9^ 1a 45 ]E OL PL QL RL SL TL UL VL WL yl XL YL ZL w8 E7 '9 ;0 '} )} '} L3 L3 P< B( tb G7 H< Fd 0^ @8 )a `L  M .M +M @M #M $M %M &M *M =M TJ -M J- ;M >M Ke qe wk j^ q: .n B8 U) 'm W6 Ak ,M m9 p0 +4 g7 A6 -5 P4 'M                )M !M ~M {M ]M ^M /M [r (M _M                                                                                                                                                                                                                                        ",
"                                                                                                                                                                                                                                                   :M <M [M }M |M 1M 2M 3M 4M 5M 6M 7M 8M *' ~% D3 oC 9M 0M X5 aM Z5 H5 O4 58 p9 uh `n bM :4 gt cM {4 dM eM fM gM hM iM  o jM +! Xs bp {} +G so Jf Ya Le Kf kM lM mM nM oM pM qM rM sM /1 tM uM vM *o wM xM yM zM AM BM Sm 04 `y CM j~ DM EM FM GM HM +i Fi IM 'j JM KM Ct LM MM NM OM PM QM RM SM TM UM VM WM Y2 du XM p: R/ #a r0 5q YM 5q Aw F7 ,0 hd tb tb Ij 7g pb ci Gf ]o L{ ZM `M U{ Lb  N .N +N @N #N ]J $N %N &N *N ;m Pn 63 Ld ;} xj 6^ G' 9h =N vc f4 ,0 68 48 -N 4/ q8 LG Xm ;N       >N ,N Mx 'N )N !N ~N {N ]N ^N /N (N                                                                                                                                                                                                                                        ",
"                                                                                                                                                                                                                                                   ){ x= _N 0B :N <N [N }N |N 1N 2N 3N 4N 5N 6N 7N Hj sj oy #G 8N tj H5 P4 _9 @a _d 9/ $f &7 9N J9 0N aN bN cN gt k3 Vb ,4 !b W0 dN .f i^ !0 8~ ,e -a ml Dh eN fN gN hN )k iN jN kN lN mN nN oN pN qN rN sN tN uN vN wN xN )3 yN zN AN BN CN DN Sa 1o =B EN FN GN HN IN JN KN LN MN NN ON PN QN RN SN TN Ff 4D UN VN WN w8 :9 Lh h7 L3 2| XN Ij tb vh vb Gv tb Ij :m @0 NE o, <k YN 77 ZN e6 `N X9  O .O +O !J @O #O $O %O &O =C *1 jF ^m sf ~c dm q, eF <k 9b &m 38 p: >0 {9 p8 r6 q9 Vu Z* *O n] :) n] =O -O ;O >O ,O 'O )O !O ~O f&                                                                                                                                                                                                                                        ",
"                                                                                                                                                                                                                                                   :) 3$ {O ]O R! Pu ^O /O (O _O :O <O [O }O |O 0M &5 nx wc NG ~E 1O Q4 _9 mF Lj X0 j, Fi Ct 2O 3O 4O pN 5O ql 6O Mp 7O La 8O 9O o' }e D( xN 0O yt Lo aO bO cO hg dO eO jn lN fO gO hO iO jO kO lO mO nO oO pO qO rO sO tO uO yN k8 vO wO xO yO B0 zO fu CN AO BO CO DO ^D #a EO FO GO HO IO JO KO LO MO #} NO OO PO QO p: E7 bc :9 t9 *b B( Pn cp Ag tb *0 Gv -N `0 RO SO TO 6g +i b0 UO VO WO XO YO ,k ZO `O  P .P +P @P #P -k xb 8< $P >3 Ck W2 nc %P Yy &P Pn *P 38 Tn Ii X6 /9 LG P4 H5 C3 6- t= |D =P -P ;P >P ,P 'P )P $% !P ~P                                                                                                                                                                                                                                        ",
"                                                                                                                                                                                                                                                   e; Z# 7) {P ]P ^P /P (P _P :P <P [P }P |P 1P 2P 3P .6 4P 5P 8^ Ni P) Ro vh Jf m8 Gi )! ap 6P ZO >l 7P 8P 9P 0P N9 b^ Fe aP aP .- 0h bP |4 cP h0 ,I dP eP fP gP hP kc Aa iP jP kP lP jP mP nP oP VG pP qP rP sP tP uP vP wm lA _p wP xP yP zP {h AP BP CP y< DP EP FP GP HP IP JP KP LP MP NP OP PP QP RP SP TP UP `m id Ij P< Ht -0 VP f4 f4 dp &0 Bc {} uf /m Gk zh [m Jf Wc WP XP YP $} ZP `P .H  Q _b .Q +Q ZO $N #e Fi <j [k .0 yk Rg @Q ~1 ej E< Ng {K ]r fc @a #Q $Q br yc /9 lk %Q 9- !% &Q *Q =Q -Q ;Q >Q ,Q 'Q )Q !Q ~Q {Q                                                                                                                                                                                                                                        ",
"                                                                                                                                                                                                                                                      ]Q J| N1 ^Q /Q (Q _Q :Q <Q [Q }Q A} |Q 1Q 2P 2Q .6 kz Wc j/ xk ;I Ag Ag 3Q m8 4Q @Q ho 5Q 6Q $l 7Q 8Q Na 9d 9Q Jf aj Ri 0Q aQ 82 5r ~H Ie *^ bQ cQ dQ eQ fQ gQ hQ iQ jQ kQ lN kP lQ mQ nQ oQ pQ qQ rQ sQ tQ uQ vQ wQ xQ yQ Ha zQ AQ BQ CQ DQ EQ FQ GQ HQ IQ JQ KQ LQ MQ NQ OQ PQ QQ RQ SQ TQ UQ VQ 4F WQ XQ YQ vw &4 'r Q4 ;0 -0 >m tb _m -0 vh Ag er F7 ys qj ke 5l ga vc ZQ `Q  R .R ;o c9 W2 +R @R #R $R {i %R &R A> [k 94 *R (J aj {K =R -R ;R f0 >R ,R cm X0 Uk sc 'R mA /K gq gB T/ )R !R ~R {R ]R ^R /R (R _R :R q= s6 <R                                                                                                                                                                                                                                        ",
"                                                                                                                                                                                                                                                      [R ^) .$ }R |R 1R 2R l[ 3R 4R 5R 6R d* sB rB k} B3 7R zi 8R 9R 0R Lj Ij +b aR 3f +k bR $l cR dR eR M0 T) UJ L/ X0 q~ H/ C; C8 `h jb Ck fR fh gR hR iR jR 7f kR Bf lR mR jP kQ lP nR oR pR MI qR rR sR tR uR Ms vR wR xR %n yR )D zR s, AR BR CR DR ER FR GR HR IR JR KR LR MR NR OR PR QR RR SR TR UR VR WR XR YR ]l er tb X6 ]} Ii {9 $m E7 ,0 -0 -0 tb no h^ :m /6 #t ~} Ke Y2 oe L6 tc )3 UH ZR `R  S Mk .S +8 =n -] -] 6~ I/ 49 +S @S Lv {p ,n #S 5a $S 7^ hm 0k %S &S Fe $c so ^0 |8 *S =S -S ;S _/ >S ,S 'S +$ )S N; 6! V@                                                                                                                                                                                                                                        ",
"                                                                                                                                                                                                                                                      !S ~S 1( a> {S ]S ^S /S h| (S _S B1 j} sB 7- q0 :S th Jo  b >7 <S 8g @a sh xi 4g &B [S }S |S 1S WM 2S 3S Yi 1c 4S fl 5S K' UJ W1 6S 7S 8S 9r >k 9S S{ 0S /e dO aS )k iN lN pQ bS 'k cS dS )k eS fS ym gS hS iS jS kS lS mS `1 nS oS pS qS rS E{ sS tS uS vS wS xS yS zS AS BS CS DS ES FS GS HS IS JS KS qr LS MS NS hd  l dp Gv Kh {9 bc x8 $m at oa '9 g3 ;I ~} OS PS +b Um QS bM h6 RS SS i9 55 Dp TS US VS Fp B8 Rg C; cr WS At XS YS zR xO @e ZS NL `S b0  T 0k &S '3 u0 lb .T pa ~L +T @T #T $T %T &T *T L+ =T -T 2- u# vJ                                                                                                                                                                                                                                        ",
"                                                                                                                                                                                                                                                      ;T >T +C &* $' ,T 'T 5z )T !T I| rK J4 jC L4 H4 wi _9 Ro Vk Ka ,c $P vh sh ~c Je Z0 ~T {T Qb ]T xk %0 oo ^T =x Ce /T (T oe N[ :a $n _T :T <T B/ [T }T pP )n |T 1T kQ kQ kN 2T 3T bf 4T 2: `9 5T 6T 7T 8T 9T 0T aT bT cT dT eT fT gT hT iT /] jT kT lT mT nT oT pT qT rT sT tT uT vT wT xT yT zT AT BT CT DT ET FT rk j^ Ke 1g yc id {9 p: p: oa ;0 38 hd {} (c :d {} cp GT HT Z= R( )5 2b 9g V8 Rj IT W1 JT KT <k [k .k oq &] LT MT NT OT PT QT RT &_  P {| 3o k/ ST lb TT d9 @8 Ee ui UT VT ~% WT XT YT ZT `T .* |#  U #> q%                                                                                                                                                                                                                                           ",
"                                                                                                                                                                                                                                                         .U `& #> 6[ J| +U @U #U $U u! %U UD nx &U +6 =0 Q4 'r j6 9g .k !0 Hd pg *U rn vi !} =U zh -U ;U  ^ /T >U 9c #} 35 Yg {7 *] Po ~] ,U 'U )U !U Hq ~U {U ]U ^U /U hO gO iN (U _U :U AT <U [U oQ }U |U 1U 2U 3U 4U 5U 6U 7U 8U 9U 0U aU bU cU dU eU fU gU hU iU jU kU lU mU nU oU pU qU rU sU _1 tU uU vU wU xU yU tn <8 Hi zU AU Ak {9 ma le ;} @a *b q: q: q: G7 Yn BU TJ CU DU  - Z0 &0 c7 /6 =6 $P L/ tc EU @K RS FU 0b GU HU IU JU KU LU MU NU {| OU 9n PU 0O Vn k, |~ aj io QU RU SU TU UU $' k= VU Y'  5 4H !% u! c, Kw                                                                                                                                                                                                                                           ",
"                                                                                                                                                                                                                                                               WU  A $, Y3 XU YU @< _( v= ZU `U tf I< sf sn cp oe NE -a Ad  V dp yc '5 ^m ga t~ ^G jF jj 3e :: .V ml +V Mq 9b @V #V $V %V &V *V =V 4O -V ;G iO ;V >V hO ,V iN 'V )V !V ~V {V ]V ^V /V m4 (V _V :V <V [V }V |V 1V 2V 3V 4V 5V 6V 7V 8V 9V 0V ^P aV bV cV dV eV fV gV hV iV jV kV lV mV nV oV pV qV rV ng _9 ma oe ^m Ak >} _m 5v %t #b sV .n jf c4 tV =k uV ~: vV wV v> Xs xV yn .a yV {b zV gr 2c AV $S ab hQ DM BV CV `9 DV u< 1: EV FV zK GV HV k~ IV JV KV He kl vj ~c nF y7 .6 LV 0M &5 I> 1[ MV W3 -> -> Z: !;                                                                                                                                                                                                                                           ",
"                                                                                                                                                                                                                                                                  NV ); D3 OV `F B3 PV r6 q8 pg ij jf Lj 63 8g Fd C8 c5 QV pL RV SV &0 53 ok AH No TV Pe bp 4D UV o, VV WV >o XV YV BV Uj ZV `V aS  W .W +W @W #W $W iO %W &W *W =W -W ;W >W ,W @M Y[ 'W Uj )W !W ~W {W ]W ^W /W (W _W :W <W [W }W |W 1W 2W 3W 4W 5W 6W 7W 8W 9W 0W aW bW cW dW eW fW gW hW iW jW er ;0 pe @a 8g 4g &0 kW _m Kh Yn $0 ;^ )d Dd lW mW Cm oc nW oW pW qW rW oe Ni 82 !s sW tW !K uW vW @R WO wW QT xW BL yW zW AW BW <^ N8 CW DW EW FW GW !s Ee M( HW Un `n Ii Q4 wi nx 9- |[ '> |[ C3 '> uz ;> v!                                                                                                                                                                                                                                              ",
"                                                                                                                                                                                                                                                                     M5 IW #5 C1 `x O4 pg -N dt ~c AH h: Ie ;^ |e [m Th Uk Mi Iv @8 ga Wm (9 -N ko JW AU oj KW `1 LW ,I lq W2 MW Mm NW OW PW QW RW SW TW UW VW WW XW YW >G ZW (2 ^k `W  X .X +X @X #X $X r5 %X &X *X Z/ =X -X ;X >X ,X 'X )X !X ~X {X ]X ^X /X (X _X :X <X [X }X |X 1X 2X 3X 4X 5X 6X 7X 8X 9X @p h, ]} vb wc 3e Gk `n &: Q4 G7 Ii t~ ~7 &] [c 0X $M `s ip da s7 aX &0 Gd [m `h !b _6 bX `= 9c cX dX .O q< eX fX gX =o hX iX jX kX lX mX nX oX pX qX rX us Fi If VJ ak 0R no e7 q8 l9 K4 8- r= u_ 7- y_ (r                                                                                                                                                                                                                                                    ",
"                                                                                                                                                                                                                                                      sX wx          tX uX v= LG ;5 vX wX yc %b mp )o xX yX CU zX AX Y0 pa 0^ }e .- BX CX tg yi ia Bd DX pB EX .f $0 =2 FX *8 GX HX @O hb IX JX KX LX MX NX VW OX PX QX 6X RX SX &_ zO TX Yc Rd ^2 UX bf 0: VX WX XX YX ZX `X  Y .Y +Y @Y #Y $Y %Y &Y *Y =Y -Y ;Y >Y ,Y 'Y )Y !Y ~Y {Y ]Y (1 eX ^Y /Y (Y _Y %B +0 f4 hd wc dp '5 :Y rn &0 &n Jh uj <Y [Y }Y |Y 1Y 2Y 3Y 4Y qb .a Jj ~c $0 ;h 5Y a^ v; ;R zV yQ ~V 6Y gg mQ 7Y hX 8: 8Y 9Y ql Uj 0Y aY -J bY cY dY eY fY R( >I gY bh  b ~c pe Hv hY GE la j} b* qA iY tz                                                                                                                                                                                                                                                       ",
"                                                                                                                                                                                                                                                   jY sy Wy !;       3[ k} &5 A6 .G ,r '5 kY 7< lY mY 9O nY zV oY *} pY qY rY 4Q Fe .f ZQ -U sY tY 'e !s uY Fh vY wY Hd 5Y .t xY %_ yY `P zY AY Fa jQ BY CY DY EY FY GY HY IY JY KY LY MY NY OY l4 PY QY RY n/ Aa SY TY UY VY WY XY YY ZY `Y  Z .Z +Z @Z #Z $Z %Z &Z *Z =Z -Z ;Z >Z ,Z 'Z )Z !Z ~Z {Z ]Z ^Z &b j: 1G /Z (Z '5 &n ok )9 ;I 8g 9b _Z Ph :Z <Z  X [Z @o }Z |Z Rj ^m SV 8l g< @p }4 xk Yg 1Z 2Z !E 3Z 4Z 5Z 6Z 7Z '8 8Z 9Z 0Z aZ +Q bZ CL cZ dZ eZ d6 fZ CQ G8 Dd !b =n {7 ok &n id X6 pg T/ 1[ tB j} qA tz       gZ hZ Is                                                                                                                                                                                                                                        ",
"                                                                                                                                                                                                                                                   W: Z& hD Z:          iZ sB V6 Kh kf ga 3f $b jZ Ho kZ K{ `s lZ mZ nZ oZ !: 35 |4 P[ .f TJ <4 *B pZ yp vw qZ rZ sZ tZ 'K 2v uZ vZ wZ @P ho xZ yZ bS zZ AZ BZ CZ DZ EZ FZ GZ l< TX HZ O8 IZ JZ KZ LZ MZ %n NZ OZ PZ QZ RZ SZ TZ UZ VZ WZ XZ YZ ZZ `Z  ` .` +` @` #` $` %` &` *` =` -` ;` >` yK ,` ~w '` rs >0 /6 .n )` ti pL  i Gd zh zh /6 $b !` ~` {` ]` ^` TR /` qW zj Z0 Hd 1= ,c @t ob (` wp mA _` J0 gr DQ :` aY <` [` }` |` 1` 2` +_ 3` 7: 4` 5` 6` c6 7` FH 8` J0 >_ Xs '3 >h lF Kf xj Gv 5v `x Vu jC L4 k}  * 9` v! pA ry s=                                                                                                                                                                                                                                        ",
"                                                                                                                                                                                                                                                   *w Xy pC vB 0` a` +C pC rB H5 sh jf Ka b^ '_ I/ b` c` Lp oZ d` fh e` :6 f` mj g` DQ ^c qo Vp h` ZD i` j9 j` k` 5f l` wO m` n` o` p` `u q` r` s` t` Zb u` v` w` x` y` z` A` B` C` ;M 24 D` O7 E` F` p, @} G` H` Y9 I` J` K` L` M` N` O` P` Q` R` S` T` U` V` W` X` Y` Z` ``   .. .+ .@ .# .$ .% .& .,z R/ kd P) Uh 0r Q) oq {K IT $] $] }m &b * .= .Ln kZ - .Ap zh 2b ; .yh '` > ., .' .k: Q( o, CU 7r `i }5 ) .DL *o ! .~ .{ .] .^ ./ .5Z 4` ( ._ .: .< .BN G- 8O *^ [ .m8 H' } .]o Y0 c7 ^m '5 | .H4 H4 `5 L4 tB uB 1 .1 .ry pA sz                                                                                                                                                                                                                                        ",
"                                                                                                                                                                                                                                                   >% oA k} sB vx nA Z& iZ t8 .6 tf 2 .CX {s 9Q y9 VJ z> EK Mp el Kd 3 .4 .5 .6 .xf _2 7 .)D 8 .9 .0 .a .b .hr R( _J yQ YN 6O #D c ..X d .T[ e .jP f .g .:^ h .~k fO {U i .j .)J 4q ba gF 6o k .l .m .n ._J o .p .q .r .s .t .u .v .w .x .y .z .A .B .C .D .E .F .G .H .I .0X J .mV K .L .M .N .O .x{ [b N< -0 (c zh zj P .cP Pg [k Eo &B 5Y D8 <k Fi q7 .0 -^ Q .)0 R .S .T .U .V .W .X .ro JV .T bi Y .{i Z .}^ 4Z  O @_ ` .B0  .....+..@..#..$..%..cZ &..*..H/ If =...8 {K z> -..;..{7 5g xX m6 ok oy +4 D1 tB b* Xy oA ry ry >..sy                                                                                                                                                                                                                                        ",
"                                                                                                                                                                                                                                                   h& uB sB `A Xy Xy pC ,..iC H5 uh &a On $P '..)..!..~..{..a4 jx ]..^..} .k8 /..(..Rd _..:..<..[..}..|..1..2..U) %O Rk 3..4..5..6..7..8..9..0..2T a..<` b..2T c..2T hO d..e..6o 5D f..qo Qd 5D 3 .xm  S g..h..13 i..j..Ta k..l..m..n..o..p..q..r..s..t..u..v..w..x..y..z..~V A..` .B..C..D..}d tL ;I Hd $m ek ke <S }q io ;h +y .8 'i 8~ Zi N( Ee *^ L/ H/ If E..F..G..H..I..J..yO NK K..N7 Qj ci /w SI gr tl L..n< M..pN N..O..P..Q..R..@..S..T..U..V..f` ab .H '3 W.. j X..Y..Z..`.. +.(c Za .+.ep P4 Q4 z6 jC 7- b* `A uB pA nA Y:                                                                                                                                                                                                                                        ",
"                                                                                                                                                                                                                                                   jY a` b* Xy j} j} j& lC B3 .6 l9 ++.(7 EI =N 2f <e Cp #H .k *N @+.V) e0 vV Df BT #+.$+.X0 %+.&+.*+.$X Ob =+.-+.;+.>+.,+.Jv '+.)+.!+.~+.pR lN jN kN pQ {+.mP ]+.{+.jP ^+.Qc /+.(+.B' 3.._+.:+.:4 Vr <+.d/ *B [+.-+.}+.X( |+.1+.2+.3+.4+.5+.6+.7+.8+.9+.0+.a+.b+./p c+.d+.DL e+.f+.g+.h+.i+.j+.ho &4 ]} :8 )5 Je Ka vj c7 5g 9h Y0 i< Aj [k k+.oq l+.OG oq } .49 Df %! m+.n+.o+.p+.q+.r+.mb .8 3S .f zi 4q #M  P U[ O8 s+.t+.qN u+.v+.]k w+.x+.MY VX y+.Ef KT z+.]7 A+.2O B+.C+.|6 D+.=U 5Y Dd $0 4g na |8 P4 D1 U6 jC b* uB E+.0`                                                                                                                                                                                                                                           ",
"                                                                                                                                                                                                                                                         F+.G+.,..lC C3 &5 8- `x H+./9 Ak I+. a Je ~} c7 J+.qb K+.L+.M+._J 75 >l N+.[1 za O+.P+.:J Q+.6Y iX R+.)K S+.$..T+.U+.V+.W+.X+.~k gO iN fO iP Y+.fO Z+.`+. @.lP .@.Q0 pN +@.MZ @@.#@.$@.e5 A, Pi zp fb %@.&@.G0 $! *@.Ui MK ( .=@.-@.bg ;@.5Z >@.,@.Y9 `J MY Y( '@.aS )@.!@.~@.)d {@.S9 26 (G kd hd AH &4 oe ke wj <m 7g oe Dp |e .b xX  8 g: *: @p j, ]@.#p QT ^@./@.2Y H8 ]7 pL (@.]7 F8 9l !I +| _@.:@.q .ML <@.[@.}@.|@.WG 1@.+1 2@.3@.!| 4@.~| 1Y 5@.6@.li N( m' h^  8 vi Cp 8p uc Rj ;n X6 F7 o0 z6 V6 h7 oA ry 7@.                                                                                                                                                                                                                                             ",
"                                                                                                                                                                                                                                                         *+ sB j} t8 8- 8- J4 r6 aM 8@.|q dp Gk SV #t 9@.)c >7 0@.ZM >1 ]a $V a@.b@.c@.d@.e@.f@.NO g@.h@.6Y 8: LY i@.QT j@.-J y' bf )@.~k k@.lN gO pQ %W l@.m@.n@.o@.p@.0Y q@.r@.s@.t@.u@.v@.(8 w@.x@.e9 y@.z@.A@.B@.:` C@.NW ^V jR D@.E@.F@.G@.H@.1@.I@.J@.yZ K@.L@.M@.N@.O@.P@.Q@.R@.]c /! S@.nb :G 38 dh ub >m PS cp j6 ;I zU 8g ^G i^ 55 /J 7g ne =0 oe T@.fm U@.B@.V@.ZN W@.Wi Ct UJ i9 Hf |6 $c nb X@.'E Y@.Z@./t `@. #..#.L..V+.xP +#.@#.##.u+.T..$_ nY K..$#.b` F8 =U 3Q ga Lj Hi zk <e v9 ~c Ij p8 $m T6 U6 jC qA vx 0`                                                                                                                                                                                                                                              ",
"                                                                                                                                                                                                                                                         Y& hD 8- `5 lC J4 R4 q8 68 lk ct rE #Q Jo %#. b jq )d &#.*#.=#.-#.}o ;#.>#.pl ,#.'#.fm )#.!#.~#.{#.]#.^#.%q /#.(#._#.T0 5T :#.p@.qQ kQ <#.gO [#.`9 }#.AO |#.RX p< 1#.SH 2#.3#.4#.5#.6#.ui K( qc 7#.8#.9#.0#.B..CP 9 .I9 a#.b#.c#.d#.e#.f#.g#.h#.i#.j#.k#.l#.m#.n#.o#.p#.>7 gm ;9 'L QO WN Fv y8 g4 b7 qe .J VP 8h {} tb '9 C( Md &b j' :d s0 n6 qk Zk q#.r#.s#.t#.u#.v#.w#.Yy e5 +i {b =R M( >I Oi {K M( yp x#.y#.z#.A#.B#.C#.D#.E#.F#.$..G#.H#.2^ ~r I#.Kd 07 Pg #P J#.K#.<m 5l Dp Je Kf ;I id /9 Q6 L4 fD |[ '> qA ;>                                                                                                                                                                                                                                              ",
"                                                                                                                                                                                                                                                         a` pC 8D K4 D1 H5 R4 L#.ys Ji _9 wc Gt N7 M#..- 8^ >4 N#.gt O#.P#.pi em .e Q#.R#.6/ S#.M{ T#.|1 U#.02 ^4 V#.W#.rN eS @ .@9 X#.Y#.Z#.`#.%W jP  $.1@.`o .$.8 .;A +$.@$.-l #$.$$.%$.&$.*$.7O (u VS 8d =$.-$.;$.21 _1 `M >$.,$.'$.)$.jW !$.r4 ~$. o 'J .H {$.]$.^$./$.($._$.9/ ub :$.2| )] <$.2| O< O< [$.dF }$.ch ;I 63 PE ld sb fc cp F{ |$.1$.2$.3$.4$.5$.6$.n#.7$.8$.Bf 9$.=B ]| 0h 0$.0$.d9 Ed 32 z{ :..:| a$.VS b$.c$.d$.e$.f$.g$.h$.%..i$.j$.DU k$.7g k: .| GL Lo &] 4g <m 8g h^ ~} xj zh jf pe Q4 p0 r6 3< B6 b* I)                                                                                                                                                                                                                                              ",
"                                                                                                                                                                                                                                                            F+.vg Vu Z5 C3 Vu +6 Dj Q4 Q4 wc !0 _4 @Q Fe Fe $c l$.m$.n$.kR o$.Yg T9 -1 =I [n p$.q$.r$.'7 ZN 'U zR s$.JK t$.u$.AW e+.v$.w$.x$.^f 2T y$.pP z$.gu gt [1 A$.B$.C$.D$.W( E$.F$.G$.H$.I$.J$./d Ho xh (8 +E K$.L$.M$.=W N$.O$.&9 P$.Q$.R$.S$.T$.U$.V$. q W$.X$.Y$.Z$.`$.Gb  %.Fv )] QO .%.+%.@%./c #%.ld 63 ;I $%.%%.C( C( X6 ]} >m &%.*%.'7 =%.-%.)+.;%.>%.x/ 5Z `N ,%.%A '%.2@..f .T )%.Ed +G $6 !%.~%.ky {%.9^ ]%.rd ^%.s+.&L /%.(%._%.:%. - &S rW -b pb 1a ^w en 9Q Fd Jo h^ 7g c7 jf uj n6 -N |8 e7 wi z3 '> *+ <%.                                                                                                                                                                                                                                             ",
"                                                                                                                                                                                                                                                            Y: )% '> C3 t8 [%.%: (m lk }%.tb Ck >I rW !f |%.yk 1%.;M 2%.3%.4%. I 'e Oi &4 Vh L6 's -j 5%.~l `g 6%.7%.X{ W[ 8%.9%.0%.a%.N#.b%.iR jQ w` *l c$.c%.d%.CU Aj e%.f%.PH g%.U{ h%.i%.AM j%.k%.ra !2 l%.cF <G F; m%.n%.|S o%.p%.q%.r%.s%.t%.u%.v%.w%.x%.Gc y%.z%.A%.B%.C%.*6 ~D o: WN h, qe ch *6 p~ VP C( Vk ~} PS /G :e ;I On D%.E%.9/ 55 4D 85 F%.G%.@_ H%.I%.7:  O J%.Up [c k/ {7 K%.1Z Jh wn id vb &a :m g/ x0 -6 L%.Ef M%.N%.O%.;q P%.Q%.2Z M( .b R%.jM &7 b4 }3 g/ p~ S%.Rj 7g ij id id &: LG o0 +4 I4 9- q% c'                                                                                                                                                                                                                                                 ",
"                                                                                                                                                                                                                                                               e> qA ,..k} sB o9 &: |8 ]} wc Za <e X0 :G Pn }$.~} Y0 ~7 9l Ka >m g..oq {d {c Xa T%.U%.W@.V%.W%.X%.N@.*o (1 8P Y%.Z%.`%.{m  &.)8 .&.+&.iR @&.#&.$&.yp _4 %&.&&.*&.v%.db Z9 =&.qr f6 -&.;&.>&.,&.29 '&.~D r4 )&.!&.~&.{&.gf ]&.{T ^&./&.(&._&.,g h3 :&.<&.[&.wl }&.+G |&.pq #a 5b %%.fi m; X0 C( H< 1&.`m ch 2&.~7 UJ 3&.4&.a5 Pg M7 fn )6 Rq j..g@.W#.5&.6&.)| 7&.8&.|6 @8 '^ Xi -a ^m vh Gv -N wc %#.Q( 5Y O9 &7 +P 9&.0&.a&..e ^c A+.qc !b Bk ak Mv b&.$^ zj 8g <S c&.Un -b =b ko Gv e7 Q4 D1 z6 `5 mz Z' a*                                                                                                                                                                                                                                                 ",
"                                                                                                                                                                                                                                                                  Y* Y& b* k} |8 Q4 Q6 q: tb 7g oe %0 &n hd xc je .| Po <k /6 er ok oe pa Yg 6#.d&.A' !p ro e&.f&.d~ g&.6X h&.i&.j&.k&.v; l&.m&.{k BL eO n&.o&.FM ;W 72 p&.q&.r&.s&.t&.%3 u&.S7 v&.fQ w&.x&.y&.$b )p j^ kd z&.A&.]0 B&.*&.11 C&.D&.E&.F&.G&.H&.I&.J&.K&.L&.>#.M&.er y8 N&.N&.dh L' }m t~ p~ /: #H 1g gi b^ jq O&.P&.Q&.>! R&.~b Ri Z..'4 S&.T&.U&.ab 14 8` V&.3 ._` W&.X&.Y&.Z= Wi ^m &: mF Z&.Yn ij no c7 k6 @8 `&.<T I0 Xa )o  *.#A If A+.Xs k6 3f 5Y c7 j6 _7 Ck jb .a )9 `n |q gB sh 58 .6 sj  6 1[ sB oA :# o8 M5 .*.                                                                                                                                                                                                                                    ",
"                                                                                                                                                                                                                                                                  >T Z: qA '} GE P4 F7 vb Gv c7 4g wj xi +*.Ij Ih @*.{l  v oj s0 *2 v9 oj jZ #*.$*.%*.uW K( &*.8$.**.pR =*.-*.;*.>*.N[ w> ,*.pR rN eO 8: S..s+.wW '*.)*.(t !*.~*.z..{*.|+.]*.^*./*.(*._*.:*.q#.xk <*.$6 %6 '9 '9 ZL [*.}*.|*.1*.2*.oo KM 3*.4*.5*.fX 6*.7*.8*.E~ H< dh [8 xj 9*.`m 63 gm /J m' m; (: m' (: VI 0*.0*.Xs a*.2o b*.fF !b N( -a u> c*.kq @} 2d [p :*.d*.e*.8f xf 7r f*.g*.h*.h*.Ak wn yc sf cp [~ 55 N7 L{ {%.xb .n Uk +! 5r =^ i*.6g rb j*._d &0 +b Gs !! xk 7g Lj %t y7 y7 q9 H5 oy  6 L4 Xy ry '> V3 z| k*.                                                                                                                                                                                                                                    ",
"                                                                                                                                                                                                                                                                  Kw sy )} u_ ys lk {9 hd id 32 @b /6 J+.c7 B( K%.l*.m*.jZ ~d Nd 8| '5 xV ~l >^ *A n*.7e o*.p*.q*.r*.s*.t*.u*.v*.w*.-1 x*.y*.nQ z*.A*.W9 |#.B*.C*.D*.`J /3 E*.F*.G*.M8 H*.I*.J*.K*.L*.M*.N*.O*.Z6 P ..| P*.zU 5b *J Q*.R*.S*.ub :u T*.U*.V*.W*.X*.Y*.Z*.`*.9< 4n qe  I @0 h^ @%.8h fi $] w9  =..=.+=.Y0 hm m' 6g @=.)s *e #=.$=.%=.{s j> kb i8 ^c %d FH 4..&=.37  N *=.n+.~p ==.-=.;=.>=.%b s0 '5 xi ,=.&n ~c Fd 7^ '=.dl F< 8p 8R Fi +y 9Q K/ oe dp {9 ys sn AH 2f 7^ .b %0 vh LG q8 q8 wi H4 A6 z6 L4 uB pA jC W3 D$                                                                                                                                                                                                                                        ",
"                                                                                                                                                                                                                                                                     )=.Y* &5 wi uf lk la X6 {} Z&.Ke #0  8 1g !=.|3 Eo xX 91 )5 ~=.Jf Dd {=.]=.>l %| ^=.*m Zs Og Aj /=.(=._=.:=.<=.[=.|d }=.|=.1=.2=.3=.4=.5=.}#.6=.i@.B*.+p Fo -%.7=.kX 8=.9=.0=.a=.b=.Ec T%.^: 7^ lb J' sL Y6 [8 c=.+r y8 N&.d=.e=.;C 30 %+.f=.g=.h=.i=.j=.sb C( ;I #0 p~ /: :e #0 bj k=.2g -h l=.m8 m=.}m #H ;^ $8 Hr %q gu n=.o=.a&.z9 &k 0#.+X p=.q=.r=.s=.t=.u=.v=.d#.5< ij th ko AH .n w=.*C tb &n (m &a sb ~c x=.x9 !f h^ y=.)c `n sb `n Pn sb pg Kh Ld Rj Ka Yg ok vb H4 `x Hv Hv q9 o9 Q6 I4 k} oA 7- vx qy z=.                                                                                                                                                                                                                                    ",
"                                                                                                                                                                                                                                                                        to Y& D1 Q6 +4 T6 |8 vb Ij 8g zh #t $4 ol :J ZH 8h <= 8j 8~ A=.B=.d3 QT C=.^4 D=.[c -a F8 zj E=.F=.G=.H=.I=.Sm 6 .1o J=.K=.L=.M=.k< N=.O=.P=.b6 qx Q=.R=.S=.T=.kX *V U=.V=.-: W=.X=.7v M0 ui }e .0 l*.Za 32 _o _8 :8 kd T- Y=.Z=.u> `=. -..-.+-.@-.%D xj j6 PS zh fi '&.`0 'c VI y=.+i Bd &7 #-.$-.%-.&-.~w H- ZN |o @M *-.=-.--.;-.>-.,-.'-.0N )-.!-.~-.{-.V&.]-.p6 >5 yc dt 4v %0 ea oe sf Ag &n >=.1F dr Ro ^-.!! uc b^ #] /-.vh {9 Ro vh @a sn pg *1 ;m {H Q( #t (-.Hj Hj lk GE e7 m9 p8 lk J4 jC jC pA vx 9` _-.                                                                                                                                                                                                                                 ",
"                                                                                                                                                                                                                                                                        :-.oA ME `5 :S  6 _9 Ii hd Pn AH VP <-. z Z= [-.}-.|-.1-.7d R8 2-.3-.4-.CP 5-.6-.7-.{l dl $^ %6 wj 8-.9-.0-.a4 ih ff a-.Y( q%.b-.vW c-.8P d-.e-.f-.g-.h-.i-.ul j-.k-.z..Rp ]H l-.m-./d n-.]7 N7 !..H/ Uh Ld i6 PE XM z8 o-.p-.q-.r-.s-.t-.u-.z8 *b {}  I +D (G @%.}$.j; HI j> 7g 9h 0O #S v-.XP *g J- GL w-.an x-.y-.w/ e~ z-.0..A-.B-.C-.^n E9 :U D-.E-.F-.G-.H-.lo I-.sh tf xj 9h P[ jz J-.lp qb Xn th Ij id Le nb |e $P mA zh Gv {9 q: &: ct ct (m K-.(T ;r yn vh Q4 la ^9 lk #G &n vb wc p6 ;m ia L4 Xy pA pA hZ                                                                                                                                                                                                                                  ",
"                                                                                                                                                                                                                                                                           uJ )} lC J4  6 .6 |8 Q4 uf pg na On `) c` !H L-.M-.[Z [Z N-.O-.yY P-.n&.Q-.,5 Gd |e ;a 9R zc *C R-.S-.T-. t 3v U-.V-.tU `V W-.X-.@1 Y-.Z-.L8 `-.X+. ;.c+..;.}+.+;.@;.#;.$;.%;.&;.*;.=;.%8 N( Pg z; ]r er ne h, N&.y8 -;.o-.(c 29 NS `m u9 .%.dr @a +D +D L' ch =U YI j, jq 'b ;;.>;.,;.f0 ';.);.j~ r, !;..$.1v ~;.{;.];.Q..s+.57 mX ^;.Xh 'f /;.(;.20 Et |6 _;.nF lk /m _m _d :;.5r <;.[;.]o ~H ia br };.Ag 7g Q( (Z .a ob 4g lk lk ys 5v 5v _m 4v jf fk yj |;.sn P4 +4 P4 _9 &a 1;.oj qq 2;.3;.4;.D1 uB b* y3                                                                                                                                                                                                                                     ",
"                                                                                                                                                                                                                                                                              Lh `x H5 z6 Ht 5;.le F7 pe 6;.7;.o~ !I ~c :m 8;.NL 9;.Kp 0;.$M ,j ue a;.W6 b;. ^ xk nb c;.(n d;.e;.m6 f;.g;.h;.Ae RH *o hR i;.j;.k;.l;.m;.n;.o;.oR p;.u$.S7 q;.r;.s;.t;.u;.v;.w;.}o UR K( x;.RJ {K ;c $b 2f ak #H H< y;.6/ ^0 sb _G >m Pn {} '5 ch ^6 :e ]r A8 >7 'c z;.-B A;.td ]h ;+.B;.Df C;.D;.i@.`J ;@.I%.E;.F;..O >+.( .RT n&.}Y Cs *e G;.'m  a +v mq Xn Q6 H;.P4 {9 Ag j6 AH fp <-..n >r !I VD fa zh xj wj f4 Ij le Ht I;.uw Ht mk Ji ys (m wn fk &a uf J;.th |8 /9 >} K;.-U &8 L;.BU fa sf U6 D1 M;.N;.                                                                                                                                                                                                                                 ",
"                                                                                                                                                                                                                                                                        O;.O;.np jC 8D Q6 at th vh @a Ii hd J+.TI AH vb cp :Y ia P;.Q;.zT R;.S;.$^ T;.GE U;.V;.W;.CX BU X;.%d 7~ Y;.Z;.`;. >..>.+>.@>.#>.0N $>.%>.&>.*>.=>.->.|T ! .;>.>>.LI ! .eX ,>.6Y '>.AP )>.!>._@.~>.{>.]>.ix ,e ~7 Dk TI wk B[ yc Ag dr ^>.P) AH />.h: (>.i: 3Q bj Fj $y 07 ,C _>.:>.:>.<>.[>.o/ PH `N cf }>.|>.8Z `V 1>.2>.>@.3>.Ba 4>.5>.6>.7>.m~ <k 8>.fa ok &n jf uh sn |8 Hv nx `5 8D la pe mo 3e 3f ke 9g ke  a ~} Kj 68 o0 la sj ma ma sn pe tb yc ,=.&n 'r lk o9 9>.hY |q no Ak p6 Fh EI ob Rj pb Ag ]} n9 B| D$ 0>.                                                                                                                                                                                                                           ",
"                                                                                                                                                                                                                                                                        a>.a` L4 U6 T6 le ys vh {} ek Xn @a };.Zn id X6 tb @a uf {9 Hd >m fc tb j6 wn q9 qB ~9 ok 1;.b>.wt el E8 {%.xg Gb c>.d>.&3 I` ^3 e>.fW f>.+>.^k g>.h>.Gl =&.LX qR i>.7Z oR Z-.h@.i@.m+.j>.0F wO CQ 3Y ]d )L k>. T .b fi :8 {9 P< P< na na sb _7 1g m' i^ rL TJ @P l>.m>.n>.o>.^@.p>.q>.{;.v< |7 W[ n4 r>.s>.t>.u>.v>.w>.x>.H9 GM y>.1o nY z>.A>.-..UJ jq pb jF B>.C>.D>.E>.,M F>.sj  6 H4 V6 uf `n oe Ie 7g 8g c7 ~c >m hd o0 E7 T6 D7 mk |8 ]} vb ok jF ij >=.G>.]} e7 H>.I>.sh ko -N Yn ^0 D[ Rj nb P .jF ,=.sh q8 C3 j&                                                                                                                                                                                                                            ",
"                                                                                                                                                                                                                                                                         * uB `5 dB la pe }%.id Pn Ag Bc Ii  y 4g 5g ct ma ]} zc wc &: Q4 w8 x8 ^9 e7 qg 8@.kf %b ;=.so F< Bs w@.E8 2i xX +k 7~ J>.K>.L>.M>.N>.)n O>.P>.`c k..Q>.5O :` ^n 5: 8=.R>.U=.]8 O#.S>.T>.]H ]H :: Tm zk &m U>.(c />.&m y8 ij E7 p: >0 ja 5g 1g c&.cP O9 V>.W>.X>.Y>.Z>.`>.xW U{  ,.V( D0 .,.+,.@,.#,.$,.%,.&,.*,.=,.-,.$! M..;,.>,.,,.<1 -M ',.F' $c b^ zh Cp )%.Fi T) &] VD Kj *C _9 _9 Q4 !~ H4 V6 D7 +4 ma _9 F7 oa Tn 28 >0  6 V6 E7 Ht _m ),.Sn !,.j6 zc KG  y th I-.~,./9 uf 5v xi 3e ha Oi Yi Aj /J mo 5v q9 H3 {,.                                                                                                                                                                                                                           ",
"                                                                                                                                                                                                                                                                        ],.ME  6 V6 _9 mF sn tb No Ag X6 vb ^,./,.^-.5g ct Ro vh pe |8 D7 U6 U6 Hj P4 q9 p9 J4 jo lk +a {s LM (,.dm jb 6g Aj ]d _,.:,.<,.[,.},.|,.[5 #9 1,.2,.N..3,.4,.(e 5,.}7 I*.+p =p 6,.vl 7,.ZR 8,.,c Yi 3f h, <8 wj fi sb 9,.ja :9 oa B( @p V8 ak d5 qc }3 !m .X Wl --.0,.a,.b,.W( AW c,.m&.d,.e,.f,.g,.h,.i,.j,.k,.l,.m,.n,.o,.p,.q,.af r,.bi Y..#K R%.r~ s,.t,.f*.QK o' N9 {H Xn sf /9 sn aM hY uf |8 P4 z6 ^9 _9 uf ct dp 3f Un wj 97 wc X6 th KG lf dp dp .+.j*.Gk AH u,.kW %t p8 ct Kj 7g v,.pb J#.w,.Ni lz |q jo 4< V5                                                                                                                                                                                                                            ",
"                                                                                                                                                                                                                                                py x,.            v! L5 b* U6 D7 +4 uf uh 5v Gv wc xc X6 c7 HW Xs y,.)c 5g )5 ij F7 mk la T6 U6 T6 D7 ^9 P4 B3 8D P4 Rj zj }0 {$.]m 8R z,.lb 8^ A,.~B B,.C,.D,.E,.)@.F,.VG G,.H,.I,.h%.J,.K,.L,.M,.N,.O,.:| P,.Q,.#k R,. | 6^ Gd og f4 +G h^ 8h VP  J p: B( v9 xX S,.K7 T,..- a^ %@.x+.Lp U,.V,.W,.X,.Y,.X#.Z,.`,. '..'.+'.@'.#'.Xf $'.%'.&'.*'.='.L..-'.;'.F` >'.h..!b ,'.JV 9R ''.h..b` 5~ Xs .- 0R #t &n tf %t GE )'.!'.8@.GE L#.pg kW KG vh Ke Cd UJ  b Ie :m wj AH AH KG Yn #Q pb 2f >I ~'.AH &a id vb tb Hd {'.pb 55 ;c -a .8 $P jf mk  G s9                                                                                                                                                                                                                            ",
"                                                                                                                                                                                                                                             ]'.uB F+.            Z* `5 o0 V6 ys Ji <8 ch j6 ^'./'.('.`0 #K &g .S 9O C; K/ r~ c7 +b vh sn mk o0 o0 V6 ^9 ^9 `5 q0  6 &: ,M _'.:'.NO O0 <'.41 P,.`=.['.Sk }'.|'.1'.2'.3'.4'.5'.<` 6'.7'.8'.9'.0'.a'.b'.c'.d'.e'.f'.V>.g'.h'.'#.i'.j'./>.Gs >h Tm k'.K' u9 h, sb '5 qj uc .f l'.m'.ki +o n'.o'.p'.q'.r'.s'.t'.5h u'.v'.UW w'.x'.y'.z'.A'.B'.}>.4-.C'.D'.E'.F'.G'.,! H'.#0 ^G M7 8^ Hf I'.+! !.. v @t Bc -0 ma LG o9 aM +4 sj sj J'.ma | .&n xj j*.ak K'.D, L'.M'.ak Ck {s Cp wj 3Q 3f N'.7^ Gs C8 Uk O'.PG P'.No Yn ke |%.Q'.pL [c Yy EX .+.wc Aw U6 Z*                                                                                                                                                                                                                         ",
"                                                                                                                                                                                                                                              * np b*             r= z6 Ji $m _m ys Kj R'.S'.S'.'..T'.U'.If +i V'.Ai G/ W'.Th zi [ .IT j*.Pn Q4 Ht la o0 o0 U6 D7 o0 ys yc !} X'.gF ]2 Y'.{J Z'.`'.3%.,h  )..).+).@).#).K9 $).Zb %).[` &).*)./g =).SW -).;).>).,).').)).!).~).{).]).Qd _6 {b `y xp :e ^>.38 Q< #a -0 S#.JI ^)./).T[ ().n'._).**.e~ S0 h%.aS :).<).[).}).|).1).)-.U+.2).3).4).5).6).7).8).GV zV 9).0).a).b).c).n~ *R Iv N( := {H Yn P< w8 U6 T6 `5 j} jC U6 L4 L4 oa I< Xn %0 Je d).%S e).-^ r' TT B8 <j NE f).g).h).i).0k >a z> Ys j).k).#8 Qo 'r `n `0 #] :4 G'  - ]>.eF pk ;0 H4 '} D{          5- u7 P3                                                                                                                                                                                                    ",
"                                                                                                                                                                                                                                             b* jC )%             vg A6 hY ma zc wc %0 Hf - .ap Ni Ep ;h IH l=.J7 l).|4 Ee If !..!...b ~'.+G pg ys Q6  6 T6 `5 V6 !~ o9 lo j` m).I0 n).o).p).q).r).74 G- *R ;L cn {).,d s).t).s;.h%.u).v).w).rM 6'.]+.qR x).LK E,.QH |).Cr gN Pk y).Rb IL 9j li z).A).#Q ys ;0 >0 Tn B).C).$=.D).]` E).F).G).1#.bZ C@.H).I).8: M8 I).4Z J).K).L).M).N).O).P).Q).R).DW S).si h).T).5~ Vc qc h0 W0 ,'.Dd U).vc j6 +*.D1 `5 h7 jC jC ME q0 V6 jC '} p: @a Xn Ie y=.)! )a V).G' } .Fi 8^ -] J/ 3~ W).3&.ap c).Vc =..w; y> d5 |6 X).@b 4g 'r #0 -y WP ;L Y).[=.Z).vb ma L3 'M          9+ `). !.`] 2!                                                                                                                                                                                              ",
"                                                                                                                                                                                                                                             r= 7- b*             e* z6 .!.hY qj h^ Ie fr I'.0j Ih 7g TI 8< Fc +!.11 @!.#!.$!.%!.&!.V) =n #8 dp pe Ht T6 q0 U6  6 V6 E7 _9 oa _s *!.1^ AV =!.-!.;!.I- ~i US <p >!.'E kp en ,!.Ur '!.M..RT n&.gX n4 kP iP h .[#.>>.)!.X{ 1: bZ !!.~!.{!.)! ]!.Ys ^!.NJ #G /!._m p: dr SV (!._!.u; oW 7c :!.9 .<!.[!.}!.sl |!.1!.2!.3!.4!.5!.='.dX 6!.7!.8!.[@.9!.0!.-R a!.V).d5 n; b0 o' 90 55 =6 Pn sb @a &n ,=.Ji U6 h7 '} )} ME )} '} bc L3 L3 `5 o0 Yn 3f aQ b!.7>.c!.CM d!.nj e!..L #A f!.%f 0n =x g!.h!.O&.Fk )a 94 Uk TI ^'.i!.1F  a un 5o -p [q 8O j!.k!.Zn $m l!.         m!.n!.o!.`).p!.7q                                                                                                                                                                                           ",
"                                                                                                                                                                                                                                             Y& b* )%             D2 z6 q!.uf Gd Za nb '_ _4 N9 ; .Ie >7 4D a@.O#.r!.s!.t!.E'.ud 05 u!.Mj O9 jF sn ^9 J4 U6 `5 V6 T6 w8 la la 28 ^0 v!.QK )! U) 5c ]4 w!.td x!.y!.z!.Yy A!.@S {o B!.w< C!.D!.hg E!.;).%W nR F!.i%.u&.S0 1>.G!.LL gr !E } .a^ H!.~'.Co G>.I!.X6 $m 5b :m  f ~o J!.K!.L!.H*.x/ 5: M!.N!.O!.P!.C'.Q!.R!.1Y S!.Fm bY T!.U!.V!.W!.X!.Y!.(J q~ Uk lb If 5~ dN '3 8p Kf qj Xn #G uh ;0 V6 D7  6 L3 '} h7 ME ME x8 U6 Lh Lh Ht _m 4g /J -^ Ko 3&.Z!.`!.xe .M  ~..~.wP +~.@~.)6 ^=.#~.$~.y,.^..r' a0 := To +! Uh dp ~'.a^ Q%.@K h..H'.ga zU Le kd [!       P3 %~.&~..G Jt *~.=~.                                                                                                                                                                                       ",
"                                                                                                                                                                                                                                          iY qA 7- y_       M5 L3 Q6 H;.^9 pe CK @b Ie -~.JV [q _l `%.;~.w!.s< >~.%r ,~. ~.7).'~.)~. - 'J i9 ok mk V6 !~ ^9 o0 bc  6 w8 D7 :9 w8 >0 97 `0 >_ $B :l p> +o .~.!~..q |v o; !>.Ha ~~.c` .K w< {~.]~.^~./~.(~._~.T7 5,.tl GN @e }*.14 :~.!1 I/ aj 5l ke *: na uf ma 38 wc Ag CX ;p X&.<~.W+.cf 3>.[~.:1  ~.}~.]1 +Q DN F;.-@.ud 9!.|~.4).{1 1~.2~.H- 3~.<;.i!.4~./'.cr mb L7 .T +a Jo Xn #G lk /_ D7 w8 D7 la x8 ME '} x8 x8 $m Ht o0 Lh mk lk C( fp 5~.y> W0 ah 6~._| B*.7~.p/ 8~.ZO 9~.0~.Lo `S !s /..Gf k, B, a~.0*.b~.`0 Ro -r Uh #c 8O Gf y9 b0 8R :Y G7 I4 60 l!.Z* c~.d~.e~.f~.g~.h~.                                                                                                                                                                                       ",
"                                                                                                                                                                                                                                       i~.uB Xy jC <#       j~.q0 Ji at ma bt ),.dp Jo k~.Rh .y l~.m~.n~.o~.+M GN p~.q~.nc r~.%M s~.t~.+a u~.fc >0 V6 la !~  6 p: ;0 E7 E7 E7 bc r0 {9 er />.gi ak C, [;.v~.w~.]K x~.dN @S T[ O7 y~.z~.DQ gh -B #&.R..A~.B~.C~.&} Ur wV -M D~.sW >! E~.fl Hi <m ja N&.$m Ji {9 *P rE sb Lj =U F~.G~.H~.t+._i gs I~.J~.K~.f~ L~.M~.M~.mX N~.O~.P~.ft Q~.R~.S~.T~.U~.CH :Y V~.ke oe RV W~.X~.:d tb 5v |8 Q6 P4 :9  6 V6  6 L3 h7 '} :9 $m uf @a <8 w8 ys uf *P  y :n Y~.H' A> &S >^ Z~.`~.jn {;. {..{.+{.8).@{.#{.${.%{.sc &{.*{.b!.`L ak C( Ij j6 @g N7 ]o Gf A+.F8 Gd @^ _9 g~.bc .6 8@.LG 9>.q8 K4                                                                                                                                                                                           ",
"                                                                                                                                                                                                                                    ={.np B3 t8 q0 jC {,.-{.q0 D7 /m -N ),.mF ij Kj wj 5l  - g..uU (e ML ;{.|o wW (%.37 ^=.F- >{.f0 ,{.QU ^0 pg ma D7  6 D7 :9 Ii vb na na ;0 ;0 t9 Tn dr sb y{ Ya x9 *R Lo +] y< '{.0O o).){.0P !` !{.e9 ;y '^ ~{.O7 {{.{7 GH ]{.G'.0Q F' .y hb ^{.-] Uh xj B( PE dr 38 Tn F7 F7 jd {9 cp :e Xa ]T /{.Ph ({._{.${.%M :{.x' <{.R0 [{.}{.9 .=! h~ 2@.bP |{.mq kf 4v ko zc 1{.jf CK %b sf KG Gv sn l9 Q4 |8 lk Ht la w8 bc L3 '} L3 :9 >0 ,0 Ro {9 E7 le jd 2{.};.3{.Qj 0Q 4{. ! 5{.6{.7{.8{.h%.9{.p;.0{.a{.b{.c{.&M d{.e{.f{.g{.54 h{.wt .a @b 7g x9 #3 -p ap f/ o~ Kf _d sf $m R/ at Q6 sj p9 q9 z6             Ao i{.                                                                                                                                                                        ",
"                                                                                                                                                                                                                                    )% 8- `x J4 B3 Hj B3 iC 8D Ji sn ko KG uh j{.+v Kf QU k{.l{.f` m{.5Z bZ n{./t Q0 o{.oY ap ,!.p{.7l 8>.uj GE la  6  6 mk F7 Gv vh %t pe @a Gv +*.[$.u9 t9 p: ,0 jf Xn q{.r{.s{.vY 8j bl lp t{.qW !{.Zs u{.iq TT k> v{.@=.-] _4 !` /w _a =B =$.c7 Gk Yn X6 ma jd -0 &m {} ek ]} Ii X6 {H uc i'..z ;n :n Dp ,J 9h w{.x{.]4 &@.y{.1+.z{.@n N=.A{.7#.q, =H B{.ko th GE sn %t uf l9 sn Q4 Ji mk |8 sn C{.Kj hd lk D7 Lh bc bc Lh x8 x8 Lh p: {9 Tn p: t9 [$.#%.sb 8g q~ Fp b!.S).t; D{..W ,@.vM gg W( E{.Cq B#.F{.eY >;.G{. ! DW H{.I{.VJ 80 #] ;2 J{.;a >a Ri }c ]7 vc fk ep P< V6 D7 J4 lC 3P Z5 nx K{.      L{.M{.tx                                                                                                                                                                         ",
"                                                                                                                                                                                                                                    1[ N{.U6 jo nx J'.H5 J'.J'..!./m 1F | .Yn 9@.9@.O{.P{.Q{.N-.3q uL h;.[T R{.S{.T{.y#.c!.U{.V{.Rj W{.wn ko _9 ^9 ^9 Q4 ma G7 wc s0 ng ,=.5b Pn C( _8 :8 E7 p: 38 |8 ys rE wc  l Kf zk >c @t S%.k>.90 {7 pa Gs }~ Zs |~ JV Qj X{.M( k6 Id ]E vh ct @a Gv X6 <8 <8 .+.Je ok 'r t9 Tn dF 2;.>o Y{.Z{.`{. ]..].im Za xj +].@].#b $D #].$].,J %].&].*].-x =].F>.pe uf |8 lk sn uf _9 lk _9 l9 Q4 Q4 jf @t 5l xi 48 ^9 $m mk p: w8 x8 Lh o: Q< b7 b7 na 28 `n p~ :e ub ei !{.y> >{.-].;].$R D!./3 H%.>].Z9 `[ e6 d$.cY '%.S!.,].C=.'].)].yt T) 3S %8 82 O9 g).=x y~.E..!].uj !L ^0 ~].fa (T {].th X5 58 ]].T' Y' ^]./].1- (].                                                                                                                                                                     ",
"                                                                                                                                                                                                                                    )% L4 l9 ;5 _9 l9 q!.I;.q!.,=.1F wc Lj _].:].<].(s -W [].}].AQ S).|].1].2].!7 3].DW 4].Ko Dt 5].Gv wc  y ij ,0 ,0 {} vi oe jF '5 >} th pq wk &: u9 >0 w8 E7 +4 Aw Q6 ma na E7 48 no ^m (c :Y <*.<S 5l $0 0R wp Cd cr )! S'.k).Sb #H er Ij 6].7].8].Jh ^0 f4 I< eF Aj 8>.jd @a /c dh 9]. - A/ n,.~h 0].a].b].c].'` pg th xi Ld 5/ Xn C{.Xn %b Dj bt /!.d].ct ma |8 p9 hY sn pe hd Ro _m ,0 Ii .D VD pk xi ,0 D7 >0 38 $m w8 Lh o: h7 ,0 er id 28 at ~c e].k=.#H Ya [e f].g].%M h].i].j].O~.g$.k].l].LK Z-.m].WO n].Z'.Uf o].p].|].yt a4 ]H uc 8p kz t{.8O Mo q].Do k!.oe ;c 2a X0 C>.yn Bc | .r].p8 l9 58 s].t].u].&+                                                                                                                                                                      ",
"                                                                                                                                                                                                                                    b* `5 aM J;.o0 Ht ^9 ^9 mk %b 4v Kj 4g _].v].~'.w].x].^).J..!;.y].z].|!.&!.r~.=!.A].B].#K <S !,.vb pe -0 ^0 hd ,0 ja yj t{.)i Sn vh pe kd fc Ld XM E7 L3 p: Q6 ^9 Q4 mk >0 Lh Q6 58 uh `n [v PS `H C].ek Ro C( C( Ij )H #t Xn 7g Ii PE Jo D].E].X!.vn {s 8h Ro F].; .Cp 6;.5b Ag (G ^'.G].u; H].I].m4 J].DM #R K].L]./} yc sb hd wc tb |q dp kW pg M].>=.-N pe N].th )'.wc O].I+.CH #t ja  y no 1{.uj b7 mk U6 r0 $m p: p: :9 Fv bc vb Yn rE at o9 qk _` 6g gm ei P].TT - .Q].'].R].S].T].O).U].V].BP `J SH 6: I%.{;.W].X].8 .Y].Z].`].O9  ^. ^..^.Ep NJ +^.^'.@^.>7 #^.$^.DQ `2 (6 %#.b;.jf yi 2 .ko %^.&^.%Q z7 vp                                                                                                                                                                      ",
"                                                                                                                                                                                                                                    )% L4 D7 Q4 ma uf Q6 V6 o0 4v Ak :Y Do Hi io _4 *^.Mn d{.=^.-^.%!.;^.&_ v-.>^.5a ,^.D~.nq @b wc '^.vh G7 ]} (-.Ij '5 !%.X@.Cd Hd yc Gv sb ,9 pB g~.)^.L5 x8 P< Q6 Q4 na <8 at |8 P6 ;0 b7 cp %b [v &n @a ]} ]} ]} +*.jd [$.6;.{} qb !^.~^.{^.]^.4o ^^.<= b7 Q4 hd _9 38 *P h, H< 97 oe /^.(^.8d 7#._^.:2 DM ZO Mn :^.<^.Wp [^.On j*. a }^.mq 5].j*.|^.wh 1^.lz Jh yn (T @t zi )%.zj )9 zc Ro 5b vh ,=.5v mk  6 p: Q4 Q< 38 :9 Lh w8 };.VP 2^.&m 3^.4^.3~.,7 ;h b^ 6g 90 a^ 5^.6^.7^.8^.9^.0^.7!.4!.a^.J].q,.Sa MK W+.b^.c^.*>.E` d^.e^.z@.;r th KG 9p V~.mq Wn [m Q .^=.T{.+O wm ('.ga .n U;.f^.g^.h^.i^.j^.%Q ,E a*                                                                                                                                                                      ",
"                                                                                                                                                                                                                        L5 'M 4H :# vx j} q0 U6 j} U6 o0 t9 mk Q4 th CK k^.kY fr e9 ah l^.en m^.n^.CW `{ o^.p^.s~.q^.jM r^.fa `n Z&.hd -0 bt uf id s0 ;I 3Q x0 pb c7 >m -0 s^.t^.@v       u^.s9 /_ Q4 Q6 Q6 o0 _9 ^9 Ji P< ;0 na V6 wi *U er Gv tn {} nF f4 y;.xX _'.tW ;!.`&.t; ~a v^.0h Z0 p: t9 jd id jf dp ek w^.5;.#a <m (Z &B C+.Z) }e x^.zV y^.T{.]h fZ 0~ z^.A^.[4 R%.2f io l+.k>.k>.#b :Y lo 7D {].Dp 6l Bk 9h Rj (m pe GE pe pg pg ma p: T6 la P< Ht p: Lh Fv B^.C^.D^.G> E^.F^.G^.>'.3S H^.2a ~'.=N Fi G' -..I^.EW J^.K^.e$..M |!.L^.M^.5` N^.J).E;.C!.O^.o+.n< >'.zl XD tf qB Yr ok uc jq 7^ ;B P^.Wa +| 9Q mq Xr On Q^.*U R^.S^.T^.f7 Y5 U^.                                                                                                                                                                     ",
"                                                                                                                                                                                                                        +A Y& '} tz qA vb ma |8 bt Kj vi V^.g*.uf lk ct br _].W^.,R X^.Q) r, _l v, Y^.I- ,! Z..r; Z) Z^.ea fp sf tb hd Gv <8 lk nF =b /6 55 uc K' (c *C *b Ei `^.             /.B^.Q4 o0 V6 p: {9 lk F7 $m P< XM P< Gv yn ha xg ./.+/.@/.#/.$/.>7 -} {` Q&.CM %/.FW &/.*/.:m #t Le ;U h9 #b 7;.v9 };.-0 <8 qe />.`0 F< =/.i*.]o F' -/.;/.##.>/.6=._2 3q <..4f Gs Ni Mj 9Q k>.pk mo wn wn uj ,/.'/.]..8R vj tb vh I< ka b7 ]} lk >0 V6 la ]} ,0 Aw g~.o8          )/.!/.gF ~/.gt {/.=#.]/.`0 1g Y0 #b U).}e ^/.B/ Ca //.J~.(/._/.:/.Q..</.[/.}/.RY |/.*_ 9F 1/.2/.]C XD R^.3/.b;.9b w,.<S 4/.Nn d5 qc 7l Xr 5/.6/.7/.7D 8/.2 .nx 9/. 5 tx 0/.d' 6+ Is                                                                                                                                                          ",
"                                                                                                                                                                                                                     E~ TV re |8 Fv =k a/.)9 ea C>.Un ;c b/.c/.d/.e/.Ji ma xi ,'.e).f/.f0 &!.g/.!1 h/.i/.j/.k/.''.qb ^-.rb uj dt mF mF zc Ro {9 `n ~c 7g Dd #] hm >7 v9 [G l/.                  m/.R/ +4 |8 oa mF uf 48 _9 /_ P< ,0 j6 $P !..[c 4q }g n/.=#.Q9 /J Gs o/.p/.q/.Mn ;;. n *2 r/.&6 s/.t/.u/.-] IH t~ ;I c7 {} ek ja PS ~c +G +G [m (s j~ v/.1Y w/.T&.`'.x/.0O Q .2f Sb 9h <-.)c Gk y/.@G p8 /9 I5 |8 ,0 &: mF =b CX 9| LJ JW W6 66 ys +4 Q4 2 .4v ys 2| ^]                ;3 03 gt sl $M z/.X0 (c {} GT +b ;h .i m$.Tr A/.B/.C/.(3 E'.(3 D/.a@.E/.F/.og [v G;.$y yj oB I+.Hn f^.+^._` fh G/.<e Je /6  b ]H dl H/.bi I/.uc W~.J/.~L r].qg +5 ,E W3 r= F+.K/.                                                                                                                                                      ",
"                                                                                                                                                                                                                     L/.1{.1| M/.N/.O/.P/.X=.+R .0 (J m8 4f )` Q/.|q %m hY Ii SO U'.R/.Qh %{.S/.T/.U/.V/.!c |e @t jF xi th ma _9 Q4 ;0 Ii rE }b &0 Gd zU >3 Le  I /6 y;.g4 rz                      zn D1 lk -0 tf 5v ma uf Q6 D7 >0 hd 8>.Ni W/./d N-.X/.Y/.ho A).6g ;^ Ep $- 1g 7g c7 {} Z/.`/.)6 w&. (..(.ir hm A{ 4l +(.@(.#(.$(.rn :m @b ~c %(.2S 0;.n'.&(.*(.[= =(.[ .V~.Ih Uo zi *n .n !H (T Yr D7 Q6 ys Q6 P4 T6 P4 -(./K !I !L Yn 66 /m pe b7 Gv ;(.e7 p0 2| E2                   $@.=p BQ <1 X/.:J 9d nq 4g -n N'.3f *] cP Sj u5 >D >(.,(.'(.6>._u Fw xn -N /9 I< TV gB vi (7 )(.cl !(.5^ 8Q 6..N-.)3 )o ~(.mc &p {(.N-.](.3~.<q ^(.;r g^.9>.p9 58 J4 jC )> l}                                                                                                                                                       ",
"                                                                                                                                                                                                                  tg /(.Hi K/ SI >j 24 ((.gQ ]3 {K aj _(.5g {} no 'r at la ^9 /c =U il Oj =g :(.<(.p^.yV Un qj Gd Jo No %t Ht _9 mk 28 er cp 1Z !d )o !%.#0 }b [(.}(.|(.                           H; r= ys Ro vb /9 lk pe sn >0 :9 la ch /6 1(.2(.3(.4(.5(.=N UI 6(.+b f4 &m sb  y {9 w4 7(.8(.9(.34 J..@i {%.{K x;.0(.;! a(.I{.b(.c(.#] 3Q SV %0 K/ d(.g].,R 4a e(.TI [m wj hd $G Y0 5l ke (T ij uh dB `x r8 Q6 Q6 T6 la Kj .+.Xr *C uf |8 |8 _m ij *C &0  6 R/ D2 zn                   f(.X2 x+.#M 0~ HV &g V) cr Fp  +.TI H/ Ge VI 2a uc $c x, tW 7#.g(.h(.*U i(.dt sn ma th sf Le ix l'.W'.j(.k(.cg ZO ~a 0P l(.m(.O8 n(.o(.5..p(.xt p> D%.CK )'.`U q9 .6 J4 K4  /.N5                                                                                                                                                    ",
"                                                                                                                                                                                                               e' G7 :q )c *^.q(.79 P>.r(.s(.t(.Ko u(.!,.| .&n 4v jd Ji Ht Ji na C].C( p~ #8 v(.w(._Z )%.Ie zc -N dt | .at E7 Ji _9 <8 +b #0 wt !..!! x(.Dd &e y(.z(.:-.                              -> +4 66 p8 th th ,0 Ij _9 w8 x8 Lh x8 E7 mo K/ Q( CH Co ko th <8 lk _9 _9 uf pe zU A(.B(.5,.C(.D(.E(.*%.h..Yy 5o F(.G(.oZ uL H(.I(.J(.c/.ke PS K(.L(.M(.N(.C{.xj %b 1F sn O(.lo ij CK vh _m ys wi `x Q< vb +G 0R ~c wc F7 28 lk ys hd vb ko I< 4v wk D^.)^.W:                         3^.&B lA Ja !1 Mn wV GL G/ Sb Jo Hd k!.UI Ep oe <e NE -k A,.ha C{.)'.F>.)H >=.ma aM P(.U;.mb Vn f/ 3%.:2 Q(.<1 R(.m;.S(.,H T(.U(.=! V(.y#.-M R'.W(.ij | .*U i(./9 q8 +4 vg X(. @                                                                                                                                                 ",
"                                                                                                                                                                                                               ]]._].8g bj K' Ih E%.vn r~.Y(.Z(.`L ]!.`(. _.l9 br K-.Ro Ii Yn Pn ~'.h^ {} ja No fp Ep Y0 Gt Hd |8 Ht ^9 mk uf F7 28 9,.*6 >I *R ._.QV Oi $b 6/ +_.                                    'M of R/ Q6 %t id Gv 53 xj >0 w8 Lh h7 h7 p: PE <8 ;0 w8 V6 bc  6 V6 la Q4 (-.dp $a @_.#_.&V $_.%_.&_.u4 Dd 8g *_.ra =_.LY bf  N -_._@.;L ;_.>_.kW %t F7 Q< F7 le mk Ji _9 p8 ma _9 Q6  6 :S nx aM e/.s0 (T zj j/ {s ~%.th la D7 r9 id I< &a @a ,0 /_ ,_.                                 G< k: f/ {K =;.QJ 10 Vn _;.[m cp .a pb !b =..)..e).5r 7;.b;.ko pg M].#G 2 .tf q8 J;.W{.]!.,R [q nX t!.,].'_.)_.!_.},.~_.{_.]_.lZ m^.h..26 Xs ^_./_.mo Ac xn sh e7 Q6 S4 M5 ={.                                                                                                                                                ",
"                                                                                                                                                                                                               |B le 8h k=.$~.8O a$.${.x#.(_.__.p^.:_.%].%b F>.Sn <_.{H pb i9 Ih zk Th Ih  y |8 b7 &n `n Z&.$m +4 ma sn +*.@a na vh #H *6 K' +y $8 ui >7 1g [_.}_.                                          F~ p0 jf Ak *C ^m wj Aw D7 $m t9 Ji 38 t9 38 ^9 D7  6  6 Q6 _m Md vb 1F .^.AH |_.1_.2_.3_.H@.$p 4_.k&.er Ke uc 5_.6_.n` 7_.8_.9_.}3 pL ij +6 i(.uf 38 le hY pe ys Q6 la l9 Hv wi Ji mk pg fk 0_.;c Sb >h Ai  i '5 H;.P4 uf br yc sf q: hd X6 |C a_.                                 b_.,m c_.6#.J' ,m 91 r~ b^ IT Kf  a Ie #] B> M7 [ ..T QU  ^.I+.W{.KG /!.H>.i(.9>.d_.Ak kb 26 q` ZO ##.MT e_.f_.-l jX g_.g%.x%.h_.i_.YH ]!.H' j_.k_.l_.Wm [v %t qg P4 1[ D{                                                                                                                                                    ",
"                                                                                                                                                                                                            2K {,.>0 =U Gs Qh A, m_.n_.o_.p_.q_.9k r_.i!.| ._m 'r s_.#] N7 _6 t_.t~.je uj ys _9 ys uf _m ),.5;.Q< ma jd {9 8h y{ $0 l*.VJ -] J' k6 9R Y6 1| j7                                              Cj T/ (7 M/.(T Le Cp X6 (_ b7 %0 6(.j*.Ep u_.mq Cp dp uf '^.v_.w_.x_.y_.z_.:m !d A_.7Q B_.C_.D_.E_.F_.Lj j6 ;I >3 G_.H_.I_.J_.K_.kp z_.{} vb vb G7 q: pe &: ,=.br aM .6 pe br =].P'.b;.j*.<S je )%.[ .Rn L_.VD vh J;.P4 &: Yn xj Ld ys x8 $m ^_                                                 /h )9 zh ea NE X0 1g }^.Hh K%.UI M_.N_.O_.P_.Q_.R_.S_.-N _m LG q8 8@.T_.U_.* .o ..q x' df wW V_.rQ V{ W_.X_.}@.'(.RJ Y_.GL Z_.C- Rh Cd ar `_.,M /9  :.P4 ME l}                                                                                                                                                    ",
"                                                                                                                                                                                                            @v Lh 38 ZH k6 Z_..:.+:.@:.#:.$:.%:.c).&:.X~.th >5 *:.=:.F8 &R )].yt G' .n gB |8 _m J;.uf ]} ma P< E7 $m dr _9 !d f: |e 8^ d9 Pg 'c hm -:.                                                      V5 D2 ep M/.{d Jh (c Gv Q< f4 .b 39 'c $c Og wp  +.To OJ ;:.}c SI 2c en X;.5Y >:.q-.](.,:.Y( ':.):.!:.7;.zh ~} ^G ~:.Wb {:.]:.^:./:.(:._:. n ::.cl C>.Bc Co xi ko sn pe <:.[:.D>.=m QU 8>.!I QU r^./,.PG sf sf lk %t ys Ro tb `} y5 J< }:.n: |:.                                                1:.2:.&4 ;I +a c7 _G ha Rj Qo ek %m 3:.4:.5:.6:.7:.>=.le /_ la la )'.d7 nS #3 c` 8:.AP 57 @..3` 9:.0:.5Z cf /t a:.b:.F{.4Y 0k )s } .&] =m Yr &n n9 wi D7 h7 *~.                                                                                                                                                   ",
"                                                                                                                                                                                                         )} x8 (_ uf &n 9R /J d9 b!.c:.<Z Y/.;!.Vn To d:.e:.f:.r).:3 `i [=.el Gi -~._(.38 T6 uf mF th Tn Ht 28 ,0 id Je j*.#0 J/ 5~ L7 Og `h i^ g:.h:.                                                      ]] i:.lo Wm o6 &n *C @a F7 ^m yn b;.Jo j*..a  8 j).r' Fk f].I^.%{.^w Gf a0 =6 /J j:.k:.PH )j l:.m:.Xj Ek HH :n 9R n:.{p AT o:.p:.DP I{.GV l{.x, gb Z..cP q:.r:.%b dt SV 4~.s:.Q%.[c t:.zk yj @b id _9 p: T6 o0 F7 $Q wc sf kf v9 jf n:                                                             u:.v:.w:.f8 x:.y:.z:.Ld wc hd .!.dB H;.A:.B:.L#.{9 E7 {9 c7 ~c 2 .jf >m @0 C:.D:.cR [^ n&.E0 9:.EV n4 E:.` .37 DN ^2 F:.G:.c0 si ]!.1q ij 4v qg wi Q6  6 L4 0>.!%                                                                                                                                              ",
"                                                                                                                                                                                                      me {9 =b er {9 /c H:.wn #0 Ih =a >U ~{.](.:;.T=  u I:.J:.AQ K:.L:.M:.N:.oY O:.P:.jd P< %t &a yc Pn *P Cp vc fp zU Bc Co Dk Mj K%.9g :m Q:.du R:.                                                         :! '5 TV TV zs lo jf lk wc Ro Ij rE C].~c >m v_.a0 zN *g Wj 3Y S:./..T:.qc Qj Bm U:.V:.Y[ #>.W:.G(.-!.Zy K( Y].X:.:2 T(.5: D0 Y:.R!.Z:.);.]` R&.g(.%0 C{.h*.pg uf Gh d).^{. R 7l `:.-(.KG pg 5;.D7 T6  6 Q4 Jo Rj ^0 Dj G7 -;.y8  <.                                                                                 &a Ro hd Ij W6 ys uf uf 8@.7/ b>..<.Mi Z^.+<..T @<.#<.&&.@_ U{ e~ 4).N).E#.V..LY n,._%.o(.Lp {a $<.%<.A].m^.Pi &<.*<.1F 9>.8@.&U p9 .6 =<.D2 -<.                                                                                                                                          ",
"                                                                                                                                                                                                      ;<./c )o =U ><.ll 'r wc ;n 3f z@.en Ur ~^ ;o ,<.'<.)<.!<.`M n&.,G s< ~<.`= {<.ke {} le pg id bt Ag Gk BH +a Gd jF Ij 38 +*.^>.R/ LE Fv D^.                                                                  1| &: '9 TV ^0 [v ;} hd <8 {9 ]} {9 dp >m NJ HW mb 4^ LT :3 w!.f` ]<.d/ ^<./<.(<._<.:<.<<.At nc 0P -..us b5 a:.[<.D*.y' }<.LY  ~.tW |<.1<.J0 yl  y Hv Ji sj LG 2<.3<.+^.SV nF ,=.N]._9 lk Ji D7 V6 +4 yc =m 1= m6 =b  y +%.VN j~.                                                                                 Q3 ^_ Fv *: lo &n >5 4<.7:.&e {I Z=.Tb Wn 8p pb EI P9 5<._t +>.6<.7<.8<.ze W!.9<.G^.fZ w&.0<.S} '! a<.b<.D~.If  i Xn >=.9>.8@.L#.q8 +4 Ah g~.M5                                                                                                                                           ",
"                                                                                                                                                                                                      Q:.ub nb 91 Io h(.6/.+z c<.d<.e<.f<.#E g<.h<.i<.xX j<.@M bf D/.|!.k<.Nm k{.R%.*n ;n na +*.Ii %m Tn zw ^-.9g 5g '5 Lj qe cp PE l<.5q |:.                                                                     @v (_ oa q: *C =b wc vh X6 F7 >0 :9 +4 j6 m<.^'.B; -a n<.o<.p<.n+.XO q<.)D Ck e].$k 72 =;.z@.V{.r<.C, <J ]J s<.t<.+Q U(.u<.ej `!.Ln /..v<.w<.,/.vh x<.mk _9 uf G>.G>.y<.z<._m J;.ys Ji at Ji o0 oa lz A<.nq q:.gc Hd dF 2&.C~ B<.                                                                                 C<.      D<.E<.-L F<.G<.H<.I<.J<.po K<.je m6 L<.C>.g9 ('.SI M<.6<.N<.( .O<.!| S]. ~.N!.Nk WG P<.U) '! %{.W) Q<.@t R<.uh =].S<.-N uf |8 /_ np v!                                                                                                                                           ",
"                                                                                                                                                                                                   PE >9 (: :J Ce T<.Y .VS Y/.U<.%q >%. m 8~.V<.W<.X<.Y<.Z<.)K `<._!.$_ 9;.PU  [..[._(.)c CH Z0 %0 %#.5g J+.Ie Qo @b />.Ka 8h [8 >9 [$.}:.                                                                           +[.XN l<.wk *b Q< &a id Ij F7 Lh Lh Ji yn .b di u0 N( @[.%_ c$.)1 #[.s&.x9 Mi Ge io Cd ei ~'.qL Y0 $[.%[.`@.%! HX &[.~>.}6 AV v> ~b ke Ag Gv ),.X6 ^9 _9 le pe bt Q4 le /m aM Q6 Ht mk +4 Ht hd *[.#P [=.yk *b Hd |&.D~                                                                                                 =[.-[.!E ;[.0t >[.,[.r,.'[.Ct #] .a C>.8p Sb jM 49 )[.5: ![.G%.W+.^;.wW #O ~[.{[.>G U-.][.^[./[.H'.N'.ij )'.ma Yn lo TV uh sn e7 h7 iY ={.                                                                                                                                       ",
"                                                                                                                                                                                                      ek m' SI lZ oY t> ([._[.{h K~.J^.l(.:[.<[.zQ [[.b3 }[.|[.1[.2[.W7 *^ 3[.K' g3 9g f).4[.5[.6[.7[.K%.:q >7 3{.UI .b C>.(G Md zn 2*.8[.                                                                                 B^.Q4 Aw w8 <8 *C Gv Ij XM )] L3 G7 oe 8p 9[.''.*e 0[.FL &N &(.9~ >a o' #0 Ld K-.%b AH wj PS oe a[.B+.WP Mn b[.GV 7#.Vn J/ Bk wj {9 ma Ij dr ma wc Yn 3<.Ih r:.qb zc e/.Q6 ct kW lk D7 X6 Rn w<.c[.kz d[.e[.u-.                                                                                                   f[.g[.0b $k h[.i[.j[.gs k[.`u ~H .n vj 8p >h Ff 05 td l[.m[.m[.}!.|7 DL H*..S n[.m:.$p d` %S #K #K o[.%b hY hY 1F f^.dt th &: Q4 U6 )} p[.e*                                                                                                                                     ",
"                                                                                                                                                                                                   e;.oe ~(.Qj vn _a q[.+q J..r[.Sa e6 ~6 s[.H].e-.X].;/.t[.Rd <o [&.<c E' BX %%.8>.pL F' c0 -...- u[.xi =].wj +b PG 4g dp {9 v[.                                                                                          60 P4 P4 R/ /_  l _d p6 &0 $m Fv >0 sn Cp ~'.w[.,_ qb .0  - x[.c).z> $c }b &m Ii rE };.rE ja ga Y0 g< o~ 1c {w g..ap J#.Ck Cp y[.hd >m (6 :;.z[.A[.B[.qq s,.S%.pk vb J;.o0 ma &: {9 la ct lz D%.Cp Yn =0 |C                                                                                                       m..]C C[.30 D[.E[.,1 ]8 F[.G[.H[.~: I[.cm TJ 9c 8n *@.J[.K[.S..u+.1: q< D,.ag L[.M[.N[.]o Gf h..Z=.(@.+^.X).Jn W{.{].y/.ko G7 _9 wi K4 vg a>.O[.                                                                                                                                 ",
"                                                                                                                                                                                                P[.F, Q[.TT K'.6~.y~.R[.6P LZ D:.S[.`V E,.fX iX g%.T[.7P );.*^ SJ lb :[.*g v_.-n 7l _4 U[.V[.+B rW Uh  y wc  J Ie Ih rn Jj #a V5                                                                                           2| !~ z6 p: w8 wc ep Le )9 dF E7 :9 t9 Yn wj Sn Sn k!.Y0 w,.W[.T) mb Rj C( Ii Ij id vh xi <m =U Fj X[.`0 6g T,.r' x9  8 8h pg k^.Hd zh P[ h..#A 8O a4 l8 6^ {H PG uf Q4 ^9 8@.-N e7 ^9 mk bc Lh _9 ^9 q0 7-                                                                                                       Y[.'5 dm A,.0D Z[.`[.]j F9 h` .1  }.^7 b^ 5^ 0b j>.8P ;{.@..mX *@.<^ ~_.`+. } y)._b .}.*m Gf 5~ +}.cP v].V~.Hi j*.ok fk zc Gv LG aM H4 D1 qA rz                                                                                                                                  ",
"                                                                                                                                                                                             @}.T= #}.K'.e).A> )s di yk d/ :3 .q $}.bZ %}.X{ r5 3>.&}.CP zm Xa Uh l=.n; Ys *}.Po 7~ XI =}.aQ -}./c %%.;I 1g ;}.w@.9^ 6^ 7g .%.o: s9 B^.k^ >}.                                                                              ,}.'} U6 I4  6 'r mo Z0 (c C( *b >0 P< 5;.Ji Ht Q6 lk 66 '}.dp AH +G  y <8 28 at pe xc C].wj #H Uh )0 nb oe +b J+.k_.Co *P <m 3f 4Q d9 h..K- =^ >a N9 W^.6^ RV -r Q6 |8 5v yi 3/.uh |8 Q6 P4 T6 +4 D7 T6 Y& )}.                                                      !}.                                          ~}.p: p8 no fa {}.]}.^}.>$.S(.n/./}.yR {7 >I x[.Zy Be gs S..>,.[/.N~..Q (}.`J 4T MY _}.:[.:}.Z_.a~.<}.:q [}.Cp ;n j6 Rj B{.-r ~,.ct l9 %Q u=                                                                                                                                     ",
"                                                                                                                                                                                          J6 oj <e w9 Qg +8 N9 M7 [e K' #V }}.`{ bg r>.|}.iX 6: ![.r>.1}.Y!.K' Sh Ys JV @=.JV 10 ,^ Ed Z^.2}.i: ^r vj 3}.X0 *..4}.RJ lY er na R/ uw WN 5}.6}.                                                                              M< ME L3 T6  6 Z&.~c fa {H Kf {H yn t9 dr dr hd Ro vh $Q 7}.c7 '5 PS :Y '5 G7 Q6 ;0 ak kq Xi 8}.]{.R&.9}.4~ ^G No rE b7 ]} 0}.li Zy k8 v> } .a}.b}.Xs W'.`0 zc |8  6 5v /!.|q ),.uf $m mk +4 V6 D7 D7 x8 rB tx                                           c}.         d}.                                          K3 ^9 Q4 vi Rj #t e}.f}.l:./%.[<.g}.*B el h}.{7 <-.:| Np ZO {2 CW 4).i}.W].j}.TX x].=B |<.;..k}.xt l}.#3 <J 9h <e jq Bd Ac Yn %t uf e7 f7 S4                                                                                                                                     ",
"                                                                                                                                                                           m}.5Y 4~.jW y;.MJ .a 7^ 90 1a h..n}.l=.Ge Ge {w N%.o}.CV u$.eO a6 ZW ^i p}._^.q}.r}.k/.QK j, di 7^ V) wt VI s}.<q c*.t}.!~.!1 zQ >j `= 5P =b 38 Aw o0 !~ '} ;<.                                                                     u}.T' B^.me v}.w}.q0 T6 la .%.er Je 91 P .wp ^G t9 &m Uh x}.y}.z}.A}.B}.)m jm C}.}n D}.(7 vh E}./{.+q F` zO F}.G}.H}.lA I}.J}.K}.L}.!c l~ 0$.h..Yy QK {K g< o~ _4 i!.%%.Tn ^9  6 ka dp pg sn lk p: +4 |8 +4 D1 T6 bc s9 60                                        M}.N}.O}.                                                P}.,w Lh C{ Q}.;[.1G 7;.R}.S}.QT /%.Y{ T}.U}.B8 55 oe Dd Kd >^ V}.W}.X}.MT z].:T @q Y}.$#.JL Tm -M 1<.Z}.`}.DQ  |..|.+|.5 .<-.Kj 'r rE G>.Q4 I4 +@ n]                                                                                                                               ",
"                                                                                                                                                                           <*.M( @|.#|.$|.j, !(.:= %|.o[..<.-] B; $c F8 @K &| '{.4>.&|.U0 :T *|.=|.-|.;|.>|.,|.Qn oq  b {.. i 20 '|.)|.!|.~|..M {|.b[.S).'[.*| 6~.Q<.6;.t9 p: Lh )} h7 60                                                                      ]|.:9 Aw LE y~ Lh j} q0 D7 y8 PE g3 >7 ^|.3S [m /|.:e 55 A; :}.m~ <q _[.H#.(|.g` _|.xe :|.>m /6 Fe 9r =%.F#.[].Ca <|.Xj o; [|.y9 rc b0 _4 D, )b Rg q~ C8 ei 'c Dd j*.Ji V6  6 bc W6 CK b7 uf le P< Q4 lk ^9 :9 x8 bc 5}.]]                                     }|.}..LZ ||.                                                   1|.2|.3|.V;.B).Rr #0 A9 4|.5|.V+.4,.6|.e^ GH r{.Gs Ya <S 7|.CU E*.'j 8|.)U ip Y_.49 K( =4 p .9|.0|.c-.s<.a|.1[.b|.#&.c|.d|.@t )9 wj tb V6 )} Z: 08                                                                                                                               ",
"                                                                                                                                                               e|.f|.g|.h|.]7 |%.8R =n E8 Ee Mi Bk Vh /c J7 )s %S  - 9O i|.<q j8 Sl e` m$.j|.>c k|.Y'.l|.m|.rc 7< fR j, !! Jf n|.}1 LL o|..} X}.8:.%/. M Rb Xi 7l h: XM P< >0 ME np bc B<.                                                                     F+.R/ <8 p|.WN WN Lh ME :9 jd XM H< Jf 0h $8 !c /c !c cP K'.Pj o; si q|.:{.|^ sd n< r|.|$.!0 Z).(J -..n'.$_ I~.l[.A#.@q zN Hf s|.s|.a^ g< [e |%.o~ NJ t|..b Ni vc  y  6 h7  6 38 `n ~].ng uf ;0 >0 mk Q4  6 :9 U6 x8 Fv ;<.u|.v|.f, w|.x|.                  y|._e z|.A|.B|.C|.                                                   D|.E|.i6 id %6 a< P .F|.b@.G|.H|.FV I|.J|.RJ }e  8 +G `0 Fj ui K|.7c {!.d(.k/.fY L|.M|.)1 &L ]~.N|. {.X9 T=.+N D).O|.@8 Fi  o '5 @a  6 ME '> f*                                                                                                                               ",
"                                                                                                                                                               ZR zh P|.Bs a^ $d <n `S c!.QK Q|.R|.S|.PS ;h Vn  t [c T|.RS d(.&R V).-p U|.^T K'.5c +] en jM /G Sn V|.WJ *7 W|.X|.Y|.Z|.`|.DM DW k|. 1..1.+1.Ee Ih  J 38 +4 mk LE bc <$.D^.                                                                     qA jC la P4 T6 h7 o: h7 `5 38 P< ^>./: bl 'b +a ld $b nq cr o> io +y wt ^d @1.$N Z'.#1.75 hb 00 L7 nc zK $1.%1.1Y CN &1.De *1. *.*n U).8g Un }q }4 QU j*.%b zc vh _9 E7  a ^s =1.-1.;1.Rj 5b -0 dr mk la `5 p: V6 T6 D7 mk Vu H4 /_ n: E1                   hh >1.s+.B|.fg ,1.                                                '1.)1.!1.n9 uf kW aX 5D {a 14 {a ~1.}#.H#.a(.$V {1.]1.Gs .a (c <e K+.GU J- zN CM w~.^1.yO /1.N^.: .(1.o}.+M W+.y+.Wj G'.q, mb ;c AH | .aM .6 [9 T'                                                                                                                               ",
"                                                                                                                                                            _1.>L !0 j6 3f :4 :1.<1.[1.}1.nY |1.11..].21.Yg -p 31.41.51.61.71.+] -..Z) T<.0j $~.l, Ys 81.6g L/ 91.01.<1.>$.a1.b1.*'.>].E9 c1.d1.e1.f1.g1.Cd Gt 9g %%.P< )] $t :B h1.                                                                           <# ME w8 !~ w8 L3 h7 L3 $m {9 hd wk g: m*.ho  V 'r Cp 5l /J Ge  T Q'.]T Qi Mn dY CM nc 0(.V) B=.@Q w, LT i1.-! j1.[q k1.(J Ie nk J+.%#.]r c7 mq Ie Cp 1F -0 28 !~ `5 F7 l1.c` _[.Kp [3 ke #%.dr 38 E7 Lh q0 P4 V6 V6 /_ Q< >0 Q4 D2 D^.                        m1.E0 +M *o [).                                                n1.o1.p1.A6 +4 LG p6 {d 'q q1.r1.s1.%O t1.nY u1.'j v1.w1.(Z <*._(.>_ UH /w ~H W[.=^ x1.>$.r>.2: %).AW 2>.E;.y1. {.O~.t' @K {K z1.:Y ko !~ H5 ]B                                                                                                                                  ",
"                                                                                                                                                         A1.%6 ~H 55 j6 oj |3 B1.C1.6O .K )U D1.E1.F1.RO K/ jp k:.N<.G1.<~.Lg }1.vn H1..~.9O JV [k I1.J1.$|.C8 iB K1.L1.AK _|.(i d+.&}.x/ ,~.M1.N1.O1.-...b /6 cp ek ^>.w8 O)                                                                                  l!.Lh R/ oa ]} <8 x8 q0 ;0 {9 F7 P< dF >7 j/  V er zc  J #H ZH YI J7 Ge D, P1.]b &7 x[.Ho Po 4f K'.{w Q1.T|.d!.PU N9 C; ;h Uh ga yn <m =].yc wj 97 rE xc uh le Q6 vh AU S#.6a vn R1.k1.ha 9,.$m D7 x8 L3 +4 lk Ji Q6 G7 Gv ]9 re R3                            S1.Z~.CL T1.U1.                                                   V1.Cj W1.T/ of tn ja rn )0 X1.Y1.$;.l .bn Wj Z1.fu b@.`1.q7 /6 5Y <j j/ >3  2.G- KT )| .2.+2.b..@9 zW PI &L T+.@2.~>.*;.P[ wp $|.),.|8 H4 Lh w{ E)                                                                                                                            ",
"                                                                                                                                                         E~ g: X{.%|.SO 5g K' 2a [=.#2.$2.%2.&2.*2.=2.1G L/ 5@.7f q@.kX *>.-2.;2.fn >2.a!.k#.-=.RO h: ,2. J =U f).Ha -B dj I|.'2.Ds Lb )2.F}.$_ +q Po Rg !2./>.cp cp };.np                                                                ,}.~2.p[.            j~.x8 _9 G7 yc sf Q< $m ja xi @a >0 L3 cp ke $0 k!.Kj @a 9*.sb &m };.P) !o $B {K M( z; C8 (: m8 ~7 '! Z) Vc =^ }c Og 90 Ck V8 Za 1g  y %t /9 Ro 9,.5b 5b Ij vb Yn {2.]2.X;.b4 zi K%.c7 sb t9 '} h7 L3 bc ys <8 _9 |8 sh |q *0 8v v[.                           ^2.U+./2.(2._2.                                                               :2.L#.kW sf TV Nd <2.[2.K_.}2.At 8:.T[ |2.12.22.wj Za H^.(@.nb _` c` oZ |^ 32.42.52.62.72.I%.:>.82.c^.n$.92.]>.!! Wn ko q: ma T6 mf o8                                                                                                                            ",
"                                                                                                                                                         E~ cp G/ Un AH /-.<e J7 w@.02.a2.b2.c2.d2.e2.f2.g2.h2.'j +_ G%.cb IS Q) >I k< i2.j2.{'.fi #H ^'.Dp 1c YH l+.BU k2.l2.|G m2.xW n2.o2.p2.q2.V%.TO }m GT ja }m `m <$.F2                                                             o: )} '>             r2.h7 ;0 @a zs pB v9 {} Wu s2.!0 v9 na :8 sb 8g `0 PS _7 qe sb qe vb {} -b Zp t2.*6 qL ei .b J' !2.gm b^ K7 j, K'.0^ [k 2i D8 Q( Xa Ag I< zc %#.Kf Je s0 &0 Hd &a u2.b4 Hf  - i9 Hd 38 ma P< 38 Ht ]} G7 tn G7 Q6 |8 sh W6 zg b7 Iw                            v2.w2.x2.y2.z2.A2.B2.   C2.D2.                                                   ~,.kW >=.>=.&: =0 yc E2.z;.1e pZ R~.F2..e 30 X0 .k ,c zh xX 7^ d5 c!.$N .>.G2.H2.I2.J2.PI ^@.K2.CP S>.,o Q) L/ To bt B[ /9  6 L2.r2.                                                                                                                           ",
"                                                                                                                                                         E~ 4n M2.wb tb qj Gi <k N2.O2.P2.Q2.R2.S2.T2.U2.V2.DU R8 W2.34 e&.X2.B8 [~ dl Y2.Z2.i, Pn +b xk k'.<Y ,/.%#.C( ]r fR a*.`2.'+.BV  3.P|..3.ch &%.9/ +3.@3.60 #3.$3.                                                               w}.L4 '>             py  6 |8 -0 ll )9 1g ja ;c ci := Zp 8h %3.ch ]r }m :e 97 9,.ld &m qe vi BU _,.A9 #k R) 9g )c 3{.m=./G ;I &3.f: *3.=3.BR  ] aa {w Po pb Gt To %|.u0 .- cr aj Wn }b o~ Cd q:.; .j*.Ij ^9 o0 hd I< xj pk  i Io Gv /9 dt <9 vh &: &b j^                            U,.-3.;3.>3.cf  } n~.Y:.,3.                                                      T5 p0 4/ '3.CI F7 '9 wY )3.&t TS WV fl !3.>(.~3.#n {3.%B ]3.>o )! Yy ^3._t /3.(3._3.Uj R..AP cf G9 :3.Y).zk K/ <].na p8 Hv $m !~ 60                                                                                                                            ",
"                                                                                                                                                         ,} <3.[3.}3.`n |3.^| Ho N2.13.23.33.43.53.63.73.83.j/ >h 93.)E !7 Pl 80 03.a3.b3.c3.d3.e3.f3.Q .$P  n xj hd 38 />.c8 g3.@n h3.i3.j3.>m zc >m p-.Za R3                                                                            ^] q0 ME o: E2        * T6 ^9 ]} C].xj Rj `0 c&.#8 x9 @0 k3.;n &:.rW l3. b b^ 3{.{7 o[.Dd 1= g2.m3.n3.o3.p3.nl q3.r3..b (c #].s3.t3.u3.v3.+$.w3.<|.]%.x3.90 /'./'.-~.90 W'.*n  +.Je k!.9g $0 Jo Xn id 38 o0 Q6 dp Gd (Z 8l 6^ (J pg 5v 1F Q^.nF X6 5/ `} ~d i> y3.z3.A3.B3.         C3.cb D3.E3.df y1.w3.4@.F3.                                                         Z' mz r9 G3.ys <8 TV ja ij Ke A,.jZ M{ )e H3.I3.==.a[.J3.nb J7 Rg K3.o*.~I +o yQ vV |!.sd Pk a: L3.#+.M3.>I <-.*P lk +4 ;0 |8 -{.                                                                                                                           ",
"                                                                                                                                                         N3.O3.P3.Q3.s0 R3.a!.UR UV S3.T3.U3.V3.W3.X3.Y3.Z3.`3.NE  4..4.+4.@4.sL uc ;y TR %8 _4 Rh #4.$4.&m w^.er (-.dr  J ob c5 t~.%4.yn 'r ]} 'r xc 76 &4.                                                                              me J5 I4 J4 mz       ],.K4 V6 le hd wk vw 1G (Z NE Ck #H /G Zp }e Gi jb !! !! Zs Fe {K Pg q7 nc *4.8: =4.vd -4.p, ;4.jb gi 30 >4.:2 D*.<~.N8 L:.,4.8O If i).Og M7 90 .b (: 4g 4g h^ Gk mq .+.xn wn %t at Ii br jF +a eF 9b yl ~'.-N 5v '4.uj 1{.*2 ~d 7< ~=.Jf i'.)4.<| !4.         o5 ~4.{4.]4.^4.sd FN ,j /4.                                                               Y' )> !~ !~ Kh Bg lo Ld jF 7g E%.w@.RS m-.I3.(4._4.8g X0 .=.+p &(.#3 s|.0).:4.^b <4.=_.{| p5 3^ [4.<= kz vh y[ l9 t9 !~ *+                                                                                                                            ",
"                                                                                                                                                         }4.|4.14.QO Aw 24.34.44.54.64.74.84.94.04.a4.b4.c4.d4.d7 Je nb 0h #c {7 e4.f4.g4.Am n|.91 !I mq ja `n *C _m Ij >m ea 2;.oj WN w8 qg g7 LE 2| <~ =w                                                                               O[.of H4 Vu {,.|(.h4.w}.L4 jC T6  6 D7 {} ;I !L `} PS f4 i4.Fd @g 8^ $c He #] }~ o> n; @Q j4.k4.*=. W W-.cb HX {|.l4.S) Lj ;c ^| |g _i $! b6 T{.m4.k~ ~..:= 7^ k).hm i: i: k3.Fd X0 Y0 OJ zk d|.Tn ma X6 ja %#.K%.7l nq ke gB KG lk uh jf Jh :Y sf mo ia ch )5 55 Gs E8 #].      n4.LZ o4.p4.q4.W_. K r4.                                                                        7B  5 ~[ *H s4.}a b7  y @a _7 63 $P w@.]>.t4.0R wj AH &e u4.Gc UR 13 Fj -L /T $P )d ]b ZS v4.+|.<a lY N< p: V6 Lh s9 w4.                                                                                                                           ",
"                                                                                                                                                      ]] x4.er sb wk :9 ^_ y4.z4.A4.B4.C4.D4.E4.F4.G4.H4.I4.J4.K4.Ke so 6g L4.^G %4 `%.wO M4.%E {} vb Z&.};.C( 48 <8 Pn aR Jo rn =b r0 '} *~.p[.M5                                                                                           {,.Vu h7 '} 7- r2.)} T6 H4 D7 w8 w8 $m N&.X6 B( qe 97 N4.:e 9R <k `h g< B8 ib Fs lb B=.w, O4.W}.`M P4.#X ;J ~s :l 5Y Jf .0  - `S Q4.xf R4.:l G- @] K%.S4.%%.NJ aQ Ee Vn 1a L7 #-.$8 5l Bc xi mk Gv AH $0 +a ~H !I rb ,0 Q4 =0 &: uf mF jf %b id ;=.rn :m <-.n}.ho 45 T4.^t ':.5|.sd U4.V4.W4.Ze X4.                                                                              U4 }# 5!  /.g~.o0 t9 ,0 rE dp $0 Y4.Wi zj :d Md -0 Z4.=: f;.=U d;.`4.]H %^ R,.aO f!. 5.>'.Tp Cm =$.d:..5.&U J5 l<.l}                                                                                                                            ",
"                                                                                                                                                   +5.'5 #t Jo Hd 8g j6 P< <8 Dj @5.#5.+].$5.%5.&5.*5.=5.-5.;5.mf B( /6 Rj ke `0 vj >5.,5.1e Bs *b oa ,0 38 Ht ]} Ij Pn SV c7 J< 76 D^.B<.'5.                                                                                                60 Vu lC C3 `5 b* qA D7 D7 D7 P< >0 p: ^9 Ld Hd wc )5.cp @^.V8 c&.cm 2f >7 h}.g9 VJ W.._J s; vO B!.m+.!5.[Z ~5.4a B8 p~ ~] us g..5o EU j(.Y..W).{5.h: 63 Fd )%.@8 ]5.^5.!b }c !` /5.Q/.66 uf %t wc Hd ha bp QU qk pk ^9 |8 pg &: _m pe dp xi <8 tb {} mp =j n|.8` 7Q (5.[^ Ba b6 &! _5.:5.&|.<5.A0                                                                                        tk ^] )} x8 :9 ]} tb !L [5.d3.qa i, }5.x{ |5.c^ UK 15.P+.U%.-H tO 25.vl @1 35.r1.45.55.65.75.,M GE {,.np ]|.                                                                                                                           ",
"                                                                                                                                                D^.]} vh !,.$G Gk :m ^G 28 Q4 +4 _9 le V6 H4 I> 85.95.05.a5.b5.c5.oa ,0 (c ob 5Y  V !` } .lb m8 P< :9 la o0 lk 7D id s0 ;m <9 B^.d5.#3.                                                                                          T' 5K    *~.{,.t8 8D H5 D7 )} L4 V6 V6 V6 hd {9 P4 Q4 e;.Ke ja {9 {9 la {9 wc no %0 +G e5.Q[.ak aj ;a 6@.;!.f5.H}.R).g5.Y!.Pi +y h5.=^ @] Vc )..f/ ah A> UJ 3f %%.j6 ak YH ]5.._.Hi 3Q oe rn rn bt $m Q< ko =b wj ^m Ac Jh tV ko mk {9 1F ma -0 i5.Co SV 'r pe Yn f: j5.X=.v%.=q k5.l5.m5.qr mV n5.o5.p5.q5.                                                                                             r5.iY b* qA :9 5;.Ij ek s5.m6 F{ t5.u5.v5.Ik w5.x5.y5.m-.q1.z5.A5.B5.C5.B5.RP A,.-b 3e 1{.b7 U6 K4 C3 Vu D5.                                                                                                                        ",
"                                                                                                                                             T' r2.rE jf Jo +G 3f #H Ep Jo id Tn Q4 `x  6 `5 U6 9- E5.F5.G5.H5..4 p: na VP 8h I5.Hh If !` Q( i: >0 w8 P4 at b7 ep AH B( J5.   K5.                                                                                                b* D2 K5 '}  6 !~ V6 :S $m t9 F7 Aw ;0 f4 oo e[.&b id =b Vk Ag ]} ys mk 38 Tn 9*.Lj +b 3a `I $- Fd 55 =R `) q|.7).L5.M5.`y N5.+8 M7 z> e).Ys bh lb 16 := 5S Lj Ij };.ga 9b 9h Ep qe Ro 6;.+*.F7 5;.E7 ;0 Yn vi '5 -0 ys mk la dB sn vb 7D dp '5 Uh Ni }3 S%.g*.Ka =1 Qd O5.0~ j@.P5.Q5.R5.S5.X#.T5.-A U5.V5.                                                                                                2[ 6q F+.B^.hd 'r vh *0 W5.c#.X5.Y5.Z5.`5. 6..6.+6. ].-j @6.<j 2(.#6.$6.%6.&6.og &0 wc &a D7 9>.O4 z6 vg x,.                                                                                                                     ",
"                                                                                                                                       y;.18 -0 no PG 7g `0 pb yk aQ *6.eF ww qk cp ),.D7 D7 V6 `5 V@ =6.-6.;6.9-  6 U6 P4 ct yc xi (T mp ja 6;.:9 L4 z6 GE >6.,6.]B j7                                                                                                 '6.   e* 1[ 38 o0 le (-.oa >0 bc :9 p: 28 `n ub S%.>h uc  I ld QO 2| ;0 <8 38 28 na 6;.X6 Yn >=.Ro dh ld H7 Lj )6.HV G'..P !6.p, 00 {..M7 YI Zs lb W..26 @Q Sb {H Hd Ro #%.ek ^G :m ek #%.u9 WN :9 w8 p: la P< C].rn =b xc <8 Ht  6 QO 9,.h^ {7 To ~6.~c <e 2G ;a {K ci  T .0 Ln {6.}g ='.]6.^6./6.(6.m,._6.(5 :6.               <6.                                                                                              <.w8 h, x{ Zp #g [6.}6.l .2@.gh *L 5|.`o BT vY ob Ke ;}.`;.ge 48 tb |6.2b [v $m wk wk Ij D7 b*                                                                                                                      ",
"                                                                                                                                 :v Q4 [~ v9 :m .n Vn Q) cm Zi Vn y9 7|.#] I=.h9 j*.lo H5 D7 :S Hj j} L4 :(  U q9 |8 wi uf uh tn ),.Sn =b -0 ]} $m E7 H4 +4 o9 H;                                                                                                       ,}.K5 z| B| Ij ma dr hd @a wk X6 sb w^.B( Kf oe 16.%d .R 26.R .X6 bc :9 p: >0 p: 28 Ij Ii vh ]} tb er f4  y }b {r ~w (5 x1.wm Rm Qr qb y=.'&.m' b^ zk W'.Uk g< On nF >m c7 C>.Y0 Za C( PE .%.)] x8 )] :9 $m jd zc vi dp hd ^9 V6 :9 Je vc {7 K/ Fp fi ^G b^ X;.fn d` 3~ c/.QV ~s H#.CO FM 36.46.56.DT 66.76.H8 86.            96.06.a6.                                                                                          ],.~~ b6.c6.d6.e6.f6.kc w+.g6.!J q).>~.-J ;+.]1.@6.k: mp 7< gB &: h6.i6.xg j6.i6 k6.l6.CX Nd kd 0/.                                                                                                                  ",
"                                                                                                                                 m6.j^ Za 39 X2 n6.o6.p6.q6.G8 GL qc W'..T 91 ~].Ac .+.J'.^9  6 `5 L3 q0 V6 I4 sj lk Ht |8 ko lo ^m `n b7 Q< t9 D1 J3 _~ Xm ={.                                                                                                      p[.g~.z6 sj 8@.tb $Q VP PS <m ]r }m ch GT ]r '#.$b m-.~1 W@.r6.s6.=0 Lh Lh x8 E7 w8 oa Ro er Pn Hd ga @b ~c 4g $0 2f 26 N9 E8 fn 2f Fd D[ xX =6 t~ #H +b }m />.;I xj Hd $0 8R k).c&.QU qe O< t9 bc w8 E7 :9 Tn Kj @b [v Yn P< D7 :9 {].k>.Ct <j %|.aj Fj m8 t6.jp u6.!1 6@.3&.Y].D;.v6.jR n` w6.x6.T0 y6.t> z6.Se A6.            B6.d3 C6.                                                                                          Y4 D6.E6.F6.`M G6.F%.>%.q .H6.7` I6..$.o+.~p WH J6.03 K6.07 91 ml =a 'b L6.h|.M6.&} N6.O6.P6.Q6.pq R6.                                                                                                               ",
"                                                                                                                              S6./h T6.]m U6.}o V6.P=.IU W6.{p {!.Wc J' zk X6.yc Y6.b&.Dj Z6.CK ^9 P4 <8 -0 V6 o0 lk o0 o0 h*.Jh `6.;=.1F _9 !~ Vu  7.                                                                                                            3< D1 66 J;.bt ,=.PS $|.J}.P].W~.b>..7.+7.@7.#7.$7.ku %7.&7.*7.=7. 3 wS :9 Lh Lh pq p: :9 na };.;I 9g {7 Ie 5g 4g `0 `0 $- Dd k1.:: {7 Z;.-7.+V $] =U  J 97 ek 9,.O< H< ja yk SJ 7^ .a %#.;0 >0 z8 :9 Lh bc pq SV  a CH Hd ]} |8 hd #b ;7.U) U[.yk y=.>_ 3e Jf >7.,7.3v !: U@.'7.)7.&}.!7.|7 Cf z0 ~7.N:.a: U(.{7.k5 ]7.               ^7.                                                                                             /7.(7._7.:7.xW K2.hg <7.[7.}7.z{ a&.|7.<p Uc ~/._|.@O k#.a4 'i /^.{K >_ 17.27. ~.M%.EM 37.47.57.]B R6.                                                                                                               ",
"                                                                                                                           67.$b +R 77.87.97.07.W6.1+.a7.b7.KM 5D @*.9h E%.@G -(.w<.c7.>_.d7 %b Kj K-.Wm g*./9 +4 _9 P< 38 tb <m ;(.;=.Gv _9 |8 8-                                                                                                       '5.d7.|C m9 =0 xi xi y/.0R K%.mb ]!.7>.4&..~.,].GW =B .4.e7.~o wV ]{.^(.f7.Eg !~ x8 w8 ;0 &b na r0 $m 5b ha Yi yk Y0 K%.@b ~c /6 fi /J 9l J' Ed +n T( g7.<i >7  i QU (Z };.C].Ag ;I h7.i7.TI {} O< $m t9 >0 D7 bc w8 wk kz ;r yc lk ^9 pk Zg ;L uO kq 9Q 91 vj Hi Ck aj j7.k7.r, l7.s5 m7.jX @ .eO n7.o7.!3.p7.q7.gf r7.s7.t7.u7.                                                                                                               v7.w7.x7.y7.z7.5O 4>.&z <=.A7.fR [5.B7.<k C7.z' 0~ m$.{%.GH !i {l Bk )0 V0 D7.E7.F7.G7.6>.;;.!} ys H7.s=                                                                                                             ",
"                                                                                                                           v,.~7 lx fb wO <n ][.n>.I7.J7.K7.L7.M7.Oi Dd $0 ;=.N7.O7.Uo th uf p8 uh P7.JW {c xj Cp 5].wj vb 1F Z&.n6 f^.ka re 4n 8[.                                                                                                   Q7.tB 88 |q *U -N id ll -n 9g }~ Qj )..0Q -..R7.Sf S7.5%.T7.U7..~.V7.%/.W7.63 ,0 <8 C( /6 ha qk F7 w8 w8 oa Jh lz 3{.5l h^ <m 5g v9 ;n 3{.UJ r~ [k X7.Y7.Z7.`7. 8.jx x=.nq 1g Je b^ C8 :m y{ H7 $m :9 :9 P< na 38 :9 E7 F7 +v jf id hd =U .8.2Y B#.`s +8.Oi 1g P} )p b>.%(.@8.V}.Y^.#8.W+.$8.6Y %8.&8.*8.=8.Y8 J .k..-8.11 ;8.>8.,8.'8.)8.                                                                                                   !8.~8.{8.]8.^8./8.(8._8.:8.<8.C1.T .W1 [8.0@.}8.|8.h2.&;.18./a 9d =(.8l %#.+G s_..f l{. ] 28.>U 2G p6 GE B3 sB i~.                                                                                                         ",
"                                                                                                                           w=.J' +y [c ~1 '4 K|.38.48.58.68.78.88.98.Xr Gh 2 .(m d7 (m Hv |8 !~ !~ +4 _9 &n 53 7g {H Hi Rj Wm c7 ep yc 08.B<.M3                                                                                                       4! I4 !'.jf (m b7 vh cp .a [2.a8.{%.z).h0 b8.Ie h^ Jf c8.W7 A/ oY R&.d8.e8.c7 uf Ij (c K%.f8.(@.+*.p: L3 L3 bc >0 &m %%.%#.-I %#.ch g8.A_.*6 bj %d h8.$p X%.i8.ol j8. 8.Ck 8g 7l 16 ~7 Fd *b y8 $m z8 E7 >0 =0 X6 38 Q< 38 4v G7 q: Hd [2.k8.$N |!.l8.>^ m8.8R A$.n8.@o _|.S(.}g [6 OK g_.`J gX kc 7d o8.MW p8.H*.|).q8.r8.s8.t8.u8.v8.w8.                                                                                                   x8.y8.z8.A8.B8.C8.D8.C[.E8.L[.]<.dg F8.G8.5F H8.I8.J8.K8.L8.M8.k1.N8.Wm PS Ie 5Y 20 Fm Ln RJ :4 I#.{E HG Z5 t8 sz                                                                                                          ",
"                                                                                                                           O8.)d lb )b Q'.fh !7 P8.Q8.R8.S8.T8.U8.V8.W8.X8.Y8.Z8.Z8.tn ij 68  6 :S V6  6 X6 wj :m C>.Oi oq zi <S 8g dh                                                                                                                E~ e7 r].CK h*.CK `8.pL #-.Y..{o %/.j1.`..D-  9..9.46 uZ +9.I~.@2.N=.T<.@9.{].Ij `H Wn |e $P {s <8 $m Lh '} h7 Ji hd dp qj ea 1g ~} #9.Ff Qg C; bP *;.49 6P ix -y +R >I Jf ;c 6~.Vn i).zh ja 28 +4 Aw >0 t9 ,0 ;0 P4 $m Q4 vb tn &n ^m ;2 3c +| `) $9.%9.&9.,h *9.Ff $=.=%.f2 J=.&>.=9.%q ve -_.-9.4..}*..1 ;9.gs v+.>9.#].}b w4 R-.,9.'9.            )9.!9.                                                                              ~9.{9.]9.^9./9.(9._9.:9.S;.<9.$=.Rk [9.}9.Sr |9.19.29.39.&6.49.B).m'./T yn cp Gt 59.zR =%.N%.69.mZ 79.89.99.TU IW tx 09.                                                                                                      ",
"                                                                                                                           a9.ZH m; C8 q~ 3S ,7 nc b9.c9.d9.e9.f9.g9.h9.i9.j9.2 .uj AH `8.(m H4  6 V6 V6 Ji xi %b %#.N_.ci @Q @*. | T=                                                                                                    =~.k9.l9.A6 Q6 L#.4v *<.AH :m zk 4Y m9.%R n_..1.%{.YH R%.K'.@*.m .n9.S+.q~.#O U7.O5.o9.p9.|8 j6 9R Ni <-.bp Tn $m x8 '} Lh E7 ]}  y c7 Lj GT q9.r9.Y/.V).VJ EK x*.Up z' )D s9.'i jb Fe 9O G' a^ Ge 0R oe ]} p: p: $m :9 Q6 la L3 >0 ok  ^ aR 9@.Jj t9.u9.Sh ]w v9.`N dO w9.x9.7a &[.*>.`V y9.z9.YJ dO A9.-p H3.D< gu >n B9.C9.D9.A0 E9.b9 ch jj F9.         G9.u{ H9.I9.J9.                                                                        K9.L9.M9.N9.O9.P9.Q9.R9.S9.xh LW 82 JS .|.T9.{} 5 .Gc 86.U9.]~ vb 79.V9.D>.%0 Gk W9.wV Lk x!.-2.!r .4.X9.Y9.Z9.R6 9M q% `9.                                                                                                      ",
"                                                                                                                           ^r 63 +D 8h gm  0.qq .0.+0.@0.#0.$0.%0.&0.*0.=0.!'.lf h*.-0.;0.>0.th o0 la ^9 ^9 tb #G vh Zn cP N9 o' h< ^6                                                                                                    0/.vk ,0.-N tf  _.'0.'}.fp R%.j< Ur KT )0.Ph Ee h0 [c f8.zi !0.~0.T(.#X G7.O~.|].nB vc m9 Q6 Yn <-. i ke cp mk >0 w8 Lh h7 L3 >0 _m AH zh 4g 8h {0.u6.@] M'.f5 u%.^@.cg ]0.'7 _p ^0.!E G'./..|6 Uk Q( oe F7 bc h7 o: s9 :9 o0 |8 *: SV c8 9R 9R Kf Fp Wc z;.k<.LU r>.<^ /0.%=.=L +P 8Y 0Y (0.7Z '8 ]k 3d c` Ho _0.5: VX n{.X%.w$.:0.<0.'i ,m [0.}0.      |0.10.20.30.40.50.                                                                     60.70.80.90.00.a0.b0.c0.d0.e0.f0.g0.<d h0.i0.;(.Ij V1 j0.k0.l0.mF aM =].jf wc ~c (@.GH m0.>! zm (^.n0.o0.p0.q0.r0.TU PV 8- <#                                                                                                       ",
"                                                                                                                           s0.t0.P' X0 q~ pb /7 u0.v0.w0.x0.y0.z0.A0.B0.C0.D0.P4  :.E0.F0.G0.ys at }%.Ii G>.7D vb br ,=.ak Fi Wc ]: ;I                                                                                                       r0 u,.'5 zU :m h^ !c jq 20 !r E` _>.DP 8k W..Qj d9 45 WV 9$.L8 r .+_ pN Rk H0.$0 xc ys Hv dt :Y qj c7 qe ^9 $m :9 x8 bc Lh p: {9 tb Sn zc };.b>.M( !f .0 7r t, [{.D/.8_.(4.nc zV c5 '! C, [k [e 5g fc WN o: h7 h7 2| E7 38 Ii {} ok !%.(J k>.Dt >h E*.L:.Y( X( **.I0.Aa [l J0.}{.Sa AW Y,.>>.~_.Y( At B+.K0.L0.ag M0.C7.N0.O0.*q P0.D~.Ee }4 $].Q0.R0.]9 oa 4< @6 S0.                                                                        T0.U0.V0.W0.X0.Y0.Z0.`0. a..a.+a.@a.#a.$a.%a.Kh -N ^} XD wX &a.th uf _m -N zc U_.gr ]a *a.3 .=a.-a.;a.>a.,a.'a.)a.ZU X5 X* T4                                                                                                       ",
"                                                                                                                                 g3 v{.4Q 5l Ke !a.~a.{a.]a.^a./a.(a._a.:a.<a.[a.}a. 5 |a.;5 _9 ct -N tb id KG ,0 Tn f4 y=.Qg j> 1a.R-                                                                                                    2a.zn =b Uh 3Q X0 =N E..@8 3a.4a.S..q>.]j 5a.6a.7a.8a.9a.0a.aa.q@.57 cf m{.t5 26.1g rE sn at lk dp Yn &m Tn la :9 :9 :9 $m p: E7 bc >0 pe sn {9 Jo Hi m' 8/ ]o c%.zO ba.ca.da.k{.(a -^ b~.^.. b .a };.<8 bc Lh L3 o: 2| P< H< &b vh Sn 9@.h^ -h ~H ea.m;.L~.5: fa.jX %}.e~ ^4.ga.eO ha.ia.J].ja.J).ka.I|.`u 26 k#.wO e/ 9l j5.la.M|.ma.Zy .- @g %B =b G7 e7 uf =0 qZ                                                                         na.oa.pa.qa.ra.sa.ta.ua.va.wa.xa.ya.za.Aa.Ba.Ca.*x Da.#G uh kW P7.2 .b7 Yn dp xj Ea.F' =^ `p Fa.Ga.Ha.Ia.Ja.Ka.La.Ma.0M V3 K, H6                                                                                                       ",
"                                                                                                                                 ,5 Jf Fs 9g -x Na.Oa.Pa.Qa.Ra.Sa.Ta.A0.Ua.Va.Wa.Xa.Ya.Za.C3 H4 lk -N 4v br 5;.Ii AH qk <k Pg h}.`a.Eh                                                                                              D^.{,.zn dh CH  b >I UJ {b :~.-!. b..b.dZ }!.8 .('.ib +b.U0 bg &}.@b.db xP %! #b.$b.L[.%b.h*._m _9 ct wc C].+*.2{.P< p: QO >0 na Ht :9 x8 bc ma _m ]} *P &b.<m *b.HL y].=b.-b.kA f..&] V) qc #4.R/.PS Ro oa |8 w8 :9 bc bc QO ,0 ;I Kf Lj 'm Dp  +.Dd dl xN ;b./~.^;.l[.*@.7=.>b.&l ! .,b.'b.)b.w/  O ja.T..d$.l(.6@.en .4.m'.K7 v0 _p j~ - .+8 F8 Aj lF &0 =0 n9 %t ,0 !b.                                                                     ~b.{b.]b.^b./b.(b._b.:b.<b.[b.}b.|b.1b.2b.3b.4b.r6 ;5 5b.Ak ~L 6b.g^.>6.vi gc Gd zU 65 V) 0h 7b.8b.9b.0b.ab.bb.cb.db.eb.W5 fb.v= D1 W3 N{.rB C$  @                                                                                        ",
"                                                                                                                                 M;./c wj n6 &a gb.hb.ib.jb.kb.lb.mb.nb.ob.pb.qb.rb.sb.tb.ub.h& 8D :S la Ht ko `8.x=.M#.}e o, m8 vb.P5                                                                                              7- lk #G Fd 55 J7 %|.n; Z) ,^.Y(.]i wb.-'.xb.`<.$M yb.Fr N|.zb.MU Ab.I9 Bb.e1.g5.Cb.v> !I Zn uf at -0 cp +s C].ub Pn 2:.OS #Q qe dr o0 la Q6 mk Q4 F7 dF C].8g ^c g(.>{.:(.]o oY en 5~ -] K' 1g g: Gv ]} /_ P< p: E7 E7 t9 dr <8 Ke 7g c7 @t s,.|e {..h).V).EW =! ![.Db.e~ u$.Z+.%).:).,b.Eb.q/ Fb.Gb.+..Hb.Ib.(_.#{.;!.{p 82 Y4.i8 N=.Jb..1.Q&.k8 x[.Gi 1g cF +s PE J5.Kb.Lb.                                                                  Mb.Nb.Ob.Pb.Qb.Rb.Sb.Tb.m+ Ub.Vb.Wb.Xb.Yb.z7 H3 R4 Zb.`b. c..c.+c.r].@c.#c.&n Co )9 $c./a %c.&c.*c.=c.-c.;c.>c.,c.'c.)c.!c.0M D3 H5 B3 Hj J4 ~c.v!                                                                                        ",
"                                                                                                                                 {c.>m .J %%.xc uf ]c._9 x8 ^c./c.(c._c.:c.`F WN <c.[c.}c.|c.+A q0 dB  6 28 id Gh j/ Zi @Q @H @0 .E 1c.                                                                                             ME p8 Xn I7 XI !f =}.0).2c.;4..1.y/ 9!.`&.GV ,].3c.4c.T..5c.6c.7c.w< 8c.9c.0c.ac.bc.,'.TO &0 X6 ,0 :G #H t~ 55 l+.x9 ,e ui cc.PS Ro p: bc E7 p: ^9 na ,0 _7 />.8l N9 B, m~ Ri 2c.e9 )..Q'.X0 :m 1g Yn {9 38 (_ p: ;0 oa ^>.'9 zU 3e fa Ie ea C>.Ih cr j_.)! x9.dc.ec.E0 V+.<^ |}.C_.fc.gc.>b.}` Gb.r5 s+.[@.Q!.hc.ic.jc.kc. - =^ W) - .lc.i_.aP }c B=.o> r~ j' m}.mc.                                                                           nc.oc.pc.qc.rc.sc.tc.uc.9! vc.wc.xc.yc..B H3 C1 V6 TU S3 mf ]c.zc.Ac.Bc.-U %b nF Cc.Dc.Ec.Fc.Gc.Hc.Ic.Jc.Kc.Lc.Mc.Nc.Oc.G1 TU 8D 9/.H4 T6  6 np )% C^.={.                                                                                 ",
"                                                                                                                           #3.|C N< sb Ro @a X6 uf N].|8 I4 1[ K4 L2 ^) J3 O6 u8 Pc.%^.&a.&a.5v %b B{.l_.Bc ke  ^ xk sV {s Jf g: 18 +[.                                                                                       Qc.Rc.u9 {} 3Q +=.M'.g9 I' C, Sc.*9 Tc.Uc./t Vc.Wc.Ok T+.Xc.c-.Yc.V-.Zc.`c.i]. d.%<.`S A> L4.h: 5g Yn C( Ke YQ 8&.j/ ]7 r, Y}.6~.ti Je .d.E7 Lh Lh bc la F7 {9 &m ek PS  *.^..'! Fi 9^ B=.:= XI )c Ie $0 gc P< ;0 p: >0 'r rE VP ^G Un <*.55 3{.:m qj %0 pk <S <*.+d.@d.+..Sa 6<.5Z I%.v< #X bf H).r>.6: ~;.]#.5m RT 4@.V..#d.Ur 6~.-..-b.9j e).)a Hf =^ Fi NE ea ,m Pm                                                                               $d.%d.&d.*d.=d.-d.;d.V' >d.,d.'d.Bo )d.!d.~% T^ 8- R4 ~d.q9 O4 )'.{d.]d.^d./d.(d._d.:d.<d.[d.}d.|d.1d.2d.3d.4d.5d.6d.7G O4 R4 H5 %Q !~ D7 >0 ^_ id J< 50 qz                                                                               ",
"                                                                                                                           n0 Vh :G Sn j6 dp G>.1F ko |q F7 `5  6 B3 Z5 wi LG +6 H>.,r kf T_.sf }^.7d.yk yk nq EX 8d.=N 8>.gc =0 Mr                                                                                           (~ ^_ L' $%.m8 @Q HH d9 f).*R 9d.TP 85 AO ~;.0d.0d.G%.ad.1!.O5.bd.P=.cd.dd.ed.ac.,! {.. T #H h^ -n ~c wj vj d&.d/ !` DU m9.yt +8 ci 5Y VP >0 Lh '} L3 w8 o0 /_ F7 <8 dr %#.K' fd.=}.gd.{..6g =U yn pk 1;.(T Lh bc Lh :9 j^ '9 P) =6 [0.NG b^ m8 %0 @a ma ma W6 #t t~ hd.Af b^.e~ 5Z w/ lX `J 5c.bZ n4 Gb.gg aY ;@.;@.T=.id.EM O/ %@.e{.jd.9j kd.v> k{.Nj QK [5.<i ld.md.nd.                                                                           od.pd.qd.rd.sd.td.ud.vd.wd.xd.yd.zd.Ad.Bd.7* 6- Z5 z| u_ &5 J4 &U DI Cd.Dd.#C Ed.}| Fd.Gd.Hd.Id.Jd.Kd.Ld.Md.hU Nd.Od.V3 .6 `x nx q9 |8 Q< Pd.fc jF p6 Qd.v}.                                                                              ",
"                                                                                                                           Rd.@0 !o ga @p >7 +a CH ko sh tn |q ,0 p9 `U qg q9 q8 y7 p8 Hv hd -0 =U K/ ak !! Zs <j yk Gs  +.xj uw |:.                                                                                       E1 (_ XM ub Fd 1Z }1.Sd.%R Td.- .Ud.57 -J P-.`N ![.v< Db.RH 7<.+O o_.Vd.>{.b!.lb #] P].9g Hi ,_ TI j> Sb nb X;.9c Wd.^^. z :[.kZ h..F8 Wn aR .%.o: 5q w}.h7  6 $m lk Ij Ii X6.6(.3f C8 Xd. b r~ Ya xj AH CH :Y )} h7 L3 p: .%.u9 ;I =M KT kA >5.T) cr ~c F7 |8 pg Hd $] Yd.Zd.q .`d.)-.Db.CL Ab..{.b^.C_.+_ 0d.1: ^4.5: nO f+.i$.bY }}. e.Td.=!.bX 5{.+] B, @Q 9/ ~=.Dc f~.(~          .e.Vo                                                             +e.@e.#e.$e.%e.&e.                        *e.R6.S4 A6 jC D1 +5 =e.-e.;e.>e.,e.C7 'e.)e.!e.~e.{e.]e.^e./e.!Q (e.`F F5 TU oy +4 wi _e.6< :e.0g I#.<e.xh [e.:u O3                                                                            ",
"                                                                                                                           r/.Q( K' Pg o> Qj lb Ep E%.fa o6 R_.=].6b.qB >=.|8 o0 le jd sn uf bt !%.xk  b ak K/ .b 80 <S _c >} .5                                                                                           C| 5;.Zn }e.fd.8^ |e.1e.S/.2e.3e.af 4e.Z,.0..vM ;{.]~.aZ p].5e.-].6e.7e.&7.Qh 8e._(.Lj =U Un 6g k> HH Q) 3S Aj $f +i H/ H' 9e.C- )..26 K/ Jo >0 bc L3 K5 '} h7 L3 z6 5v /9 Ro yn .a hm Za K%.Gk j*.Kj Bc ;=.Gv r2.'} fc 0e.$] fi A{ V&.+Q P#.g4.{p x@.rb X6 sn pg xc f4 _c 7O $[.ae.be.ce.6: I` S+.]~.db $..#..cg x' <~.bZ de.!| L|.x< Ib.2d dN s; (3 h` Ct ;^ [j ee.fe.)p w4          ge.he.ie.                                                            je.ke.le.me.                              qC ne.oe.pe.qe.re.se.te.ue.1[ ve.we.xe.ye.ze.Ae.Be.Ce.De.s% Ee.Fe.LG _e.ys uf {9 X6 &: $6 Ge.fh >U ^=.L6.,r ys Cj                                                                            ",
"                                                                                                                           *: #0 m8 Qj B> VJ #c 82 t{.c&.Ka (@.LJ He.~L r].+4 nx at _m @a ct -N Jh vj K%.Gs  b 55  b Oi ia ,0 +5.                                                                                       Ah QO uf Pn Ie.Je.0j Ke.Le.3a.Me.3!.S0 Ne.Oe.3T `+.Pe.J].<>.Qe.Re.q_.Se.(_.v(.k).Te.k!.Bc xc yn Ue.VS 0;.2d Ff P1.1~ ,c o> Qg kb K'.'3 o~ Ie };.E7 Ht +4 s9 Lh '} )} Lh Q< Q6 jd Pn Gd [~ 5Y @p zh #t dp ko id (_ np '} <8 W;.xV _(.N( _6 #d.Ve.Ve.+#.%!.We.C{.&n %b Pn 97 xX F< t{.Xe.W$.Ye.Ze.a#.`e.}!.m7.V+.}^ cg VO  f..f.+f.ZN q).'!.L..@f.#f.ZO dZ ^i $f.%f.@<.-j &f.YQ $a *f.      =f.=7.-f.;f.                                                         >f.,f.'f.                                             E3 y6 )f.@C -> !f.~f.{f.]f.^f./f.(f._f.:f.<f.[f.x2 W5 I>.`U hY Kh tn Hs /} }f.|f.O%.d1 H0.Cc.I< |8 V5                                                                            ",
"                                                                                                                           S/ %6 BK Og L/ M( $8 c5 .8 $^ f;.K6 1f.2f.3f.&a.aM /m _m uh p8 ys qg wc mo aR J+.6(.AH Jo rn er u9 4f.                                                                                 K5.1| cp +%.Lj h: k).Sh kd.<(.5f.wm E#.zb.iX 6f.7f.@ .u< %}.cf 8f./@.9f.0f.Vd.G:.K%._(.ll Z&.w^.{9 Kj af.bX 4Y Ce 8d _J >5.W[.d9 90 6g g< Ni xX VP t9 w8 mk Q4 x8 U6 ME np )} x8 Lh :9 38 hd ek {H 0R />.'5 fc ma  6 h7 '} 5q w8 X6 63 ,_ z,.@8 o2.o2.3Y zm bf.9[.je IT rn yn cp ^G Ep Cp Hi $c M0 Tk Y@.m-.cf.df.~;.G%.u<.*| qo O|.13 ui T[ #d.N~.HN 4-.DN /@.x' ef.ff.$y W1 &b Nl gf.hf.      if.jf.kf.lf.                                                         mf.nf.of.                                             9J V5 `x 0M pf.qf.rf.sf.tf.uf.vf.wf.xf.GG H1 rK x2 nx y7 ;5 e7 yf.zf.tg Af.Bf.ye Cf.W>.el }m yc ma 2| d5.                                                                        ",
"                                                                                                                           Df.k7 :D Eo ]: E( ti 'b .f ,J Ef.Ff.Gf.Hf.If.nf r9 yi -N mF ma +4 nx Ht uf {9 Ji -0 hd _9 Ji fc 5b zn                                                                                  Jf.2g K/ :e cm Pg Kf.mZ _u ,|.T:.Oh #..Lf.6<.T0 LK u$.q@.=o }>.(%.Mf.P).Nf.=!.De ~c 'r Ii ct mF b7 vb Of.8O Y_.Xi Pf.Nn f).{K +y .k g< Ka 7g cp t9 p: 38 28 t9 L3 h7 )} np 7- 7- 7- ME  6 >0 (_ .^.Jo #t ~c &: >0 L3 bc x8 )} Lh >0 vb 8g K' G/ '^ lZ wV T<.Qf.,'.M7 kb J+..+.xj @b -(.Kj h: >_ q7 'o 3~.&P Rf. W C0 5Z GN 2%.1d +P %E Lq Sf.]h GM F0 cf }<.P=.-J Tf.Uf.qq -k og Vf.Wf.Xf.cu Yf.Zf.`f. g.                                                            _  .g.+g.                                             vp :# D1 H4 @g.#g.$g.%g.&g.*g.=g.A2 9- fb.UD 0M X5 .6 `U qg e7 P7.JW W| -g.;g.p/ >g.46 [k ;n b7 5b ,g.P' _~                                                                      ",
"                                                                                                                                 J5 mp Y6 b^ 'g.)g.!g.~g.{g.]g.^g./g.(g._g.:g.<g.[g.p1.}g.ko !'.e7 uf lk 5v uh _m ct 66 &m  <.E1                                                                                  |g.XI P].hr E/.1g.=q 2g.3g.c:.SP !!.4g.(1.5g.8$.q< )!.5Z j}.V!.6g.7c.7g.v-.8g.Kf k!.No Pn '4.Gk ~'.Pn Bk VJ Q'.Gs fi 9g.k!.~'.q~ 55 hm Gd H< na :9 38 ^0 u,.Q< '} )} YM r2.7- ]|.]|.YM L3 x8 s9 QO Ij qj 7;.*: h7 )} K5 o: ME x8 E7 $m Jo 7g r~ n' J' Zi %S B, Gf [c ,{.Q<.Gk  V :;.#-.Uh lY 5Y <j 0g.!r RS ag.V7 K2.5Z %8.+Q bg.}!.l[.cg.#&.dg.&L S+.|#.RH Mb Q0 T[.}1 r9.6/ e;.BK Wf.eg.5= fg.gg.hg.ig.                                                                                                                     '% u_ jC jC jg.08 u_ C3 kg.@< v= f7 lg.W5 `x mg.O4 |F _e.q9 &a.@]./7 )_ ng.2-._l l~ EU Rr `n $6 Z7 67.|C                                                                      ",
"                                                                                                                                 l} A~ d:.,J og.pg.qg.rg.sg.tg.ug.vg.wg.xg.yg.B+ zg.Ag.Bg.I>.8@.L#._9 ^9 l9 L#.e7 5v /m Cg.Z* ~}.                                                                              +3.;] 65.j, A$.}5 Dg.C*.Cf.uU Wd.Eg.r>.w/ ;@.[>.Z~.a-._=.%1 wZ N:.U<.^h 6@.Fg.Gg.!,.R%.io ^'.3{.3{.jq R%.j, b^ 3Q ]r Hg.C( />.m8 +a ;I 97 C( +*.na wk AH CH K-.)] YM 7- r2.j~.j~.j~.qA ]|.np YM r2.YM R/ b7 Gv t9 K5 YM K5 Lh  6 p: 38 ]} bt vh /6 3f jl +y a^ ]!.si Z..^..@=.X0 *] C` -R 0P Go g2.4Q Ig.v0 oq SJ Jg.K .Kg.Lg.d-.]~.Mg.y1.L..!| .#.*A Ng.Og.Pg.7=.7: [~.Qg.5e Gs ~c 4g j9 Rg.Sg.Tg.Ug.Vg.Wg.                                                                                                                        Xg.I; e* t8 O4 W5 C2 W5 Z5 R4 W5 r6 X5 .6 _e.q9 wi +5 +5 p8 Yg.9l s6.Zg.sW `y @K U6.cm  ^ .a `g. h..h.                                                                     ",
"                                                                                                                                 +h.zg 24.W| @h.#h.$h.%h.&h.*h.=h.-h.;h.>h.,h.'h.)h.!h.~h.{h.]h.I;.V6 T6 H5 +5 Q4 Q4 x8 Z' ^h.                                                                              /h.76 (h._h.:h.[+.@2 C9.be l/ <h.aa n{.ga.;@.G%.&L [h.}h.9k dN *{.|h.U{.1h.%S X).,=.!,.Un 3{.2h.3h.Ge  T ;h TI h^ SO :e  I 2:.cm 8p S%.cp hd *b Tn p: 5b Yg }v s0 Fv j~.7- 7- j~.j~.np 7- r2.r2.r2.]|.]|.h7 T6 L4 Aw K5 r2.ME U6 na =0 -0 sn sn hd Z&.4h.^G (n |6 Qj c0 yN &g ^..pb 5h.6h.7h.>H Rd a*.J' $c 'J Aj #K H..--.OH {k M8 8h.E,.}>.}{.u, F7. S %d %&.sr 9h.G@.=@.Cf 0h.Q .Ie zU yj ah.bh.ch.dh.eh.fh.                                                                                                                              G2 P6 ;5 gh.Zb.G3.O4 kC C1 0M D3 hh.q9 r6 oy r6 58 n9 ih.jh.kh.lh.mh.<'.(*.21 {s $0 K%.R-.                                                                           ",
"                                                                                                                                       *+ &: 53 nh.oh.ph.qh.rh.sh.th.uh.vh.wh.xh.yh.zh.Ah.Bh.1# K3 q0 jC H4 |8 |8 !~ L3 7q %*                                                                               e[.3Q [^.-@.EN #E yp e7.C/ k+.>o L>.]~.h$.J[.V+.V..L^.rX FL x;.f{.|h.Ch.Ih ^'.#t Xn vj 3f ak -^ Rh z> QK 3Q fp #] aj <e X0 2f E( qb 5g id hd dr t9 p: 'r ob 7< 8| 2| j~.qA 7- b* r2.)} np YM )} np j~.]|.ME `5 Lh '} r2.r2.'} L3 Aw vb &: ct uh b7 tb >m f4 _].=U y9 si %R -!.r<.e}.Dh.~J < .[].Eh.Fh.i< 7^ |~ 9l `S Gh.hh SH Hh.Ih.56.Jh.}` fX Q0 O8 O,.'J dn '{.Kh.@R e!.jA Kf.)! 7^ Kf mp Lh.Mh.Nh.Vl Oh.Ph.                                                                                                                              Qh.~d.]c.Rh.Sh.K4.Th.Ca.hh.B3 U/ 58 q9 sj H3 p9 .4 Uh.Vh.Wh.Xh.Yh.Zh.`h. i..i.F< Ac Gk )1.                                                                           ",
"                                                                                                                                       &' z6 c7 jj +i.@i.#i.$i.%i.&i.*i.=i.-i.;i.;i.>i.,i.'i.)i.!i.C1 Z5 nx o9 e7 LG 58 y3                                                                                  W;.y=.{7 2c 6~ B8 ^w &g b` J/ }~ ~i.x< [/.{i.Xc.]i.Db.^i.w< /i.F(.(i._i.y{ _7 <m Do Qo oe ^'.:i.A> } .<i.}m 5l If w,.Fj 3Q [i.ea zc {9 <8 sn lk ^9 $m Bc Dp 53 X6 L3 j~.]|.j~.j~.np L3 5q ME '} ME j~.j~.7- '} ME k} np 7- np ME `5 Q6 tf tn vb hd X6 28 uh ,=.Xn J/ g(.IV 4^ .- Tb 6O D!.@..K:.tl gQ }i..f Zs Po }4 !..z/ JZ |i.1i.2i.)k LI r5 o&.^~.7Q =;.UR qo {).._.z@.Et -^ N9 OJ -r D>.3i.4i.5i. o 6i.7i.                                                                                                                              ]'.H| 8i.9i.0i.ai.bi.99.ci.Vu Z5 U/ R4 mg.Y5 9- di.2% ei.fi.gi.hi.ii.ji.ki.li.mi.(d.)'.ni.                                                                           ",
"                                                                                                                                       Ov e* |[ D1 GE oi.pi.qi.ri.si.ti.ui.vi.wi.xi.yi.zi.Ai.Bi.Ci.H5 nx I>..G %^.Di.j^.H5 4H Ei.Fi.                                                                        [n [m SO BX SJ d9 VJ ~b {).Gi.Hi.8..< .Ii.S..a^.j}.37 Ji.}}. e.k'.Ki.Li.5l RO u(.=N N'.~'.jq kb Fp Qj Mi.'5 hm io K/ ;n 5g ke no Ii >0 >0 ;0 ys la p: wj =N &0 P< ME j~.]|.Ni.Oi.r2.L3 h7 '} '} np b* ],.]|.7- np 7- 7- 7- np jC h7 D7 %t ij tb -0 hd @a | .(m #t >I Yy Y_.kd.*^ La #=.B*.Pi.<|.Qi.qX O5.p, W) |c H/ n|.Ri.75 Si.Ti.Ui.Vi.Wi.r>.F#.;^.b5 Kf.VS DU 5o Qm dm g< J/ a^ $b Xn 1G &6.Xi.`5.aO Yi.Zi.`i.                                                                                                                           &- ), ~%  j..j.+j.Z9.$H @j..4 |F B| kC H3 J3 @@ #j.$j.%j.&j.*j.=j.-j.;j.>j.,j.'j.*H P4 U/                                                                            ",
"                                                                                                                                                08 u= )j.!j.~j.{j.]j.^j./j.(j._j.:j.<j.[j.}j.T^ 8- Z5 nx Ca..c.DI |j.1j.2j.3j.4j.5j.                                                                        6j.$%.:e pL k{.Ho D( 2~ 7j.8j.W[ D@.4` [].U..<>.f5.>;.x@.6~.9j.TO 6g [|.e9 Z) *^ )..16 {..'3 6g Ck !(.Rj Ep Ie K/ UI ja xi 97 id Ii 38 ,0 <8 ys ;0 :8 c7 0R 5b h7 np qA j~.5q s9 Lh w8 w8 bc '} K5 ],.Oi.],.oA qA b* 7- np )} tB  6 t9 -0 *C Yn =0 Z&.X6 Ro rE Kj j6 U).b^ R%.o' a0 yp 8c F:.S/.0j.@!.&| ~2 aj.Se h0.7~ mZ H8 bj.ZD <5 u< :^  } 57 o}.aj.uO 6c a5 e0 JV #] R%.;a *R cj.qj K%.a&.5h.!2 e;.dj.ej.E3 EO fj.                                                                                                                           gj._e.5b._d.p1.Z9.@j.|F p9 R4 G1 Fe.'5.hj.ij.jj.kj.lj.mj.nj.oj.pj.H2 qj.`).5v ma z3                                                                            ",
"                                                                                                                                                rj.Y* hh.dL wi 8- 8- Z5 V: ~% sj.K, u! w2 U/ U/ W5 +5 q9 tj.I-.Rh.uj. :.vj.wj.xj.yj.zj.Aj.         Bj.8, Cj.                                             Dj.:D _7 k!.4~.li l8 _4 &g Ej.e~ Fj.Gj.W].}].Hj.##.#{.Ij.sc kb Th Wn Li.Z_.`L w> Jj.5~ )! Rh b).TO vj ga [m ~'.$0 S%.ga tn vh E7 28 {9 28 =0 hd -N I< *0 AH zh N< )} np ]|.j~.L3 Lh w8 Tn 28 R/ bc Lh 5q o: )} ]|.],.b* 7- r2.)} np E7 oa G7 xj xj id id uf Kj.X6 Ii &:  a g< := 26 Qi i|.N=.zK Lj.Mj.)~.}Y o+.Nj.'2 21 B7.,e (` 33 s<.)-.L~.5Z e~  ,.8<.Oj.Ri h0 a5 !a 7>.0).F8 8p 9l 8l h^ bp K6.l).S-.Pj.A&.Qj.A2 .5 m}                                                                                                                            c- qj.Kh Rj.Sj.Tj.Uj.,e.%Q K3 0J Vj.Wj.Xj.Yj.Zj.`j. k..k.+k.@k.w7 #k.g7 68 e7 J;.J5                                                                            ",
"                                                                                                                                                   L4 O4 58 wi $k.X5 v7 %k.J3 c} &k.J| D3 *k.J3 H3 q8 S3 A:.e7 R4 O4 O6 =k.-k.;k.>k.,k.'k.)k.!k.~k.7E 4, {k.                                             ]k.*: Lj $%.^k.]{.l~ h)./k./t [{.fg (k.4Z E;.J^._k.:k.<k.[k.R/.M'.@K }k.o; o; r}.0).)s k1.h).f/ {7 |k.#] 6g jl =U Gd %%.-0 {9 E7 le ,0 38 6;.Ro Ro wc };.Vk AH N< o: j~.],.b* K5 h7 :9 Ii tn &a p8 ;0 >0 ;0 p: np 7- 7- np 7- b* b* w8 lk Gv ~} Hd cp Co 6;.mF uf <8 Ji 97 5S Sb := 1k.p' <c 2k.ZO 3k.D- 4k.5k.cf ]8 6k.7k.8k.7^ 9k.<6 b1.F0 iX T0 %8.(|.zQ 0k.e5 e9 X) ak.e9 k8 mA 91 0R )9 2b 1G oo Pe B( bk.'3.P6 r8 ck.                                                                                                                           y) dk.]c.ek.fk.S3 mg.X5 5+ gk.hk.ik.jk.kk.lk.mk.nk.ok.pk.qk.rk.9/.ZU P4 Q6 ma ys of                                                                            ",
"                                                                                                                                                sk.); TU Tj.tk.O4 #I |a.uk.vk.wk.xk.yk.zk.Ak.Bk.zg.Rh.Ck.Dk.4:.H3 `x C3 Ek.Fk.Gk.Hk.Ik.Jk.Kk.3* Lk.Mk.Nk.                                                <w gl je @p Ok.A{.*| Pk.m].E9 X[ Qk.Rk.DL (}.n7.27.Sk.B].%g L4.sc h{.Tk.Uk.)! Ys @Q H/ )0.'[.Vk.zN i0 o/.Wk.Xk.Ie &0 B( X6 {9 na ,0 ma Tn 9*.Bc wj zU /6 C{.'5 M' Yk.Zk.   iY ]|.YM E7 {9 u,.n6 id Ii oa _9 Q6 U6 '} '} '} b* qA uB '} o9 @a oj (7 ok Gk >m C( -0 *P $m F7 Yn Jo zc v9 |e %8 :J v/.Fm ~b  1 u%.;| o|.tU gs S( 7~ 84 +| h` 9:  } ^4.+_ m;.`k.J..Y}.m~ =..x; O&.R( 8O 1c  J 'r  y vh Bc Cp :d K6  l.6v _~                                                                                                                               .l.z7 +l.v7 @l.oy D3 #l.$l.%l.&l.*l.=l.-l.;l.>l.,l.'l.)l.!l.`x I4 m9 &b ja tb 28 ~l.                                                                           ",
"                                                                                                                                                   ); H5 Sj.{l.]l.^l./l.(l._l.:l.#% <l.[l.}l.|l.1l.j^.2l.3l.I-.y7 H5 W3 4l.5l.6l.7l.8l.9l.0l.al.bl.cl.dl.                                                   el.)5 7< fl.<4./n gl.hl.X9 ^;.K2.il.jl.NW D*.kl.ll.ml.nl._i.:_._p ol.=d 0P 49 pl.49 kA y].TR T:.ql.h).)..rl.k!.tb &: ,0 =0 ;0 _9 -0 H< zc #t `n ^m %#.'5 er j^ z)    >}.],.],.r2.:9 XM Ij *C dp tb ys Ji Q4 D7 L3 Lh h7 np qA uB np x8 q: ^m pB vi zh ~c Ld Md F7 >0 Ji sn th -N tb  a /K sl.tl.ul.M#.vl.wl.df il.F9 Ab.xl.(=.yl.T9 B` zl.Q+.R7 Al.cb }..gQ Bl.Cl.F:.Dl.Ri ^/.W) 8g.5g wc Ij sf jF 2b El.g|.@]..5.Qh.                                                                                                                              Fl.Gl.B| X5 &^.D3 1l.aJ Hl.Il.Jl.Kl.Ll.Ml.V& K: Nl.I> u_ `x nx oy *C _s {d gB ;0 Mr                                                                            ",
"                                                                                                                                                   5- e* w{ Ol.Pl.!p Ql.Rl.Sl.Tl.Ul.Vl.Wl.Xl.Yl.b. Zl.{L `l. m..m.t# z+ +m.@m.#m.$m.%m.&m.*m.=m.N2 -m.                                                      ;m.tb =b if.<[.T( z/.>m.82.8f.82.ck ,m.'m.)m.!m.~m.0*.e(. *.si ){.,l aN DP 2e.{m.]m.n_.^m.DW p> Z) =n  b /m.rE uf mk Ht p8 P< P< bt rE wj jF 32 ok 8g &0 #a                >% |(.bc :G '5 f4 ka &: pg sn ys >0 x8 :9 bc L3 h7 w}.j~.b* w8 &a &n lF vc Kf Gd dp dr 38 38 ]} ]} X6 Gv  y sf (c ea h}.E( Gp kc r[.o:.C_.S7 $8.(m.K|._m.:m.<m.o .[m.+q t%.fu B!.}m.B/. b.|m.4{.d(.k{.pL Cp vh Jo Rj 91 ~H $^ z{ [v ,r @3.                                                                                                                        1m.2m.3m.4m.5m.6m.7m.n!.U3 X5 C2 &H %~.8m.D2 y| X3 J3 `x Z5 `x sj I5 W6 (7 iB 16.@].{9 {,.@v                                                                         ",
"                                                                                                                                                      9m.mz 0m.am.bm.cm.dm.em.fm.gm.hm.im.jm.km.lm.mm.nm.om.pm.qm.      rm.sm.tm.um.vm.wm.xm.ym.                                                               z6 m9 Z2 zm.a!.Yi Am.<@.Bm./3 rl Cm.Nf.H{.Dm.aP y9 !c Qg t{.g4.hl.h@.qN P..dd.Em.g5.Fm.Gm.%L 94 n}.ga wc ct Q6 w8 :9 <8 $m oa vb s0 AH Gd )9 4g Hd I< 48                   6q 5}.id nF *C &a th ka 5v sn |8 la bc x8 x8 w8 L3 np qA ME oa b7 EI xk Uh 7g ~c 5b ]} {9 -0 hd ,0 q: uf =0 @a wc xk >z Hm.I9 d^.M8 Im.Jm.5Z ]#.Km. s Ig.0r *] Y}.@o Lm.Mm.t, !J S).;! |m.Nm.Zy Fi 2f Hd vh 2= ea Y0 @g $c Sb yg B:.J5 09.                                                                                                                  Om.Pm.Qm.Rm.Sm.Tm.Um.Vm.2l.Wm.W5 dL n!.=e.&U Z5 Z5 H5 8D B3 :S l9 y7 Xm.P6.}= :4.,7 Lf ]9 z3 +[.                                                                        ",
"                                                                                                                                                      Ym.'M vg Zm.`m. n..n.+n.@n.#n.$n.%n.&n.*n.=n.-n.;n.>n.,n.'n.                                                                                             Aw <8 v,.`=.)n.'o !n.Ca y1.A#.y>.x/.~n.:k.t(.Rh &:.^'.{s :..n/ {n.![.{_.]~.]n.^n./n.a{.(n._n.[k jl :n.q: ^9 V6 :9 /_ 66 p: <8 b7 _d 8g 4g Jo rn Hd /9 /_                      :-.2| pq oa 66 /9 /9 e7 sn ma +4 V6 T6 w8 V6 bc '} j~.np Lh ,0 #b !0 .a ha qk Jo Yn Ro Ro };.vh <8 na ]} 6;.@a .n i8 ]d L1.7j.Y5.w9.wd 9(.Sa )7.Yd !0 mA $P 65 '4 uc <n.6P 8:.bf.+] v^.Lo @] ;a  +.c7 ka S%.$] hm Cd D8 2f no wi oy '} |:.&&                                                                                                             [n.}n.|n.1n.2n.3n.4n.5n.6n.7n.8n.`U tj.zg.p9 H5 Z5 TU LV @C dB p0 9n.9D 0n.[4 #n xs an.18 g7 ~~                                                                         ",
"                                                                                                                                                            =~.vg bn.cn.o& dn.en.fn.gn.hn.B0.in.jn.kn.ln.mn.nn.                                                                                                on.pn.+D 75.EK |c 9~ qn.r|.kR Nm ]K rn.V).~'.CX (T sn.tn.un.VX [>.af &>.(m.:%.fY ed.vn.a}.U).#t zc t9 p: o0 le Ht Q< ,0 Fv dh zc Z&.(G wj ch zU $6 P' XN 50 m}                         o: P4 R4 ys /9 /9 ct _m X6 F7 ;0 Q6 R/ Lh w}.L3 x8 bc dp $0 z1.Bk x=.Oi @b Co Lj PS Hd >m H< na F7 ;0 xc dp mp :c wn.xn.a4 .L zl.0m !).F_.i9 |e {7 sY yn.65 zn.-! |m.r; Z..P[ -a }q nb $0 c&.v<.L( An.Bn.9R |e 7;.n6 oa /_ A6 __ Hu /A                                                                                           Cn.Dn.En.Fn.Gn.Hn.In.Jn.Kn.Ln.Mn.Nn.On.Pn.Qn.@j.B| &^. :.,E C1 J4 TU H5 Z5 58 `).Rn.Sn.Tn.g1 Un.Lq j0.Vn.m6.O)                                                                         ",
"                                                                                                                                                               Wn.Xn.Yn.Zn.`n. o..o.+o.@o.#o.$o.%o.&o.*o.=o.-o.                                                                                                   f, WN ]r 8p D, -^ Jj.#S $<.!s ho ]!.Sb yn 7D W6 ;o.K_.>o.+Q &L :1 ,o.H}.g].|h.'o.{..6(.Lj -0 28 >0 :9 la o0 bc $m >0 pq 5b er Yn Ag };.+D .J Q- )o.kd Q7.E2                         E2 Vu J4 uw p8 th Z8.wX Dj B[ ma _9 P4 Lh )} ME h7 x8 dr Yn (@.E( '_ |e Z0 *b ub c7 PG 9g rn id G7 G7 _d s0 ja cF 2:.o6 Rr !o.z6.oZ Q) Za oe [2 ~o.Ig.{o.-:.]o.cf. }.Lo =^ <j 65.9R >_ ;[.A!.^o.a!./o.O,.s_.m6 Lj .l p|.oa Iw uw l!.=~.                                                                                       (o._o.:o.<o.[o.}o.|o.1o.2o.3o.4o.5o.6o.7o.8o.K4.f7 9o.%~.-5 .4 H4 H4 C3 Z5 `x .4 0o.ao.&J ,r Dj bo.co.nu do.eo.fo.                                                                        ",
"                                                                                                                                                                        go.ho.io.jo.ko.lo.mo.no.oo.po.qo.                                                                                                         ]] >0 ^>.ro.aj 0).r' }c %{.kd..T !c Kf jF lo [v so.HM x' N|.^i.to.p_.uo.4].vo.wo.W~.y/.Yn F7 38 bc w8 p: p: E7 w8 >0 _7 #t 8g wj g: />.-b 4g xo.yo.                                    ME q0 :9 pe -N dt kW Kh /9 ma e7 |8 q0 h7 h7 h7 L3 w8 oa $(.~'.xk {7 8l 8d.<= 5l #t oe ^0 &0 &a  y `n @b aR +G Kf kF m6  o  5.r> SI |0 ~1 A!.1e T7.O*.im zo.zf ,I 2Z Wu 2f @*.wp Oi =(.x~.$V EU Ao. Q im D[ ij ka pg 88 of Bo.                                                                                       Co.Do.Eo.Fo.Go.Ho.Fu Io.Jo.Ko.Lo.Mo.No.Oo.Po.fB Qo.x7 Ro.So.99.To.pj.Uo.Vo.B| C1 y6 +I Wo.Xo.Yo.Zo.`o. p..p.+p.@p.C6 #p.                                                                        ",
"                                                                                                                                                                              $p.%p.&p.*p.=p.-p.;p.                                                                                                                  p: t9 %%.~'.Zs >h #c x@.]o ; .Hd vb |q 5/ >p.,p.Dr U(.}G qn.Lg 'p.k}.Rh P&.)p.!p.kY @a mk 38 $m {9 hd <8 <8 Aw Hd oe Ya $] i^ j: @0 ]c v9 ~p.                                       ],.`5 (_ e7 pg i(.`).m9 /9 lk p0 la L4 q0 Lh w8 x8 ME w}.bc dF rn 9g 3S z,.04 k).)5.Ii Yn Yn c7 s0 };.'5 C>.La lx J>.YQ 4b aa KL 7d {p.IV O5.d` B7.]p.rY bm.}o K..9~ hF u4.^p./p.uc Og (p.#} T>. ] ;j i'.,5 &a id uf ;0 E2                                                                                     _p.:p.<p.[p.}p.|p.1p.2p.3p.4p.5p.6p.7p.8p.9p.0p.ap.bp.(7 !'.oy cp.dp.Gl.ep.fp.gh.W3 gp.hp.ip.jp.kp.lp.mp.np.op.pp.O6 qp.rp.                                                                           ",
"                                                                                                                                                                                                                                                                                                                   -.;0 5b i: Dd cr Ee U) &R 5r $|.id L#.th sp.tp.up.85 @O GL l~ D' `L vp.wp.TT r_.r:.Kj Ii ^9 F7 %m Gv vb <8 *P id -I %B ob &K V8 xp.yp.~d K<                                           j~.q0 L3 E7 _9 9>.p8 -N /9 re +4 D7 q0 U6 T6 :9 w8 o: w}.o: na zc zh xk Wc N7 Fi  V '5 hd pe Ak Kj f4 p6 +a yl !o.{!.0g zp.Ap.Bp.`{ w' yQ ~/.VM c5 Cp.lx Dp.Q) Ep.Fp.@n nZ :T Gp.ha )o Fj N( Hp.%=.S9 f: Ip.vb _m ,0 /_ +[.                                                                                    Jp.Kp.Lp.Mp.Np.Op.Pp.Qp.jS Rp.Sp.Tp.Up.Vp.Wp.Xp.]E j` r9 n9 U/ Yp.Zp.`p. q. :.B3 .q.+q.@q.#q.$q.%q.&q.*q.=q.-q.;q.S4 >q.                                                                              ",
"                                                                                                                                                                                                                                                                                                            T' v[.18 63 ^G #0 y=.o~ f/ ._.([.,q.k0.#Q vh yc 'q.(4.v4.fj ej Y_.f/.)q./'.T'.;h 3f 3Q dp th {9 38 Gv <8 Ro dp {} Ag )5 !%.Y2 =] <j 39 )_ fR 7/ !q.                                          K4 s8 /_ o0 Q6 e7 %t *U yc <9 G7 ys H4 V6 o0  6 x8 ME )} jC :9 28 1{.Po w,.|6 b}.{K A8 PE P< Q< vb &m =b SV ok ~q.gj ^&.{q.f2 s> .M .M ^b oY _[.]q.rd gl.U6.#c UI #L XQ p<.JZ ^q.A,.{s Gi /q.(q.gF _q.zr !d Je Ag sn J5 p[.H)                                                                                     :q.<q.[q.}q.|q.1q.2q.3q.4q.5q.6q.7q.8q.9q.0q.aq.Kb.78 4< #C e7 qE bq.cq.|:.dq.eq.fq.gq.hq.KF iq.jq.kq.lq.mq.nq.oq.                                                                                 ",
"                                                                                                                                                                                                                                                                                                            50 p|.qe gm )s ^J )s s|..- z)._J pq.AH Jo ~c no qq.13 rq.sq.a*.]5.Ko T,.{7 [e vj Uh #Q pe _m _9 F7 tb ]} pg &a =b Ag B( >m 63 Fj P .NE 9/ &b tq.                                          C^.*+ D1 ;0 !~ !~ e7 -N kW ;} >5 sh pg sn _9 +4 D7 T6 '} h7 U6 mk |8 dp zi k>.Wc P[ 4^ 6~.d|.xj -0 Yn *C yc yc nF _s UO uq.vq.LU wq.Cf xq.|[.a-.W%.g;.lj @2 ^/._4 `0 yq.Z2 zq.S{.Aq.Ma q7 N( Bq.D-.x+.Cq.~7.G..Dq.T;.|q !~ *~.@v =w                                                                                     Eq.Fq.Gq.Hq.Iq.Jq.Kq.Lq.Mq.Nq.Oq.Pq.v_ q% '; r6 P6 B| A3 H. B2 pI  U Qq.Rq.Sq.Tq.Uq.Vq.Wq.Xq.Yq.Zq.`q. r.                                                                                       ",
"                                                                                                                                                                                                                                                                                                            C[ %b Ke Hi V) 5~ Rh M( =}.QK g(.]..C{.'5 _d TV !%.&G i9 Le 8p Ri Jj.)..Ed Ep Do No -0 pe sn 28 P< F7 ;0 {9 id s0  J >9 };.8h ]l `7 .r.P' sk                                                 i7 h4.x8 :9 Ht |8 GE W6 (m *U C{ tf 1F -N lk +4 Q4 Q6 mk $m na le F7  J PG !0 cj.*m 8O &-.3f '9 /c &: -0 th +r.B).;D :3.b3 |o @r.#r.o5 c+.24 *B Cs R8 $r.9^ ;a o, zi 3S ^<.B` _m.&^ 42 d< %r.&r.cg.S=.||.*r.)#.D[ =r./_ z6 u2 J,                                                                                                    -r.;r.>r.,r.'r.F_ p} q% u_ [[ K4 +5.4- )r.!r.~r.{r.]r.^r./r.(r._r.:r.<r.[r.}r.|r.1r.2r.                                                                                          ",
"                                                                                                                                                                                                                                                                                                         3r.^o j> Z%.]/.+| <n wt ^: Gi `y Ja %(.uj 1F uh pg ko |q >=.ko (T ,'.o' H/ Jf #0 yn dp bt le 5;.Q< .%.N&.oa uw /_ oa ys 4r.5r.xo.                                                                     ],.ME o0 _9 58 5v pg pg %t sh ;} (m b7 /9 /9 pe ct Tn 38 Ji P< p: vb Gk -k U6.'! Nj 0r 8;.9g s0  y -0 xc aX .H lW 6D &N po 6r.|e.PT (q.)e 7r.0(.q, n-.04 P[ Ri Z) 84 J(.8r.9r.>m.25.0r.ar.P0 br. ] Kf.ti xX m6 ]} LE z3                                                                                                             cr.dr.gj.7= :( er.fr.         gr.hr.ir.jr.kr.lr.mr.nr.or.pr.qr.rr.sr.tr.ur.vr.                                                                                             ",
"                                                                                                                                                                                                                                                                                                         S6.!d Po z;.W .Ff wr.xr.(l |4 W).Kf.4P &a dt d_.9>.GE ma |8 pg Jh o~ ;a kb +G b^ Qo xi hd na P< t9 dh '9 sb yr.k^ o8 l<.50 K5.                                                                        iY L3 Q4 q8 LG |8 e7 ma o9 e7 hd &: Ro e7 GE {9 sn sn na >0 p: bc ^9 ek yc B[.+8 A+._l ^/.Y0 -b c7 <8 *P *C zr.D[ -b '=.kq a(.Ar.Br.q` 04 ^=.Cr.&g y~.@P L7 '_ #0 .b oq Dr.Er.Fr.Gr.d-.cR 8f Hr.9~ Og jb xb 1G =b J5 of P3 Ir.                                                                                                            Jr.Kr.*- Lr.            Mr.Nr.Or.Pr.Qr.Rr.Sr.Tr.Ur.Vr.Wr.Xr.Yr.Zr.`r. s.                                                                                             ",
"                                                                                                                                                                                                                                                                                                         .s.80 QK +s.e7.]J +K @s.6c >! &{.G' so %b &n ij /m lk sj J'.mk *U #s.Io je @b .n $s.o6 Gv rn &n Ro o-.5b %s.                                                                                                l<.uw +4 ma /9 p8 lk ma o9 ma <8 Q< Q6 Aw ,0 at o0 E7 w8 bc :9 oa &m vi .a {7 I'.[3 &s.Dp <-.X6 <8 Ii hd =0 hd (7 0e.*s.=s.-s.9^ =R zp yp !s 'b $4 #b Xa Yd.;s.%r.>s.8=.,s.'s.>@.r .QT AQ Cr.|3 X2 $B Q( &0 E7 L4 g~.1[ '5.                                                                                                                                 )s.!s.~s.{s.]s.^s./s.(s._s.:s.<s.[s.}s.|s.                                                                                                   ",
"                                                                                                                                                                                                                                                                                                   1s.2s.A8 qa L1.=9.A/ 2Y ZO Cl.3s.i0 x@.n~ OJ k!.h*.ij ys l9 4s.D7 V6 _9 pe ct G>.pe dp yj 5s.>m fk 2 .Dj 40 .h.                                                                                                      w8 D7 ys sn ma _9 ys _9 Q6 jo D7 la E7 ]9 br lk la  6 x8 la >0 ;0 ]9 Ld jF c&.:: 6s.7s.8s.9s.xj %b at lk pe ij R<.Um 0s.3~ Sh c!.@] h0 +y as.7< 1G bs.,` cs.ds.DL X9 M8 5T >>.es.:` fs.,h (` gs.{l xk er Ht P4 K4 L4 Y*                                                                                                                                  hs.is.js.ks.ls.ms.ns.os.ps.qs.rs.ss.                                                                                                         ",
"                                                                                                                                                                                                                                                                                                   ts.~d fR D( %=.cg.us.~` 74 :1.vs.ws.Q].xs.o~ %0 I!.Kh p8 p8 Q4 T6 T6 !~ o0 o0 Ji U6 +4 KG &n Yn 'r id f1 ys.                                                                                                         ;0 uf e7 /9 %t Kh pg ys Ht  6 D7 o0 +4 sh }g.yc -N ys oa >0 >0 LE w8 ^>.-:.)c TJ .R W=.`2 $d ~%.D>.Ij bt sn -N xi Nd w=.D( @g ]{.{b 0$.8R 2b ha lx @} Df //.zs.bZ E;.$! }` <` qR n4 /0.;j Y7 xN {l uc sb |8 _9 P4 J4 |[ 0A                                                                                                                                              As.Bs.Cs.Ds.                                                                                                                  ",
"                                                                                                                                                                                                                                                                                                      R0.I[ Es.8e Fs.to.Gs.ZO Aa _#.Hs.Is.~~.;2 Jh -N I>.mo *U ys U6 q0 D7 x8 Lh U6 h7 `5 V6 ys =].%b wn (c Js.|:.                                                                                                      YM w8 /9 H>.tf dt 1F pe ys Ht Aw |8 Aw -0 I< =r.Ks.JW HE vb <8 u}.r2.|(.B^.kd zc Ls.]/.Ms.Ns.46 Mv pa &4 9,.E7 }%.48 {} no qj Cd Z). i +G zh Ct m^.*g sW q~.Os.g$.Ps.[>.X( Qs.|,.%8.df.H|.i1.H- QV @*. y re p8 .6 V6 Vu D1 j~.                                                                                                                                                                                                                                                                        ",
"                                                                                                                                                                                                                                                                                                      ^r -: Rs.+N Ss.R!.Ts.^n Us.u< g%.Q!.X}.ip yn vb &a ~%.u,.GE :9 J5 _9 bc x8 x8 x8 :9 ys pe bt rE vh >m *J z~ Vs.                                                                                                   L5 2| e7 i(.pg Kh |q uh %t sn _9 ma |8 |8 sn >} TV 7D 5/ `n J< Ws.      Xs.rs vk It &G Ys.+}.10 ;L ]%.!%.C].5b -0 hd ne G7 #Q <-.9g 0R 2b ga ho 4&.i_.<q Zs.`s. t..t./3 H).Lf.ja.X_.D*.CP `O <1 #3 |e xc b7 +6 z6 K4 `5 dB jC Z* +t.                                                                                                                                                                                                                                                                  ",
"                                                                                                                                                                                                                                                                                                      ^r [j d4 F6.Uj R..^~.lR @t.#t.82.f$.#R 7r S;.'m <S 9b !L 66 D7 z6 lk D7 Q6 |8 le uf pe bt mF hd Ij id /_ o: M< me $t.                                                                                                %t.Q< /9 %t p8 +6 4v (m *C W6 48 P4 Q4 uf &a ,=.&n I+.=r.r4 ,w             rs ;0 dh rn &t.*t.w].[-.D[ Ag Yn dt _m ]} Ht It fk Z0 #b $P 9g F< ^^.Ln Y(.4o Mg.4@.ze df F0 @..G).+_ ~;.&}.^@.J%.)e 8~ 5g |q *U Q4 P4 :S J'.`x of +5.}!                                                                                                                                                                                                                                                                ",
"                                                                                                                                                                                                                                                                                                      *b x(.s_.=t.o:.i@.P0 -t.;t.>t.C0 [{.3!.,t._k.gb 94 Vn c;.3/.I;.Q6 `x tb %b &a -0 G>.Z&.mF Ij }%.jd 'r ,0 w8 sb y8 K5                                                                                                    E7 ,0 5v hY /9 uh W6 >} Ak yc pe ma ys GE LG =].ep &0 %6 't.:B          ck.S/ kd Dj gB &a.re s0 >m X6 %t pg Q6 ^9 w8 U6 P4 bt ^0 Xr Je :Y z{ +|.Ur T&.3` ;@.CL  O (1.%.. O <^ q@.W{ L~.~<.!3.+y qj sf #G e7 p8 nx H5 R4 r8 ]].)t.                                                                                                                                                                                                                                                               ",
"                                                                                                                                                                                                                                                                                                      5b V8 55 !t.67 '1 !:.~t. } {t.]t.W+.^t./t.(t.6@.*^ VJ _t.5v V6 nx J'.jf 5/ &n pe 'r Kj dp >m @a hd Yn -N _9 X6.XM +[.                                                                                                   D2 ;0 It lk uf %t Gv yc )H o6 u,.p8 lk Q4 aM dt p9.jf !5 G6 v~ k9          T5 50 [_.J< lk Q< >m Ag wc p|.+4 >0 ^9 D7 U6  6 o0 lk Ro AH ^m :t.%E yQ &_ : .: .EV [!.%..^;.'>.ga.V( CL 6Q <t.[2 x9 %B TV *U p8 8@.V6 oy .6 I5 u7 Qd.                                                                                                                                                                                                                                                               ",
"                                                                                                                                                                                                                                                                                                      &: *C Rj [t.}t.Sf..L 6D |t.>].E9 [>.)m.Em.1t.m^.`) 26 MG )'.J'..6 3/.+a f: 3Q N4.+b ~c <m PS @a ,0 'r 'r j{.gq gB LE                                                                                                    .h.g4 48 *2 &a *C &: kW ;=.kW qB ]} Ji Q4 Ji 5v uh th &0 gB vh w~                      Q7.oa 2t.y5 3t.@3.ME Aw V6 V6 U6  6 +4 le _m Kj Jo og 4t.6d T[.N<.'>.Bm.<>.{h *#.a1.MY 5t.r(.%[.3l Fe d9 m6 T_.%t <8 Q6 _m Ak |F P6 +5 B1                                                                                                                                                                                                                                                                ",
"                                                                                                                                                                                                                                                                                                      sn ma no 7/ 6t.'j 7t.Po 8t.9t.HN *r.0(.0t.f].4a k/.wp |;.Hv lC nx at.bt.[q b4 ak b0 o~ ^-.g< V8 .a  J ek yc TV uf LE v|.                                                                                                      k7 08.Mr 66 ]} F7 >5 %t dt pe Ji la D7 lk GE pg pB ;m ia ^o Hs ct.                  W- :u |g.      dt.(_ D7 H4  6 Q4 GE vh 4v '5 jF Jh co.et.|7 H9 [~.ft.gt.-/.~` ht.it.]h jt.kt.O1.g9 Fs ~c vb _9 @a {9 o6 lt..G 9>.0M B3 O[.mt.                                                                                                                                                                                                                                                         ",
"                                                                                                                                                                                                                                                                                                      Qj.PE Md Ag nt.RI 1o 7s.-..ot.{h pt.,!.G{.*m G' qt.^'.I!.oy .6 `x .G &s._l 4^ Iv PU 4^ Qn {l Ai zi xi Ij sn -0 /9 =0 >0 B^.                                                                                                            L< rt.#a W6 qB &C Bg 66 uf ys |8 68 th @5.st.g1 Mq e[.nz LE                                  @v L3 J4 la sj /9 |q 1F Yn &n Hd !5 tt.h&.Ui Nj.P.. ~.k~ 7T u' O~.#1.~5.G:.ut.Q'.>I `n hd @a SV ke )i -I qB %t q8 58 |b ],.=w                                                                                                                                                                                                                                                       ",
"                                                                                                                                                                                                                                                                                                         vt.^r =U m8 ~I @[.>U } .wt.xt.1~ *m w, Ys.yt.wn 'r _m 8@.9>.z6 _9 4g zt.;L v/.qX ht.B/.!r zN /w #t -0 <8 lk ma kW ys q0 j~.At.                                                                                                         Bt.yr.&m vh Ct.(7 n6 ja tb ma Ht q: )H ;r ea Y2 9/ ch Dt.R-                               R3 YM q0 w8 2F |8 lk GE sn 5v Ij qe c4 Et.Ft.Gt.74  }.{p E7.`!.`'.85 3Y }Z a^ :n Fd @a vh Hd $P hr ZQ  n &n /9 /9 r9 ^} C3 *+                                                                                                                                                                                                                                                       ",
"                                                                                                                                                                                                                                                                                                         al +s +G HI !! Ht.It.m-.ba @8 9^ +! q, }3 5S th 4v /m )'.++.e/.D7 Ij Jt.Iv )n.2~.q|.zm Ln yN I'.NJ dp pe 5;.lk Ii uf D1 Y* Kt.                                                                                                            i7 F7 X6 rn c4 *1 jf wc Tn ^9 Q4 Lj _s ke Y2 ga lF i> !/.t0 t~                            C| T6 bc E7 U6  6 p8 vb b7 b7 id @a /7 ,I R( i0 A, ;R Lt.S).C=.O4.s; a4 Pg /J :e 'r |;.c2 ^c xN {m Mt.%b ys e7 )'.l0.J3 u_ D|                                                                                                                                                                                                                                                    ",
"                                                                                                                                                                                                                                                                                                         nq.Nt./>.9R 9l Wa Ot.w-. t I/ QV GL 4~.W(.W{./9 ko Ji uf 1F /!.la la s0 <S X@.Y@.Pt.%4.cr [c !s ho  b wn Q4 hY _9 t9 P< of T'                   Qt.Rt.                                                                                    St.R/ kC ~L og tV [v 'r 38 E7 Aw wc nF )H 53 2b yh 7< <= ,c 7^  h.                        l/.h7 j~.ME L3 _9 |q Tt.+7.91 v,.Cp AH J{.X@.=:.>L ;_.[3 Ut.!r Vt.!E }3 i9 D%.K-.Co V1 Wt.IE UR ;7.65 jf Q4 p0 S3 md..6 b* F+.                                                                                                                                                                                                                                                   ",
"                                                                                                                                                                                                                                                                                                            Xt.Yt.D8 K7 k/ Ce 4Y 49 en jq  I !,.),.Hv LG )f.ys (m d7 zc V6 q0 q0  6 &n <e U'.K}. +.9R f).Zt.N9 `t.Q6 p9 ys ,0 dr o0 O[.                u.I` .u.                                                                                    +u.F~ Z' $t &b Gv pB wc lk p: _9 -0 br id '5 yn oj D>.qq 'i ~H i^ +E          O{.         ~}.)} qA )} H4 ox *C X'.0g.Sm ,e q~ Xn ep Xn W6 (7 Th a^ `y :~.K- jq Rj Gd KG G>.lz @u.>'.q` =;.qk -(.Ak _9 +4 4/  !.Q6 np ],.                                                                                                                                                                                                                                                   ",
"                                                                                                                                                                                                                                                                                                               #u.h9 q7 `i $u.9~ *;.=^ L7 %u.Q4 J;.N].d_.8@.8@.yi 1;.&u.xn 2 .Q6  6 Q4 c7 PS %b H:.Jo %%.PS /J $G ,0 vh Z&.B( B( ox *u.            =u.-u.mO ;u.>u.                                                                                          ,u.yg `n o6 K-.tf ]} uf ma uf &: Ag xj ia 2;.(@.^5 07 ti 'u.Ff K|.5 .im /h       {~ qA )} h7 T6 p0 p8 [^.7O k+.>c d9 5].yc %b Gv *C 3f Mj B=.]5.=R PG )'.KG L#.nF )u.V&.jp 0b Ho /K *1 &: GE sn pg r9 H4 Lh h4.                                                                                                                                                                                                                                                   ",
"                                                                                                                                                                                                                                                                                                                  !u.f8.~u.{u.ix 72 #c Fi Bd z{ C>.~c xi pg Ij :Y 07 _Z Dd W[. 8.AH !~ oy ys at lk -0 Ji <8 #0 $G ^0 OG Ke Lj '5 ]u.O[.         ^u./u.:f (u.n7._u.                                                                                             :u.gd TV <u.K-.q: mk ^9 |8 GE X6 sf o6 &6 1*.!/.h9 @9.^0.;L xN %P Y6 h< [u.   N;.}u.B[ !~ V6 T6 !~ &0 wh Ai ]H t{.72 LM  a vb lk dp #s.i9 Ee j_.&n ij W6 H< Le yp yt bP mA xk jF dh vb *1 '5 Yn ne T6 r8 Ah K5.                                                                                                                                                                                                                                                ",
"                                                                                                                                                                                                                                                                                                                     |u.1u.2u.+k l8 {%.]5./w 46 F< Gk vi 1F 66 <m vc #B ah X;.ti 4g  6 +4 /m ^9 $m Ht T6 ]} .n fp lF O9 >7 oe c7 3u.4u.         5u.6u.AW V-.7u.8u.                                                                                                   L< ,M lo W6 F7 !~ +4 |8 {9 wc {d El.h8 2= $y #n GH N( 8~ 9u.29 $A 0u.   au.e;.qB Q4 +4 `5 D7 /9 Hd <-.&^ 84 1<.K0 Rr 1F ma uf /9 To k>.io &n TV I< PS fa R( k8 @8 Gs +G @a Aw *C So 7< tV TV o0 p0 bu.cu.du.                                                                                                                                                                                                                                             ",
"                                                                                                                                                                                                                                                                                                                              eu.fu.n|.gu.fl ~%.S%.~c |;.pg 5v wc VD hu.Bk iu.gA *C la B:.1F @a {9 |8 _m b7 #t -n ju.mu $P Gk mq ku.lu.mu.nu.ou.pu.qu.ru.be.U:.su.tu.                                                                                                   f> i' 4v Dj e7 GE +4 F7 Ls.ah.O*.%^ 2(.uu.Tk -L ZQ y~.j4.2i 1m vu.wu.*4 wk 88 e7 n9 Q4 68 5v G>.jf I#.ra ]%.zp 6/ Ij th ct ),.uh no Kj _m  y G>.@t X;.j(.yp  - i9 1;.uf &a ia l1.6/.Yg.=r.28 ]9 [a .h.                                                                                                                                                                                                                                                ",
"                                                                                                                                                                                                                                                                                                                              xu.j` uq yu.b7 &m W6 &: uf at }%.pe tj jf xi dt 8@.sj Ht Q4 mF wn Cp b7 b7 mF Ii sf .n wh PS xi [v zu.Au.Bu.Cu.Du.Eu.Fu.Gu.{@.Hu.Iu.                                                                                                         Q3 oa 4n |8 GE I5 ^9 ;0 v5 Ju.Ku.L;.W1 as.<*._c v,.!i Q) ^c =;.=y &4 G7 /9 %t -N q9 &U i(.ma pg I#.-L &P Lu._c Ag Gv X6 hd 5v }%.dr ,0 Ld _d qW 0O 3~  i $|.Zn vb @a jf LJ jF uj _s G7 t9 Hs Mu.                                                                                                                                                                                                                                                   ",
"                                                                                                                                                                                                                                                                                                                                 Ig Nu.S0.%: Ii ep 3e ;m 1{.4v uf ma ^9 V6 `x nx Z5 T6 mk mF yc Kj G>.-N ),.Ld wn yn oe ek rn Ou.Pu.Qu.Ru.Su.Tu.Uu.v%.$&.n<.:6.Vu.                                                                                                               @v Fv zn :9 /_ Q6 Gv D[ 1G {'.0R `0 $a ke Za 1~ E8 ^c ba da $a vh {9 _9 +4 `x q8 N].ma 5v rE };.Wu.'4 [=.cj./7 Cc.Xu.i6 @a <8 Ii S%.W/.YN c` CU 5].[m id )'.uh uh sf zc gB =r.&a.<8 Yu.uq ct.                                                                                                                                                                                                                                                ",
"                                                                                                                                                                                                                                                                                                                                             Zu.2t.-0.ep Xu.Q^.B:.wi 8D jC `5 T6 D7  6 ^9 ep 1{.Gv sn ys 1F wn -(.zU 1{.Gv  o 'i `u. v..v.+v.@v.#v.$v.X'.%v.d#.                                                                                                                        E1 }:.1| n9 re hd &a B( wc sf nF 7D Ka N[ 84 '4 &v.!H vi bt na >0 Q4 Hv wi <8 lk at le o0 lz +l TJ ]7 9d 5D {$.*v.On fk zU ho 20 ^d =a cl er X6 >0 +4 P4 :9 Ht GE dt B:.XM @3.=v.-v.;v.                                                                                                                                                                                                                                                ",
"                                                                                                                                                                                                                                                                                                                                                >v.s8 p0 _9 Hv o0 D7 T6 q0 T6 D7 Ht q!.ma ;(._s &: Q6 at KG Ak uj xj xi vh ;c 2G *8 ,v.'v.)v./a La {! gm !v.                                                                                                                              `4 2*.n0 oa Q< dh X6 id vh tn CK Za Q( (@.ui ]..1= Jj wc XM $m Ht _9 o0 <8 {9 5v {9 o0 &: cp :;.Iv lx /T Cp.NG !L ij Gk 6~.QV [c cj.ek _m Q6 p: Q6 P4 la >0 p: D7 |8 z8 ~v.<4 13 e<                                                                                                                                                                                                                                                 ",
"                                                                                                                                                                                                                                                                                                                                                   {v.w}.x8 I;.H;.H;.I;.J'.:S 2F lk ys _m mF vh uh sn G7 y/.y/.%b gB &n o6 Xa ]v.mS 7,.I[ $] Es.^7 ]v.*6 ^v.                                                                                                                                    #3.k^ PO Pn Hd ,M n6 *1 c4 v,.Jf &^ 5^ O9 i9 xh Le uY )i Jh G7 E7 F7 @a |q uh lk Q4 ma Sn g*.!L yc `n @a na X6 Sn pb X@.EK wh 4v ma P4 la |8 _9 +4 ^9 P< Q6 /v.PO .V (4.sY jy                                                                                                                                                                                                                                                 ",
"                                                                                                                                                                                                                                                                                                                                 (v._v.                  60 o9 e7 J;.aM oy .6 oy wi P4 `5  6 q8 :v.[v W{..+.lo tb Xn &n Z0 @p 5D <v.n:.h9 Gb (8 [v.}v.|v.                                                                                                                                             R' 40 Pj. l n6 M/.an.fa lF !H l*.39 Yi 'i _c O[ EK >h 9h Cp o6 tn &a pg o9 o0 D7  6 x8 :9 x8 E7 T6 '} Q6 Gd 0e.z{  n rn pg |8 !~ D7 ^9 Ht >0 o0 _9 r8 1v.b8 `4.2v.3v.                                                                                                                                                                                                                                                   ",
"                                                                                                                                                                                                                                                                                                                                 4v.5v.                  F~ g^.KG *U q8 2F :S D7 2F jo L4 jC q0 th K;..n g*.=].X6 'r <9 3e (@.J{.j$.*9.07 m' i, 0< 6v.                                                                                                                                                               7v.18 P) ]l i, >7 N[ q7 ,e so NE bM Oi Za oe yn Co wc vX 68 la D7 bc L3 L3 '} L4 L3 `5 {9 {u V9.<= ea ja 5;.o0 la V6 :9 $m Q4 _9 66 It =2.+V 8v.                                                                                                                                                                                                                                                         ",
"                                                                                                                                                                                                                                                                                                                           9v.0v.av.bv.                  dt.*C Xn cv.sj 2F T6 q0 L4 ME dp dv.ia &a kW ko bt pg e7 pg Wm bp )0 +a G].|3.<*.+f >3 ev.:w                                                                                                                                                                         bk.fv.1*._s %4 65 ]: gv.9| 1{.SV vi !L &n &a ys la bc la  6 h7 L3 h7 Lh :9 };.`n vi p6 ij &: ,0 o0 D7 ^9 !~ +4 ;0 68 ys 48 Q< [9 hv.                                                                                                                                                                                                                                                            ",
"                                                                                                                                                                                                                                                                                                                           iv.T0 QH jv.kv.               LE 5v i(.lv.l9 sj V6 U6 la =0 WD }v '5 jF L#.V6 la ma It Ij XD 1;.g*.CH !%.};.3e (4 =1 *4                                                                                                                                                                                  |v.zg zh 75.im N( nb m6 zU jF c4 &b 5v V6 D7 la Q6 Q4 V6  6 bc T6 la er jf id -0 -N 5v ma Q4 Q4 lk P4 Q4 Q6 ^9 |8 F7 oa E~                                                                                                                                                                                                                                                                ",
"                                                                                                                                                                                                                                                                                                                     mv.nv.ov.~_.uM pv.                  R/ _9 _9 /m sj oy P4 Q6 I< NG c[.$s.38 E7 lC 8D qv.sn _m uh &n xj Jo ;I (c }$.Ya `7 ~0                                                                                                                                                                                                 S5 4b p~ i^ mp -b *1 Gv q: |8 !~ +4 Q6 Q6 V6 V6 bc Lh L3 w8 p: E7 Aw /_ +4 I5 +4 lk 8@.^9 ^9 la V6 ^9 Q4 R/ ,}.                                                                                                                                                                                                                                                               ",
"                                                                                                                                                                                                                                                                                                                     0N kX iX 6<.rv.sv.               tv..%.H;.P4 I;.la la pe ij rn 84 Le th E7 `5 |q dp _9 @a ]} %t &a H< B( (c !o t~ /6                                                                                                                                                                                                             Q0.Gb vb.o6 HE 4/ 66 GE Ji P4 T6 T6 la D7 w8 x8 h7 ME )} '} h7 '} '} `5 x8 p0 `U |8 D7 H4 bc L3 e* ]'.                                                                                                                                                                                                                                                                  ",
"                                                                                                                                                                                                                                                                                                                     r5 Z+.uv.C0 Z9 vv.               v~ O< +4 oy l9 uf uf >=.(T zh Jt.-r Ji  6 T6 >6.gB ys lk 28 %t sf Ci cF `0 &%./h.wv.                                                                                                                                                                                                               h4 3= xv.K< uw t9 P4 z6 H4 V6  6 V6 V6 w8 T6 U6 tB np h7 Lh L3 L3 V6 w8 68 o9 Q6 of x8 L3 s9 C)                                                                                                                                                                                                                                                                      ",
"                                                                                                                                                                                                                                                                                                                     yv.u< u< Fj.zv.Av.Bv.      Cv.aO %4 Ii sn l9 )'.Kj &n nF vi %b tn J;.o0  6 |8 d7 kf ys |8 Q4 ,5 K< {} r4 &m u^.                                                                                                                                                                                                                                 %t.l<.|8 o0 V6 `5 U6 D7 o0 |8 ]} ma at o0 +4 >0 la Q4 _9 Q4 ys ys lk !~ q0 {,.~~ Z4 $t.                                                                                                                                                                                                                                                                  ",
"                                                                                                                                                                                                                                                                                                               Dv.Ev.Fv.'@.>@.**.Gv.Hv.ds.Iv.Jv.4f j_.{w ke g^./!.h*.R<.W{.I+.jf ko p8 J;.o0 ^9 _m Q^._m la z6 D7 Nd q: [a d5.                                                                                                                                                                                                                                          k^ P4 nx U6 q0 I4 V6 z6 _9 =0 ;} Kh 5v +4 t9 Q4 e7 GE ^9 _9 ma _9 !~ T6 U6 Lh j~.Kv.                                                                                                                                                                                                                                                                  ",
"                                                                                                                                                                                                                                                                                                         Lv.Mv.Nv.Ov.Pv.Qv.q< ]+.KK h%.DL Rv.Sv.$^ jb VV ok | .kW C{.B{.fk =r.>} ko /9 N].I;.ys ko ys Q4 Q6 +4 o0 wk |C n0 p!.                                                                                                                                                                                                                                             o8 y~ )} q0 V6 la +4 e7 b7 &a.uh p8 P< Ht P4 +6 &: F7 ma uf Ht Q6 !~ H4 D1  <.Y4                                           Tv.                                                                                                                                                                                                                     ",
"                                                                                                                                                                                                                                                                                                         `N 6: 1: Uv.Vv.Wv.qR b..! .!7.`V Xv.Yv.9b wp <-.Qo =].Yr Q^.Q^.g^.I< O].'}.h*.I!.ys Gv ij pg LG lk Ht Jt Zv.<! E1 N5                                                                                                                                                                                                                                                 v[.YM bc la wi wi la t9 |8 o0 D7 ^9 o0 T6 I< vi tb b7 -0 $m p: le n9 aM D2                                              `v.                                                                                                                                                                                                                     ",
"                                                                                                                                                                                                                                                                                                         d-. w.Pe.r>.{_..w.+w.@w.)!.$! #w.$w.%|.{7 qj &n B{.8N wn Yr |q ~,.qj %w.&w.AU *U vh 1;.~].vb P< ys sj Q4 Ah                                                                                                                                                                                                                                                          v|.YM '} E7 o0 ^9 D7 o0 la !~ p: Q< 4/ 5v HE *w.=b Gv Ij ,0 38 ]} %t o9 *~.                                                =w.-w.                                                                                                                                                                                                               ",
"                                                                                                                                                                                                                                                                                                         ;w.)!. } Db.mQ >w.,w.'w.)w.6k.!w.~w.Dk  T rb .^.{w.j{.Xn ]w.^w./w.P:.c/.(w._w.ct :w.<w..D b7 lk lk e7 |8 $t N3.                                                                                                                                                                                                                                                      6}.6}.o: w8 ^9 _9 sn G7 Gv ^0 h8 [w.yj 1;.;U Jh tn W6 ka &: oa X6 {9 ma Aw (~ >}.}w.                                    |w.1w.2w.                                                                                                                                                                                                               ",
"                                                                                                                                                                                                                                                                                                      3w.4w.<^ 3>.EV g&.l@.5w.6w.7w.D[.8w.Ml Ep Dd 9g K-.h*.16.nB E..Je C{.RV 9w.0w.>=.le uf =]._m z6 L4 !~ wi lk uw ^]                                                                                                                                                                                                                                                          T' r2.x8 la _9 >=.e[.o6 {d 6^ i9 $P Xr TV *C br G7 tb {} -0 Gv /9 8@.o9 K4 u_ g8                                  aw.bw.cw.                                                                                                                                                                                                                  ",
"                                                                                                                                                                                                                                                                                                      dw.ew.gP 6<.g_.dS fw.gw.hw.iw.<v.jw.4g $0 {7 fp '^.Kj kw.k{.QV lw.ys @G %b oL R^.%t _m *U Ak tn ij Gv qg 9>.g~.                                                                                                                                                                                                                                                               i7 o: :9 P< yc mw.El.Bi A,.'J !I Cp wc p8 C].j*.~} Ke Ag wc uh Gv 66 +4 '} 0/.                              nw.ow.C_.pw.                                                                                                                                                                                                                  ",
"                                                                                                                                                                                                                                                                                    qw.rw.sw.         tw.uw.%}.vw.ww.SW qR fa.xw.d .v0 fa qb yn Cp %0 /6 $^ Fi I/ I/ yw.dp dt l9 /9 i^.zw.tn u,.+].qB +r.g^.;} Kh C|                                                                                                                                                                                                                                                                   i7 Lh /_ *C WD #m f8.$4 !0 .a ^m uj th O7.i< Gs F< as.)9 :d rn 8| f1 l<.I,                                  Aw.%8.Bw.                                                                                                                                                                                                                  ",
"                                                                                                                                                                                                                                                                                 Cw.Dw.Ew.Fw.Gw.   Hw.Iw.Jw.Kw.Lw.Mw.Kg.Nw.u&.q*.q-.La <j cP 5S @t fp 2;.G- +8 b4 c5 P:.*<.pg p9 F>.)'.8@.lf qB 3/.H>.lv.=].tn GE H6                                                                                                                                                                                                                                                                   B^.)} 7- F7 f;.uY Mv -k }v vi gB 2 .-x Ow./d '^ j(.k/ &^ Hi ok =b &b S/ .h.Pw.                           Qw.in fg ^n Rw.                                                                                                                                                                                                               ",
"                                                                                                                                                                                                                                                                                       Sw. } Tw.Uw.Vw.Ww.Xw.`|.Yw.Zw.!j H].`w. x.~l _4 x=.7l A[./,.c7 1;.-a ]5.[q [3 .x.%b >=.p8 /m l9 l9 l9 e7 sh +6 B:.C{ ~L %t ~~                                                                                                                                                                                                                                                                   T' '} ME pe +x.j9 $y s_.as.p6 Kh dt Ct.@x.j$.X..{w a4 3b !%.~c  l vi ,5 6v q6 d5.                        #x.$x.%x.SH s5 &x.                                                                                                                                                                                                            ",
"                                                                                                                                                                                                                                                                                       *x.T[.=x.-x.;x.f!.a|.>x.fg ,x.'x.)x.!x.ki..a 3<.Gk xi 5g ok qj OG Y).Ri Xs #P =m oL ko |8 /m J;.(m H>.%t )'.Ca.++.~x.{x.+6 Q3                                                                                                                                                                                                                                                                D^.v[.h7 `5 lk u,.|;.#b so 2b ia pg sf xg ;y G8 ]x.^x.!^.^m yn 1{.(m kF e;.s0 Gv ]|.                     /x.(x._x.:x.<x. w.[x.}x.                                                                                                                                                                                                         ",
"                                                                                                                                                                                                                                                                                    |x.1x.2x.3x.4x.5x.6x.~t.7x.8x.9x.0x.ax..n 5l .a !].yj lz Ju.EI tc &d a4 ^/.ah Ni J/.i5.lk D7 /9 =r.Xn |q m9 -N ~,.5b.{x./9 F7 K>                                                                                                                                                                                                                                                                ~~ ;0 !~ Q4 P4 sj e7 rn !L ep Z6.th I+.ZQ ]>.bx.cx.>] _s sf '5 Gd xi e;.'5 zc ma 60                dx.ex.fx.gx.hx.ix.jx.kx./$.lx.                                                                                                                                                                                                         ",
"                                                                                                                                                                                                                                                            mx.nx.ox.            px.qx.rx.sx.tx.ux.vx.Po 4%.Yy RS %d  ).qa =U R%.Q .Wc Ai 'o ]b 3 .qo FL -a 3~ T) Yi nq yi wx.xx.yx.zx._s CK qB wX vK vX nz B^.D^.                                                                                                                                                                                                                                                                  t^.r0 w8 Q6 Q4 Ht q!.uf ct &a Bg Kh Ax.J{.m'._` kp 5%.~3.jZ G< fi xj Pn ^0 EI %0 :d nL Bx.   Cx.Dx.Ex.(i Fx.Gx.Hx.Ix.Jx.Kx.Lx.Mx.                                                                                                                                                                                                         ",
"                                                                                                                                                                                                                                                            Nx.Ox.Px.            Qx.Rx.Sx.Tx.Ux.Vx.Wx.*6 3g Fi Ct SJ 75 Xx.i^ b^ Dk }4  Q -#.}6 Yx.Ju.fv.Q( }3 *R Zx.VD B:.`x.v^.}Z @h._s 3/. y.~L 4/ *H u2                                                                                                                                                                                                                                                                            <! du dh |8 mf LG vb vh pe Q6 9>.SV @*.hr .y.+y.@q @y.<+.hF RS  H #y.07 en c5 hy 9| Nt.$y.%y.&y.X9 '>.N~.T+.g_.}>.eO *y.Uv.=y.                                                                                                                                                                                                         ",
"                                                                                                                                                                                                                                                            -y.;y.>y.,y.      'y.)y.!y.~y.{y.]y.^y./y.-h P].nq (y.)I |g _y.:y.^s }= oe <y.34.LM TS mm =8.=J [y.K{ }y.D>.jf |y.Go 1y.V^.R_.8N ox 5b.GE of                                                                                                                                                                                                                                                                               G; =b #5.|q 9>.p8 7D g*.V;.2y.3y.Sj t6.=$.4y.)>.(b _|.d .lA <n :J T .5y.JL u!.%d <*.-b ^~ $c.6y.ar.d-.`V V( yv.7y.7y.8y.9y.0y.                                                                                                                                                                                                         ",
"                                                                                                                                                                                                                                                         ay.by.cy.dy.            ey.fy.gy.&e ]-.wj >I >I 2f oe hy.Na &} !=.iy.'K @4.so <a 'H jy.ky.ly.@} 8:.us.an my.-0.ko ny.Sj lz | .oy.&a.vX e7 y7 Vu                                                                                                                                                                                                                                                                               py.ne qy./9 >0 5;.Kf L;.ry.;_.wt 5^ qq /T sy.Mk HX n$.4l Xe.ty.uy.WP `= ]K $&.vy.cm ; ._c wy.xy.yy.1'.aY *o zy.Ay.Lb By.Cy.Dy.                                                                                                                                                                                                         ",
"                                                                                                                                                                                                                                                      Ey.Fy.Gy.Hy.Iy.Jy.Ky.         s8.Ly.;7 ~'.oL !c y=.!c /-.:Y mw.q:.yc mm i< Ct ZQ My.Ny.Oy.K_.#o @#.dc.Zu E8 E..E>.*x ,r ij bt i(.qB L#.9>.p9 O4 U/                                                                                                                                                                                                                                                                                  k^ Jt <8 lk -x Lf LW ry.k{.6~.d|.Cp Py.Qy.ve @&.{| *y h^ w=.fa kx 0(.Z'.6P Ry.Sy.Ty.Uy.e4 Vy.Wy.Xy.C_.BL 8{.Yy.}l Zy.`y.dR  z.                                                                                                                                                                                                      ",
"                                                                                                                                                                                                                                                         .z.+z.HQ @z.#z.$z.y0 %z.:0 &z.}0 *z.zh 5g $G =z.To -n h^ Gd qj Ld eF )%.mx MJ -z.At <1.'+.#r. q Nq ,q.W/.Ai ;z.kf pg M].Hv wi l9 |8 wi nx r8 .6                                                                                                                                                                                                                                                                                     50 4n ~} RU 9| Yg.yh Je $0 bp .a aO ~2 }m.Ef x9.Ih )9 ::.d3.v<.DU 0O o*.{). Q *&.>z.,z.'z.)z.!z.~z.p< C$.{z.:%.]z.xr.^z./z.(z.                                                                                                                                                                                                   ",
"                                                                                                                                                                                                                                                         _z.:z.<z.BU 0r ~1 =] ~! Uh .7.c9 2G Ih )c +G [z./m.X6.xi vh =b HE Gd wn Bc ; .80 i8 /q.}z.S .]C <d +l s2.Q;.|z.mf r].1F bt _9 o9 l9 aM 58 o9 oy                                                                                                                                                                                                                                                                                     1z.g; 2z./^.4P 3z.1F Gv Q^.lo B{.3D 9;.4z.Z= Y_.=N fa 'm Gh ~].N(.HW N7 IE 5z.Sc.6z.`i se 7z.8z.9z.0z.U#.FQ lj 4e da.az.X4.bz.cz.                                                                                                                                                                                                ",
"                                                                                                                                                                                                                                                         dz.ez.fz.{: [=.,5.fl ~} QU =$.&s.,_ Hi =N !c :n k!.AH w_.gz.V'.hz.)r ea Do g< g9 u0 s_.!%.Ac ep l_.Ea.w_.iz.g^.[g.jz.at.wX CI I-.qg Q4 68 =<.z6                                                                                                                                                                                                                                                                                  2t.Vh K< kz.%(.uj lo sn 9>.-N bt th `n =(.c5 dl Ct $0 _s RV ;(.K-.~c 7g mu xN {3 25.R8 lz..5.F7 A[ mz.nz.m*.oz.%I a&.pz.qz.rz.sz.tz.uz.                                                                                                                                                                                             ",
"                                                                                                                                                                                                                                                         vz. 4.'b N9 P[ |4 5P 9g g1 wz.CK xz.)H yz.:;.55.zz.Az.S:.^%. }.Bz.@y.dm v].io R%.:n {H QU P;.Cz.Dz.lt.cv.i^.qB ek.Ez.Fz.2 .i(.hY l9 p0 *H GE !~ `] :]                                                                                                                                                                                                                                                                         Gz.Hz.{C Ke .7.Iz.{} wc ,0 ys P4 q!.uh u,.9| -I 2b Gk @G kf tf 8@.L#.pg no qj Ka b9 -6 !` Mi lo -N Gd (@.Le Ke ^<.KW Jz.Kz.]/.Lz.Mz.Nz.Oz.                                                                                                                                                                                             ",
"                                                                                                                                                                                                                                                   Pz.ct.Kt.v[.K%.w,.-a w@.w<.yj LJ Qz.Rz.tj Sz.Tz.+^ &(.B#.oZ 05 0&.}g ;q u/.zc tb Cp 3f K}.l_.Uz.Vz.Wz.1j.[g._w.lv.<9 @4 JW nF jz.Ks.,=.L#.4/ %H uf aM +5 X*                                                                                                                                                                                                                                                                         Pm eC c].Xz./} Yz.ma pg pe l9 +4 ^9 q: Gv I< tn `n ,5 sf qB |8 `5 :S 8@.CH CX $0 i^ Ka %8 /w.Bg *U kW In 2b s0 m0 fe.@[.W=.:a 5^ WV q4 Zz.`z.                                                                                                                                                                                          ",
"                                                                                                                                                                                                                                                 A..A.Zm.md.-E o9 KG )H +A.@A.p1.#A.Ac.I-.$A.%A.h^.&A.55./s *A.=A.-A.;A.>A.6/ Gk yn Xn Xn wc -N e/.&U e~.,A.Pr 'A.)A.!A.~A.{A.]A.59 ^A./A.pg 8@.%H ]c.;5 R4 }[ H7.                                                                                                                                                                                                                                                                        [u.(A.]E rn %t p8 e7 l9 oy :S oy._A.Ol.:A.<A.T .[A.R3.}A.|A.%t *U dt Gd 1g tb H< 18 1{._d r8 |8 He.4P ;p K;.3t.1A.S .`6 2A.;p dk #5./~ ,K 3A.                                                                                                                                                                                       ",
"                                                                                                                                                                                                                                                J5 4A.5A.6A.7A.N4 8A.9A.0A.aA.bA.cA.dA.K4.eA.fA.gA.hA.iA.jA.kA.sh q8 b7 Ls.a/.lA.FI zc kf ys sj qg gh.n!.bi.bi.Dd.mA.nA.oA.pA.^s qA.rA./(.|q 8@.P(.O4 O4 O4 9[ >;                                                                                                                                                                                                                                                                         50 Zv.U_.Q;.Ks.+6 58 p9 sA.tA.uA.vA.ri wA.xA.yA.zA.=M AA.BA.>=.Kh |8 CA.DA.EA.FA.GA.HA.W;.ng g7 !'.Ak d7 ,M -x b7 X6 8| v5 M/.P;.IA.R< b6.JA.KA.                                                                                                                                                                                    ",
"                                                                                                                                                                                                                                             LA.Ir.MA.NA.OA.PA.A4 QA.RA.SA.TA.UA.VA.!, WA.XA.YA.ZA.`A. B..B.+B.@B.%Q #B.!=.l6 ^d lp '4.$B.tj j^.%B.&B.Ee.*B.=B.-B.qE ;B.>B.,B.'B.ia )B..D lt.u,./m .6 R4 `U C7 to *w                                                                                                                                                                                                                                                                   !B.+p.Dj =r.%(.)H Q4 P4 vX l9..e.~B.Nh {B.]B.^B.Ku.JN B)./B.=].)'.aM P4 (B.e/ ]w AV !1 kq $d _B.;e.>e.lf +r.q0.:B.ek.e7 m9 wX 'B.#y <B.r: [B.}B.m= W@                                                                                                                                                                                  ",
"                                                                                                                                                                                                                                          |B.1B.2B.3B.4B.5B.6B.7B.8B.9B.I% 0B.aB.bB.2$ cB.dB.eB.fB.gB.hB.iB.jB.kB.lB.mB.<J nB.rA.EI -N Ez.3l.~h.oB.yJ V/ pB.qB.rB.sB.tB.uB.G5 A2 vB._d.wB.Q_.xB.l9 H5 H5 C1 R4 L4 m}                                                                                                                                                                                                                                                                yB.Jf.p0 4/ !~ `x P6 GE mf zB.AB.BB.CB.!B.;B.*U f~.DB.EB./9 uh pg LG 5v sn *C Gw FB.GB.HB.]d ww 8#.+r.IB.JB.Ca.ek.Ag..B ++.1F pg KB.qy.LB.rg rg MB.NB.OB.                                                                                                                                                                                 ",
"                                                                                                                                                                                                                                       KB PB.QB.RB.SB.TB.UB.VB.n& WB.XB.YB.ZB.`B. C..C.+C.@C.#C.$C.%C.&C.*C.=C.-C.;C.>C.,C.'C.)C.ia r].!C.ZU C2 C2 ~C.<c.{C.]C.^C./C.(C._C.:C.<C.[C.LG lt.}C.|C.Hv J4 dB .6 R4 B3 X*                                                                                                                                                                                                                                                                Yu.lr hY o9 8@.LG q8 v7 1C.2C.3C.4C.5C.6C.7C.Pc.1j.7m.8C.ek.|;.zs i^.<u.9C.[}.CH .J Pn #t rn jF @5.68 +5 G3.58 `U W5 8m.rg 0C.aC.bC.cC.dC.Bg.eC.fC.%J gC.%x hC.                                                                                                                                                                           ",
"                                                                                                                                                                                                                                    iC.&- jC.kC.lC.mC.nC.oC.pC.qC.rC.sC.tC.uC.vC.O* wC.|l.xC.yC.zC.AC.BC.CC.DC.EC.FC.GC.HC.IC.JC.]c.;5 KC.LC.W5 #< m] MC.NC.OC.PC.QC.RC.SC.TC.UC.VC.5v WC.XC.YC.q8 H5 `x sj R4 Z5  5 ZC.                                                                                                                                                                                                                                                         `C.Sg.)~ oy +4 ;5 @l..6 ~d.x6  D..D.+D.@D.#D.$D.Zl.#k.%D.&D.Z8.Xu.0C.-x xx.*D.)r mB CX zU _s =D.-D.;D.>D.Gl.G1 VT ,D.8m.8m.~x.'D.)D.!D.~D.{D.]D.^D./D.(D.x3 *> +@ _D.                                                                                                                                                                        ",
"                                                                                                                                                                                                                                    :D.<D.[D.}D.|D.1D.2D.3D.4D.5D.6D.=$ 7D.or.8D.9D.c} 0D.aD.bD.cD.3E dD.eD.fD.gD.hD.iD.jD.kD.lD.C1 C3 IW @C mD.@A 3$ nD.oD.pD.qD.rD.sD.tD.uD.vD.wD.%^.xD.yD.[g.p9 r6 r6 q9 *k.J4 9- rK er.                                                                                                                                                                                                                                                      zD.p0 K4 8- U6 r6 ;5 oy AD.BD.CD.DD.ED.FD.GD.HD.ID.$' H9.JD.Cd.i(.&a.^0 KD.]>.6a b/.B).LD.MD.ND.OD.PD.QD.RD.SD.TD.H1 UD.zg..G VD.WD.XD.YD.ZD.`D. E..E.+E.@E.#E.$E.%E.                                                                                                                                                                        ",
"                                                                                                                                                                                                                                    &E.*E.=E.Rz -E.;E.>E.,E.'E.)E.!E.~E.:O {E.]E.^E.6[ Q^ /E.(E._E.:E.p* <E.[E.}E.|E.1E.2E.G3 Z5 Hj fD j& 3E.4E.5E.6E.7E.8E.9E.0E.aE.bE.cE.dE.eE.fE.|F 3f.jz.=e.58 `U )f.wi H5 Z5 PV ue.4H                                                                                                                                                                                                                                                       gE.A6 t8 j} q0 K4 J4 0M hE.iE.jE.kE.lE.mE.nE.oE.pE.;% qE.rE. y.wi Q6 jF F/.t4.w@.dm sE.tE.uE.vE.wE.xE.yE.zE.AE.BE.#5 CE.CE.@j.DE.EE.FE.GE.HE.IE.JE.KE.LE.ME.ns 9E *{ NE.                                                                                                                                                                     ",
"                                                                                                                                                                                                                                    OE.PE.QE.RE.SE.TE.UE.VE.WE.XE.YE.ZE.`E. F..F.+F./> @F.#F.$F.%F.&F.*F.=F.-F.;F.>F.,F.'F.@< j& t8 u_ B3 @< )F.!F.~F.{F.]F.^F.^O /F.(F._F.:F.<F.[F.W5 v7 ]c.P6 %Q R4 TU X5 H5 D3 V3 ~[ 9+                                                                                                                                                                                                                                                    @p.}F.>5 L4 j} jC 9- LV 9- |F.1F.2F.3F.4F.5F.6F.7F.8F.9F. j.0F.`U .6 oy ek.|z.aF.bF.cF.dF.eF.fF.gF.hF.iF.jF.kF.lF.mF.!d.nF.oF.9- pF.qF.rF.sF.tF.uF.0_ vF.wF.xF.yF.zF.AF.p3                                                                                                                                                                      ",
"                                                                                                                                                                                                                                    BF.CF.DF.EF.FF.GF.HF.-> IF.JF.KF.LF.MF.NF.OF.PF.QF.RF.SF.TF.UF.VF.WF.XF.YF.ZF.;~ }[ r= `F.j& ,..j} tB c* K:  G..G.+G.@G.#G.$G.%G.&G.*G.=G.-G.;G.V3 TU j^.;5 p9 B| R4 C2 C2 A2 >G. 5 Z'                                                                                                                                                                                                                                                    ,G.EB.=0 jC L4 jC 9- V3 M4 'G.)G.!G.~G.{G.]G.^G./G.(G._G.y2 G1 8m.B| J'.H4 Kh :G.Tn.<G.[G.}G.|G.1G.2G.3G.4G.5G.6G.7G.4J 8G.)j.@< 3/ 9G.0G.aG.bG.k( cG.dG.eG.fG.gG.hG.iG.jG.dr.                                                                                                                                                                  ",
"                                                                                                                                                                                                                                    kG.lG.mG.nG.oG.pG.qG.Uy rG.sG.tG.uG.q@ 8* w! '; p% vG.wG.xG.yG.zG.AG.BG.2- CG.[( DG.K1 K1 _( W3 8- t8 gD EG.FG.GG.HG.IG.JG.KG.LG.MG.NG.PA.;G.OG.J3 J4 ]c.x7 r8 f7 +5 f7 Y5 ,E y3 u}.mt.                                                                                                                                                                                                                                                   >}.L2.PG.Z5 iC j& V3 G1 `F QG.RG.SG.TG.UG.VG.^G.WG.XG.YG.<M B2 ZG.C1 C3 U6 O4 `G.(d. H..H.+H.@H.#H.$H.%H.&H./M *H.=H.-H.4K ;H.~[ [[ >H.0G.,H.!# 'H.)H.!H.~H.{H.]H.^H./H.(H._H.                                                                                                                                                                  ",
"                                                                                                                                                                                                                                    :H.<H.[H.}H.|H.f' => _) X^ 1H.2H.[- ,> ,> iD `F.i{.3H.4H.5H.6H.7H.8H.9H.u! |( &5 @5 v= w2 fD 8- 9[ 8- q% 0H.aH.bH.cH.dH.eH.,, m] $5 z2 fH.8[ 0M K4 I> Cj P3 C| V3 y2 +5 Z5 Vu e'                                                                                                                                                                                                                                                          X' gH.y2 9[ j} j} $5 hH.iH.jH.g- kH.lH.mH.nH.oH.pH.qH.rH.sH.}[ F5 Z5 Z5 Z5 `x lg.tH.uH.vH.wH.!G.xH.yH.zH.AH.BH.CH.DH.EH.FH.GH.K, W3 HH.IH.JH.KH.LH.MH.NH.OH.PH.QH.RH.SH.TH.7! UH.                                                                                                                                                               ",
"                                                                                                                                                                                                                                 VH.WH.XH.YH.9m.%* ZH.,; @A `H. I.,, q} 1P ,> _( .I.+I.@I.#I.$I.%I.&I.*I.t= '; R^ 8[ '; =I.'; 8- @< B1 W3 -I.;I.>I.,I.'I.)I.!I.$, x2 rK 8[ Y3 w2 j& e*  /.         @< B1 J3 1[ 7- )>                                                                                                                                                                                                                                                             ~I.gH.W3 j} j} }[ X3 2K {I.]I.^I./I.(I._I.:I.<I.E# [I.}I.a' B7 U/ 9- U/ U/ ,E |I.1I.2I.3I.4I.5I.6I.7I.8I.9I.0I.aI.bI.cI.dI.#+ V: q% E) .l.eI.fI.gI.hI.iI.jI.kI.lI.mI.nI.oI.pI.                                                                                                                                                               ",
"                                                                                                                                                                                                                                 qI.rI.sI.tI.uI.            vI.^> ]) wI.xI.sy yI.zI.AI.BI.CI.DI.EI.FI.V^ n= ~S GI.HI.%< II.II.tx g& X* _( m] JI.KI.LI.MI.NI.T^ _( M4 OI.$5 _~ D$ $& z+                                                                                                                                                                                                                                                                                              n] +C &5 |[ Z5 K3 K3 K, #= PI.QI.RI.SI.TI.Bv UI.PE.VI.f' MV Z5 Z5 ,E y3  5 OV 'T y$ WI.XI.YI.ZI.`I. J..J.+J.@J.#J.$J.%J.&J.3! u6 *J.pf.=J.-J.;J.>J.,J.'J.)J.!J.~J.{J.]J.'.                                                                                                                                                                ",
"                                                                                                                                                                                                                                 ^J./J.(J.                     :) g& +A _J.         :J.<J.[J.}J.|J.1J.2J.@@ 3J.4J.5J.         6J.x+ a* )}.A= 7J.8J.9J.uy  A '; O; Y* I> F| 0J.                                                                                                                                                                                                                                                                                                      >% aJ.Z5 D3 J3 Z5 '> Y* r= T* bJ.cJ.dJ.eJ.fJ.gJ.hJ.iJ.l} q% &5 u_ I> )% r= 4H O; x_ Z# jJ.kJ.lJ.mJ.nJ.oJ.pJ.qJ.rJ.sJ.tJ.g~.uJ.vJ.wJ.xJ.      yJ.zJ.AJ.BJ. s.CJ.DJ.EJ.FJ.GJ.                                                                                                                                                               ",
"                                                                                                                                                                                                                                    HJ.                        v! y_ rA             IJ.JJ.KJ.LJ.MJ.]{ NJ.                           :M n] 8* OJ.PJ.QJ.%& %& _( q% Y& 6q                                                                                                                                                                                                                                                                                                                F1 9- 0M 9- D1 tB x_ k} -> $= RJ.SJ.G* TJ.UJ.VJ.WJ.XJ.S* W3 X* ); to qA k} j} N{.x_ Y& YJ.ZJ.`J. K..K.+K.@K.#K.$K.%K.<$.&K.*K.%*                      =K.-K.;K.>K.d- ,K.                                                                                                                                                               ",
"                                                                                                                                                                                                                                                                                    'K.5B.)K.!K.~K.<R {K.                              gG ]K.^K./K.(K._K.                                                                                                                                                                                                                                                                                                                                 1- _( `x C1 C3 jC j& `F.w! :K.<K.[K.}K.|K.1K.2K.3K.i} A= *O 9m.   Is N{.Y& '> j& u= q% c* 4K.5K.6K.7K.8K.9K.k  0K.K5 aK.5) bK.                        cK.dK.eK.Uz fK.                                                                                                                                                               ",
"                                                                                                                                                                                                                                                                                    gK.hK.iK.jK.kK.                                    lK.mK.nK.oK.pK.6!                                                                                                                                                                                                                                                                                                                                     F+.C3 z| Z5 jC q0 B3 '; -> qK.Z_ rK.sK.tK.uK.vK.-; 8= :M          O; sB r= j& Y* '> '> Z' wK.xK.yK.zK.AK.BK.CK.DK.,T gj.EK.                              FK.}I GK.                                                                                                                                                               ",
"                                                                                                                                                                                                                                                                                    HK.IK.JK.KK.                                          LK.y+ vG i& ){                                                                                                                                                                                                                                                                                                                                           08 Z' )% e* '> k} x_ MK.NK.OK.L$ PK.QK.RK.Vj.SK.            z+ r@ oe.`& :) c* ,> n= TK.UK.VK.WK.XK.YK.ZK.`K. L..L.                                    +L.@L.                                                                                                                                                               ",
"                                                                                                                                                                                                                                                                                       #L.$L.                                                      %L.                                                                                                                                                                                                                                                                                                                                                            &L.r@ *L.!{ =L.-L.;L.>L.&> V@ ,L.                           'L.)L.>> !L.~L.:* {L.]L.^L./L.ck.                                                                                                                                                                                                               ",
"                                                                                                                                                                                                                                                                                          (L.                                                                                                                                                                                                                                                                                                                                                                                                                           _L.:L.`+ <L.[L.}L.U^.sj.                                       |L.1L.2L.3L.4L.5L.6L.qy                                                                                                                                                                                                                ",
"                                                                                                                                                                                                                                                                                                                                                                                                                                                                                                                                                                                                                                                                                                                              2L.7L.8L.9L.0L.                                             aL.bL.cL.dL.eL.fL.                                                                                                                                                                                                                  ",
"                                                                                                                                                                                                                                                                                                                                                                                                                                                                                                                                                                                                                                                                                                                                    gL.-<.hL.                                             iL.jL.kL.E| lL.mL.                                                                                                                                                                                                                  ",
"                                                                                                                                                                                                                                                                                                                                                                                                                                                                                                                                                                                                                                                                                                                                                                                                      nL.                                                                                                                                                                                                                     ",
"                                                                                                                                                                                                                                                                                                                                                                                                                                                                                                                                                                                                                                                                                                                                                                                                                                                                                                                                                                                                                              ",
"                                                                                                                                                                                                                                                                                                                                                                                                                                                                                                                                                                                                                                                                                                                                                                                                                                                                                                                                                                                                                              ",
"                                                                                                                                                                                                                                                                                                                                                                                                                                                                                                                                                                                                                                                                                                                                                                                                                                                                                                                                                                                                                              ",
"                                                                                                                                                                                                                                                                                                                                                                                                                                                                                                                                                                                                                                                                                                                                                                                                                                                                                                                                                                                                                              ",
"                                                                                                                                                                                                                                                                                                                                                                                                                                                                                                                                                                                                                                                                                                                                                                                                                                                                                                                                                                                                                              ",
"                                                                                                                                                                                                                                                                                                                                                                                                                                                                                                                                                                                                                                                                                                                                                                                                                                                                                                                                                                                                                              ",
"                                                                                                                                                                                                                                                                                                                                                                                                                                                                                                                                                                                                                                                                                                                                                                                                                                                                                                                                                                                                                              ",
"                                                                                                                                                                                                                                                                                                                                                                                                                                                                                                                                                                                                                                                                                                                                                                                                                                                                                                                                                                                                                              ",
"                                                                                                                                                                                                                                                                                                                                                                                                                                                                                                                                                                                                                                                                                                                                                                                                                                                                                                                                                                                                                              "};
