/* XPM */
static char * _DOOR__xpm[] = {
"339 339 20474 3",
"   	c #67584B",
".  	c #685A4D",
"+  	c #63574D",
"@  	c #5C544B",
"#  	c #504B44",
"$  	c #494640",
"%  	c #43413C",
"&  	c #43413E",
"*  	c #464442",
"=  	c #4F4D4B",
"-  	c #575452",
";  	c #5D5856",
">  	c #5E5856",
",  	c #625B57",
"'  	c #655C55",
")  	c #6A5B51",
"!  	c #6E5647",
"~  	c #6F4F3B",
"{  	c #6F4A32",
"]  	c #734B31",
"^  	c #744E36",
"/  	c #70513D",
"(  	c #654F41",
"_  	c #564A42",
":  	c #4A453F",
"<  	c #49443E",
"[  	c #565048",
"}  	c #6B645B",
"|  	c #7D746C",
"1  	c #877D74",
"2  	c #8B7F76",
"3  	c #8D8076",
"4  	c #8F8277",
"5  	c #948679",
"6  	c #9B8D7E",
"7  	c #A29384",
"8  	c #A59687",
"9  	c #97887B",
"0  	c #7B6F63",
"a  	c #60574E",
"b  	c #534D49",
"c  	c #484541",
"d  	c #413E37",
"e  	c #5A5248",
"f  	c #87776C",
"g  	c #9F8C7D",
"h  	c #A28F7F",
"i  	c #9D8B7E",
"j  	c #96897F",
"k  	c #857D76",
"l  	c #6D6862",
"m  	c #55514C",
"n  	c #55504C",
"o  	c #645D56",
"p  	c #655E55",
"q  	c #595449",
"r  	c #4E4A42",
"s  	c #525049",
"t  	c #62625E",
"u  	c #6E6D6A",
"v  	c #72716C",
"w  	c #6E6B67",
"x  	c #6D6964",
"y  	c #6F6962",
"z  	c #746D64",
"A  	c #7C7268",
"B  	c #8A7E71",
"C  	c #958778",
"D  	c #9A8B7C",
"E  	c #9A8B7D",
"F  	c #94887D",
"G  	c #827A72",
"H  	c #66615B",
"I  	c #514D49",
"J  	c #4E4B46",
"K  	c #5E5A54",
"L  	c #716C65",
"M  	c #7C746D",
"N  	c #80766E",
"O  	c #84786D",
"P  	c #83766B",
"Q  	c #827569",
"R  	c #7B6F62",
"S  	c #776B5D",
"T  	c #75695A",
"U  	c #776C5D",
"V  	c #74685A",
"W  	c #6B5F52",
"X  	c #64594B",
"Y  	c #6A5F52",
"Z  	c #786B5F",
"`  	c #817567",
" . 	c #87796C",
".. 	c #8C7D6F",
"+. 	c #8E7E70",
"@. 	c #8C7D70",
"#. 	c #84766B",
"$. 	c #6B5F57",
"%. 	c #4D423B",
"&. 	c #3C322C",
"*. 	c #433B35",
"=. 	c #575049",
"-. 	c #68625A",
";. 	c #716B63",
">. 	c #766F67",
",. 	c #766F68",
"'. 	c #756E67",
"). 	c #746D66",
"!. 	c #746C65",
"~. 	c #776D65",
"{. 	c #7C6F63",
"]. 	c #847262",
"^. 	c #8B7562",
"/. 	c #8B7564",
"(. 	c #7B6A5E",
"_. 	c #5A514C",
":. 	c #3B3738",
"<. 	c #2F2E32",
"[. 	c #3A393C",
"}. 	c #4A4848",
"|. 	c #56514E",
"1. 	c #625A53",
"2. 	c #766C63",
"3. 	c #877C71",
"4. 	c #8C8175",
"5. 	c #8C7E73",
"6. 	c #8B7E72",
"7. 	c #8A7C70",
"8. 	c #8A7B6F",
"9. 	c #88776B",
"0. 	c #88776A",
"a. 	c #877467",
"b. 	c #856F61",
"c. 	c #7F6758",
"d. 	c #806554",
"e. 	c #876855",
"f. 	c #906F5A",
"g. 	c #8A6F5E",
"h. 	c #766459",
"i. 	c #584E48",
"j. 	c #443F3D",
"k. 	c #3C3A38",
"l. 	c #413E3B",
"m. 	c #55504B",
"n. 	c #6D665F",
"o. 	c #7C7469",
"p. 	c #82796D",
"q. 	c #83796D",
"r. 	c #81796E",
"s. 	c #7F776E",
"t. 	c #7D766D",
"u. 	c #7B746B",
"v. 	c #787269",
"w. 	c #776F67",
"x. 	c #766D64",
"y. 	c #736A61",
"z. 	c #6F675F",
"A. 	c #6C655E",
"B. 	c #68615B",
"C. 	c #5A524D",
"D. 	c #3F352F",
"E. 	c #2C1D16",
"F. 	c #2A170E",
"G. 	c #2D190F",
"H. 	c #302017",
"I. 	c #352C27",
"J. 	c #3A3634",
"K. 	c #3E3C3B",
"L. 	c #3F3C38",
"M. 	c #504C46",
"N. 	c #6A645D",
"O. 	c #776F66",
"P. 	c #746D63",
"Q. 	c #6B635B",
"R. 	c #625B55",
"S. 	c #5A534F",
"T. 	c #59524E",
"U. 	c #5F5752",
"V. 	c #6E665F",
"W. 	c #7C736B",
"X. 	c #857B72",
"Y. 	c #887D73",
"Z. 	c #877B71",
"`. 	c #867B70",
" + 	c #857A70",
".+ 	c #847970",
"++ 	c #837871",
"@+ 	c #81766F",
"#+ 	c #7E736C",
"$+ 	c #736961",
"%+ 	c #746960",
"&+ 	c #786D64",
"*+ 	c #7B7066",
"=+ 	c #7D7267",
"-+ 	c #7E7366",
";+ 	c #827668",
">+ 	c #887C6D",
",+ 	c #8A7E70",
"'+ 	c #857A6D",
")+ 	c #7C7267",
"!+ 	c #756C64",
"~+ 	c #6F6660",
"{+ 	c #68605A",
"]+ 	c #5F5751",
"^+ 	c #5A534C",
"/+ 	c #5C544F",
"(+ 	c #635A56",
"_+ 	c #655C57",
":+ 	c #615853",
"<+ 	c #574F4B",
"[+ 	c #544D48",
"}+ 	c #514B47",
"|+ 	c #4D4845",
"1+ 	c #45423F",
"2+ 	c #44413F",
"3+ 	c #4D4A47",
"4+ 	c #504C4B",
"5+ 	c #3F3C3A",
"6+ 	c #312E2D",
"7+ 	c #353130",
"8+ 	c #403B3A",
"9+ 	c #4B4442",
"0+ 	c #5E5551",
"a+ 	c #766D66",
"b+ 	c #8C8279",
"c+ 	c #93887E",
"d+ 	c #908478",
"e+ 	c #908477",
"f+ 	c #908578",
"g+ 	c #93887B",
"h+ 	c #92897C",
"i+ 	c #91897E",
"j+ 	c #918982",
"k+ 	c #837E7A",
"l+ 	c #676361",
"m+ 	c #4C4847",
"n+ 	c #444141",
"o+ 	c #4D4A49",
"p+ 	c #585451",
"q+ 	c #635E57",
"r+ 	c #666059",
"s+ 	c #635D57",
"t+ 	c #605A54",
"u+ 	c #67615A",
"v+ 	c #746E66",
"w+ 	c #7A746D",
"x+ 	c #7D766F",
"y+ 	c #7E766F",
"z+ 	c #7F7870",
"A+ 	c #807870",
"B+ 	c #817970",
"C+ 	c #827870",
"D+ 	c #837970",
"E+ 	c #837A71",
"F+ 	c #847B73",
"G+ 	c #867D74",
"H+ 	c #857D73",
"I+ 	c #847C72",
"J+ 	c #777067",
"K+ 	c #5F5952",
"L+ 	c #554F4A",
"M+ 	c #58524E",
"N+ 	c #5A534E",
"O+ 	c #5D554F",
"P+ 	c #625852",
"Q+ 	c #70655E",
"R+ 	c #83776D",
"S+ 	c #8C8074",
"T+ 	c #89796D",
"U+ 	c #826E60",
"V+ 	c #735E4F",
"W+ 	c #635042",
"X+ 	c #4D3D33",
"Y+ 	c #362B25",
"Z+ 	c #322C2B",
"`+ 	c #464345",
" @ 	c #535455",
".@ 	c #545556",
"+@ 	c #5C5B5A",
"@@ 	c #76716C",
"#@ 	c #8F857B",
"$@ 	c #9D8F82",
"%@ 	c #9F9083",
"&@ 	c #9C8D81",
"*@ 	c #988A7F",
"=@ 	c #918479",
"-@ 	c #8D8176",
";@ 	c #8B8077",
">@ 	c #867D75",
",@ 	c #746C66",
"'@ 	c #605A55",
")@ 	c #5A5651",
"!@ 	c #5F5A56",
"~@ 	c #615C59",
"{@ 	c #625C59",
"]@ 	c #6F6761",
"^@ 	c #79716A",
"/@ 	c #7E756E",
"(@ 	c #807770",
"_@ 	c #7D756E",
":@ 	c #7A726C",
"<@ 	c #79716B",
"[@ 	c #766F69",
"}@ 	c #756E68",
"|@ 	c #736C67",
"1@ 	c #726B66",
"2@ 	c #706863",
"3@ 	c #6D6861",
"4@ 	c #6B665F",
"5@ 	c #696560",
"6@ 	c #696561",
"7@ 	c #6B6661",
"8@ 	c #70665E",
"9@ 	c #75685B",
"0@ 	c #786959",
"a@ 	c #806F5E",
"b@ 	c #857363",
"c@ 	c #827262",
"d@ 	c #76695B",
"e@ 	c #6C6258",
"f@ 	c #69615A",
"g@ 	c #675F58",
"h@ 	c #645B55",
"i@ 	c #635A53",
"j@ 	c #6C5A49",
"k@ 	c #6C5C4C",
"l@ 	c #63564A",
"m@ 	c #595148",
"n@ 	c #504A43",
"o@ 	c #4C4843",
"p@ 	c #484643",
"q@ 	c #474745",
"r@ 	c #474746",
"s@ 	c #4B4C4A",
"t@ 	c #51504F",
"u@ 	c #585654",
"v@ 	c #5A5654",
"w@ 	c #5C5954",
"x@ 	c #5F5A53",
"y@ 	c #655950",
"z@ 	c #685548",
"A@ 	c #6A513D",
"B@ 	c #6C4D37",
"C@ 	c #704E36",
"D@ 	c #71513A",
"E@ 	c #6E5341",
"F@ 	c #645345",
"G@ 	c #5A5149",
"H@ 	c #534F4A",
"I@ 	c #544F4A",
"J@ 	c #5D5750",
"K@ 	c #6B655D",
"L@ 	c #787169",
"M@ 	c #7F776F",
"N@ 	c #81776F",
"O@ 	c #897D73",
"P@ 	c #92857A",
"Q@ 	c #998B7F",
"R@ 	c #9A8C7F",
"S@ 	c #72675D",
"T@ 	c #5B534C",
"U@ 	c #514D4A",
"V@ 	c #4A4844",
"W@ 	c #44423C",
"X@ 	c #59534A",
"Y@ 	c #827369",
"Z@ 	c #968477",
"`@ 	c #988778",
" # 	c #928277",
".# 	c #8C8178",
"+# 	c #7F7972",
"@# 	c #67645F",
"## 	c #4D4B48",
"$# 	c #4D4A46",
"%# 	c #5E5750",
"&# 	c #655B4E",
"*# 	c #5F5546",
"=# 	c #5A5246",
"-# 	c #5E574E",
";# 	c #68655E",
"># 	c #6C6A65",
",# 	c #6C6B66",
"'# 	c #686864",
")# 	c #696862",
"!# 	c #696660",
"~# 	c #6C665F",
"{# 	c #736B63",
"]# 	c #81786E",
"^# 	c #8D8376",
"/# 	c #918578",
"(# 	c #8D8277",
"_# 	c #79736C",
":# 	c #615F5B",
"<# 	c #4F4E4C",
"[# 	c #494947",
"}# 	c #565552",
"|# 	c #676460",
"1# 	c #716C67",
"2# 	c #746D67",
"3# 	c #756D64",
"4# 	c #71695F",
"5# 	c #6F665B",
"6# 	c #6E6459",
"7# 	c #70675B",
"8# 	c #6E6559",
"9# 	c #685F53",
"0# 	c #635A4E",
"a# 	c #685E54",
"b# 	c #72685D",
"c# 	c #797065",
"d# 	c #7D7368",
"e# 	c #81756A",
"f# 	c #81746A",
"g# 	c #807469",
"h# 	c #7B6E65",
"i# 	c #72665E",
"j# 	c #5C524B",
"k# 	c #433A36",
"l# 	c #37302D",
"m# 	c #403A37",
"n# 	c #524D49",
"o# 	c #625E58",
"p# 	c #6A6660",
"q# 	c #706B64",
"r# 	c #706B65",
"s# 	c #6F6A64",
"t# 	c #6E6863",
"u# 	c #6D6963",
"v# 	c #6D6863",
"w# 	c #6E6961",
"x# 	c #726A5F",
"y# 	c #7A6D5F",
"z# 	c #837160",
"A# 	c #837161",
"B# 	c #74675B",
"C# 	c #574F4A",
"D# 	c #3C393A",
"E# 	c #343336",
"F# 	c #3C3C3F",
"G# 	c #494848",
"H# 	c #524E4B",
"I# 	c #6F675E",
"J# 	c #7F766B",
"K# 	c #847A6F",
"L# 	c #84796F",
"M# 	c #83796E",
"N# 	c #82776C",
"O# 	c #82766C",
"P# 	c #807369",
"Q# 	c #7E7166",
"R# 	c #7D6E63",
"S# 	c #7C6B5F",
"T# 	c #796559",
"U# 	c #7A6355",
"V# 	c #7D6352",
"W# 	c #836755",
"X# 	c #816959",
"Y# 	c #716056",
"Z# 	c #574E49",
"`# 	c #464240",
" $ 	c #3C3B3A",
".$ 	c #3F3E3B",
"+$ 	c #514C48",
"@$ 	c #676059",
"#$ 	c #746C62",
"$$ 	c #797166",
"%$ 	c #797167",
"&$ 	c #787267",
"*$ 	c #767067",
"=$ 	c #716C64",
"-$ 	c #706B63",
";$ 	c #706A62",
">$ 	c #726A61",
",$ 	c #706860",
"'$ 	c #6E665E",
")$ 	c #6B635C",
"!$ 	c #665E59",
"~$ 	c #5C534D",
"{$ 	c #483D37",
"]$ 	c #382922",
"^$ 	c #362319",
"/$ 	c #382318",
"($ 	c #37261D",
"_$ 	c #3A2F2A",
":$ 	c #3D3736",
"<$ 	c #413E3D",
"[$ 	c #413F3C",
"}$ 	c #44413D",
"|$ 	c #514D47",
"1$ 	c #706960",
"2$ 	c #6D675E",
"3$ 	c #665F58",
"4$ 	c #5F5953",
"5$ 	c #59534F",
"6$ 	c #59524F",
"7$ 	c #5D5652",
"8$ 	c #69625C",
"9$ 	c #766E67",
"0$ 	c #80786E",
"a$ 	c #837B70",
"b$ 	c #847C71",
"c$ 	c #837A6F",
"d$ 	c #83796F",
"e$ 	c #82786F",
"f$ 	c #81786F",
"g$ 	c #7E7670",
"h$ 	c #7C746E",
"i$ 	c #78706A",
"j$ 	c #706962",
"k$ 	c #6B645D",
"l$ 	c #6C645D",
"m$ 	c #716961",
"n$ 	c #776E65",
"o$ 	c #7C7266",
"p$ 	c #7F7568",
"q$ 	c #81776A",
"r$ 	c #7D7569",
"s$ 	c #69625D",
"t$ 	c #635C56",
"u$ 	c #58514C",
"v$ 	c #534C46",
"w$ 	c #5C5350",
"x$ 	c #605753",
"y$ 	c #5A524E",
"z$ 	c #504A45",
"A$ 	c #4E4843",
"B$ 	c #4F4A45",
"C$ 	c #4B4744",
"D$ 	c #43403E",
"E$ 	c #4B4846",
"F$ 	c #4E4A48",
"G$ 	c #363332",
"H$ 	c #393536",
"I$ 	c #423E3D",
"J$ 	c #4A4343",
"K$ 	c #5A5250",
"L$ 	c #847B75",
"M$ 	c #8A8179",
"N$ 	c #8B8178",
"O$ 	c #857A71",
"P$ 	c #82786E",
"Q$ 	c #887E73",
"R$ 	c #887E74",
"S$ 	c #8A8176",
"T$ 	c #898179",
"U$ 	c #86817B",
"V$ 	c #797572",
"W$ 	c #5F5C5B",
"X$ 	c #484545",
"Y$ 	c #423F40",
"Z$ 	c #484646",
"`$ 	c #524F4D",
" % 	c #595451",
".% 	c #5E5A55",
"+% 	c #625D58",
"@% 	c #5F5A55",
"#% 	c #5B5752",
"$% 	c #645E59",
"%% 	c #726C66",
"&% 	c #78736B",
"*% 	c #79746D",
"=% 	c #7A746C",
"-% 	c #7B756D",
";% 	c #7C756E",
">% 	c #7D756D",
",% 	c #7E766D",
"'% 	c #7E756D",
")% 	c #7F766E",
"!% 	c #807971",
"~% 	c #7E776E",
"{% 	c #716D64",
"]% 	c #58544E",
"^% 	c #4C4845",
"/% 	c #4F4B48",
"(% 	c #56514C",
"_% 	c #5D5651",
":% 	c #7D736B",
"<% 	c #82756A",
"[% 	c #79695C",
"}% 	c #69574A",
"|% 	c #5B4A3E",
"1% 	c #483B32",
"2% 	c #352B27",
"3% 	c #302C2B",
"4% 	c #403F42",
"5% 	c #4C4E50",
"6% 	c #4E5051",
"7% 	c #585757",
"8% 	c #726D69",
"9% 	c #898077",
"0% 	c #95897B",
"a% 	c #988A7D",
"b% 	c #988A7E",
"c% 	c #8D8278",
"d% 	c #887D75",
"e% 	c #857C75",
"f% 	c #817A74",
"g% 	c #6F6A65",
"h% 	c #5B5753",
"i% 	c #54504E",
"j% 	c #5C5956",
"k% 	c #5E5957",
"l% 	c #625D59",
"m% 	c #68635E",
"n% 	c #716B65",
"o% 	c #76706A",
"p% 	c #7A736D",
"q% 	c #7A746E",
"r% 	c #78726D",
"s% 	c #77716B",
"t% 	c #756F6A",
"u% 	c #736E68",
"v% 	c #716D67",
"w% 	c #716B66",
"x% 	c #726C65",
"y% 	c #6B6861",
"z% 	c #696661",
"A% 	c #6E6962",
"B% 	c #746A5E",
"C% 	c #776856",
"D% 	c #796751",
"E% 	c #7F6A54",
"F% 	c #846E59",
"G% 	c #816D5A",
"H% 	c #756656",
"I% 	c #6B6055",
"J% 	c #676058",
"K% 	c #645F57",
"L% 	c #615B53",
"M% 	c #625A54",
"N% 	c #6D5744",
"O% 	c #6D5A49",
"P% 	c #65574A",
"Q% 	c #5C5349",
"R% 	c #534E47",
"S% 	c #524E4A",
"T% 	c #504F4D",
"U% 	c #4E504E",
"V% 	c #484A49",
"W% 	c #444746",
"X% 	c #474948",
"Y% 	c #4F504F",
"Z% 	c #52524F",
"`% 	c #53534F",
" & 	c #55534D",
".& 	c #59524B",
"+& 	c #5A4F44",
"@& 	c #5E4D3E",
"#& 	c #634D3C",
"$& 	c #67503E",
"%& 	c #67503F",
"&& 	c #645143",
"*& 	c #5E5246",
"=& 	c #595551",
"-& 	c #69655E",
";& 	c #6E6963",
">& 	c #6C6761",
",& 	c #67625D",
"'& 	c #65605A",
")& 	c #68615C",
"!& 	c #6E6761",
"~& 	c #766E68",
"{& 	c #7B736B",
"]& 	c #7B7269",
"^& 	c #5E5850",
"/& 	c #4E4C49",
"(& 	c #4A4945",
"_& 	c #464440",
":& 	c #55504A",
"<& 	c #72675F",
"[& 	c #7E7168",
"}& 	c #7F7468",
"|& 	c #7A6F67",
"1& 	c #756D67",
"2& 	c #6A6763",
"3& 	c #545351",
"4& 	c #3C3B3B",
"5& 	c #3E3C37",
"6& 	c #584F45",
"7& 	c #6B5B47",
"8& 	c #6E5A44",
"9& 	c #705E49",
"0& 	c #716150",
"a& 	c #706659",
"b& 	c #635E55",
"c& 	c #575550",
"d& 	c #555551",
"e& 	c #575854",
"f& 	c #575652",
"g& 	c #595651",
"h& 	c #6A655E",
"i& 	c #716B64",
"j& 	c #746E65",
"k& 	c #64615D",
"l& 	c #575654",
"m& 	c #3F4241",
"n& 	c #464848",
"o& 	c #4F4F4F",
"p& 	c #525150",
"q& 	c #52504E",
"r& 	c #53514E",
"s& 	c #54504D",
"t& 	c #54504C",
"u& 	c #524F4A",
"v& 	c #55514B",
"w& 	c #59554D",
"x& 	c #58544C",
"y& 	c #555149",
"z& 	c #514D46",
"A& 	c #534E48",
"B& 	c #57534C",
"C& 	c #5C5751",
"D& 	c #625D57",
"E& 	c #635C57",
"F& 	c #625C56",
"G& 	c #544F4B",
"H& 	c #433F3C",
"I& 	c #312E2C",
"J& 	c #2A2727",
"K& 	c #353332",
"L& 	c #474543",
"M& 	c #575552",
"N& 	c #605E59",
"O& 	c #66645F",
"P& 	c #676560",
"Q& 	c #5D5B57",
"R& 	c #585753",
"S& 	c #5A554E",
"T& 	c #61584E",
"U& 	c #675B4F",
"V& 	c #665B4F",
"W& 	c #47433F",
"X& 	c #363436",
"Y& 	c #333336",
"Z& 	c #444443",
"`& 	c #474542",
" * 	c #4C4842",
".* 	c #59544C",
"+* 	c #655F57",
"@* 	c #6B645C",
"#* 	c #6C655D",
"$* 	c #665F59",
"%* 	c #635B56",
"&* 	c #615953",
"** 	c #5E554E",
"=* 	c #5E534C",
"-* 	c #5C4F48",
";* 	c #5D4E45",
">* 	c #5D4B41",
",* 	c #604D41",
"'* 	c #5E4E43",
")* 	c #574B45",
"!* 	c #4B4441",
"~* 	c #393837",
"{* 	c #3A3A38",
"]* 	c #474441",
"^* 	c #605A53",
"/* 	c #635D55",
"(* 	c #636059",
"_* 	c #63615A",
":* 	c #63615B",
"<* 	c #625F5A",
"[* 	c #63605B",
"}* 	c #65615B",
"|* 	c #66615A",
"1* 	c #665F57",
"2* 	c #665D55",
"3* 	c #5E524A",
"4* 	c #56483D",
"5* 	c #554434",
"6* 	c #574433",
"7* 	c #544435",
"8* 	c #50463C",
"9* 	c #494541",
"0* 	c #474643",
"a* 	c #464441",
"b* 	c #4B4743",
"c* 	c #56514A",
"d* 	c #59534D",
"e* 	c #59534C",
"f* 	c #54504A",
"g* 	c #524D4A",
"h* 	c #4F4B49",
"i* 	c #504B4A",
"j* 	c #524D4C",
"k* 	c #595450",
"l* 	c #6E6860",
"m* 	c #777167",
"n* 	c #7B746A",
"o* 	c #797369",
"p* 	c #756F66",
"q* 	c #6D6760",
"r* 	c #6A655F",
"s* 	c #68635F",
"t* 	c #64605C",
"u* 	c #605C59",
"v* 	c #5A5754",
"w* 	c #57524F",
"x* 	c #57534F",
"y* 	c #5E5955",
"z* 	c #645E57",
"A* 	c #676158",
"B* 	c #696359",
"C* 	c #6B655B",
"D* 	c #69655C",
"E* 	c #5A5552",
"F* 	c #575350",
"G* 	c #53504C",
"H* 	c #45413D",
"I* 	c #44403D",
"J* 	c #4A4544",
"K* 	c #4E4846",
"L* 	c #4B4642",
"M* 	c #45403C",
"N* 	c #44403C",
"O* 	c #474440",
"P* 	c #45433F",
"Q* 	c #403E3C",
"R* 	c #403F3D",
"S* 	c #464443",
"T* 	c #484544",
"U* 	c #3E3B3A",
"V* 	c #393737",
"W* 	c #3B383A",
"X* 	c #403D3D",
"Y* 	c #454141",
"Z* 	c #4F4A4A",
"`* 	c #595351",
" = 	c #635D5A",
".= 	c #655F5C",
"+= 	c #67605C",
"@= 	c #635D58",
"#= 	c #625B56",
"$= 	c #67605B",
"%= 	c #6A625D",
"&= 	c #706A63",
"*= 	c #726D68",
"== 	c #706C69",
"-= 	c #63605F",
";= 	c #4C4B4B",
">= 	c #3A393B",
",= 	c #373638",
"'= 	c #3A393A",
")= 	c #403E3E",
"!= 	c #454242",
"~= 	c #4B4746",
"{= 	c #4F4C49",
"]= 	c #4E4B48",
"^= 	c #575450",
"/= 	c #64615C",
"(= 	c #68645F",
"_= 	c #6B6761",
":= 	c #746F69",
"<= 	c #76716A",
"[= 	c #756F68",
"}= 	c #756F67",
"|= 	c #756E66",
"1= 	c #746D65",
"2= 	c #5F5C55",
"3= 	c #3E3C38",
"4= 	c #2C2A2A",
"5= 	c #2D2B2C",
"6= 	c #2F2D2D",
"7= 	c #383635",
"8= 	c #44403E",
"9= 	c #56524E",
"0= 	c #645D59",
"a= 	c #6C645F",
"b= 	c #6A615A",
"c= 	c #5F544D",
"d= 	c #4F433B",
"e= 	c #443831",
"f= 	c #39302B",
"g= 	c #2E2826",
"h= 	c #2C2A2B",
"i= 	c #37383B",
"j= 	c #3D4043",
"k= 	c #3E4143",
"l= 	c #484849",
"m= 	c #615D5B",
"n= 	c #776F68",
"o= 	c #85796D",
"p= 	c #857970",
"q= 	c #7B726A",
"r= 	c #756D66",
"s= 	c #716A65",
"t= 	c #6D6864",
"u= 	c #5E5C58",
"v= 	c #4C4B49",
"w= 	c #454343",
"x= 	c #464544",
"y= 	c #474546",
"z= 	c #4C4949",
"A= 	c #4F4C4B",
"B= 	c #53504D",
"C= 	c #615D59",
"D= 	c #67635F",
"E= 	c #686560",
"F= 	c #65625E",
"G= 	c #63605C",
"H= 	c #62605C",
"I= 	c #64625E",
"J= 	c #64625F",
"K= 	c #66635F",
"L= 	c #736D67",
"M= 	c #837C74",
"N= 	c #7F7A71",
"O= 	c #6B6A62",
"P= 	c #5F5F5A",
"Q= 	c #64615A",
"R= 	c #6F6557",
"S= 	c #786750",
"T= 	c #7C664C",
"U= 	c #82694F",
"V= 	c #896F55",
"W= 	c #877059",
"X= 	c #776653",
"Y= 	c #63574B",
"Z= 	c #554E46",
"`= 	c #4F4B44",
" - 	c #4E4A43",
".- 	c #534D48",
"+- 	c #6C523D",
"@- 	c #6E5847",
"#- 	c #67584A",
"$- 	c #61574D",
"%- 	c #58524C",
"&- 	c #555451",
"*- 	c #525351",
"=- 	c #3C3F3E",
"-- 	c #454646",
";- 	c #4A4948",
">- 	c #4A4A47",
",- 	c #484743",
"'- 	c #4A4742",
")- 	c #4E4940",
"!- 	c #584F43",
"~- 	c #625447",
"{- 	c #67594A",
"]- 	c #66574A",
"^- 	c #605449",
"/- 	c #595048",
"(- 	c #5C5854",
"_- 	c #5F5B56",
":- 	c #615C57",
"<- 	c #5E5A56",
"[- 	c #52504D",
"}- 	c #444342",
"|- 	c #3F3D3D",
"1- 	c #424040",
"2- 	c #474646",
"3- 	c #4C4B4A",
"4- 	c #4E4C4B",
"5- 	c #4D4C49",
"6- 	c #43413F",
"7- 	c #403F3E",
"8- 	c #434241",
"9- 	c #42413F",
"0- 	c #42413D",
"a- 	c #544D49",
"b- 	c #58504C",
"c- 	c #58534E",
"d- 	c #514D4C",
"e- 	c #484746",
"f- 	c #353536",
"g- 	c #1F1F21",
"h- 	c #26221E",
"i- 	c #4D4135",
"j- 	c #6E553E",
"k- 	c #78593C",
"l- 	c #7D5E3F",
"m- 	c #7C5F44",
"n- 	c #735C47",
"o- 	c #55493B",
"p- 	c #3A342D",
"q- 	c #383734",
"r- 	c #41403D",
"s- 	c #464340",
"t- 	c #4E4A47",
"u- 	c #514F4B",
"v- 	c #534F4C",
"w- 	c #514E4B",
"x- 	c #4E4B4A",
"y- 	c #4C4A49",
"z- 	c #454546",
"A- 	c #393A3C",
"B- 	c #2E3133",
"C- 	c #2F3235",
"D- 	c #313336",
"E- 	c #2F3033",
"F- 	c #2E2D30",
"G- 	c #2E2D2F",
"H- 	c #2D2C2E",
"I- 	c #2E2E2F",
"J- 	c #2E2F2F",
"K- 	c #313131",
"L- 	c #343432",
"M- 	c #383835",
"N- 	c #393836",
"O- 	c #333230",
"P- 	c #333331",
"Q- 	c #363634",
"R- 	c #383736",
"S- 	c #393938",
"T- 	c #363535",
"U- 	c #303131",
"V- 	c #252627",
"W- 	c #191A1D",
"X- 	c #15171B",
"Y- 	c #1F2223",
"Z- 	c #2F3031",
"`- 	c #424241",
" ; 	c #4E4D4B",
".; 	c #595854",
"+; 	c #3D3D3C",
"@; 	c #393939",
"#; 	c #3E3B37",
"$; 	c #423D38",
"%; 	c #463F38",
"&; 	c #463F39",
"*; 	c #403B37",
"=; 	c #32302F",
"-; 	c #272729",
";; 	c #28292C",
">; 	c #313234",
",; 	c #373737",
"'; 	c #363532",
"); 	c #373430",
"!; 	c #403C37",
"~; 	c #494540",
"{; 	c #4E4944",
"]; 	c #4E4946",
"^; 	c #4E4A46",
"/; 	c #464341",
"(; 	c #403D3B",
"_; 	c #3E3A38",
":; 	c #3C3836",
"<; 	c #3E3936",
"[; 	c #3E3835",
"}; 	c #403935",
"|; 	c #413632",
"1; 	c #423630",
"2; 	c #3E342F",
"3; 	c #3C3632",
"4; 	c #373332",
"5; 	c #333131",
"6; 	c #2E2E2E",
"7; 	c #2E2F2E",
"8; 	c #373534",
"9; 	c #413E3C",
"0; 	c #46433F",
"a; 	c #4A4743",
"b; 	c #4C4945",
"c; 	c #4D4D49",
"d; 	c #4F4F4C",
"e; 	c #51514E",
"f; 	c #53524F",
"g; 	c #565351",
"h; 	c #59544F",
"i; 	c #5B564F",
"j; 	c #5E5951",
"k; 	c #6D645B",
"l; 	c #706358",
"m; 	c #6F6150",
"n; 	c #715F49",
"o; 	c #736047",
"p; 	c #6E5D48",
"q; 	c #64584A",
"r; 	c #545049",
"s; 	c #4D4C48",
"t; 	c #494644",
"u; 	c #474442",
"v; 	c #43403D",
"w; 	c #413E38",
"x; 	c #3E3A35",
"y; 	c #3E3A36",
"z; 	c #3B3936",
"A; 	c #3C3A39",
"B; 	c #3B393A",
"C; 	c #3B3A3B",
"D; 	c #3A3939",
"E; 	c #3C3B38",
"F; 	c #423F3B",
"G; 	c #666159",
"H; 	c #66625A",
"I; 	c #5C5851",
"J; 	c #54514C",
"K; 	c #434141",
"L; 	c #3F3E3E",
"M; 	c #3D3B3C",
"N; 	c #3D3B3B",
"O; 	c #3E3D3C",
"P; 	c #413F3D",
"Q; 	c #46443F",
"R; 	c #484641",
"S; 	c #4B4944",
"T; 	c #494744",
"U; 	c #403E3D",
"V; 	c #383838",
"W; 	c #383839",
"X; 	c #343434",
"Y; 	c #303030",
"Z; 	c #2C2C2D",
"`; 	c #2E2D2E",
" > 	c #302E2F",
".> 	c #302F2E",
"+> 	c #2F2D2C",
"@> 	c #31302F",
"#> 	c #363534",
"$> 	c #393937",
"%> 	c #373837",
"&> 	c #3B3939",
"*> 	c #353334",
"=> 	c #343234",
"-> 	c #383738",
";> 	c #3A3839",
">> 	c #3E3B3D",
",> 	c #3E3B3C",
"'> 	c #3F3B3B",
")> 	c #433F3E",
"!> 	c #464241",
"~> 	c #474242",
"{> 	c #484443",
"]> 	c #534F4E",
"^> 	c #524F4F",
"/> 	c #474547",
"(> 	c #363538",
"_> 	c #2A2A2E",
":> 	c #27282C",
"<> 	c #26272A",
"[> 	c #252628",
"}> 	c #242325",
"|> 	c #262426",
"1> 	c #2C2B2B",
"2> 	c #302F2F",
"3> 	c #424140",
"4> 	c #4F4E4B",
"5> 	c #55534F",
"6> 	c #595652",
"7> 	c #64605B",
"8> 	c #6F6B66",
"9> 	c #6F6A63",
"0> 	c #6D675F",
"a> 	c #6B655E",
"b> 	c #68615A",
"c> 	c #635D56",
"d> 	c #4E4A45",
"e> 	c #242120",
"f> 	c #060607",
"g> 	c #040407",
"h> 	c #080709",
"i> 	c #171617",
"j> 	c #43403F",
"k> 	c #4F4A49",
"l> 	c #575150",
"m> 	c #534D4B",
"n> 	c #46403E",
"o> 	c #332E2C",
"p> 	c #282322",
"q> 	c #231F1F",
"r> 	c #221F20",
"s> 	c #242226",
"t> 	c #2A2B30",
"u> 	c #2A2C31",
"v> 	c #272A2E",
"w> 	c #2E2F31",
"x> 	c #655B53",
"y> 	c #6A5F56",
"z> 	c #695F58",
"A> 	c #655D57",
"B> 	c #5C554F",
"C> 	c #524C49",
"D> 	c #4C4946",
"E> 	c #383737",
"F> 	c #313233",
"G> 	c #303132",
"H> 	c #303031",
"I> 	c #343332",
"J> 	c #373634",
"K> 	c #3D3C39",
"L> 	c #444340",
"M> 	c #4D4B49",
"N> 	c #51504D",
"O> 	c #4C4C48",
"P> 	c #4D4D4A",
"Q> 	c #4F4F4D",
"R> 	c #515250",
"S> 	c #515251",
"T> 	c #565553",
"U> 	c #726C67",
"V> 	c #928A82",
"W> 	c #8D867E",
"X> 	c #696760",
"Y> 	c #4D5049",
"Z> 	c #514F47",
"`> 	c #635849",
" , 	c #75614A",
"., 	c #80664A",
"+, 	c #8A6E50",
"@, 	c #907457",
"#, 	c #8E755B",
"$, 	c #7B6854",
"%, 	c #5C5044",
"&, 	c #433D36",
"*, 	c #3B3733",
"=, 	c #3D3A36",
"-, 	c #705540",
";, 	c #735F4D",
">, 	c #6D5E51",
",, 	c #665E54",
"', 	c #5C5650",
"), 	c #585550",
"!, 	c #555554",
"~, 	c #4D4E4D",
"{, 	c #404343",
"], 	c #3D403F",
"^, 	c #464746",
"/, 	c #4B4946",
"(, 	c #474641",
"_, 	c #47463F",
":, 	c #4E4C42",
"<, 	c #5D584D",
"[, 	c #696255",
"}, 	c #6E6658",
"|, 	c #6B6256",
"1, 	c #635A50",
"2, 	c #5A544C",
"3, 	c #57544D",
"4, 	c #605B56",
"5, 	c #605B57",
"6, 	c #5A5854",
"7, 	c #4A4A48",
"8, 	c #383A3B",
"9, 	c #343639",
"0, 	c #383B3E",
"a, 	c #3B3E40",
"b, 	c #3B3D3E",
"c, 	c #3A3C3C",
"d, 	c #393A3A",
"e, 	c #393A39",
"f, 	c #3D3D3B",
"g, 	c #3E3E3B",
"h, 	c #40403D",
"i, 	c #41403E",
"j, 	c #444341",
"k, 	c #474645",
"l, 	c #444444",
"m, 	c #434243",
"n, 	c #393A3B",
"o, 	c #0F0E11",
"p, 	c #181310",
"q, 	c #45362A",
"r, 	c #6E5037",
"s, 	c #7D5635",
"t, 	c #845A35",
"u, 	c #835938",
"v, 	c #7A583E",
"w, 	c #594533",
"x, 	c #382F26",
"y, 	c #373532",
"z, 	c #41413F",
"A, 	c #40413F",
"B, 	c #40403E",
"C, 	c #444240",
"D, 	c #494745",
"E, 	c #4B4947",
"F, 	c #4B4948",
"G, 	c #4A4747",
"H, 	c #474545",
"I, 	c #454445",
"J, 	c #3E3F41",
"K, 	c #313235",
"L, 	c #282A2E",
"M, 	c #2A2C30",
"N, 	c #2C2E31",
"O, 	c #2A2B2F",
"P, 	c #28282C",
"Q, 	c #28282B",
"R, 	c #272629",
"S, 	c #27282A",
"T, 	c #272A2B",
"U, 	c #292B2D",
"V, 	c #2B2C2E",
"W, 	c #313232",
"X, 	c #2B2D2D",
"Y, 	c #292B2B",
"Z, 	c #282A2B",
"`, 	c #2A2C2C",
" ' 	c #2A2B2D",
".' 	c #2A2C2D",
"+' 	c #27292B",
"@' 	c #232527",
"#' 	c #1A1D20",
"$' 	c #0F1217",
"%' 	c #0B0F14",
"&' 	c #111619",
"*' 	c #1E2123",
"=' 	c #313333",
"-' 	c #404040",
";' 	c #4D4B4A",
">' 	c #524F4E",
",' 	c #4C4A48",
"'' 	c #323333",
")' 	c #2E3031",
"!' 	c #393532",
"~' 	c #33312F",
"{' 	c #282727",
"]' 	c #1E1F21",
"^' 	c #202125",
"/' 	c #2A2A2D",
"(' 	c #31302E",
"_' 	c #33312E",
":' 	c #3C3A35",
"<' 	c #43423D",
"[' 	c #484542",
"}' 	c #444241",
"|' 	c #383837",
"1' 	c #373636",
"2' 	c #3A3837",
"3' 	c #3C3938",
"4' 	c #3F3B39",
"5' 	c #3E3634",
"6' 	c #3C3331",
"7' 	c #37302E",
"8' 	c #363231",
"9' 	c #312F2F",
"0' 	c #2D2D2D",
"a' 	c #292A2A",
"b' 	c #2A2B2C",
"c' 	c #434240",
"d' 	c #464543",
"e' 	c #484847",
"f' 	c #4A4B4A",
"g' 	c #4D4E4E",
"h' 	c #4F4F4E",
"i' 	c #50504F",
"j' 	c #51514F",
"k' 	c #53524E",
"l' 	c #5A5852",
"m' 	c #605D57",
"n' 	c #68625B",
"o' 	c #6F655B",
"p' 	c #756658",
"q' 	c #7A6752",
"r' 	c #7F674D",
"s' 	c #84684D",
"t' 	c #7B634A",
"u' 	c #695949",
"v' 	c #564F47",
"w' 	c #504D48",
"x' 	c #4C4A46",
"y' 	c #413E3A",
"z' 	c #3A3834",
"A' 	c #383532",
"B' 	c #363433",
"C' 	c #363536",
"D' 	c #353437",
"E' 	c #353537",
"F' 	c #323234",
"G' 	c #343330",
"H' 	c #45433E",
"I' 	c #6D6961",
"J' 	c #646059",
"K' 	c #57544E",
"L' 	c #413F3E",
"M' 	c #373637",
"N' 	c #343535",
"O' 	c #353736",
"P' 	c #3B3A3A",
"Q' 	c #3C3C3A",
"R' 	c #41413E",
"S' 	c #454543",
"T' 	c #434342",
"U' 	c #373839",
"V' 	c #2D3032",
"W' 	c #2E3033",
"X' 	c #2E2F32",
"Y' 	c #292B2E",
"Z' 	c #242629",
"`' 	c #232528",
" ) 	c #252729",
".) 	c #282929",
"+) 	c #2E302E",
"@) 	c #343534",
"#) 	c #353535",
"$) 	c #333434",
"%) 	c #333334",
"&) 	c #303032",
"*) 	c #313133",
"=) 	c #313134",
"-) 	c #343437",
";) 	c #363537",
">) 	c #383739",
",) 	c #373538",
"') 	c #373536",
")) 	c #373635",
"!) 	c #3E3C3D",
"~) 	c #3D3A3C",
"{) 	c #454444",
"]) 	c #494748",
"^) 	c #454446",
"/) 	c #3A383C",
"() 	c #2D2D31",
"_) 	c #25262B",
":) 	c #24252A",
"<) 	c #242529",
"[) 	c #1F2124",
"}) 	c #191B1E",
"|) 	c #191A1C",
"1) 	c #202123",
"2) 	c #262628",
"3) 	c #2C2C2E",
"4) 	c #3B3B3B",
"5) 	c #4A4A49",
"6) 	c #53514F",
"7) 	c #63615C",
"8) 	c #716E69",
"9) 	c #75716C",
"0) 	c #706C65",
"a) 	c #6D6860",
"b) 	c #605B53",
"c) 	c #211F1E",
"d) 	c #050506",
"e) 	c #030306",
"f) 	c #070609",
"g) 	c #161517",
"h) 	c #2F2E2F",
"i) 	c #454243",
"j) 	c #4D4A4A",
"k) 	c #504E4C",
"l) 	c #4C4948",
"m) 	c #403D3C",
"n) 	c #242424",
"o) 	c #201F22",
"p) 	c #202023",
"q) 	c #202126",
"r) 	c #25272C",
"s) 	c #25282D",
"t) 	c #23262A",
"u) 	c #26292B",
"v) 	c #363636",
"w) 	c #4A4643",
"x) 	c #5C534E",
"y) 	c #645A54",
"z) 	c #655C56",
"A) 	c #615A55",
"B) 	c #56504D",
"C) 	c #4C4744",
"D) 	c #464542",
"E) 	c #3D3C3C",
"F) 	c #333435",
"G) 	c #2D2E30",
"H) 	c #2C2E2F",
"I) 	c #2D2E2E",
"J) 	c #333432",
"K) 	c #3A3A39",
"L) 	c #484947",
"M) 	c #484948",
"N) 	c #444544",
"O) 	c #404240",
"P) 	c #3E403F",
"Q) 	c #434544",
"R) 	c #484949",
"S) 	c #4A4C4B",
"T) 	c #484B4A",
"U) 	c #4E4F4D",
"V) 	c #706B67",
"W) 	c #958D86",
"X) 	c #8F8880",
"Y) 	c #66645E",
"Z) 	c #454742",
"`) 	c #49483F",
" ! 	c #5E5345",
".! 	c #74604A",
"+! 	c #82684D",
"@! 	c #8E7254",
"#! 	c #94785A",
"$! 	c #90765D",
"%! 	c #7D6954",
"&! 	c #5A4E41",
"*! 	c #3D3832",
"=! 	c #363331",
"-! 	c #3A3736",
";! 	c #634F3C",
">! 	c #68594A",
",! 	c #685E53",
"'! 	c #676157",
")! 	c #585851",
"!! 	c #555550",
"~! 	c #585855",
"{! 	c #545553",
"]! 	c #424543",
"^! 	c #4B4B48",
"/! 	c #54514D",
"(! 	c #55524B",
"_! 	c #514E46",
":! 	c #514E45",
"<! 	c #565349",
"[! 	c #615D53",
"}! 	c #69645A",
"|! 	c #6A665A",
"1! 	c #656055",
"2! 	c #5D584E",
"3! 	c #58524A",
"4! 	c #625D55",
"5! 	c #625D56",
"6! 	c #625E57",
"7! 	c #5C5A55",
"8! 	c #4C4D4A",
"9! 	c #3C3E3D",
"0! 	c #353739",
"a! 	c #373A3C",
"b! 	c #3A3D3F",
"c! 	c #3C3F41",
"d! 	c #3C3F3F",
"e! 	c #3B3E3E",
"f! 	c #3A3C3B",
"g! 	c #3B3C3B",
"h! 	c #3C3D3B",
"i! 	c #40413E",
"j! 	c #444441",
"k! 	c #474744",
"l! 	c #464644",
"m! 	c #434343",
"n! 	c #444646",
"o! 	c #434446",
"p! 	c #424245",
"q! 	c #393B3C",
"r! 	c #242627",
"s! 	c #0E0E0F",
"t! 	c #15110E",
"u! 	c #3E3125",
"v! 	c #694C32",
"w! 	c #7B5330",
"x! 	c #82552E",
"y! 	c #825531",
"z! 	c #785437",
"A! 	c #553F2C",
"B! 	c #32281E",
"C! 	c #2F2D29",
"D! 	c #414240",
"E! 	c #444442",
"F! 	c #4C4A4A",
"G! 	c #494747",
"H! 	c #464545",
"I! 	c #3E3F40",
"J! 	c #272A2C",
"K! 	c #292C30",
"L! 	c #2D2E33",
"M! 	c #2C2D30",
"N! 	c #2C2D2E",
"O! 	c #2B2B2D",
"P! 	c #2B2D2E",
"Q! 	c #2D2E2F",
"R! 	c #2D2F30",
"S! 	c #2A2C2E",
"T! 	c #2D2F2F",
"U! 	c #272929",
"V! 	c #1E2122",
"W! 	c #16181B",
"X! 	c #121519",
"Y! 	c #181B1E",
"Z! 	c #222526",
"`! 	c #40403F",
" ~ 	c #4F4D4A",
".~ 	c #323335",
"+~ 	c #343536",
"@~ 	c #363736",
"#~ 	c #383735",
"$~ 	c #393735",
"%~ 	c #343331",
"&~ 	c #2A2A2A",
"*~ 	c #242526",
"=~ 	c #26282A",
"-~ 	c #333333",
";~ 	c #3E3D39",
">~ 	c #454440",
",~ 	c #464643",
"'~ 	c #3A3A3A",
")~ 	c #3C3C3B",
"!~ 	c #3E3D3B",
"~~ 	c #3C3735",
"{~ 	c #36312F",
"]~ 	c #332F2D",
"^~ 	c #343131",
"/~ 	c #333231",
"(~ 	c #313231",
"_~ 	c #2C2D2D",
":~ 	c #3E3E3C",
"<~ 	c #424240",
"[~ 	c #4C4E4C",
"}~ 	c #515150",
"|~ 	c #51524D",
"1~ 	c #52524E",
"2~ 	c #545451",
"3~ 	c #595754",
"4~ 	c #615B55",
"5~ 	c #6A5D50",
"6~ 	c #725E4A",
"7~ 	c #7B6047",
"8~ 	c #856245",
"9~ 	c #8A6445",
"0~ 	c #7F5E42",
"a~ 	c #654F3C",
"b~ 	c #4D4239",
"c~ 	c #45413C",
"d~ 	c #43423E",
"e~ 	c #454540",
"f~ 	c #3F3E39",
"g~ 	c #353434",
"h~ 	c #38383A",
"i~ 	c #3B3B3D",
"j~ 	c #39393A",
"k~ 	c #383938",
"l~ 	c #3B3937",
"m~ 	c #4A4843",
"n~ 	c #706C63",
"o~ 	c #67625C",
"p~ 	c #504D49",
"q~ 	c #42423F",
"r~ 	c #3D3C3B",
"s~ 	c #363635",
"t~ 	c #494946",
"u~ 	c #454645",
"v~ 	c #383A3A",
"w~ 	c #2E3134",
"x~ 	c #303436",
"y~ 	c #292C2F",
"z~ 	c #24272A",
"A~ 	c #27292C",
"B~ 	c #28292A",
"C~ 	c #2A2C2B",
"D~ 	c #2F3230",
"E~ 	c #333535",
"F~ 	c #353637",
"G~ 	c #363738",
"H~ 	c #353538",
"I~ 	c #373739",
"J~ 	c #39393B",
"K~ 	c #434140",
"L~ 	c #393838",
"M~ 	c #343435",
"N~ 	c #3E3F3F",
"O~ 	c #4A4A4B",
"P~ 	c #4D4D4F",
"Q~ 	c #474749",
"R~ 	c #38383B",
"S~ 	c #2B2C2F",
"T~ 	c #28292D",
"U~ 	c #1A1B1E",
"V~ 	c #18191C",
"W~ 	c #212224",
"X~ 	c #292A2C",
"Y~ 	c #2E2F30",
"Z~ 	c #3C3C3C",
"`~ 	c #504F4E",
" { 	c #605F5B",
".{ 	c #6D6B67",
"+{ 	c #72706B",
"@{ 	c #706D67",
"#{ 	c #6D6A63",
"${ 	c #6A665F",
"%{ 	c #69665E",
"&{ 	c #69635C",
"*{ 	c #656058",
"={ 	c #5E5952",
"-{ 	c #4A4640",
";{ 	c #201E1C",
">{ 	c #040405",
",{ 	c #020204",
"'{ 	c #040305",
"){ 	c #111113",
"!{ 	c #434242",
"~{ 	c #3F3E3D",
"{{ 	c #2A2A2C",
"]{ 	c #2C2D2F",
"^{ 	c #2B2D31",
"/{ 	c #2D3033",
"({ 	c #303336",
"_{ 	c #343739",
":{ 	c #3E3F3E",
"<{ 	c #5A5450",
"[{ 	c #645C57",
"}{ 	c #67605A",
"|{ 	c #655F59",
"1{ 	c #5B5751",
"2{ 	c #534F4B",
"3{ 	c #4E4D4A",
"4{ 	c #2C2E2E",
"5{ 	c #2F3130",
"6{ 	c #303231",
"7{ 	c #3A3C3A",
"8{ 	c #494A49",
"9{ 	c #444645",
"0{ 	c #404241",
"a{ 	c #404140",
"b{ 	c #494B4A",
"c{ 	c #4C4E4D",
"d{ 	c #4A4D4C",
"e{ 	c #50504E",
"f{ 	c #6D6965",
"g{ 	c #8B857E",
"h{ 	c #847F77",
"i{ 	c #61615B",
"j{ 	c #4A4D49",
"k{ 	c #504E47",
"l{ 	c #5D5447",
"m{ 	c #6A5A46",
"n{ 	c #755F47",
"o{ 	c #836A4E",
"p{ 	c #8C7356",
"q{ 	c #8B7359",
"r{ 	c #776550",
"s{ 	c #54493C",
"t{ 	c #332F2A",
"u{ 	c #292826",
"v{ 	c #2D2C2B",
"w{ 	c #3A2D21",
"x{ 	c #3D372C",
"y{ 	c #4B463E",
"z{ 	c #5A564F",
"A{ 	c #5B5953",
"B{ 	c #565650",
"C{ 	c #52534E",
"D{ 	c #555552",
"E{ 	c #484A48",
"F{ 	c #424441",
"G{ 	c #4D4B47",
"H{ 	c #5E5A53",
"I{ 	c #666157",
"J{ 	c #655F54",
"K{ 	c #645E53",
"L{ 	c #625B51",
"M{ 	c #605C52",
"N{ 	c #5A5850",
"O{ 	c #54534A",
"P{ 	c #504D45",
"Q{ 	c #555049",
"R{ 	c #5B564D",
"S{ 	c #5A554C",
"T{ 	c #5A554D",
"U{ 	c #57534D",
"V{ 	c #4B4A46",
"W{ 	c #3F403E",
"X{ 	c #3A3B3B",
"Y{ 	c #3B3C3C",
"Z{ 	c #3C3D3E",
"`{ 	c #3D3E3F",
" ] 	c #3B3D3C",
".] 	c #393B39",
"+] 	c #3A3B39",
"@] 	c #43433F",
"#] 	c #484744",
"$] 	c #424341",
"%] 	c #3B3D3D",
"&] 	c #3B3C3D",
"*] 	c #3B3C3E",
"=] 	c #363839",
"-] 	c #232425",
";] 	c #0D0D0E",
">] 	c #100E0C",
",] 	c #31271D",
"'] 	c #563E27",
")] 	c #674223",
"!] 	c #6D4320",
"~] 	c #6B4423",
"{] 	c #603F26",
"]] 	c #3F2B1B",
"^] 	c #1A120B",
"/] 	c #181614",
"(] 	c #2B2B2A",
"_] 	c #353635",
":] 	c #3B3B3A",
"<] 	c #444243",
"[] 	c #434041",
"}] 	c #3B3B3C",
"|] 	c #2B2D2F",
"1] 	c #202226",
"2] 	c #25262A",
"3] 	c #29292C",
"4] 	c #313030",
"5] 	c #313031",
"6] 	c #2D2D2E",
"7] 	c #2B2C2D",
"8] 	c #313332",
"9] 	c #2B2E2F",
"0] 	c #292C2D",
"a] 	c #333534",
"b] 	c #373838",
"c] 	c #252727",
"d] 	c #53514D",
"e] 	c #595752",
"f] 	c #56534F",
"g] 	c #484644",
"h] 	c #3B3A38",
"i] 	c #3A3938",
"j] 	c #333433",
"k] 	c #373738",
"l] 	c #373735",
"m] 	c #3B3C38",
"n] 	c #3E3F3D",
"o] 	c #3D3E3E",
"p] 	c #3D3D3D",
"q] 	c #322F2D",
"r] 	c #282623",
"s] 	c #262422",
"t] 	c #2D2B2B",
"u] 	c #353333",
"v] 	c #353534",
"w] 	c #494844",
"x] 	c #4A4A46",
"y] 	c #4D4E4B",
"z] 	c #4E4E4C",
"A] 	c #4C4C49",
"B] 	c #464745",
"C] 	c #3F3833",
"D] 	c #534334",
"E] 	c #6A4D36",
"F] 	c #7B5235",
"G] 	c #855534",
"H] 	c #885634",
"I] 	c #774D2E",
"J] 	c #563A26",
"K] 	c #34251B",
"L] 	c #25211C",
"M] 	c #302F2C",
"N] 	c #383834",
"O] 	c #393834",
"P] 	c #363533",
"Q] 	c #353432",
"R] 	c #3E3E3F",
"S] 	c #454545",
"T] 	c #474644",
"U] 	c #484642",
"V] 	c #53504B",
"W] 	c #65625B",
"X] 	c #6F6C64",
"Y] 	c #6E6B62",
"Z] 	c #65615A",
"`] 	c #524F4B",
" ^ 	c #454441",
".^ 	c #3F3E3C",
"+^ 	c #3D3D3A",
"@^ 	c #41413D",
"#^ 	c #42433E",
"$^ 	c #43433E",
"%^ 	c #45443F",
"&^ 	c #474743",
"*^ 	c #434442",
"=^ 	c #353737",
"-^ 	c #2B2D30",
";^ 	c #2D2F32",
">^ 	c #2A2D2F",
",^ 	c #202326",
"'^ 	c #242628",
")^ 	c #282A2A",
"!^ 	c #333533",
"~^ 	c #404141",
"{^ 	c #3F3E3F",
"]^ 	c #3E3C3E",
"^^ 	c #454341",
"/^ 	c #52514D",
"(^ 	c #5D5B58",
"_^ 	c #5F5C59",
":^ 	c #343333",
"<^ 	c #272828",
"[^ 	c #4D4D4E",
"}^ 	c #505052",
"|^ 	c #47484A",
"1^ 	c #37383A",
"2^ 	c #27272B",
"3^ 	c #1A1A1D",
"4^ 	c #17181A",
"5^ 	c #222325",
"6^ 	c #2F2F30",
"7^ 	c #464645",
"8^ 	c #5A5A56",
"9^ 	c #605F5A",
"0^ 	c #5F5D58",
"a^ 	c #5D5C56",
"b^ 	c #5A5853",
"c^ 	c #5B5853",
"d^ 	c #5B574F",
"e^ 	c #433F3A",
"f^ 	c #1B1917",
"g^ 	c #020203",
"h^ 	c #000002",
"i^ 	c #0B0B0C",
"j^ 	c #202021",
"k^ 	c #2F2E2E",
"l^ 	c #323132",
"m^ 	c #313132",
"n^ 	c #333436",
"o^ 	c #36383A",
"p^ 	c #37393B",
"q^ 	c #393C3E",
"r^ 	c #3E4243",
"s^ 	c #444647",
"t^ 	c #4F4C48",
"u^ 	c #59534E",
"v^ 	c #59554F",
"w^ 	c #54524F",
"x^ 	c #323331",
"y^ 	c #2C2D2C",
"z^ 	c #2C2E2D",
"A^ 	c #2F302F",
"B^ 	c #4A4C4A",
"C^ 	c #454745",
"D^ 	c #414341",
"E^ 	c #424342",
"F^ 	c #4D4F4D",
"G^ 	c #505251",
"H^ 	c #555453",
"I^ 	c #64605D",
"J^ 	c #706C66",
"K^ 	c #69665F",
"L^ 	c #575651",
"M^ 	c #4C473E",
"N^ 	c #453B2E",
"O^ 	c #483A29",
"P^ 	c #55442F",
"Q^ 	c #66523A",
"R^ 	c #6F5A43",
"S^ 	c #645341",
"T^ 	c #473B30",
"U^ 	c #231E1A",
"V^ 	c #0F0E0E",
"W^ 	c #101010",
"X^ 	c #292929",
"Y^ 	c #170E07",
"Z^ 	c #14110C",
"`^ 	c #2D2A26",
" / 	c #5A5653",
"./ 	c #585752",
"+/ 	c #545550",
"@/ 	c #4F4D48",
"#/ 	c #6A645B",
"$/ 	c #776F63",
"%/ 	c #797062",
"&/ 	c #766C5F",
"*/ 	c #6D6459",
"=/ 	c #605B52",
"-/ 	c #53504A",
";/ 	c #4B4A45",
">/ 	c #464540",
",/ 	c #4D4A43",
"'/ 	c #524D43",
")/ 	c #4D483E",
"!/ 	c #4F4A43",
"~/ 	c #454442",
"{/ 	c #3A3B3A",
"]/ 	c #43423F",
"^/ 	c #474642",
"// 	c #363737",
"(/ 	c #38393A",
"_/ 	c #202122",
":/ 	c #0B0C0D",
"</ 	c #0A0A09",
"[/ 	c #211B15",
"}/ 	c #3F2D1E",
"|/ 	c #4F321B",
"1/ 	c #543319",
"2/ 	c #503018",
"3/ 	c #432917",
"4/ 	c #27170D",
"5/ 	c #080402",
"6/ 	c #060606",
"7/ 	c #1D1D1E",
"8/ 	c #302F31",
"9/ 	c #353435",
"0/ 	c #393637",
"a/ 	c #383637",
"b/ 	c #313032",
"c/ 	c #0F1114",
"d/ 	c #0B0E11",
"e/ 	c #111215",
"f/ 	c #1E1E20",
"g/ 	c #2D2C2D",
"h/ 	c #333130",
"i/ 	c #323131",
"j/ 	c #2E2D2D",
"k/ 	c #2A2B2B",
"l/ 	c #282B2C",
"m/ 	c #252829",
"n/ 	c #232627",
"o/ 	c #2E3030",
"p/ 	c #454544",
"q/ 	c #343635",
"r/ 	c #3C3D3C",
"s/ 	c #464744",
"t/ 	c #585652",
"u/ 	c #5D5A55",
"v/ 	c #4A4845",
"w/ 	c #383939",
"x/ 	c #3A3B3C",
"y/ 	c #373936",
"z/ 	c #363734",
"A/ 	c #373836",
"B/ 	c #373938",
"C/ 	c #3C3C3D",
"D/ 	c #3F3F3F",
"E/ 	c #403F3F",
"F/ 	c #262424",
"G/ 	c #1A1817",
"H/ 	c #191816",
"I/ 	c #262425",
"J/ 	c #333332",
"K/ 	c #4E4C47",
"L/ 	c #4A4944",
"M/ 	c #4A4846",
"N/ 	c #494846",
"O/ 	c #484845",
"P/ 	c #222123",
"Q/ 	c #0A0A0B",
"R/ 	c #17100C",
"S/ 	c #3E2A1D",
"T/ 	c #66412B",
"U/ 	c #7B492C",
"V/ 	c #824B28",
"W/ 	c #824B27",
"X/ 	c #6F4021",
"Y/ 	c #492917",
"Z/ 	c #200F08",
"`/ 	c #0E0807",
" ( 	c #12100F",
".( 	c #222220",
"+( 	c #333330",
"@( 	c #353433",
"#( 	c #434344",
"$( 	c #4E4D4E",
"%( 	c #636058",
"&( 	c #6A665E",
"*( 	c #67635B",
"=( 	c #5F5B54",
"-( 	c #56534D",
";( 	c #4E4B47",
">( 	c #3C3B39",
",( 	c #4C4B46",
"'( 	c #4D4C46",
")( 	c #4B4A44",
"!( 	c #474741",
"~( 	c #464640",
"{( 	c #1F2024",
"]( 	c #252626",
"^( 	c #292A29",
"/( 	c #313230",
"(( 	c #353634",
"_( 	c #3D3E3C",
":( 	c #434443",
"<( 	c #454644",
"[( 	c #444140",
"}( 	c #4E4C48",
"|( 	c #66635E",
"1( 	c #76726C",
"2( 	c #74706C",
"3( 	c #353331",
"4( 	c #222222",
"5( 	c #474747",
"6( 	c #494849",
"7( 	c #403F41",
"8( 	c #28282A",
"9( 	c #27262A",
"0( 	c #2C2C2F",
"a( 	c #252427",
"b( 	c #19181A",
"c( 	c #181819",
"d( 	c #383836",
"e( 	c #3F3F3D",
"f( 	c #434340",
"g( 	c #534F49",
"h( 	c #514C46",
"i( 	c #3F3B37",
"j( 	c #191716",
"k( 	c #020202",
"l( 	c #000101",
"m( 	c #000001",
"n( 	c #191919",
"o( 	c #252424",
"p( 	c #252425",
"q( 	c #232324",
"r( 	c #1F2021",
"s( 	c #1E1F20",
"t( 	c #1F2122",
"u( 	c #27292A",
"v( 	c #303133",
"w( 	c #3A3C3D",
"x( 	c #3E4041",
"y( 	c #454748",
"z( 	c #4C4D4D",
"A( 	c #4D4D4D",
"B( 	c #484540",
"C( 	c #58534C",
"D( 	c #615B54",
"E( 	c #605B54",
"F( 	c #56544F",
"G( 	c #434440",
"H( 	c #2B2D2C",
"I( 	c #323432",
"J( 	c #595958",
"K( 	c #5D5B5B",
"L( 	c #605D5D",
"M( 	c #605B59",
"N( 	c #5A5551",
"O( 	c #4D4C4D",
"P( 	c #4B4A48",
"Q( 	c #33312D",
"R( 	c #15100A",
"S( 	c #0D0501",
"T( 	c #1E1307",
"U( 	c #3D2D1E",
"V( 	c #534030",
"W( 	c #544234",
"X( 	c #3D3027",
"Y( 	c #1B1613",
"Z( 	c #040404",
"`( 	c #010202",
" _ 	c #212122",
"._ 	c #130C08",
"+_ 	c #0F0D0B",
"@_ 	c #2B2826",
"#_ 	c #5A5954",
"$_ 	c #565551",
"%_ 	c #575653",
"&_ 	c #454541",
"*_ 	c #70685E",
"=_ 	c #7F7569",
"-_ 	c #817668",
";_ 	c #7D7266",
">_ 	c #71685E",
",_ 	c #4E4D48",
"'_ 	c #3E3F3C",
")_ 	c #4C4A45",
"!_ 	c #58534A",
"~_ 	c #4F4A3F",
"{_ 	c #484237",
"]_ 	c #494439",
"^_ 	c #534F48",
"/_ 	c #57534E",
"(_ 	c #595753",
"__ 	c #504E4B",
":_ 	c #3B3B39",
"<_ 	c #3B3C39",
"[_ 	c #3C3D3A",
"}_ 	c #3D3E3B",
"|_ 	c #42423E",
"1_ 	c #3E3E3E",
"2_ 	c #1C1D1E",
"3_ 	c #070809",
"4_ 	c #050505",
"5_ 	c #161310",
"6_ 	c #32271D",
"7_ 	c #402D1E",
"8_ 	c #432D1C",
"9_ 	c #3F2918",
"0_ 	c #352215",
"a_ 	c #1D130B",
"b_ 	c #050302",
"c_ 	c #1A1B1B",
"d_ 	c #262828",
"e_ 	c #3C3B3D",
"f_ 	c #2B292D",
"g_ 	c #1C1C1F",
"h_ 	c #0A0C10",
"i_ 	c #04060A",
"j_ 	c #07080B",
"k_ 	c #1A1B1D",
"l_ 	c #343231",
"m_ 	c #323130",
"n_ 	c #282828",
"o_ 	c #242625",
"p_ 	c #252726",
"q_ 	c #272829",
"r_ 	c #242728",
"s_ 	c #212425",
"t_ 	c #1E2323",
"u_ 	c #2F3131",
"v_ 	c #3D3E3D",
"w_ 	c #494845",
"x_ 	c #434341",
"y_ 	c #5F5C56",
"z_ 	c #5F5B55",
"A_ 	c #383A38",
"B_ 	c #363735",
"C_ 	c #363836",
"D_ 	c #363937",
"E_ 	c #363837",
"F_ 	c #3F3F40",
"G_ 	c #484747",
"H_ 	c #201F1F",
"I_ 	c #141314",
"J_ 	c #121213",
"K_ 	c #201F20",
"L_ 	c #302F30",
"M_ 	c #3A3937",
"N_ 	c #504E4A",
"O_ 	c #474845",
"P_ 	c #4B4B49",
"Q_ 	c #3E3D3E",
"R_ 	c #020306",
"S_ 	c #0D0807",
"T_ 	c #38241A",
"U_ 	c #603B27",
"V_ 	c #744225",
"W_ 	c #763E1E",
"X_ 	c #743C1C",
"Y_ 	c #64361C",
"Z_ 	c #412313",
"`_ 	c #1A0B07",
" : 	c #090505",
".: 	c #0F0D0E",
"+: 	c #212020",
"@: 	c #444445",
"#: 	c #505050",
"$: 	c #535250",
"%: 	c #55544F",
"&: 	c #55534E",
"*: 	c #58564F",
"=: 	c #5C5A53",
"-: 	c #605C56",
";: 	c #58554F",
">: 	c #53514B",
",: 	c #4F4D49",
"': 	c #32312F",
"): 	c #3E3C39",
"!: 	c #4C4B47",
"~: 	c #55544E",
"{: 	c #504F48",
"]: 	c #494842",
"^: 	c #44443F",
"/: 	c #403F3C",
"(: 	c #252728",
"_: 	c #212225",
":: 	c #202225",
"<: 	c #262827",
"[: 	c #2B2C2A",
"}: 	c #343532",
"|: 	c #343533",
"1: 	c #6C6862",
"2: 	c #7A756E",
"3: 	c #76716B",
"4: 	c #5A5752",
"5: 	c #373533",
"6: 	c #262525",
"7: 	c #424343",
"8: 	c #414041",
"9: 	c #2D2D2F",
"0: 	c #27272A",
"a: 	c #27282B",
"b: 	c #2B2B2E",
"c: 	c #222225",
"d: 	c #141416",
"e: 	c #171618",
"f: 	c #252527",
"g: 	c #454340",
"h: 	c #464541",
"i: 	c #494843",
"j: 	c #55524C",
"k: 	c #3E3B39",
"l: 	c #000000",
"m: 	c #121113",
"n: 	c #1D1C1D",
"o: 	c #1E1D1F",
"p: 	c #1D1C1E",
"q: 	c #1A1A1C",
"r: 	c #181A1B",
"s: 	c #181A1C",
"t: 	c #202224",
"u: 	c #333536",
"v: 	c #424243",
"w: 	c #4E4E4E",
"x: 	c #464847",
"y: 	c #42413B",
"z: 	c #5B5650",
"A: 	c #56524D",
"B: 	c #514F4A",
"C: 	c #323230",
"D: 	c #2D2E2D",
"E: 	c #2D2F2E",
"F: 	c #323332",
"G: 	c #484846",
"H: 	c #565654",
"I: 	c #61605F",
"J: 	c #666464",
"K: 	c #696665",
"L: 	c #635E5D",
"M: 	c #55514E",
"N: 	c #494642",
"O: 	c #454443",
"P: 	c #2B2928",
"Q: 	c #090705",
"R: 	c #060301",
"S: 	c #1D140C",
"T: 	c #3B2D22",
"U: 	c #4C3C2F",
"V: 	c #493A2E",
"W: 	c #352A22",
"X: 	c #191512",
"Y: 	c #010103",
"Z: 	c #1F1F20",
"`: 	c #130D0A",
" < 	c #141110",
".< 	c #5B5A54",
"+< 	c #5C5B57",
"@< 	c #5A5955",
"#< 	c #56534E",
"$< 	c #615D55",
"%< 	c #736B61",
"&< 	c #81766A",
"*< 	c #7E7468",
"=< 	c #716A60",
"-< 	c #3F413F",
";< 	c #5B574D",
">< 	c #544E43",
",< 	c #4E483C",
"'< 	c #565146",
")< 	c #5E5950",
"!< 	c #656059",
"~< 	c #69645F",
"{< 	c #69655F",
"]< 	c #3A3C39",
"^< 	c #3E3F3B",
"/< 	c #424340",
"(< 	c #1B1C1C",
"_< 	c #07080A",
":< 	c #10100D",
"<< 	c #231E18",
"[< 	c #2D231B",
"}< 	c #31241A",
"|< 	c #2E2217",
"1< 	c #2A1E15",
"2< 	c #1A130D",
"3< 	c #070504",
"4< 	c #060506",
"5< 	c #1B1C1D",
"6< 	c #2B2C2B",
"7< 	c #333233",
"8< 	c #3A3A3B",
"9< 	c #39383A",
"0< 	c #252528",
"a< 	c #0C0D11",
"b< 	c #07090D",
"c< 	c #0A0B0E",
"d< 	c #2F2E2D",
"e< 	c #2C2B2A",
"f< 	c #272827",
"g< 	c #484946",
"h< 	c #3D3C3A",
"i< 	c #42413E",
"j< 	c #383937",
"k< 	c #383A37",
"l< 	c #3B3C3A",
"m< 	c #514F4D",
"n< 	c #514F4E",
"o< 	c #2A2B2A",
"p< 	c #1D1D1D",
"q< 	c #151517",
"r< 	c #151516",
"s< 	c #222122",
"t< 	c #333232",
"u< 	c #3F3F3C",
"v< 	c #3C3D3D",
"w< 	c #1C1D1F",
"x< 	c #030406",
"y< 	c #0A0706",
"z< 	c #2F1F15",
"A< 	c #523220",
"B< 	c #63371F",
"C< 	c #66341A",
"D< 	c #623219",
"E< 	c #522C18",
"F< 	c #361E11",
"G< 	c #150A07",
"H< 	c #080505",
"I< 	c #0E0C0E",
"J< 	c #434444",
"K< 	c #4E4D4D",
"L< 	c #54524E",
"M< 	c #585751",
"N< 	c #595852",
"O< 	c #585651",
"P< 	c #56554F",
"Q< 	c #54524D",
"R< 	c #54534E",
"S< 	c #4E4E48",
"T< 	c #484842",
"U< 	c #464641",
"V< 	c #222425",
"W< 	c #1C1D21",
"X< 	c #1C1E21",
"Y< 	c #1D1E21",
"Z< 	c #242525",
"`< 	c #2C2D2B",
" [ 	c #424242",
".[ 	c #4F4B47",
"+[ 	c #57524D",
"@[ 	c #67635D",
"#[ 	c #343232",
"$[ 	c #393839",
"%[ 	c #28292B",
"&[ 	c #2E2E31",
"*[ 	c #151416",
"=[ 	c #252426",
"-[ 	c #363434",
";[ 	c #393634",
">[ 	c #1A1918",
",[ 	c #030303",
"'[ 	c #030203",
")[ 	c #060507",
"![ 	c #212223",
"~[ 	c #212324",
"{[ 	c #262928",
"][ 	c #3F403F",
"^[ 	c #40423E",
"/[ 	c #444540",
"([ 	c #4F4C46",
"_[ 	c #3F3F3B",
":[ 	c #30312F",
"<[ 	c #353636",
"[[ 	c #504F4C",
"}[ 	c #44433F",
"|[ 	c #4C4B48",
"1[ 	c #585755",
"2[ 	c #646362",
"3[ 	c #656463",
"4[ 	c #5E5C5A",
"5[ 	c #44423F",
"6[ 	c #272624",
"7[ 	c #070604",
"8[ 	c #090503",
"9[ 	c #1E1510",
"0[ 	c #33271E",
"a[ 	c #3B2F23",
"b[ 	c #352A1F",
"c[ 	c #251E17",
"d[ 	c #13100D",
"e[ 	c #040406",
"f[ 	c #0C0707",
"g[ 	c #151213",
"h[ 	c #585653",
"i[ 	c #605D5A",
"j[ 	c #65625F",
"k[ 	c #716860",
"l[ 	c #71685F",
"m[ 	c #6F685F",
"n[ 	c #555450",
"o[ 	c #434545",
"p[ 	c #313536",
"q[ 	c #5F5A52",
"r[ 	c #605A4F",
"s[ 	c #5E574C",
"t[ 	c #60594F",
"u[ 	c #625C52",
"v[ 	c #645D55",
"w[ 	c #676159",
"x[ 	c #69645C",
"y[ 	c #68635C",
"z[ 	c #474541",
"A[ 	c #3D3D39",
"B[ 	c #3C3D39",
"C[ 	c #323233",
"D[ 	c #1A1B1A",
"E[ 	c #111112",
"F[ 	c #131414",
"G[ 	c #101111",
"H[ 	c #0F100E",
"I[ 	c #11100F",
"J[ 	c #17130E",
"K[ 	c #18130E",
"L[ 	c #120E0B",
"M[ 	c #090707",
"N[ 	c #0B090B",
"O[ 	c #1E1D20",
"P[ 	c #2B2B2C",
"Q[ 	c #272627",
"R[ 	c #262626",
"S[ 	c #29292B",
"T[ 	c #232325",
"U[ 	c #1D1D1F",
"V[ 	c #141519",
"W[ 	c #0C0E12",
"X[ 	c #0A0C0F",
"Y[ 	c #0E0F12",
"Z[ 	c #373432",
"`[ 	c #2F2F2E",
" } 	c #303334",
".} 	c #323435",
"+} 	c #514E49",
"@} 	c #5C5651",
"#} 	c #615A54",
"$} 	c #69615B",
"%} 	c #69635D",
"&} 	c #413E3E",
"*} 	c #393A38",
"=} 	c #393A37",
"-} 	c #494643",
";} 	c #504D4A",
">} 	c #1B1C1E",
",} 	c #1B1B1D",
"'} 	c #4B4945",
")} 	c #4A4744",
"!} 	c #42403E",
"~} 	c #3E3E3D",
"{} 	c #414140",
"]} 	c #020205",
"^} 	c #050304",
"/} 	c #1B100A",
"(} 	c #331D12",
"_} 	c #401F12",
":} 	c #432011",
"<} 	c #401F11",
"[} 	c #33190E",
"}} 	c #25120C",
"|} 	c #0F0706",
"1} 	c #050405",
"2} 	c #0C0C0F",
"3} 	c #212124",
"4} 	c #414040",
"5} 	c #4A4946",
"6} 	c #4F4F4B",
"7} 	c #51504C",
"8} 	c #4E4C4A",
"9} 	c #494945",
"0} 	c #3D3C38",
"a} 	c #3D3B39",
"b} 	c #1C1D20",
"c} 	c #111216",
"d} 	c #101215",
"e} 	c #131417",
"f} 	c #2A2A29",
"g} 	c #474848",
"h} 	c #5A5652",
"i} 	c #615D58",
"j} 	c #635F59",
"k} 	c #63605A",
"l} 	c #615F59",
"m} 	c #565450",
"n} 	c #515151",
"o} 	c #545454",
"p} 	c #2E2E30",
"q} 	c #19181B",
"r} 	c #0A090C",
"s} 	c #0E0D0E",
"t} 	c #1E1D1E",
"u} 	c #282728",
"v} 	c #292829",
"w} 	c #2B2A2A",
"x} 	c #2F3030",
"y} 	c #2F2F2D",
"z} 	c #292827",
"A} 	c #1C1C1D",
"B} 	c #171719",
"C} 	c #19191A",
"D} 	c #1A1819",
"E} 	c #222324",
"F} 	c #282829",
"G} 	c #292A2B",
"H} 	c #303130",
"I} 	c #323232",
"J} 	c #3E403D",
"K} 	c #464845",
"L} 	c #464846",
"M} 	c #444542",
"N} 	c #484844",
"O} 	c #585450",
"P} 	c #504D47",
"Q} 	c #46433E",
"R} 	c #323433",
"S} 	c #343636",
"T} 	c #514F4C",
"U} 	c #514E4A",
"V} 	c #545352",
"W} 	c #545353",
"X} 	c #545354",
"Y} 	c #4F4E4D",
"Z} 	c #3E3C3A",
"`} 	c #3B3A39",
" | 	c #222120",
".| 	c #060403",
"+| 	c #0F0908",
"@| 	c #160F0B",
"#| 	c #18110C",
"$| 	c #140F0A",
"%| 	c #100B09",
"&| 	c #0B0808",
"*| 	c #070608",
"=| 	c #09080A",
"-| 	c #171515",
";| 	c #595853",
">| 	c #65635E",
",| 	c #73706B",
"'| 	c #848079",
")| 	c #89837B",
"!| 	c #857E75",
"~| 	c #6F6860",
"{| 	c #5B544D",
"]| 	c #554F48",
"^| 	c #57524C",
"/| 	c #3A3B3E",
"(| 	c #313437",
"_| 	c #2C3033",
":| 	c #2F3232",
"<| 	c #756E64",
"[| 	c #786F65",
"}| 	c #726B62",
"|| 	c #5C564F",
"1| 	c #40403C",
"2| 	c #2D2D2C",
"3| 	c #292928",
"4| 	c #252525",
"5| 	c #232323",
"6| 	c #1E1E1D",
"7| 	c #1C1C1A",
"8| 	c #1F1E1E",
"9| 	c #242425",
"0| 	c #1B1D1E",
"a| 	c #0B0E0F",
"b| 	c #030607",
"c| 	c #050606",
"d| 	c #060605",
"e| 	c #0A0908",
"f| 	c #0B0909",
"g| 	c #0C0B0B",
"h| 	c #111011",
"i| 	c #232223",
"j| 	c #242324",
"k| 	c #141415",
"l| 	c #161618",
"m| 	c #161619",
"n| 	c #121417",
"o| 	c #0D0F13",
"p| 	c #0B0D10",
"q| 	c #121215",
"r| 	c #3B3A37",
"s| 	c #383634",
"t| 	c #393734",
"u| 	c #3A3835",
"v| 	c #3E4040",
"w| 	c #41423F",
"x| 	c #4E4C46",
"y| 	c #524E49",
"z| 	c #5A554F",
"A| 	c #6E6660",
"B| 	c #6D6761",
"C| 	c #42403F",
"D| 	c #393B38",
"E| 	c #3A3B38",
"F| 	c #484441",
"G| 	c #494443",
"H| 	c #433E3E",
"I| 	c #3B3838",
"J| 	c #232423",
"K| 	c #1D1F20",
"L| 	c #272728",
"M| 	c #41403F",
"N| 	c #3F3E3A",
"O| 	c #42403C",
"P| 	c #191A1B",
"Q| 	c #020305",
"R| 	c #040303",
"S| 	c #0C0604",
"T| 	c #160A06",
"U| 	c #1B0A05",
"V| 	c #1C0805",
"W| 	c #1C0A05",
"X| 	c #190A05",
"Y| 	c #140907",
"Z| 	c #090404",
"`| 	c #060405",
" 1 	c #0D0D0F",
".1 	c #444541",
"+1 	c #464642",
"@1 	c #3E3D3A",
"#1 	c #3C3C38",
"$1 	c #3D3D3E",
"%1 	c #080A0D",
"&1 	c #07090C",
"*1 	c #0C0D0F",
"=1 	c #343634",
"-1 	c #474846",
";1 	c #6A6662",
">1 	c #75716B",
",1 	c #747069",
"'1 	c #6B6762",
")1 	c #66625C",
"!1 	c #5F5E58",
"~1 	c #5B5956",
"{1 	c #595755",
"]1 	c #575655",
"^1 	c #5A5A59",
"/1 	c #5C5D5C",
"(1 	c #535453",
"_1 	c #242527",
":1 	c #111012",
"<1 	c #0A080A",
"[1 	c #181617",
"}1 	c #212021",
"|1 	c #272626",
"11 	c #1D1F1F",
"21 	c #151818",
"31 	c #121415",
"41 	c #0F1113",
"51 	c #101213",
"61 	c #131416",
"71 	c #1B1A1B",
"81 	c #2F2F2F",
"91 	c #373736",
"01 	c #454542",
"a1 	c #4D4D48",
"b1 	c #52524D",
"c1 	c #504F4A",
"d1 	c #434441",
"e1 	c #444643",
"f1 	c #454744",
"g1 	c #484745",
"h1 	c #44433D",
"i1 	c #3F3D38",
"j1 	c #403D39",
"k1 	c #44423E",
"l1 	c #323535",
"m1 	c #333635",
"n1 	c #393B3A",
"o1 	c #605C58",
"p1 	c #414242",
"q1 	c #424344",
"r1 	c #060505",
"s1 	c #050303",
"t1 	c #050404",
"u1 	c #080708",
"v1 	c #09090A",
"w1 	c #0C0C0E",
"x1 	c #181516",
"y1 	c #353232",
"z1 	c #504F4B",
"A1 	c #565350",
"B1 	c #7A7771",
"C1 	c #8E8A83",
"D1 	c #948D85",
"E1 	c #8B847C",
"F1 	c #6D6660",
"G1 	c #45423E",
"H1 	c #414043",
"I1 	c #36373C",
"J1 	c #2F3236",
"K1 	c #2B3033",
"L1 	c #2C2F31",
"M1 	c #827C74",
"N1 	c #877F77",
"O1 	c #857D75",
"P1 	c #554F47",
"Q1 	c #544E47",
"R1 	c #504B45",
"S1 	c #3F413E",
"T1 	c #242422",
"U1 	c #191918",
"V1 	c #151414",
"W1 	c #141413",
"X1 	c #1C1B1B",
"Y1 	c #232222",
"Z1 	c #232424",
"`1 	c #111315",
" 2 	c #040608",
".2 	c #020304",
"+2 	c #0A0809",
"@2 	c #141313",
"#2 	c #181717",
"$2 	c #111213",
"%2 	c #131314",
"&2 	c #131315",
"*2 	c #131316",
"=2 	c #111115",
"-2 	c #0B0C10",
";2 	c #131215",
">2 	c #2A292A",
",2 	c #373633",
"'2 	c #3C3A37",
")2 	c #56544E",
"!2 	c #66635D",
"~2 	c #686660",
"{2 	c #58534D",
"]2 	c #6B635F",
"^2 	c #6B645F",
"/2 	c #57524E",
"(2 	c #3A3A37",
"_2 	c #3E3E3A",
":2 	c #4C4844",
"<2 	c #48433F",
"[2 	c #413D39",
"}2 	c #403C39",
"|2 	c #3B3636",
"12 	c #363333",
"22 	c #1F2022",
"32 	c #29292A",
"42 	c #3C3A36",
"52 	c #393733",
"62 	c #4A4947",
"72 	c #070404",
"82 	c #0A0504",
"92 	c #0A0303",
"02 	c #080202",
"a2 	c #080303",
"b2 	c #0B0404",
"c2 	c #0D0707",
"d2 	c #080507",
"e2 	c #0C0A0C",
"f2 	c #3C3C39",
"g2 	c #393936",
"h2 	c #161719",
"i2 	c #060709",
"j2 	c #050609",
"k2 	c #08090C",
"l2 	c #78736D",
"m2 	c #77736D",
"n2 	c #63615D",
"o2 	c #61605B",
"p2 	c #5D5C5A",
"q2 	c #5C5B5B",
"r2 	c #5B5A5A",
"s2 	c #5B5B5B",
"t2 	c #555555",
"u2 	c #414141",
"v2 	c #262627",
"w2 	c #2A2A2B",
"x2 	c #020101",
"y2 	c #090809",
"z2 	c #151314",
"A2 	c #1D1B1C",
"B2 	c #211F20",
"C2 	c #2D2C2C",
"D2 	c #111314",
"E2 	c #0D0E10",
"F2 	c #0C0D10",
"G2 	c #101214",
"H2 	c #151719",
"I2 	c #18181B",
"J2 	c #1E1E21",
"K2 	c #343233",
"L2 	c #2B2B2B",
"M2 	c #2C2C2C",
"N2 	c #55524E",
"O2 	c #4B4A47",
"P2 	c #69645E",
"Q2 	c #6A6560",
"R2 	c #5B5854",
"S2 	c #3C3E3F",
"T2 	c #323231",
"U2 	c #040304",
"V2 	c #050507",
"W2 	c #060608",
"X2 	c #0B0A0C",
"Y2 	c #070506",
"Z2 	c #1D1A1A",
"`2 	c #5D5A54",
" 3 	c #5E5C56",
".3 	c #686662",
"+3 	c #76746F",
"@3 	c #85837C",
"#3 	c #88847C",
"$3 	c #817D75",
"%3 	c #68635D",
"&3 	c #504C47",
"*3 	c #4B4A49",
"=3 	c #4B4A4B",
"-3 	c #373A3D",
";3 	c #303538",
">3 	c #2D3335",
",3 	c #2D3133",
"'3 	c #363A39",
")3 	c #50524F",
"!3 	c #6E6D68",
"~3 	c #807E76",
"{3 	c #858179",
"]3 	c #827D76",
"^3 	c #6A635C",
"/3 	c #5D574F",
"(3 	c #57514B",
"_3 	c #41433F",
":3 	c #3E413D",
"<3 	c #343433",
"[3 	c #191A18",
"}3 	c #181817",
"|3 	c #1B1B1A",
"13 	c #1D1C1C",
"23 	c #232122",
"33 	c #2A2929",
"43 	c #1A1C1E",
"53 	c #0E1113",
"63 	c #0B0D0F",
"73 	c #0D0E0F",
"83 	c #131313",
"93 	c #171616",
"03 	c #191818",
"a3 	c #1B1A1A",
"b3 	c #2B2A2B",
"c3 	c #222121",
"d3 	c #161617",
"e3 	c #171718",
"f3 	c #18181A",
"g3 	c #131317",
"h3 	c #0F1014",
"i3 	c #0C0F12",
"j3 	c #0C0E11",
"k3 	c #444440",
"l3 	c #62605A",
"m3 	c #6B625D",
"n3 	c #69615C",
"o3 	c #57514D",
"p3 	c #45413E",
"q3 	c #3A3936",
"r3 	c #3B3A36",
"s3 	c #3B3B37",
"t3 	c #3B3B38",
"u3 	c #413F3B",
"v3 	c #4A4642",
"w3 	c #4A4541",
"x3 	c #3B3835",
"y3 	c #373433",
"z3 	c #262728",
"A3 	c #444543",
"B3 	c #101110",
"C3 	c #10100F",
"D3 	c #0E0E0D",
"E3 	c #0C0A0A",
"F3 	c #070606",
"G3 	c #110F12",
"H3 	c #151515",
"I3 	c #161516",
"J3 	c #42403D",
"K3 	c #424141",
"L3 	c #181919",
"M3 	c #0C0D0E",
"N3 	c #101012",
"O3 	c #484848",
"P3 	c #4A4949",
"Q3 	c #55514D",
"R3 	c #65615C",
"S3 	c #6F6B65",
"T3 	c #726E69",
"U3 	c #6E6A65",
"V3 	c #5F5D5A",
"W3 	c #5D5D59",
"X3 	c #5A5A58",
"Y3 	c #595A58",
"Z3 	c #585857",
"`3 	c #585858",
" 4 	c #575757",
".4 	c #5A5B5A",
"+4 	c #252526",
"@4 	c #1B1B1B",
"#4 	c #070707",
"$4 	c #110F10",
"%4 	c #292727",
"&4 	c #131516",
"*4 	c #111214",
"=4 	c #101114",
"-4 	c #121316",
";4 	c #141518",
">4 	c #1B1B1E",
",4 	c #55524D",
"'4 	c #615D57",
")4 	c #56524C",
"!4 	c #4C4944",
"~4 	c #4D4A45",
"{4 	c #5B5954",
"]4 	c #3A3D3D",
"^4 	c #3C3F40",
"/4 	c #3D3F3F",
"(4 	c #3C3E3C",
"_4 	c #383936",
":4 	c #1E1C1D",
"<4 	c #060508",
"[4 	c #08070A",
"}4 	c #040507",
"|4 	c #050608",
"14 	c #06080A",
"24 	c #08080B",
"34 	c #2E2D2C",
"44 	c #252222",
"54 	c #3D3836",
"64 	c #67615C",
"74 	c #6C6763",
"84 	c #696662",
"94 	c #6A6864",
"04 	c #6B6862",
"a4 	c #5D5955",
"b4 	c #504E4D",
"c4 	c #424345",
"d4 	c #303437",
"e4 	c #2E3235",
"f4 	c #2E3234",
"g4 	c #343838",
"h4 	c #464948",
"i4 	c #5E5E5C",
"j4 	c #6B6B66",
"k4 	c #6D6B65",
"l4 	c #615A53",
"m4 	c #5F5850",
"n4 	c #55514A",
"o4 	c #4C4A44",
"p4 	c #43443F",
"q4 	c #3F413C",
"r4 	c #3C3F3C",
"s4 	c #3B3D3B",
"t4 	c #2F302E",
"u4 	c #2D2D2B",
"v4 	c #2A2829",
"w4 	c #1D1E1F",
"x4 	c #131418",
"y4 	c #0D0E12",
"z4 	c #0B0D11",
"A4 	c #31312F",
"B4 	c #504E49",
"C4 	c #52504C",
"D4 	c #524F4C",
"E4 	c #53514C",
"F4 	c #585852",
"G4 	c #5C5B56",
"H4 	c #615C58",
"I4 	c #645E5A",
"J4 	c #68605C",
"K4 	c #6B635D",
"L4 	c #6A625C",
"M4 	c #5F5853",
"N4 	c #363633",
"O4 	c #3C3B37",
"P4 	c #3F3D3A",
"Q4 	c #373632",
"R4 	c #3F3C39",
"S4 	c #403D3A",
"T4 	c #3D3A37",
"U4 	c #2C2F30",
"V4 	c #3A3836",
"W4 	c #272726",
"X4 	c #1C1C1B",
"Y4 	c #1A1A19",
"Z4 	c #151513",
"`4 	c #2C2B2C",
" 5 	c #333132",
".5 	c #3D3C3D",
"+5 	c #30302F",
"@5 	c #212120",
"#5 	c #4A4B49",
"$5 	c #4C4D4C",
"%5 	c #4A4A4A",
"&5 	c #4B4B4A",
"*5 	c #5D5A56",
"=5 	c #635F5A",
"-5 	c #65625C",
";5 	c #6A6762",
">5 	c #54534F",
",5 	c #464747",
"'5 	c #444545",
")5 	c #212222",
"!5 	c #191A1A",
"~5 	c #171818",
"{5 	c #141516",
"]5 	c #070708",
"^5 	c #0F0D0F",
"/5 	c #222021",
"(5 	c #212022",
"_5 	c #1E1E1F",
":5 	c #1D1F21",
"<5 	c #1B1C1F",
"[5 	c #1D1D20",
"}5 	c #242528",
"|5 	c #3F3C3B",
"15 	c #4E4B49",
"25 	c #605E58",
"35 	c #6D6962",
"45 	c #6A645C",
"55 	c #5E5B55",
"65 	c #3D3F3D",
"75 	c #141316",
"85 	c #151518",
"95 	c #17171A",
"05 	c #16171A",
"a5 	c #17191A",
"b5 	c #1C1E1F",
"c5 	c #202223",
"d5 	c #242423",
"e5 	c #2A2828",
"f5 	c #312E2B",
"g5 	c #5F5753",
"h5 	c #78716A",
"i5 	c #817A72",
"j5 	c #7D7870",
"k5 	c #726D67",
"l5 	c #5E5B58",
"m5 	c #55524F",
"n5 	c #54514E",
"o5 	c #333538",
"p5 	c #2F3134",
"q5 	c #303435",
"r5 	c #333738",
"s5 	c #3B3F3F",
"t5 	c #58544F",
"u5 	c #615A52",
"v5 	c #272727",
"w5 	c #303234",
"x5 	c #2E3032",
"y5 	c #434142",
"z5 	c #1E1F22",
"A5 	c #0E0F13",
"B5 	c #0D0D11",
"C5 	c #0F1013",
"D5 	c #18191B",
"E5 	c #202121",
"F5 	c #222224",
"G5 	c #5C5953",
"H5 	c #5E5B56",
"I5 	c #51514B",
"J5 	c #585853",
"K5 	c #64625D",
"L5 	c #6C6863",
"M5 	c #6F6964",
"N5 	c #706963",
"O5 	c #706861",
"P5 	c #66605B",
"Q5 	c #2B2B29",
"R5 	c #3A3A36",
"S5 	c #333431",
"T5 	c #2F3032",
"U5 	c #353533",
"V5 	c #464646",
"W5 	c #1F1F1E",
"X5 	c #0C0C0C",
"Y5 	c #000103",
"Z5 	c #05060A",
"`5 	c #41423E",
" 6 	c #3F403D",
".6 	c #393738",
"+6 	c #404041",
"@6 	c #5D5E5C",
"#6 	c #5F605E",
"$6 	c #5D5D5B",
"%6 	c #5C5C5A",
"&6 	c #5B5A58",
"*6 	c #5E5E5B",
"=6 	c #62615F",
"-6 	c #686663",
";6 	c #67635E",
">6 	c #202020",
",6 	c #1B1C1B",
"'6 	c #141414",
")6 	c #0A0B0C",
"!6 	c #030304",
"~6 	c #030305",
"{6 	c #030405",
"]6 	c #1E1B1D",
"^6 	c #2D2B2D",
"/6 	c #2B2A2C",
"(6 	c #262427",
"_6 	c #212023",
":6 	c #202022",
"<6 	c #242326",
"[6 	c #2C2E30",
"}6 	c #252629",
"|6 	c #333235",
"16 	c #3A3838",
"26 	c #423F3D",
"36 	c #4A4745",
"46 	c #565451",
"56 	c #5D5A57",
"66 	c #625F5B",
"76 	c #605D58",
"86 	c #6A6760",
"96 	c #77736B",
"06 	c #736D65",
"a6 	c #605D59",
"b6 	c #4D4C4A",
"c6 	c #52504B",
"d6 	c #3B3E3F",
"e6 	c #3C3E3B",
"f6 	c #303333",
"g6 	c #414343",
"h6 	c #35312F",
"i6 	c #3F3A35",
"j6 	c #817971",
"k6 	c #8D857C",
"l6 	c #878079",
"m6 	c #4E4E4B",
"n6 	c #545150",
"o6 	c #2F3233",
"p6 	c #2F3334",
"q6 	c #323637",
"r6 	c #353A3A",
"s6 	c #3E403E",
"t6 	c #5B5550",
"u6 	c #5F5852",
"v6 	c #514C44",
"w6 	c #47443C",
"x6 	c #403E38",
"y6 	c #393935",
"z6 	c #353733",
"A6 	c #333335",
"B6 	c #343537",
"C6 	c #313334",
"D6 	c #403F40",
"E6 	c #464445",
"F6 	c #434143",
"G6 	c #2F2D2F",
"H6 	c #262527",
"I6 	c #19191B",
"J6 	c #1F1F22",
"K6 	c #0F0E12",
"L6 	c #0D0C0F",
"M6 	c #0E0D10",
"N6 	c #191819",
"O6 	c #1C1A1B",
"P6 	c #141417",
"Q6 	c #423F3E",
"R6 	c #494944",
"S6 	c #454642",
"T6 	c #2D2E2C",
"U6 	c #252524",
"V6 	c #43413D",
"W6 	c #292B2C",
"X6 	c #4C4A47",
"Y6 	c #363432",
"Z6 	c #2E2E2D",
"`6 	c #444343",
" 7 	c #2D2B2A",
".7 	c #201F1D",
"+7 	c #151413",
"@7 	c #080808",
"#7 	c #3F3D3B",
"$7 	c #363435",
"%7 	c #30302E",
"&7 	c #60615F",
"*7 	c #626361",
"=7 	c #62625F",
"-7 	c #615F5E",
";7 	c #5F5E5B",
">7 	c #615F5D",
",7 	c #666561",
"'7 	c #666360",
")7 	c #635F5C",
"!7 	c #2B2A29",
"~7 	c #0D0D0D",
"{7 	c #070706",
"]7 	c #050504",
"^7 	c #030302",
"/7 	c #050305",
"(7 	c #040205",
"_7 	c #020102",
":7 	c #1B181B",
"<7 	c #2B282B",
"[7 	c #2A272A",
"}7 	c #201F21",
"|7 	c #282729",
"17 	c #2F2E30",
"27 	c #3C3A3A",
"37 	c #494543",
"47 	c #55514F",
"57 	c #5C5855",
"67 	c #767169",
"77 	c #77726A",
"87 	c #736D66",
"97 	c #767068",
"07 	c #77716A",
"a7 	c #736E69",
"b7 	c #63605D",
"c7 	c #4D4C4B",
"d7 	c #3B3837",
"e7 	c #3E3A37",
"f7 	c #433E39",
"g7 	c #5C554D",
"h7 	c #7A736A",
"i7 	c #888178",
"j7 	c #817B73",
"k7 	c #6E6A64",
"l7 	c #50504D",
"m7 	c #52514E",
"n7 	c #504D4B",
"o7 	c #313434",
"p7 	c #383C3C",
"q7 	c #3C3E3E",
"r7 	c #504C48",
"s7 	c #5A544E",
"t7 	c #4F4941",
"u7 	c #48443D",
"v7 	c #313331",
"w7 	c #333532",
"x7 	c #353633",
"y7 	c #343334",
"z7 	c #323334",
"A7 	c #3F3D3E",
"B7 	c #18191A",
"C7 	c #151617",
"D7 	c #222124",
"E7 	c #1A191C",
"F7 	c #141315",
"G7 	c #131113",
"H7 	c #131112",
"I7 	c #151415",
"J7 	c #191718",
"K7 	c #101013",
"L7 	c #595751",
"M7 	c #4F4E48",
"N7 	c #444640",
"O7 	c #40423D",
"P7 	c #4B4C48",
"Q7 	c #686460",
"R7 	c #68625D",
"S7 	c #69625B",
"T7 	c #5D5752",
"U7 	c #222322",
"V7 	c #44413E",
"W7 	c #494A48",
"X7 	c #34322F",
"Y7 	c #2B2A27",
"Z7 	c #252422",
"`7 	c #151514",
" 8 	c #0F1112",
".8 	c #3D3B3A",
"+8 	c #3D3A38",
"@8 	c #5B5B5A",
"#8 	c #5B5958",
"$8 	c #555452",
"%8 	c #575553",
"&8 	c #5A5855",
"*8 	c #5B5855",
"=8 	c #5B5955",
"-8 	c #1A1A1B",
";8 	c #060504",
">8 	c #050403",
",8 	c #010101",
"'8 	c #0A0709",
")8 	c #1D1A1C",
"!8 	c #2B292B",
"~8 	c #282628",
"{8 	c #252326",
"]8 	c #272628",
"^8 	c #101113",
"/8 	c #242427",
"(8 	c #393739",
"_8 	c #5F5B57",
":8 	c #615E58",
"<8 	c #6B6760",
"[8 	c #6C6861",
"}8 	c #6C6760",
"|8 	c #6F6C66",
"18 	c #4F4E49",
"28 	c #42433F",
"38 	c #322F2E",
"48 	c #2B2929",
"58 	c #4B4847",
"68 	c #504C49",
"78 	c #645D57",
"88 	c #6B6560",
"98 	c #4D4B4B",
"08 	c #53504F",
"a8 	c #494A46",
"b8 	c #534E4A",
"c8 	c #564F4B",
"d8 	c #575149",
"e8 	c #56524A",
"f8 	c #2A2C29",
"g8 	c #282A29",
"h8 	c #2E2E2C",
"i8 	c #403E3F",
"j8 	c #3E3D3D",
"k8 	c #1F1E21",
"l8 	c #242224",
"m8 	c #282526",
"n8 	c #282625",
"o8 	c #211F1F",
"p8 	c #201E1F",
"q8 	c #5B5651",
"r8 	c #57544F",
"s8 	c #615E59",
"t8 	c #645F5A",
"u8 	c #655E59",
"v8 	c #655E5A",
"w8 	c #615B56",
"x8 	c #454342",
"y8 	c #1D1E20",
"z8 	c #3E3B38",
"A8 	c #373835",
"B8 	c #2E302F",
"C8 	c #282A2C",
"D8 	c #2E2F2D",
"E8 	c #212221",
"F8 	c #1A1B1C",
"G8 	c #393835",
"H8 	c #2B2C2C",
"I8 	c #2E2C2C",
"J8 	c #222323",
"K8 	c #343335",
"L8 	c #535251",
"M8 	c #51504E",
"N8 	c #555350",
"O8 	c #292828",
"P8 	c #2A292B",
"Q8 	c #121111",
"R8 	c #0D0B0B",
"S8 	c #0D0C0B",
"T8 	c #100E0D",
"U8 	c #121110",
"V8 	c #0F0E0D",
"W8 	c #0A0808",
"X8 	c #080607",
"Y8 	c #0A090A",
"Z8 	c #0F0E10",
"`8 	c #181518",
" 9 	c #222022",
".9 	c #282627",
"+9 	c #2D2A2C",
"@9 	c #302D2F",
"#9 	c #2E2B2E",
"$9 	c #272527",
"%9 	c #29272A",
"&9 	c #2C2A2D",
"*9 	c #242225",
"=9 	c #121216",
"-9 	c #3F3D3C",
";9 	c #4A4746",
">9 	c #3A3734",
",9 	c #5B5653",
"'9 	c #5F5A57",
")9 	c #4D4944",
"!9 	c #504B47",
"~9 	c #54504B",
"{9 	c #322F2F",
"]9 	c #525151",
"^9 	c #615E5A",
"/9 	c #5D5854",
"(9 	c #57514E",
"_9 	c #5C5A54",
":9 	c #4A4A45",
"<9 	c #4B4B47",
"[9 	c #534D47",
"}9 	c #544F47",
"|9 	c #625C55",
"19 	c #625F59",
"29 	c #393B36",
"39 	c #222422",
"49 	c #1F2120",
"59 	c #232523",
"69 	c #282826",
"79 	c #292927",
"89 	c #2A2A28",
"99 	c #2C2C2B",
"09 	c #2C2C2A",
"a9 	c #323030",
"b9 	c #18171A",
"c9 	c #1C1C1E",
"d9 	c #2F2D2E",
"e9 	c #34312F",
"f9 	c #272526",
"g9 	c #494542",
"h9 	c #4D4C47",
"i9 	c #58534F",
"j9 	c #191B1D",
"k9 	c #373734",
"l9 	c #222326",
"m9 	c #232426",
"n9 	c #212121",
"o9 	c #222424",
"p9 	c #1A1C1F",
"q9 	c #393736",
"r9 	c #242426",
"s9 	c #403F3B",
"t9 	c #262526",
"u9 	c #232224",
"v9 	c #383638",
"w9 	c #2C2B29",
"x9 	c #2D2C2A",
"y9 	c #171514",
"z9 	c #181615",
"A9 	c #211F1D",
"B9 	c #272423",
"C9 	c #2A2726",
"D9 	c #242221",
"E9 	c #171414",
"F9 	c #0D0B0C",
"G9 	c #110E0F",
"H9 	c #161315",
"I9 	c #1B191C",
"J9 	c #201E21",
"K9 	c #232124",
"L9 	c #292729",
"M9 	c #2F2C2F",
"N9 	c #333133",
"O9 	c #312F31",
"P9 	c #2A282A",
"Q9 	c #2C2A2C",
"R9 	c #0D0E11",
"S9 	c #383636",
"T9 	c #2C2A29",
"U9 	c #201F1E",
"V9 	c #262523",
"W9 	c #2A2826",
"X9 	c #2E2C2B",
"Y9 	c #454241",
"Z9 	c #3C3B3C",
"`9 	c #504B46",
" 0 	c #524D47",
".0 	c #535049",
"+0 	c #524E48",
"@0 	c #55524A",
"#0 	c #514E47",
"$0 	c #4E4B45",
"%0 	c #484742",
"&0 	c #474742",
"*0 	c #494742",
"=0 	c #494641",
"-0 	c #4C4C4B",
";0 	c #555351",
">0 	c #5E5C59",
",0 	c #635F5D",
"'0 	c #5F5B59",
")0 	c #54504F",
"!0 	c #5A5650",
"~0 	c #5D5952",
"{0 	c #3B3D3A",
"]0 	c #4E4943",
"^0 	c #4F4943",
"/0 	c #554F49",
"(0 	c #5F5A54",
"_0 	c #51504B",
":0 	c #373834",
"<0 	c #1F201E",
"[0 	c #1D1E1D",
"}0 	c #262625",
"|0 	c #2A2927",
"10 	c #2A2928",
"20 	c #1B1A1C",
"30 	c #534E4B",
"40 	c #4A4542",
"50 	c #3E3938",
"60 	c #332F2F",
"70 	c #312E2E",
"80 	c #322F30",
"90 	c #101115",
"00 	c #1C1C20",
"a0 	c #323133",
"b0 	c #3C3939",
"c0 	c #484442",
"d0 	c #484645",
"e0 	c #4D4A48",
"f0 	c #17191B",
"g0 	c #3C3937",
"h0 	c #353532",
"i0 	c #212123",
"j0 	c #474544",
"k0 	c #1E2022",
"l0 	c #3E3C3C",
"m0 	c #353335",
"n0 	c #2B292C",
"o0 	c #2C2B2D",
"p0 	c #242323",
"q0 	c #1E1C1C",
"r0 	c #1D1A1B",
"s0 	c #201E1D",
"t0 	c #33302F",
"u0 	c #3A3636",
"v0 	c #363232",
"w0 	c #272424",
"x0 	c #1B191B",
"y0 	c #1D1A1D",
"z0 	c #242125",
"A0 	c #323032",
"B0 	c #302E30",
"C0 	c #424041",
"D0 	c #1E1E1E",
"E0 	c #3C3A3B",
"F0 	c #4D4943",
"G0 	c #524E47",
"H0 	c #514C45",
"I0 	c #534E46",
"J0 	c #4A4741",
"K0 	c #45423D",
"L0 	c #45433D",
"M0 	c #42413C",
"N0 	c #5C5853",
"O0 	c #44403F",
"P0 	c #5D5C5B",
"Q0 	c #5D5B5A",
"R0 	c #5B5857",
"S0 	c #4E4E49",
"T0 	c #514E48",
"U0 	c #504C45",
"V0 	c #524C45",
"W0 	c #565149",
"X0 	c #5C574D",
"Y0 	c #5B554D",
"Z0 	c #48443F",
"`0 	c #3E3D38",
" a 	c #3F403A",
".a 	c #4B4742",
"+a 	c #4C4742",
"@a 	c #504A46",
"#a 	c #282927",
"$a 	c #262726",
"%a 	c #2D2C2F",
"&a 	c #585452",
"*a 	c #635E5A",
"=a 	c #5E5854",
"-a 	c #54514F",
";a 	c #5E5A57",
">a 	c #5F5C58",
",a 	c #595653",
"'a 	c #3F3F3E",
")a 	c #373939",
"!a 	c #52504F",
"~a 	c #575656",
"{a 	c #3F4040",
"]a 	c #494948",
"^a 	c #494746",
"/a 	c #303033",
"(a 	c #3A3A3C",
"_a 	c #545350",
":a 	c #5C5B59",
"<a 	c #424142",
"[a 	c #4E4D4C",
"}a 	c #4C4C4A",
"|a 	c #3C3C3E",
"1a 	c #363637",
"2a 	c #272425",
"3a 	c #32302E",
"4a 	c #4D4948",
"5a 	c #494545",
"6a 	c #464242",
"7a 	c #413E3F",
"8a 	c #343133",
"9a 	c #484748",
"0a 	c #484647",
"aa 	c #444344",
"ba 	c #525251",
"ca 	c #4C4C4C",
"da 	c #515050",
"ea 	c #534D44",
"fa 	c #575248",
"ga 	c #5B554B",
"ha 	c #5E584E",
"ia 	c #5D574D",
"ja 	c #5E584D",
"ka 	c #5B564B",
"la 	c #514D43",
"ma 	c #454139",
"na 	c #444139",
"oa 	c #48463E",
"pa 	c #40403B",
"qa 	c #595550",
"ra 	c #4B4B4C",
"sa 	c #4B4A4A",
"ta 	c #524D46",
"ua 	c #625C51",
"va 	c #6D6559",
"wa 	c #6F675A",
"xa 	c #71685B",
"ya 	c #766D5F",
"za 	c #7D7466",
"Aa 	c #7E7669",
"Ba 	c #726B5E",
"Ca 	c #5B554A",
"Da 	c #4D483F",
"Ea 	c #4B4840",
"Fa 	c #4A4841",
"Ga 	c #4B4844",
"Ha 	c #5C5A58",
"Ia 	c #5A5956",
"Ja 	c #5C5C59",
"Ka 	c #595856",
"La 	c #595855",
"Ma 	c #595955",
"Na 	c #5F5F5B",
"Oa 	c #63625F",
"Pa 	c #656562",
"Qa 	c #5F5F5D",
"Ra 	c #464546",
"Sa 	c #474748",
"Ta 	c #444446",
"Ua 	c #75726B",
"Va 	c #837F77",
"Wa 	c #858078",
"Xa 	c #7F7A72",
"Ya 	c #77726B",
"Za 	c #6C6864",
"`a 	c #686461",
" b 	c #615F5C",
".b 	c #585958",
"+b 	c #636360",
"@b 	c #696965",
"#b 	c #696763",
"$b 	c #716D69",
"%b 	c #5D5D58",
"&b 	c #4D4D4B",
"*b 	c #545450",
"=b 	c #4E4F4C",
"-b 	c #646260",
";b 	c #686766",
">b 	c #6B6969",
",b 	c #605F5F",
"'b 	c #4F4E4E",
")b 	c #6A6761",
"!b 	c #68655F",
"~b 	c #585754",
"{b 	c #535352",
"]b 	c #61605D",
"^b 	c #62615E",
"/b 	c #5F5E5A",
"(b 	c #434244",
"_b 	c #4D4E4A",
":b 	c #62615D",
"<b 	c #686762",
"[b 	c #686661",
"}b 	c #575754",
"|b 	c #5C5A57",
"1b 	c #63635E",
"2b 	c #6A6A65",
"3b 	c #71706B",
"4b 	c #747470",
"5b 	c #757572",
"6b 	c #6B6C6A",
"7b 	c #565557",
"8b 	c #5B5A57",
"9b 	c #5F5E5C",
"0b 	c #605E5B",
"ab 	c #5B5C59",
"bb 	c #5F5F5C",
"cb 	c #60605E",
"db 	c #595857",
"eb 	c #4D4C4C",
"fb 	c #4C4B4C",
"gb 	c #65635C",
"hb 	c #6D6966",
"ib 	c #6C6966",
"jb 	c #686763",
"kb 	c #52514F",
"lb 	c #61615F",
"mb 	c #686765",
"nb 	c #6A6967",
"ob 	c #676764",
"pb 	c #666663",
"qb 	c #414241",
"rb 	c #505351",
"sb 	c #636361",
"tb 	c #595956",
"ub 	c #555454",
"vb 	c #5A5958",
"wb 	c #5F5E5D",
"xb 	c #5B5B58",
"yb 	c #61615D",
"zb 	c #656461",
"Ab 	c #656361",
"Bb 	c #544F45",
"Cb 	c #666052",
"Db 	c #72695A",
"Eb 	c #797060",
"Fb 	c #7E7566",
"Gb 	c #847D6C",
"Hb 	c #867E6D",
"Ib 	c #898070",
"Jb 	c #847C6E",
"Kb 	c #71695C",
"Lb 	c #564F43",
"Mb 	c #4D473D",
"Nb 	c #504B42",
"Ob 	c #54524C",
"Pb 	c #544F4C",
"Qb 	c #413F40",
"Rb 	c #56524F",
"Sb 	c #5B5652",
"Tb 	c #4F4A42",
"Ub 	c #595246",
"Vb 	c #8A8172",
"Wb 	c #AAA08E",
"Xb 	c #B1A592",
"Yb 	c #B3A693",
"Zb 	c #B8AB96",
"`b 	c #BAAE99",
" c 	c #BEB29F",
".c 	c #C1B6A3",
"+c 	c #ADA491",
"@c 	c #847B6A",
"#c 	c #686051",
"$c 	c #665E51",
"%c 	c #413E39",
"&c 	c #474341",
"*c 	c #666562",
"=c 	c #6E6C6A",
"-c 	c #6E6C69",
";c 	c #6D6B68",
">c 	c #666462",
",c 	c #5C5B58",
"'c 	c #605E5C",
")c 	c #666563",
"!c 	c #696865",
"~c 	c #676663",
"{c 	c #656561",
"]c 	c #646460",
"^c 	c #696863",
"/c 	c #6B6A65",
"(c 	c #6F6E6A",
"_c 	c #72706E",
":c 	c #6C6A68",
"<c 	c #4F4F50",
"[c 	c #7F7B72",
"}c 	c #8D897F",
"|c 	c #8E8A80",
"1c 	c #89837A",
"2c 	c #7E7971",
"3c 	c #6C6762",
"4c 	c #65615E",
"5c 	c #5D5C59",
"6c 	c #363739",
"7c 	c #61615E",
"8c 	c #75736F",
"9c 	c #75726D",
"0c 	c #74716B",
"ac 	c #76736D",
"bc 	c #76736E",
"cc 	c #6E6C67",
"dc 	c #5D5956",
"ec 	c #6B6865",
"fc 	c #716F6D",
"gc 	c #656362",
"hc 	c #535150",
"ic 	c #65625D",
"jc 	c #75706B",
"kc 	c #78736C",
"lc 	c #74716A",
"mc 	c #6F6D68",
"nc 	c #605F5C",
"oc 	c #6B6A67",
"pc 	c #6C6A67",
"qc 	c #696764",
"rc 	c #5C5A59",
"sc 	c #413F41",
"tc 	c #5C5A56",
"uc 	c #343436",
"vc 	c #555352",
"wc 	c #565452",
"xc 	c #545250",
"yc 	c #706E68",
"zc 	c #6C6964",
"Ac 	c #5D5B55",
"Bc 	c #5E5C57",
"Cc 	c #75746E",
"Dc 	c #7A7972",
"Ec 	c #7A7973",
"Fc 	c #7B7A76",
"Gc 	c #6F6E6C",
"Hc 	c #575555",
"Ic 	c #4D4B4C",
"Jc 	c #5A5959",
"Kc 	c #626161",
"Lc 	c #615F5F",
"Mc 	c #61605C",
"Nc 	c #686562",
"Oc 	c #676561",
"Pc 	c #5E5D5A",
"Qc 	c #5E5D5B",
"Rc 	c #646461",
"Sc 	c #5A5957",
"Tc 	c #565453",
"Uc 	c #5B5851",
"Vc 	c #706D66",
"Wc 	c #726F67",
"Xc 	c #6A6860",
"Yc 	c #69675F",
"Zc 	c #716E67",
"`c 	c #77746E",
" d 	c #77736E",
".d 	c #74726C",
"+d 	c #716F6A",
"@d 	c #6F6B67",
"#d 	c #686561",
"$d 	c #797874",
"%d 	c #7C7B76",
"&d 	c #787773",
"*d 	c #75746F",
"=d 	c #6C6B68",
"-d 	c #656462",
";d 	c #494847",
">d 	c #646361",
",d 	c #6A6A67",
"'d 	c #63615E",
")d 	c #3D3B37",
"!d 	c #666461",
"~d 	c #706D6A",
"{d 	c #6B6866",
"]d 	c #575650",
"^d 	c #57534B",
"/d 	c #534E42",
"(d 	c #665F50",
"_d 	c #8D8471",
":d 	c #A49983",
"<d 	c #ACA18A",
"[d 	c #B2A58F",
"}d 	c #B8AB94",
"|d 	c #B9AD96",
"1d 	c #BDB19C",
"2d 	c #BAAF9C",
"3d 	c #A09684",
"4d 	c #786E5F",
"5d 	c #63594C",
"6d 	c #5E564B",
"7d 	c #554F46",
"8d 	c #49453D",
"9d 	c #46433C",
"0d 	c #44433E",
"ad 	c #4A4842",
"bd 	c #262727",
"cd 	c #4A4847",
"dd 	c #57514A",
"ed 	c #4D463D",
"fd 	c #5B5244",
"gd 	c #A09482",
"hd 	c #C9BDA7",
"id 	c #D0C3AB",
"jd 	c #D0C2AB",
"kd 	c #D4C5AD",
"ld 	c #D4C6AE",
"md 	c #D6CAB3",
"nd 	c #DBCEB8",
"od 	c #C5B8A4",
"pd 	c #938774",
"qd 	c #726754",
"rd 	c #706554",
"sd 	c #665E4F",
"td 	c #4E493F",
"ud 	c #3A3631",
"vd 	c #363431",
"wd 	c #6F6C69",
"xd 	c #6D6A67",
"yd 	c #676462",
"zd 	c #64615E",
"Ad 	c #6A6865",
"Bd 	c #696864",
"Cd 	c #676662",
"Dd 	c #696762",
"Ed 	c #6F6D69",
"Fd 	c #4F4D4C",
"Gd 	c #4A4849",
"Hd 	c #3B3836",
"Id 	c #403E3A",
"Jd 	c #4B4843",
"Kd 	c #807A72",
"Ld 	c #8B877D",
"Md 	c #8C877D",
"Nd 	c #868077",
"Od 	c #7C766F",
"Pd 	c #66625E",
"Qd 	c #5E5B59",
"Rd 	c #65635F",
"Sd 	c #706E69",
"Td 	c #75726C",
"Ud 	c #74706A",
"Vd 	c #716F69",
"Wd 	c #6B6963",
"Xd 	c #4E4E4A",
"Yd 	c #484843",
"Zd 	c #575551",
"`d 	c #63625E",
" e 	c #6F6C68",
".e 	c #6F6D6A",
"+e 	c #62605E",
"@e 	c #454240",
"#e 	c #7A756F",
"$e 	c #79736D",
"%e 	c #77726C",
"&e 	c #736F69",
"*e 	c #6C6965",
"=e 	c #6D6C69",
"-e 	c #706E6B",
";e 	c #5D5B56",
">e 	c #50504C",
",e 	c #6F6B64",
"'e 	c #5E5B54",
")e 	c #727069",
"!e 	c #78766F",
"~e 	c #797771",
"{e 	c #6E6C68",
"]e 	c #5B5A59",
"^e 	c #63615F",
"/e 	c #5A5856",
"(e 	c #555250",
"_e 	c #65635B",
":e 	c #6E6B64",
"<e 	c #716E68",
"[e 	c #403E39",
"}e 	c #6D6C67",
"|e 	c #767670",
"1e 	c #74736E",
"2e 	c #71706C",
"3e 	c #6A6966",
"4e 	c #5D5D5A",
"5e 	c #656360",
"6e 	c #6A6965",
"7e 	c #666460",
"8e 	c #5F5D59",
"9e 	c #5B5A56",
"0e 	c #423F3A",
"ae 	c #3D3B34",
"be 	c #3B3933",
"ce 	c #6A6764",
"de 	c #706D68",
"ee 	c #716E6A",
"fe 	c #5B584F",
"ge 	c #5A5449",
"he 	c #554E40",
"ie 	c #716756",
"je 	c #A59983",
"ke 	c #C2B59B",
"le 	c #C8BBA1",
"me 	c #CBBDA4",
"ne 	c #D0C2A7",
"oe 	c #D0C1A7",
"pe 	c #D2C6AC",
"qe 	c #D4C7B1",
"re 	c #B9AC99",
"se 	c #8B7F6E",
"te 	c #726757",
"ue 	c #675D50",
"ve 	c #564D42",
"we 	c #413B32",
"xe 	c #3A362F",
"ye 	c #242524",
"ze 	c #595349",
"Ae 	c #50493E",
"Be 	c #5D5646",
"Ce 	c #9F9581",
"De 	c #C9BBA6",
"Ee 	c #D0C2AA",
"Fe 	c #CFC0A9",
"Ge 	c #D2C2AB",
"He 	c #D1C3AB",
"Ie 	c #D3C6AF",
"Je 	c #D8CAB5",
"Ke 	c #C0B39F",
"Le 	c #8D816E",
"Me 	c #6E624F",
"Ne 	c #6C614E",
"Oe 	c #635A49",
"Pe 	c #4D463B",
"Qe 	c #393431",
"Re 	c #343230",
"Se 	c #585551",
"Te 	c #605E5A",
"Ue 	c #353330",
"Ve 	c #34322E",
"We 	c #383731",
"Xe 	c #44423B",
"Ye 	c #757068",
"Ze 	c #7E7B72",
"`e 	c #78746C",
" f 	c #6F6C65",
".f 	c #5C5955",
"+f 	c #2A2B29",
"@f 	c #5C5B55",
"#f 	c #65645D",
"$f 	c #62605B",
"%f 	c #4C4B45",
"&f 	c #53534E",
"*f 	c #32312E",
"=f 	c #312F2D",
"-f 	c #423F3C",
";f 	c #6A6661",
">f 	c #67645E",
",f 	c #65615D",
"'f 	c #5F5E59",
")f 	c #53524C",
"!f 	c #474540",
"~f 	c #4D4B45",
"{f 	c #58554E",
"]f 	c #605D55",
"^f 	c #5E5C53",
"/f 	c #56534C",
"(f 	c #54524A",
"_f 	c #53514A",
":f 	c #514F49",
"<f 	c #4F4D47",
"[f 	c #585750",
"}f 	c #616059",
"|f 	c #68675F",
"1f 	c #6A6962",
"2f 	c #6B6A64",
"3f 	c #565652",
"4f 	c #555553",
"5f 	c #484741",
"6f 	c #4E4D47",
"7f 	c #585650",
"8f 	c #615F5A",
"9f 	c #66655F",
"0f 	c #65645E",
"af 	c #61605A",
"bf 	c #353530",
"cf 	c #363530",
"df 	c #5B5B56",
"ef 	c #393934",
"ff 	c #343430",
"gf 	c #5A5A55",
"hf 	c #4E4D49",
"if 	c #53524D",
"jf 	c #565550",
"kf 	c #51504A",
"lf 	c #3C3A34",
"mf 	c #38362F",
"nf 	c #33312A",
"of 	c #32302A",
"pf 	c #524F49",
"qf 	c #5E5B50",
"rf 	c #5C574A",
"sf 	c #57503F",
"tf 	c #736955",
"uf 	c #A79B85",
"vf 	c #C4B79D",
"wf 	c #C8BAA2",
"xf 	c #CDBFA5",
"yf 	c #CDBFA6",
"zf 	c #D1C4AC",
"Af 	c #CFC1AC",
"Bf 	c #B2A592",
"Cf 	c #887D6B",
"Df 	c #736757",
"Ef 	c #695E50",
"Ff 	c #564E41",
"Gf 	c #3F392F",
"Hf 	c #3A352E",
"If 	c #42403B",
"Jf 	c #292B2A",
"Kf 	c #2F3231",
"Lf 	c #49453F",
"Mf 	c #60564D",
"Nf 	c #584F44",
"Of 	c #605547",
"Pf 	c #998D7B",
"Qf 	c #C0B39D",
"Rf 	c #C6B8A2",
"Sf 	c #C3B5A0",
"Tf 	c #C5B6A0",
"Uf 	c #C5B7A1",
"Vf 	c #C9BAA5",
"Wf 	c #CEBEAA",
"Xf 	c #B5A793",
"Yf 	c #857965",
"Zf 	c #6C5F4C",
"`f 	c #6A5E4C",
" g 	c #615746",
".g 	c #4B4439",
"+g 	c #383431",
"@g 	c #43403C",
"#g 	c #35322E",
"$g 	c #312F2C",
"%g 	c #302E2B",
"&g 	c #2D2C28",
"*g 	c #2F2E2C",
"=g 	c #31302C",
"-g 	c #33322E",
";g 	c #353431",
">g 	c #22211F",
",g 	c #1E1C19",
"'g 	c #1E1C18",
")g 	c #1E1D19",
"!g 	c #21201C",
"~g 	c #292823",
"{g 	c #393731",
"]g 	c #4F4C45",
"^g 	c #45423C",
"/g 	c #3B3935",
"(g 	c #393633",
"_g 	c #1A1A18",
":g 	c #22221F",
"<g 	c #35342F",
"[g 	c #383631",
"}g 	c #393833",
"|g 	c #3A3833",
"1g 	c #383733",
"2g 	c #34332F",
"3g 	c #302F2B",
"4g 	c #2A2926",
"5g 	c #272724",
"6g 	c #262522",
"7g 	c #252522",
"8g 	c #252421",
"9g 	c #262421",
"0g 	c #262521",
"ag 	c #282622",
"bg 	c #292722",
"cg 	c #2A2924",
"dg 	c #2A2925",
"eg 	c #2B2925",
"fg 	c #2B2A25",
"gg 	c #2A2824",
"hg 	c #272523",
"ig 	c #242220",
"jg 	c #23211F",
"kg 	c #23221F",
"lg 	c #232220",
"mg 	c #242320",
"ng 	c #262623",
"og 	c #292925",
"pg 	c #2B2B28",
"qg 	c #2D2D29",
"rg 	c #2C2B28",
"sg 	c #282724",
"tg 	c #1F1F1D",
"ug 	c #1C1A18",
"vg 	c #1A1917",
"wg 	c #1A1816",
"xg 	c #1B1A18",
"yg 	c #1C1B19",
"zg 	c #1E1E1B",
"Ag 	c #1F1E1C",
"Bg 	c #21201D",
"Cg 	c #22201D",
"Dg 	c #2C2926",
"Eg 	c #32302D",
"Fg 	c #2D2B29",
"Gg 	c #22211E",
"Hg 	c #272522",
"Ig 	c #2D2B28",
"Jg 	c #363430",
"Kg 	c #3B3834",
"Lg 	c #3C3935",
"Mg 	c #33322F",
"Ng 	c #252423",
"Og 	c #31302D",
"Pg 	c #21201E",
"Qg 	c #181716",
"Rg 	c #1E1D1B",
"Sg 	c #292723",
"Tg 	c #312F29",
"Ug 	c #2D2C27",
"Vg 	c #23231F",
"Wg 	c #1F1E1B",
"Xg 	c #232320",
"Yg 	c #2B2B27",
"Zg 	c #292822",
"`g 	c #2C2A25",
" h 	c #34322C",
".h 	c #35332C",
"+h 	c #36342D",
"@h 	c #35332D",
"#h 	c #34322B",
"$h 	c #302F29",
"%h 	c #2F2E28",
"&h 	c #2E2D27",
"*h 	c #2D2B26",
"=h 	c #2D2B27",
"-h 	c #302E2A",
";h 	c #33332E",
">h 	c #383732",
",h 	c #3C3B35",
"'h 	c #3D3B36",
")h 	c #282624",
"!h 	c #2F2E2B",
"~h 	c #2F2F2B",
"{h 	c #2D2D2A",
"]h 	c #302F2D",
"^h 	c #32322F",
"/h 	c #323330",
"(h 	c #2F2F2C",
"_h 	c #2C2C28",
":h 	c #2B2A26",
"<h 	c #2D2D28",
"[h 	c #33322D",
"}h 	c #383632",
"|h 	c #363531",
"1h 	c #2F2F2A",
"2h 	c #272622",
"3h 	c #1C1B18",
"4h 	c #2E2D2A",
"5h 	c #31312D",
"6h 	c #30302C",
"7h 	c #2D2C29",
"8h 	c #282825",
"9h 	c #1D1D19",
"0h 	c #1B1B18",
"ah 	c #1E1E1A",
"bh 	c #2A2A27",
"ch 	c #2E2E2A",
"dh 	c #24231E",
"eh 	c #1B1914",
"fh 	c #181611",
"gh 	c #181612",
"hh 	c #1F1E1A",
"ih 	c #454547",
"jh 	c #4C4941",
"kh 	c #5C574C",
"lh 	c #60594B",
"mh 	c #595041",
"nh 	c #6B604E",
"oh 	c #938873",
"ph 	c #AA9D87",
"qh 	c #AFA28C",
"rh 	c #AFA28E",
"sh 	c #B4A791",
"th 	c #B6A893",
"uh 	c #BCAE9A",
"vh 	c #B9AB98",
"wh 	c #9A8D7B",
"xh 	c #786C5B",
"yh 	c #6D6151",
"zh 	c #655A4C",
"Ah 	c #544A3E",
"Bh 	c #3F372C",
"Ch 	c #3B352F",
"Dh 	c #44423D",
"Eh 	c #333634",
"Fh 	c #373937",
"Gh 	c #41403B",
"Hh 	c #5A534A",
"Ih 	c #6E6458",
"Jh 	c #6D6254",
"Kh 	c #6F6453",
"Lh 	c #938875",
"Mh 	c #AFA48F",
"Nh 	c #B4A894",
"Oh 	c #B4A693",
"Ph 	c #B5A995",
"Qh 	c #B5A895",
"Rh 	c #B8AA97",
"Sh 	c #BDAD9B",
"Th 	c #A79A86",
"Uh 	c #807560",
"Vh 	c #736851",
"Wh 	c #726752",
"Xh 	c #645C49",
"Yh 	c #4B463A",
"Zh 	c #383430",
"`h 	c #484640",
" i 	c #15130F",
".i 	c #0E0D09",
"+i 	c #0D0B08",
"@i 	c #0C0B08",
"#i 	c #0A0806",
"$i 	c #090806",
"%i 	c #070605",
"&i 	c #080706",
"*i 	c #090907",
"=i 	c #0C0A09",
"-i 	c #0B0A08",
";i 	c #0B0A09",
">i 	c #0A0A08",
",i 	c #0C0B09",
"'i 	c #0C0B0A",
")i 	c #0D0C0A",
"!i 	c #0B0908",
"~i 	c #090807",
"{i 	c #070503",
"]i 	c #13110E",
"^i 	c #191713",
"/i 	c #1B1915",
"(i 	c #1B1A15",
"_i 	c #191814",
":i 	c #171511",
"<i 	c #14120F",
"[i 	c #13120F",
"}i 	c #12110E",
"|i 	c #11100D",
"1i 	c #070705",
"2i 	c #0B0A07",
"3i 	c #0F0D0A",
"4i 	c #0F0D0C",
"5i 	c #0E0B0A",
"6i 	c #0C0A08",
"7i 	c #080705",
"8i 	c #090704",
"9i 	c #090805",
"0i 	c #0A0805",
"ai 	c #0B0806",
"bi 	c #080606",
"ci 	c #070505",
"di 	c #0A0907",
"ei 	c #0A0906",
"fi 	c #080605",
"gi 	c #090706",
"hi 	c #0E0C0A",
"ii 	c #100D0B",
"ji 	c #0E0D0A",
"ki 	c #0D0C09",
"li 	c #0C0A07",
"mi 	c #0E0C08",
"ni 	c #0E0B09",
"oi 	c #080604",
"pi 	c #060404",
"qi 	c #0B0906",
"ri 	c #0F0D08",
"si 	c #0F0E09",
"ti 	c #0C0B07",
"ui 	c #0A0A07",
"vi 	c #0B0907",
"wi 	c #0D0B07",
"xi 	c #0D0C08",
"yi 	c #0E0D0B",
"zi 	c #100F0B",
"Ai 	c #11100C",
"Bi 	c #110F0C",
"Ci 	c #0D0B0A",
"Di 	c #0F0E0B",
"Ei 	c #0F0E0C",
"Fi 	c #0E0E0C",
"Gi 	c #0C0C09",
"Hi 	c #0D0B09",
"Ii 	c #0B0B08",
"Ji 	c #050503",
"Ki 	c #0A0807",
"Li 	c #040302",
"Mi 	c #040201",
"Ni 	c #030201",
"Oi 	c #262420",
"Pi 	c #5C5952",
"Qi 	c #414441",
"Ri 	c #3D3D38",
"Si 	c #46443B",
"Ti 	c #5D584C",
"Ui 	c #6A6254",
"Vi 	c #655B4C",
"Wi 	c #6A604F",
"Xi 	c #827764",
"Yi 	c #908572",
"Zi 	c #998E7B",
"`i 	c #9B907E",
" j 	c #A09583",
".j 	c #A39784",
"+j 	c #A99C8A",
"@j 	c #A89B89",
"#j 	c #8A7E6C",
"$j 	c #6E6353",
"%j 	c #6C6151",
"&j 	c #675D4E",
"*j 	c #534A3D",
"=j 	c #3E372C",
"-j 	c #3B372F",
";j 	c #47443E",
">j 	c #3A3D3B",
",j 	c #3F3C35",
"'j 	c #5C554B",
")j 	c #796F62",
"!j 	c #7E7364",
"~j 	c #7B705F",
"{j 	c #8C8270",
"]j 	c #A29886",
"^j 	c #ABA190",
"/j 	c #ACA191",
"(j 	c #AEA293",
"_j 	c #ADA292",
":j 	c #AFA594",
"<j 	c #B3A796",
"[j 	c #9E9280",
"}j 	c #7B715C",
"|j 	c #726852",
"1j 	c #726853",
"2j 	c #625A49",
"3j 	c #484338",
"4j 	c #35312E",
"5j 	c #4D4B44",
"6j 	c #6C6963",
"7j 	c #2F2D28",
"8j 	c #010000",
"9j 	c #010100",
"0j 	c #020100",
"aj 	c #030100",
"bj 	c #020000",
"cj 	c #010001",
"dj 	c #1C1917",
"ej 	c #615C55",
"fj 	c #5A5550",
"gj 	c #4B4B4B",
"hj 	c #47474A",
"ij 	c #414442",
"jj 	c #3A3A35",
"kj 	c #424038",
"lj 	c #726A5C",
"mj 	c #71685A",
"nj 	c #716859",
"oj 	c #7E7766",
"pj 	c #898272",
"qj 	c #938C7D",
"rj 	c #968D81",
"sj 	c #9B9485",
"tj 	c #9E9585",
"uj 	c #A49B8B",
"vj 	c #A39989",
"wj 	c #877C6C",
"xj 	c #6E6355",
"yj 	c #6B6052",
"zj 	c #675D4F",
"Aj 	c #50483B",
"Bj 	c #393228",
"Cj 	c #37322A",
"Dj 	c #44413C",
"Ej 	c #282928",
"Fj 	c #403F3A",
"Gj 	c #3E3B34",
"Hj 	c #776E62",
"Ij 	c #7F7364",
"Jj 	c #786C5E",
"Kj 	c #7F7466",
"Lj 	c #8F8678",
"Mj 	c #958D80",
"Nj 	c #948C81",
"Oj 	c #958D83",
"Pj 	c #958E83",
"Qj 	c #989086",
"Rj 	c #9B9386",
"Sj 	c #898171",
"Tj 	c #706756",
"Uj 	c #675E4D",
"Vj 	c #595242",
"Wj 	c #423E34",
"Xj 	c #33302E",
"Yj 	c #4B4842",
"Zj 	c #56544D",
"`j 	c #66635C",
" k 	c #605C55",
".k 	c #31302B",
"+k 	c #020201",
"@k 	c #1C1A17",
"#k 	c #4B4841",
"$k 	c #666158",
"%k 	c #696259",
"&k 	c #605A52",
"*k 	c #454648",
"=k 	c #444745",
"-k 	c #414039",
";k 	c #58544A",
">k 	c #6A6559",
",k 	c #6D655A",
"'k 	c #6C655A",
")k 	c #736E63",
"!k 	c #777269",
"~k 	c #7B776F",
"{k 	c #79756E",
"]k 	c #7D7971",
"^k 	c #878279",
"/k 	c #898378",
"(k 	c #777065",
"_k 	c #686155",
":k 	c #696054",
"<k 	c #635A4D",
"[k 	c #4A4337",
"}k 	c #322C22",
"|k 	c #322D25",
"1k 	c #474847",
"2k 	c #444644",
"3k 	c #434542",
"4k 	c #3C3932",
"5k 	c #544E46",
"6k 	c #71685D",
"7k 	c #776C5F",
"8k 	c #716559",
"9k 	c #70665B",
"0k 	c #70695F",
"ak 	c #605B58",
"bk 	c #5F5B58",
"ck 	c #625E5A",
"dk 	c #67615B",
"ek 	c #635C52",
"fk 	c #60584C",
"gk 	c #645B4C",
"hk 	c #5F5749",
"ik 	c #4F493D",
"jk 	c #3A372F",
"kk 	c #313130",
"lk 	c #635F58",
"mk 	c #32312B",
"nk 	c #010002",
"ok 	c #010102",
"pk 	c #030202",
"qk 	c #030204",
"rk 	c #040204",
"sk 	c #040203",
"tk 	c #020103",
"uk 	c #020001",
"vk 	c #040306",
"wk 	c #211E1A",
"xk 	c #787165",
"yk 	c #7B7365",
"zk 	c #6F685B",
"Ak 	c #5D584F",
"Bk 	c #454447",
"Ck 	c #464648",
"Dk 	c #3F423F",
"Ek 	c #3F3D39",
"Fk 	c #5E5A51",
"Gk 	c #625C54",
"Hk 	c #625E59",
"Ik 	c #595655",
"Jk 	c #5D5851",
"Kk 	c #585149",
"Lk 	c #3D372E",
"Mk 	c #251F18",
"Nk 	c #26211B",
"Ok 	c #39352F",
"Pk 	c #514B43",
"Qk 	c #71695D",
"Rk 	c #73695E",
"Sk 	c #6F665E",
"Tk 	c #4A4644",
"Uk 	c #393638",
"Vk 	c #353337",
"Wk 	c #353336",
"Xk 	c #3A3739",
"Yk 	c #423E3E",
"Zk 	c #5C564D",
"`k 	c #676154",
" l 	c #625D50",
".l 	c #4F4B41",
"+l 	c #37342E",
"@l 	c #3C3934",
"#l 	c #747169",
"$l 	c #5D5A53",
"%l 	c #35342D",
"&l 	c #020104",
"*l 	c #09070B",
"=l 	c #07070A",
"-l 	c #08060A",
";l 	c #09070A",
">l 	c #09080B",
",l 	c #0A080B",
"'l 	c #0A090B",
")l 	c #0B090C",
"!l 	c #0C0A0B",
"~l 	c #0B0A0B",
"{l 	c #0B0A0D",
"]l 	c #0B0A0E",
"^l 	c #0C0B0F",
"/l 	c #0D0B0F",
"(l 	c #0E0B0F",
"_l 	c #100E0F",
":l 	c #120F10",
"<l 	c #0E0B0B",
"[l 	c #070709",
"}l 	c #0A090D",
"|l 	c #0B090E",
"1l 	c #0A080E",
"2l 	c #0A080D",
"3l 	c #09080D",
"4l 	c #09070D",
"5l 	c #0B090D",
"6l 	c #0C0A0D",
"7l 	c #0C0B0D",
"8l 	c #0D0B0E",
"9l 	c #08080A",
"0l 	c #070607",
"al 	c #080608",
"bl 	c #090708",
"cl 	c #090709",
"dl 	c #080609",
"el 	c #09080C",
"fl 	c #0C090C",
"gl 	c #0D0B0D",
"hl 	c #0F0D10",
"il 	c #0E0D0F",
"jl 	c #121112",
"kl 	c #080809",
"ll 	c #090908",
"ml 	c #0D0C0E",
"nl 	c #0E0C0F",
"ol 	c #0B080B",
"pl 	c #0C0B0E",
"ql 	c #050406",
"rl 	c #030101",
"sl 	c #26241F",
"tl 	c #635F55",
"ul 	c #8A8273",
"vl 	c #8F8574",
"wl 	c #807667",
"xl 	c #665F54",
"yl 	c #404042",
"zl 	c #414143",
"Al 	c #414342",
"Bl 	c #3D403D",
"Cl 	c #5C5951",
"Dl 	c #615D56",
"El 	c #39393D",
"Fl 	c #2C2E33",
"Gl 	c #2A2B31",
"Hl 	c #323336",
"Il 	c #322E28",
"Jl 	c #17130D",
"Kl 	c #181410",
"Ll 	c #2E2C29",
"Ml 	c #302E2D",
"Nl 	c #2B2D2B",
"Ol 	c #222423",
"Pl 	c #1E2020",
"Ql 	c #1C1D1D",
"Rl 	c #434543",
"Sl 	c #4C4740",
"Tl 	c #7B7468",
"Ul 	c #776F65",
"Vl 	c #323135",
"Wl 	c #2D2C33",
"Xl 	c #2C2C32",
"Yl 	c #313035",
"Zl 	c #363437",
"`l 	c #57554F",
" m 	c #66635B",
".m 	c #626057",
"+m 	c #4D4A42",
"@m 	c #23221D",
"#m 	c #35322C",
"$m 	c #5D5954",
"%m 	c #7C7871",
"&m 	c #7F7C74",
"*m 	c #7B7770",
"=m 	c #76726B",
"-m 	c #37352F",
";m 	c #010003",
">m 	c #030206",
",m 	c #09090E",
"'m 	c #0F0F13",
")m 	c #100F14",
"!m 	c #0F0F14",
"~m 	c #0F0E13",
"{m 	c #0F0D12",
"]m 	c #100E13",
"^m 	c #100F13",
"/m 	c #110F13",
"(m 	c #111013",
"_m 	c #111014",
":m 	c #111114",
"<m 	c #121114",
"[m 	c #121115",
"}m 	c #131115",
"|m 	c #121116",
"1m 	c #121117",
"2m 	c #121217",
"3m 	c #131216",
"4m 	c #181719",
"5m 	c #1C191C",
"6m 	c #161415",
"7m 	c #121018",
"8m 	c #100F17",
"9m 	c #100F16",
"0m 	c #100E16",
"am 	c #100F15",
"bm 	c #110F15",
"cm 	c #111015",
"dm 	c #131114",
"em 	c #100F11",
"fm 	c #0E0D11",
"gm 	c #0D0C10",
"hm 	c #0E0C10",
"im 	c #100F12",
"jm 	c #0A0A0C",
"km 	c #0E0E11",
"lm 	c #0F0E14",
"mm 	c #100E14",
"nm 	c #0F0D11",
"om 	c #100E12",
"pm 	c #121014",
"qm 	c #131116",
"rm 	c #141216",
"sm 	c #141317",
"tm 	c #141318",
"um 	c #151318",
"vm 	c #151418",
"wm 	c #1B1A1D",
"xm 	c #1A191B",
"ym 	c #18171B",
"zm 	c #17161A",
"Am 	c #161519",
"Bm 	c #101014",
"Cm 	c #292621",
"Dm 	c #696459",
"Em 	c #908878",
"Fm 	c #978C79",
"Gm 	c #696155",
"Hm 	c #3B3A3C",
"Im 	c #3C3F3D",
"Jm 	c #575755",
"Km 	c #333539",
"Lm 	c #2A2D33",
"Mm 	c #272A31",
"Nm 	c #26282E",
"Om 	c #282B30",
"Pm 	c #2C2E32",
"Qm 	c #393B3D",
"Rm 	c #141617",
"Sm 	c #111212",
"Tm 	c #3F4140",
"Um 	c #424442",
"Vm 	c #252420",
"Wm 	c #3C3733",
"Xm 	c #5E5953",
"Ym 	c #2B2A30",
"Zm 	c #28272E",
"`m 	c #26272D",
" n 	c #27282D",
".n 	c #27272C",
"+n 	c #3A3934",
"@n 	c #292824",
"#n 	c #5A5851",
"$n 	c #7D7A73",
"%n 	c #87847C",
"&n 	c #827F77",
"*n 	c #7C7972",
"=n 	c #393732",
"-n 	c #010104",
";n 	c #030307",
">n 	c #0B0B10",
",n 	c #111217",
"'n 	c #111218",
")n 	c #101117",
"!n 	c #101016",
"~n 	c #0F1016",
"{n 	c #0F1015",
"]n 	c #0F0F15",
"^n 	c #0F0E15",
"/n 	c #111016",
"(n 	c #111116",
"_n 	c #131217",
":n 	c #131318",
"<n 	c #141319",
"[n 	c #151419",
"}n 	c #141419",
"|n 	c #131319",
"1n 	c #13131A",
"2n 	c #13121A",
"3n 	c #121219",
"4n 	c #15151A",
"5n 	c #1C1A1D",
"6n 	c #1F1C1F",
"7n 	c #191719",
"8n 	c #14141B",
"9n 	c #14131B",
"0n 	c #121119",
"an 	c #111118",
"bn 	c #111018",
"cn 	c #111017",
"dn 	c #0F0F11",
"en 	c #0F0F12",
"fn 	c #0E0D12",
"gn 	c #101015",
"hn 	c #121218",
"in 	c #121118",
"jn 	c #101017",
"kn 	c #131218",
"ln 	c #141219",
"mn 	c #14131A",
"nn 	c #15141A",
"on 	c #151519",
"pn 	c #1D1C20",
"qn 	c #09090B",
"rn 	c #090909",
"sn 	c #1F1E20",
"tn 	c #1B1B1F",
"un 	c #1A1A1E",
"vn 	c #19191E",
"wn 	c #18181C",
"xn 	c #17171B",
"yn 	c #16161A",
"zn 	c #111117",
"An 	c #060609",
"Bn 	c #292622",
"Cn 	c #908977",
"Dn 	c #978C78",
"En 	c #686053",
"Fn 	c #46423E",
"Gn 	c #393B3B",
"Hn 	c #353639",
"In 	c #2A2D31",
"Jn 	c #24272D",
"Kn 	c #23252C",
"Ln 	c #1F2128",
"Mn 	c #1E1F25",
"Nn 	c #1C1E23",
"On 	c #222528",
"Pn 	c #171717",
"Qn 	c #191B1C",
"Rn 	c #131617",
"Sn 	c #181715",
"Tn 	c #211E1D",
"Un 	c #312D2B",
"Vn 	c #34302E",
"Wn 	c #302E2C",
"Xn 	c #2F2C2D",
"Yn 	c #282629",
"Zn 	c #222226",
"`n 	c #1E1E25",
" o 	c #1D1D25",
".o 	c #1C1C24",
"+o 	c #1B1C23",
"@o 	c #18181F",
"#o 	c #17171C",
"$o 	c #0D0D0C",
"%o 	c #383630",
"&o 	c #54514B",
"*o 	c #78756F",
"=o 	c #87837C",
"-o 	c #817D77",
";o 	c #7B7871",
">o 	c #000003",
",o 	c #010105",
"'o 	c #08080E",
")o 	c #0F1017",
"!o 	c #0E0F16",
"~o 	c #0E0E15",
"{o 	c #0E0D15",
"]o 	c #0E0D14",
"^o 	c #0E0E14",
"/o 	c #131117",
"(o 	c #14141A",
"_o 	c #12121A",
":o 	c #13131B",
"<o 	c #12131A",
"[o 	c #19171B",
"}o 	c #161416",
"|o 	c #101018",
"1o 	c #0E0E12",
"2o 	c #0E0D13",
"3o 	c #0D0D12",
"4o 	c #0D0D13",
"5o 	c #0D0C12",
"6o 	c #0E0C12",
"7o 	c #131219",
"8o 	c #100F18",
"9o 	c #0F0F16",
"0o 	c #0F0E16",
"ao 	c #1D1D21",
"bo 	c #1D1C21",
"co 	c #0B0B0D",
"do 	c #161718",
"eo 	c #18181E",
"fo 	c #18181D",
"go 	c #16161B",
"ho 	c #0E0F15",
"io 	c #07060B",
"jo 	c #030308",
"ko 	c #06060B",
"lo 	c #28241F",
"mo 	c #676256",
"no 	c #8C8574",
"oo 	c #928774",
"po 	c #827665",
"qo 	c #625B4D",
"ro 	c #44413B",
"so 	c #3B3E3D",
"to 	c #232427",
"uo 	c #1E1E24",
"vo 	c #1B1D23",
"wo 	c #191A21",
"xo 	c #181921",
"yo 	c #16171E",
"zo 	c #14141C",
"Ao 	c #101118",
"Bo 	c #1D1D22",
"Co 	c #1A191D",
"Do 	c #090A0C",
"Eo 	c #121010",
"Fo 	c #1A1C1D",
"Go 	c #151819",
"Ho 	c #101415",
"Io 	c #111111",
"Jo 	c #100E11",
"Ko 	c #1A1A22",
"Lo 	c #191921",
"Mo 	c #16161E",
"No 	c #111219",
"Oo 	c #111317",
"Po 	c #403D38",
"Qo 	c #85817A",
"Ro 	c #807D76",
"So 	c #7C7971",
"To 	c #0B0807",
"Uo 	c #05050B",
"Vo 	c #0D0E14",
"Wo 	c #0D0E16",
"Xo 	c #0C0D15",
"Yo 	c #0C0D14",
"Zo 	c #0D0D14",
"`o 	c #111119",
" p 	c #151315",
".p 	c #0E0E13",
"+p 	c #0C0C13",
"@p 	c #0A0A0E",
"#p 	c #0F0E17",
"$p 	c #0E0E17",
"%p 	c #0F0F18",
"&p 	c #0F0F17",
"*p 	c #1E1D22",
"=p 	c #18171C",
"-p 	c #0B0C12",
";p 	c #0B0B12",
">p 	c #0A0A10",
",p 	c #05050A",
"'p 	c #020105",
")p 	c #040409",
"!p 	c #08080D",
"~p 	c #09090C",
"{p 	c #25221E",
"]p 	c #635E53",
"^p 	c #877F70",
"/p 	c #8B816F",
"(p 	c #7A6F5F",
"_p 	c #5B5548",
":p 	c #43413B",
"<p 	c #181818",
"[p 	c #07070B",
"}p 	c #15161B",
"|p 	c #18191F",
"1p 	c #16171D",
"2p 	c #17181F",
"3p 	c #16191F",
"4p 	c #171920",
"5p 	c #15171F",
"6p 	c #14161E",
"7p 	c #14161D",
"8p 	c #18191E",
"9p 	c #1C1D24",
"0p 	c #1D1D24",
"ap 	c #1C1E24",
"bp 	c #1D1E25",
"cp 	c #1A1B21",
"dp 	c #16161C",
"ep 	c #17181B",
"fp 	c #090A0A",
"gp 	c #726E67",
"hp 	c #847F79",
"ip 	c #7F7A74",
"jp 	c #6E6964",
"kp 	c #06060C",
"lp 	c #121016",
"mp 	c #15151B",
"np 	c #16151B",
"op 	c #15141B",
"pp 	c #17161C",
"qp 	c #1E1D21",
"rp 	c #1F1D21",
"sp 	c #222023",
"tp 	c #131213",
"up 	c #1A191E",
"vp 	c #19181C",
"wp 	c #151417",
"xp 	c #040307",
"yp 	c #28272A",
"zp 	c #28272B",
"Ap 	c #1C1B1F",
"Bp 	c #141418",
"Cp 	c #16151A",
"Dp 	c #0C0C12",
"Ep 	c #07070C",
"Fp 	c #030207",
"Gp 	c #020106",
"Hp 	c #040408",
"Ip 	c #0B0B0F",
"Jp 	c #060407",
"Kp 	c #211D1B",
"Lp 	c #7E7568",
"Mp 	c #817766",
"Np 	c #716858",
"Op 	c #565145",
"Pp 	c #161616",
"Qp 	c #050407",
"Rp 	c #0C0B10",
"Sp 	c #15161A",
"Tp 	c #16171C",
"Up 	c #191A1F",
"Vp 	c #1A1A21",
"Wp 	c #1C1D25",
"Xp 	c #1D1F27",
"Yp 	c #1E2028",
"Zp 	c #1F2129",
"`p 	c #1E1F26",
" q 	c #0B0B0E",
".q 	c #151313",
"+q 	c #433F3D",
"@q 	c #413D3A",
"#q 	c #101116",
"$q 	c #14151A",
"%q 	c #1A1B20",
"&q 	c #1F1F25",
"*q 	c #1F2026",
"=q 	c #1F2027",
"-q 	c #1B1B21",
";q 	c #17181D",
">q 	c #0A0B0B",
",q 	c #706C67",
"'q 	c #85807A",
")q 	c #827D77",
"!q 	c #403C38",
"~q 	c #06060A",
"{q 	c #1E1D24",
"]q 	c #222228",
"^q 	c #1E1F24",
"/q 	c #1E1E23",
"(q 	c #1B1C20",
"_q 	c #1A1A1F",
":q 	c #19191D",
"<q 	c #19181D",
"[q 	c #1A181D",
"}q 	c #1A181E",
"|q 	c #1B1A1F",
"1q 	c #1B1A20",
"2q 	c #1C1B20",
"3q 	c #1C1B21",
"4q 	c #1B1B20",
"5q 	c #1D1C22",
"6q 	c #1F1E23",
"7q 	c #1F1E24",
"8q 	c #201F24",
"9q 	c #1E1D23",
"0q 	c #222126",
"aq 	c #2F2D31",
"bq 	c #3A383A",
"cq 	c #252223",
"dq 	c #1F1E1F",
"eq 	c #3E3D40",
"fq 	c #37373A",
"gq 	c #262529",
"hq 	c #1C1A1F",
"iq 	c #1B1A1E",
"jq 	c #1C1A1E",
"kq 	c #1F1E22",
"lq 	c #1F1F23",
"mq 	c #17161D",
"nq 	c #18171F",
"oq 	c #16151D",
"pq 	c #2A292D",
"qq 	c #181718",
"rq 	c #19181E",
"sq 	c #12111A",
"tq 	c #0D0C13",
"uq 	c #1C1B1E",
"vq 	c #1D1B1E",
"wq 	c #1D1C1F",
"xq 	c #1E1C1F",
"yq 	c #232225",
"zq 	c #444345",
"Aq 	c #464547",
"Bq 	c #030200",
"Cq 	c #131212",
"Dq 	c #1C1C21",
"Eq 	c #16161D",
"Fq 	c #18171E",
"Gq 	c #17171E",
"Hq 	c #19181F",
"Iq 	c #1A1A20",
"Jq 	c #1C1B22",
"Kq 	c #09080E",
"Lq 	c #05040A",
"Mq 	c #06050B",
"Nq 	c #09090F",
"Oq 	c #0A0911",
"Pq 	c #0C0D12",
"Qq 	c #08070B",
"Rq 	c #1E1C1B",
"Sq 	c #766C5C",
"Tq 	c #6A6253",
"Uq 	c #555045",
"Vq 	c #3F4141",
"Wq 	c #19191F",
"Xq 	c #21232A",
"Yq 	c #20222A",
"Zq 	c #202129",
"`q 	c #0A0A0D",
" r 	c #191616",
".r 	c #484440",
"+r 	c #514B48",
"@r 	c #4A4540",
"#r 	c #45403D",
"$r 	c #45413F",
"%r 	c #212325",
"&r 	c #212424",
"*r 	c #494A4A",
"=r 	c #474949",
"-r 	c #06070B",
";r 	c #06080D",
">r 	c #0C0E13",
",r 	c #111319",
"'r 	c #16181E",
")r 	c #191B21",
"!r 	c #191A20",
"~r 	c #121319",
"{r 	c #0E0F14",
"]r 	c #1B1A19",
"^r 	c #88847F",
"/r 	c #88847E",
"(r 	c #0A0A0F",
"_r 	c #0B0B11",
":r 	c #13141A",
"<r 	c #222329",
"[r 	c #26272B",
"}r 	c #252529",
"|r 	c #232326",
"1r 	c #1E1E22",
"2r 	c #202025",
"3r 	c #212026",
"4r 	c #212126",
"5r 	c #212127",
"6r 	c #232227",
"7r 	c #242428",
"8r 	c #252429",
"9r 	c #26252A",
"0r 	c #25242A",
"ar 	c #222227",
"br 	c #38373A",
"cr 	c #0D0C0C",
"dr 	c #535355",
"er 	c #494A4C",
"fr 	c #323235",
"gr 	c #262629",
"hr 	c #242327",
"ir 	c #232327",
"jr 	c #232226",
"kr 	c #212125",
"lr 	c #29282C",
"mr 	c #29292D",
"nr 	c #242328",
"or 	c #18171D",
"pr 	c #1A1920",
"qr 	c #1E1E26",
"rr 	c #15141C",
"sr 	c #2F2F31",
"tr 	c #17161E",
"ur 	c #15151D",
"vr 	c #121318",
"wr 	c #262528",
"xr 	c #3E3D3F",
"yr 	c #59595A",
"zr 	c #606060",
"Ar 	c #1E1F23",
"Br 	c #1F1F24",
"Cr 	c #202024",
"Dr 	c #1C1C23",
"Er 	c #1E1D25",
"Fr 	c #212128",
"Gr 	c #23232A",
"Hr 	c #26272E",
"Ir 	c #26262D",
"Jr 	c #08080F",
"Kr 	c #09080F",
"Lr 	c #0B0B13",
"Mr 	c #0D0F15",
"Nr 	c #4A4740",
"Or 	c #655E53",
"Pr 	c #6D6255",
"Qr 	c #675F52",
"Rr 	c #555147",
"Sr 	c #404242",
"Tr 	c #3D4040",
"Ur 	c #0A090E",
"Vr 	c #0D0C11",
"Wr 	c #181920",
"Xr 	c #191920",
"Yr 	c #17181E",
"Zr 	c #1B1818",
"`r 	c #57524B",
" s 	c #2D3031",
".s 	c #2F3133",
"+s 	c #484A4B",
"@s 	c #090B0C",
"#s 	c #000102",
"$s 	c #020307",
"%s 	c #04050A",
"&s 	c #08090F",
"*s 	c #090A10",
"=s 	c #0A0B11",
"-s 	c #07080E",
";s 	c #040509",
">s 	c #010203",
",s 	c #565554",
"'s 	c #4B4845",
")s 	c #6E6A67",
"!s 	c #898581",
"~s 	c #898580",
"{s 	c #827E79",
"]s 	c #716D68",
"^s 	c #0B0A10",
"/s 	c #212228",
"(s 	c #26272C",
"_s 	c #201F25",
":s 	c #201F26",
"<s 	c #212027",
"[s 	c #25252A",
"}s 	c #232328",
"|s 	c #363638",
"1s 	c #3D3B3D",
"2s 	c #444242",
"3s 	c #0D0C0D",
"4s 	c #4C4C4D",
"5s 	c #26262A",
"6s 	c #2B2B2F",
"7s 	c #222229",
"8s 	c #202028",
"9s 	c #040403",
"0s 	c #16171F",
"as 	c #232429",
"bs 	c #131419",
"cs 	c #0C0B11",
"ds 	c #17181C",
"es 	c #302F32",
"fs 	c #313033",
"gs 	c #28282D",
"hs 	c #2A2A2F",
"is 	c #5E5D5E",
"js 	c #666564",
"ks 	c #5E5E5D",
"ls 	c #1F2025",
"ms 	c #1C1D22",
"ns 	c #1A1B1F",
"os 	c #1E1E27",
"ps 	c #21212A",
"qs 	c #24242C",
"rs 	c #292931",
"ss 	c #2A2A32",
"ts 	c #11111A",
"us 	c #080910",
"vs 	c #080810",
"ws 	c #0A0A12",
"xs 	c #1F1C1E",
"ys 	c #615B52",
"zs 	c #696055",
"As 	c #59544D",
"Bs 	c #404243",
"Cs 	c #3E4141",
"Ds 	c #0B0A0F",
"Es 	c #0C0C10",
"Fs 	c #1B1819",
"Gs 	c #726B65",
"Hs 	c #726B64",
"Is 	c #333537",
"Js 	c #131211",
"Ks 	c #6B6765",
"Ls 	c #85827F",
"Ms 	c #888481",
"Ns 	c #817D79",
"Os 	c #1D1E23",
"Ps 	c #1A191F",
"Qs 	c #1F1E25",
"Rs 	c #1F1F26",
"Ss 	c #222125",
"Ts 	c #595757",
"Us 	c #585756",
"Vs 	c #494949",
"Ws 	c #29282B",
"Xs 	c #202128",
"Ys 	c #202027",
"Zs 	c #1B1B19",
"`s 	c #080707",
" t 	c #191922",
".t 	c #212129",
"+t 	c #26262C",
"@t 	c #24242A",
"#t 	c #07080D",
"$t 	c #090A0F",
"%t 	c #16171B",
"&t 	c #2F2F32",
"*t 	c #323134",
"=t 	c #2B2A2F",
"-t 	c #2B292A",
";t 	c #605C5A",
">t 	c #686563",
",t 	c #131111",
"'t 	c #161514",
")t 	c #1D1E22",
"!t 	c #1C1C22",
"~t 	c #191A1E",
"{t 	c #181821",
"]t 	c #191A22",
"^t 	c #1B1C25",
"/t 	c #1E1F28",
"(t 	c #26252D",
"_t 	c #0F1018",
":t 	c #080911",
"<t 	c #090910",
"[t 	c #0B0B14",
"}t 	c #0E0F17",
"|t 	c #101119",
"1t 	c #67625B",
"2t 	c #6F675D",
"3t 	c #6E665D",
"4t 	c #3F4042",
"5t 	c #171819",
"6t 	c #1C1A1A",
"7t 	c #4D4A44",
"8t 	c #5B5750",
"9t 	c #443F3A",
"0t 	c #3D3936",
"at 	c #313335",
"bt 	c #343638",
"ct 	c #4D4E4C",
"dt 	c #0F0F0E",
"et 	c #1F1E1D",
"ft 	c #343431",
"gt 	c #7F7B78",
"ht 	c #837F7B",
"it 	c #7D7975",
"jt 	c #6B6763",
"kt 	c #0B080A",
"lt 	c #0D0E13",
"mt 	c #242429",
"nt 	c #26252B",
"ot 	c #2B2A2D",
"pt 	c #2C2B2E",
"qt 	c #161512",
"rt 	c #2D2D30",
"st 	c #1F1F1B",
"tt 	c #20201E",
"ut 	c #31322F",
"vt 	c #22232A",
"wt 	c #232329",
"xt 	c #222327",
"yt 	c #18191D",
"zt 	c #121317",
"At 	c #7E7972",
"Bt 	c #78746F",
"Ct 	c #4D4B46",
"Dt 	c #171512",
"Et 	c #040301",
"Ft 	c #201E1A",
"Gt 	c #232322",
"Ht 	c #14151D",
"It 	c #15151E",
"Jt 	c #15161E",
"Kt 	c #15161F",
"Lt 	c #161720",
"Mt 	c #1B1B22",
"Nt 	c #0E0E16",
"Ot 	c #726D64",
"Pt 	c #282725",
"Qt 	c #645E58",
"Rt 	c #56504A",
"St 	c #4D4843",
"Tt 	c #353738",
"Ut 	c #22211D",
"Vt 	c #21211D",
"Wt 	c #1D1D1A",
"Xt 	c #121210",
"Yt 	c #777470",
"Zt 	c #7B7773",
"`t 	c #787470",
" u 	c #676360",
".u 	c #3C3837",
"+u 	c #1C1A1C",
"@u 	c #1C1C1C",
"#u 	c #1D1F22",
"$u 	c #323031",
"%u 	c #2D2C30",
"&u 	c #2F2E31",
"*u 	c #757066",
"=u 	c #7B756C",
"-u 	c #7B766E",
";u 	c #272420",
">u 	c #3D3A35",
",u 	c #716E66",
"'u 	c #64615B",
")u 	c #333234",
"!u 	c #4F4E4A",
"~u 	c #42423D",
"{u 	c #242420",
"]u 	c #050402",
"^u 	c #1D1D23",
"/u 	c #222328",
"(u 	c #1F2023",
"_u 	c #49443C",
":u 	c #686356",
"<u 	c #8A8375",
"[u 	c #979084",
"}u 	c #8E887F",
"|u 	c #5A5750",
"1u 	c #1B1814",
"2u 	c #060402",
"3u 	c #74706B",
"4u 	c #726D66",
"5u 	c #3D3F40",
"6u 	c #141213",
"7u 	c #090808",
"8u 	c #141312",
"9u 	c #4D4E49",
"0u 	c #5E5851",
"au 	c #5A544D",
"bu 	c #2C2C27",
"cu 	c #2C2A26",
"du 	c #191916",
"eu 	c #1A1818",
"fu 	c #76726E",
"gu 	c #06050D",
"hu 	c #0D0D15",
"iu 	c #141113",
"ju 	c #1A1616",
"ku 	c #1D1917",
"lu 	c #1C1B1A",
"mu 	c #202124",
"nu 	c #232428",
"ou 	c #757169",
"pu 	c #8E877A",
"qu 	c #948C7E",
"ru 	c #928B80",
"su 	c #6E685F",
"tu 	c #312E28",
"uu 	c #060503",
"vu 	c #433E38",
"wu 	c #7D776D",
"xu 	c #7B766B",
"yu 	c #6F6B62",
"zu 	c #3E3E42",
"Au 	c #282824",
"Bu 	c #17171D",
"Cu 	c #50493F",
"Du 	c #756C5E",
"Eu 	c #998F7F",
"Fu 	c #A39A8B",
"Gu 	c #968E83",
"Hu 	c #605C53",
"Iu 	c #1D1915",
"Ju 	c #070402",
"Ku 	c #2B2620",
"Lu 	c #6D6A64",
"Mu 	c #353430",
"Nu 	c #5A5756",
"Ou 	c #343637",
"Pu 	c #5C574F",
"Qu 	c #56514B",
"Ru 	c #625F5C",
"Su 	c #2F2E29",
"Tu 	c #020303",
"Uu 	c #0E0D0D",
"Vu 	c #73716B",
"Wu 	c #07070F",
"Xu 	c #0C0C15",
"Yu 	c #0B0707",
"Zu 	c #1C1412",
"`u 	c #211A16",
" v 	c #201A16",
".v 	c #1F1C18",
"+v 	c #1F1C1B",
"@v 	c #7A756B",
"#v 	c #938B7C",
"$v 	c #988E7F",
"%v 	c #968C80",
"&v 	c #332F29",
"*v 	c #453F38",
"=v 	c #80786C",
"-v 	c #7F766A",
";v 	c #736C62",
">v 	c #3C3D41",
",v 	c #3F3F43",
"'v 	c #37373B",
")v 	c #212226",
"!v 	c #0A0B10",
"~v 	c #090A0E",
"{v 	c #07080C",
"]v 	c #46413D",
"^v 	c #524A40",
"/v 	c #796F60",
"(v 	c #9C9180",
"_v 	c #A39788",
":v 	c #615C53",
"<v 	c #1D1A15",
"[v 	c #79746C",
"}v 	c #3A3935",
"|v 	c #353436",
"1v 	c #0E0E10",
"2v 	c #15151C",
"3v 	c #2A272B",
"4v 	c #716D66",
"5v 	c #100F0E",
"6v 	c #060604",
"7v 	c #121011",
"8v 	c #1A1919",
"9v 	c #56524B",
"0v 	c #544F49",
"av 	c #48453E",
"bv 	c #131312",
"cv 	c #494A47",
"dv 	c #7A7670",
"ev 	c #04040A",
"fv 	c #070810",
"gv 	c #0B0C15",
"hv 	c #0D0D10",
"iv 	c #0B0505",
"jv 	c #211614",
"kv 	c #291D17",
"lv 	c #271D16",
"mv 	c #271E19",
"nv 	c #27201C",
"ov 	c #272220",
"pv 	c #1F2123",
"qv 	c #7A756A",
"rv 	c #92897A",
"sv 	c #978D7C",
"tv 	c #93897C",
"uv 	c #6E675C",
"vv 	c #322D27",
"wv 	c #090604",
"xv 	c #463F37",
"yv 	c #71685C",
"zv 	c #82776A",
"Av 	c #756C61",
"Bv 	c #5C564E",
"Cv 	c #292A2D",
"Dv 	c #2D2E31",
"Ev 	c #36373B",
"Fv 	c #38383D",
"Gv 	c #313136",
"Hv 	c #4C4D4B",
"Iv 	c #08090D",
"Jv 	c #524B3F",
"Kv 	c #796F5F",
"Lv 	c #9A8F7E",
"Mv 	c #9E9384",
"Nv 	c #928B7E",
"Ov 	c #1D1916",
"Pv 	c #060302",
"Qv 	c #2A251E",
"Rv 	c #100C0C",
"Sv 	c #110E0D",
"Tv 	c #13100F",
"Uv 	c #0E0C0D",
"Vv 	c #090A0B",
"Wv 	c #0F1011",
"Xv 	c #151619",
"Yv 	c #13141B",
"Zv 	c #15161D",
"`v 	c #2A282C",
" w 	c #5A5757",
".w 	c #73706C",
"+w 	c #75716A",
"@w 	c #191817",
"#w 	c #181816",
"$w 	c #161513",
"%w 	c #141310",
"&w 	c #11100E",
"*w 	c #4F4B46",
"=w 	c #565250",
"-w 	c #5D5852",
";w 	c #605B55",
">w 	c #545149",
",w 	c #504D46",
"'w 	c #4F4D46",
")w 	c #1C1D1C",
"!w 	c #272725",
"~w 	c #7E7B73",
"{w 	c #78746D",
"]w 	c #04040B",
"^w 	c #070811",
"/w 	c #0D0606",
"(w 	c #281A17",
"_w 	c #31221A",
":w 	c #2F2118",
"<w 	c #30231B",
"[w 	c #31251F",
"}w 	c #29211E",
"|w 	c #1B1716",
"1w 	c #777266",
"2w 	c #8F8777",
"3w 	c #938A7A",
"4w 	c #8E8578",
"5w 	c #696258",
"6w 	c #2F2A24",
"7w 	c #0B0704",
"8w 	c #474037",
"9w 	c #72685B",
"0w 	c #827767",
"aw 	c #827768",
"bw 	c #766C60",
"cw 	c #5D564E",
"dw 	c #2F2F33",
"ew 	c #2C2D31",
"fw 	c #0B0C11",
"gw 	c #5A5B56",
"hw 	c #0A0B0F",
"iw 	c #47433D",
"jw 	c #524A3E",
"kw 	c #746A5B",
"lw 	c #948978",
"mw 	c #9B9281",
"nw 	c #90897C",
"ow 	c #5D5850",
"pw 	c #1C1815",
"qw 	c #070302",
"rw 	c #2A241C",
"sw 	c #625B50",
"tw 	c #7E766B",
"uw 	c #5B554E",
"vw 	c #46413C",
"ww 	c #413F39",
"xw 	c #1B1B1C",
"yw 	c #100F0F",
"zw 	c #110D0C",
"Aw 	c #18120F",
"Bw 	c #1C1411",
"Cw 	c #1E1713",
"Dw 	c #1E1813",
"Ew 	c #0F0C0B",
"Fw 	c #030404",
"Gw 	c #15171D",
"Hw 	c #2C2B2F",
"Iw 	c #5B5959",
"Jw 	c #5D5C58",
"Kw 	c #2B2A28",
"Lw 	c #656159",
"Mw 	c #615C54",
"Nw 	c #5D5951",
"Ow 	c #31312E",
"Pw 	c #252625",
"Qw 	c #1F201F",
"Rw 	c #51514C",
"Sw 	c #7A7770",
"Tw 	c #817D74",
"Uw 	c #7A776F",
"Vw 	c #0C0C16",
"Ww 	c #0F0707",
"Xw 	c #2C1D19",
"Yw 	c #36251C",
"Zw 	c #35251B",
"`w 	c #36261D",
" x 	c #362821",
".x 	c #29201A",
"+x 	c #120D0B",
"@x 	c #060708",
"#x 	c #30302D",
"$x 	c #6A665C",
"%x 	c #7F786A",
"&x 	c #817A6C",
"*x 	c #59524A",
"=x 	c #25211D",
"-x 	c #0D0805",
";x 	c #483F37",
">x 	c #73685A",
",x 	c #817566",
"'x 	c #5D564D",
")x 	c #494743",
"!x 	c #47423C",
"~x 	c #4E473B",
"{x 	c #6A6152",
"]x 	c #887D6D",
"^x 	c #92887A",
"/x 	c #898176",
"(x 	c #070301",
"_x 	c #2B241C",
":x 	c #625A4F",
"<x 	c #80766A",
"[x 	c #7C7369",
"}x 	c #635C54",
"|x 	c #504A44",
"1x 	c #4E4A44",
"2x 	c #1D1E1E",
"3x 	c #1C1B1C",
"4x 	c #16100D",
"5x 	c #231B16",
"6x 	c #271D18",
"7x 	c #271E18",
"8x 	c #231B15",
"9x 	c #1A1511",
"0x 	c #726F6C",
"ax 	c #635F5B",
"bx 	c #5B5952",
"cx 	c #5E5B57",
"dx 	c #423F3F",
"ex 	c #464343",
"fx 	c #69655D",
"gx 	c #6B665E",
"hx 	c #222221",
"ix 	c #21201F",
"jx 	c #232120",
"kx 	c #807D74",
"lx 	c #64625C",
"mx 	c #060810",
"nx 	c #11121A",
"ox 	c #100808",
"px 	c #2D1E1B",
"qx 	c #37271F",
"rx 	c #36271D",
"sx 	c #37281F",
"tx 	c #352820",
"ux 	c #251D17",
"vx 	c #0D0806",
"wx 	c #5F5A51",
"xx 	c #605950",
"yx 	c #5A534B",
"zx 	c #3D3731",
"Ax 	c #0F0A06",
"Bx 	c #493F37",
"Cx 	c #74685B",
"Dx 	c #837767",
"Ex 	c #827666",
"Fx 	c #504E48",
"Gx 	c #1F1D1E",
"Hx 	c #3D3C3E",
"Ix 	c #0C0C11",
"Jx 	c #07060C",
"Kx 	c #585854",
"Lx 	c #080704",
"Mx 	c #4B433A",
"Nx 	c #736A5C",
"Ox 	c #7C7368",
"Px 	c #797168",
"Qx 	c #4E4942",
"Rx 	c #13100E",
"Sx 	c #080301",
"Tx 	c #81786C",
"Ux 	c #7F776C",
"Vx 	c #69625A",
"Wx 	c #57514C",
"Xx 	c #383833",
"Yx 	c #32312D",
"Zx 	c #363632",
"`x 	c #0C0807",
" y 	c #19120F",
".y 	c #281F19",
"+y 	c #2C221B",
"@y 	c #2B221A",
"#y 	c #17120E",
"$y 	c #313034",
"%y 	c #72706C",
"&y 	c #2B2927",
"*y 	c #262624",
"=y 	c #575554",
"-y 	c #65605C",
";y 	c #6E6A61",
">y 	c #6C685F",
",y 	c #292926",
"'y 	c #262423",
")y 	c #292625",
"!y 	c #2E2C2A",
"~y 	c #76746B",
"{y 	c #7D7A71",
"]y 	c #79766E",
"^y 	c #03040A",
"/y 	c #05070F",
"(y 	c #0A0B14",
"_y 	c #090A0D",
":y 	c #251917",
"<y 	c #2E201B",
"[y 	c #2E2019",
"}y 	c #2F221B",
"|y 	c #2C211B",
"1y 	c #1E1612",
"2y 	c #080504",
"3y 	c #282827",
"4y 	c #41403C",
"5y 	c #413F3A",
"6y 	c #3E3933",
"7y 	c #36302C",
"8y 	c #1E1B18",
"9y 	c #110B06",
"0y 	c #453D33",
"ay 	c #6E6457",
"by 	c #807466",
"cy 	c #7F7566",
"dy 	c #726A5D",
"ey 	c #59544B",
"fy 	c #252322",
"gy 	c #040308",
"hy 	c #0E1013",
"iy 	c #43403B",
"jy 	c #4A433C",
"ky 	c #554D43",
"ly 	c #5B5348",
"my 	c #38342F",
"ny 	c #29211A",
"oy 	c #5E554C",
"py 	c #7D7469",
"qy 	c #7D756B",
"ry 	c #544E49",
"sy 	c #4F4C47",
"ty 	c #373733",
"uy 	c #0B0706",
"vy 	c #150F0C",
"wy 	c #221A15",
"xy 	c #271E17",
"yy 	c #211A14",
"zy 	c #15110D",
"Ay 	c #5A5858",
"By 	c #716F6B",
"Cy 	c #6F6C67",
"Dy 	c #66625D",
"Ey 	c #5A544F",
"Fy 	c #47443F",
"Gy 	c #6C675F",
"Hy 	c #2F2D2A",
"Iy 	c #34312E",
"Jy 	c #727067",
"Ky 	c #7A766F",
"Ly 	c #78756E",
"My 	c #03030A",
"Ny 	c #05060E",
"Oy 	c #110909",
"Py 	c #180E0C",
"Qy 	c #1A100C",
"Ry 	c #1C120E",
"Sy 	c #1A120D",
"Ty 	c #110C09",
"Uy 	c #151618",
"Vy 	c #363330",
"Wy 	c #282523",
"Xy 	c #3C352C",
"Yy 	c #5E5449",
"Zy 	c #74685C",
"`y 	c #796F63",
" z 	c #6E675B",
".z 	c #2E2D2B",
"+z 	c #29282A",
"@z 	c #09090D",
"#z 	c #141619",
"$z 	c #4C4640",
"%z 	c #514A42",
"&z 	c #4B433C",
"*z 	c #443F38",
"=z 	c #3D3833",
"-z 	c #211E1C",
";z 	c #090502",
">z 	c #262018",
",z 	c #534B42",
"'z 	c #716960",
")z 	c #5E5852",
"!z 	c #222223",
"~z 	c #0A0605",
"{z 	c #120C09",
"]z 	c #170F0B",
"^z 	c #1A130F",
"/z 	c #18120E",
"(z 	c #100D0A",
"_z 	c #6F6C6A",
":z 	c #6D6B66",
"<z 	c #5E5C5B",
"[z 	c #3F403C",
"}z 	c #706760",
"|z 	c #615954",
"1z 	c #706A64",
"2z 	c #403D37",
"3z 	c #403E3B",
"4z 	c #35332F",
"5z 	c #383530",
"6z 	c #7C7870",
"7z 	c #7B7670",
"8z 	c #030309",
"9z 	c #0A0B13",
"0z 	c #08090E",
"az 	c #030000",
"bz 	c #040101",
"cz 	c #050101",
"dz 	c #050201",
"ez 	c #171413",
"fz 	c #2D2925",
"gz 	c #3D362F",
"hz 	c #4E453B",
"iz 	c #63594E",
"jz 	c #6E655B",
"kz 	c #686158",
"lz 	c #3D3B38",
"mz 	c #312F2E",
"nz 	c #27262B",
"oz 	c #292825",
"pz 	c #141410",
"qz 	c #050502",
"rz 	c #10100E",
"sz 	c #262524",
"tz 	c #19191C",
"uz 	c #4B4641",
"vz 	c #4D4741",
"wz 	c #453E38",
"xz 	c #373330",
"yz 	c #1E1A19",
"zz 	c #13100C",
"Az 	c #241F18",
"Bz 	c #413C33",
"Cz 	c #5D564F",
"Dz 	c #3B3938",
"Ez 	c #555353",
"Fz 	c #6C6A64",
"Gz 	c #63625B",
"Hz 	c #6E6D69",
"Iz 	c #49433F",
"Jz 	c #3A3B3D",
"Kz 	c #47443D",
"Lz 	c #3B3833",
"Mz 	c #48443E",
"Nz 	c #5E5853",
"Oz 	c #807B73",
"Pz 	c #04060E",
"Qz 	c #191615",
"Rz 	c #100D0C",
"Sz 	c #181412",
"Tz 	c #504C44",
"Uz 	c #504A40",
"Vz 	c #5A5349",
"Wz 	c #635C55",
"Xz 	c #2C2A28",
"Yz 	c #232123",
"Zz 	c #181815",
"`z 	c #131311",
" A 	c #111110",
".A 	c #161615",
"+A 	c #242322",
"@A 	c #44403B",
"#A 	c #494440",
"$A 	c #474340",
"%A 	c #312D2A",
"&A 	c #151210",
"*A 	c #070403",
"=A 	c #23221E",
"-A 	c #2F2D27",
";A 	c #4F4945",
">A 	c #373535",
",A 	c #41413C",
"'A 	c #4C4C47",
")A 	c #6F6D65",
"!A 	c #67655F",
"~A 	c #6C6B67",
"{A 	c #666660",
"]A 	c #5D5953",
"^A 	c #3D3F3E",
"/A 	c #5E5954",
"(A 	c #675F59",
"_A 	c #686059",
":A 	c #5B544E",
"<A 	c #4B4640",
"[A 	c #423E3A",
"}A 	c #383633",
"|A 	c #4F4B45",
"1A 	c #645F59",
"2A 	c #817D76",
"3A 	c #807B75",
"4A 	c #020308",
"5A 	c #04060D",
"6A 	c #080A12",
"7A 	c #060509",
"8A 	c #1F2020",
"9A 	c #413C39",
"0A 	c #39342F",
"aA 	c #36302A",
"bA 	c #373029",
"cA 	c #393129",
"dA 	c #383028",
"eA 	c #352D25",
"fA 	c #312A23",
"gA 	c #38322B",
"hA 	c #5C5852",
"iA 	c #605C57",
"jA 	c #514B45",
"kA 	c #4F4944",
"lA 	c #4C4641",
"mA 	c #0A0B0D",
"nA 	c #080807",
"oA 	c #101011",
"pA 	c #1F1F1F",
"qA 	c #404142",
"rA 	c #534F4D",
"sA 	c #595552",
"tA 	c #2E2B26",
"uA 	c #27231F",
"vA 	c #2A2520",
"wA 	c #2B261F",
"xA 	c #2C271E",
"yA 	c #28231A",
"zA 	c #242018",
"AA 	c #232018",
"BA 	c #2B2822",
"CA 	c #393832",
"DA 	c #645F5B",
"EA 	c #5B5852",
"FA 	c #544E4A",
"GA 	c #4E4945",
"HA 	c #57504B",
"IA 	c #4D4742",
"JA 	c #383A39",
"KA 	c #4A463F",
"LA 	c #69645D",
"MA 	c #75736B",
"NA 	c #827E77",
"OA 	c #04050C",
"PA 	c #0A0C0E",
"QA 	c #0C0C0D",
"RA 	c #0E0F0F",
"SA 	c #63594D",
"TA 	c #6F6354",
"UA 	c #796C5C",
"VA 	c #7B6D5D",
"WA 	c #756758",
"XA 	c #665A4D",
"YA 	c #595145",
"ZA 	c #5E584F",
"`A 	c #49433D",
" B 	c #423C36",
".B 	c #423E38",
"+B 	c #121212",
"@B 	c #0E0E0E",
"#B 	c #0B0B0B",
"$B 	c #161717",
"%B 	c #2B2C30",
"&B 	c #303134",
"*B 	c #3F4041",
"=B 	c #413C37",
"-B 	c #413C34",
";B 	c #564F42",
">B 	c #5C5445",
",B 	c #595142",
"'B 	c #544C3E",
")B 	c #484236",
"!B 	c #3F3C31",
"~B 	c #413F38",
"{B 	c #45443E",
"]B 	c #20201F",
"^B 	c #161515",
"/B 	c #151316",
"(B 	c #07060A",
"_B 	c #1A191A",
":B 	c #2A282B",
"<B 	c #585554",
"[B 	c #726F68",
"}B 	c #76736A",
"|B 	c #727068",
"1B 	c #23241F",
"2B 	c #2E2D29",
"3B 	c #6F6A66",
"4B 	c #7D7771",
"5B 	c #817B74",
"6B 	c #847F76",
"7B 	c #817B72",
"8B 	c #7A756D",
"9B 	c #6A655D",
"0B 	c #4C4741",
"aB 	c #534E49",
"bB 	c #53504E",
"cB 	c #4B4741",
"dB 	c #353836",
"eB 	c #47423A",
"fB 	c #555048",
"gB 	c #7D7670",
"hB 	c #7C756F",
"iB 	c #838078",
"jB 	c #847E77",
"kB 	c #706A65",
"lB 	c #080A11",
"mB 	c #17161B",
"nB 	c #08090B",
"oB 	c #676055",
"pB 	c #7C7160",
"qB 	c #988A75",
"rB 	c #AA9B84",
"sB 	c #AF9F89",
"tB 	c #A89884",
"uB 	c #918373",
"vB 	c #746A5D",
"wB 	c #686157",
"xB 	c #6B6660",
"yB 	c #68645E",
"zB 	c #4E4842",
"AB 	c #453F39",
"BB 	c #3E3A34",
"CB 	c #383534",
"DB 	c #0F0E0F",
"EB 	c #0F1012",
"FB 	c #141515",
"GB 	c #323236",
"HB 	c #1D1C1B",
"IB 	c #555251",
"JB 	c #47413C",
"KB 	c #665E53",
"LB 	c #786F60",
"MB 	c #847B69",
"NB 	c #867D69",
"OB 	c #827966",
"PB 	c #6D6657",
"QB 	c #514C41",
"RB 	c #3E3C36",
"SB 	c #393636",
"TB 	c #1A181B",
"UB 	c #595555",
"VB 	c #78756B",
"WB 	c #76726A",
"XB 	c #181713",
"YB 	c #807B76",
"ZB 	c #8B867D",
"`B 	c #8A837A",
" C 	c #8B8379",
".C 	c #878076",
"+C 	c #7F796F",
"@C 	c #6C665E",
"#C 	c #524C46",
"$C 	c #46413B",
"%C 	c #5D5855",
"&C 	c #3D3E3A",
"*C 	c #75706A",
"=C 	c #3C3936",
"-C 	c #7A736C",
";C 	c #635E56",
">C 	c #78756D",
",C 	c #868279",
"'C 	c #03050B",
")C 	c #070910",
"!C 	c #807665",
"~C 	c #A1957F",
"{C 	c #B1A48D",
"]C 	c #B3A68F",
"^C 	c #ADA08B",
"/C 	c #978C7B",
"(C 	c #7A7164",
"_C 	c #64605A",
":C 	c #5A5753",
"<C 	c #47413B",
"[C 	c #443E39",
"}C 	c #242228",
"|C 	c #171619",
"1C 	c #2C2929",
"2C 	c #373631",
"3C 	c #59534B",
"4C 	c #6F685D",
"5C 	c #80786A",
"6C 	c #8F8876",
"7C 	c #948C78",
"8C 	c #938B78",
"9C 	c #7D7667",
"0C 	c #575249",
"aC 	c #30312E",
"bC 	c #03040B",
"cC 	c #090911",
"dC 	c #7B786E",
"eC 	c #79776E",
"fC 	c #171715",
"gC 	c #5B5755",
"hC 	c #88857B",
"iC 	c #827B72",
"jC 	c #7E766E",
"kC 	c #78726A",
"lC 	c #3F3934",
"mC 	c #3D3F3C",
"nC 	c #3D3F3B",
"oC 	c #6E6B65",
"pC 	c #726E68",
"qC 	c #403C3A",
"rC 	c #3C3835",
"sC 	c #514D48",
"tC 	c #726B63",
"uC 	c #79756C",
"vC 	c #878379",
"wC 	c #868078",
"xC 	c #010207",
"yC 	c #02040B",
"zC 	c #07080F",
"AC 	c #464647",
"BC 	c #686056",
"CC 	c #817869",
"DC 	c #8A8170",
"EC 	c #887F6F",
"FC 	c #837A6B",
"GC 	c #756D61",
"HC 	c #56514D",
"IC 	c #514C47",
"JC 	c #100E0E",
"KC 	c #0E0D0C",
"LC 	c #07070D",
"MC 	c #242329",
"NC 	c #26262B",
"OC 	c #46443E",
"PC 	c #423E3C",
"QC 	c #625E56",
"RC 	c #6A645A",
"SC 	c #736E61",
"TC 	c #777163",
"UC 	c #777265",
"VC 	c #676257",
"WC 	c #383533",
"XC 	c #55534C",
"YC 	c #0F1117",
"ZC 	c #1A181C",
"`C 	c #28262A",
" D 	c #545051",
".D 	c #6E6A66",
"+D 	c #75726A",
"@D 	c #74726A",
"#D 	c #62625D",
"$D 	c #0F1213",
"%D 	c #4F4C4A",
"&D 	c #454643",
"*D 	c #4D4945",
"=D 	c #877F76",
"-D 	c #7F796E",
";D 	c #6F6A60",
">D 	c #5D5950",
",D 	c #4B4740",
"'D 	c #47433E",
")D 	c #6B6863",
"!D 	c #7A756C",
"~D 	c #888379",
"{D 	c #868178",
"]D 	c #3D3935",
"^D 	c #02040A",
"/D 	c #06080E",
"(D 	c #5B544B",
"_D 	c #4C4947",
":D 	c #1A1716",
"<D 	c #232221",
"[D 	c #06070D",
"}D 	c #1E2023",
"|D 	c #3F3D37",
"1D 	c #57554E",
"2D 	c #66625B",
"3D 	c #353638",
"4D 	c #48453F",
"5D 	c #6C6A62",
"6D 	c #25272B",
"7D 	c #13141C",
"8D 	c #1C1B1D",
"9D 	c #595650",
"0D 	c #030609",
"aD 	c #201E20",
"bD 	c #403C3B",
"cD 	c #3A3D3A",
"dD 	c #393635",
"eD 	c #928B81",
"fD 	c #989184",
"gD 	c #91897D",
"hD 	c #817B70",
"iD 	c #6B655C",
"jD 	c #524E46",
"kD 	c #7F7B74",
"lD 	c #625D54",
"mD 	c #79746A",
"nD 	c #878177",
"oD 	c #857F76",
"pD 	c #3D3934",
"qD 	c #020207",
"rD 	c #020409",
"sD 	c #05080D",
"tD 	c #5D5A58",
"uD 	c #585655",
"vD 	c #504F4F",
"wD 	c #4D4D4C",
"xD 	c #484543",
"yD 	c #4C4846",
"zD 	c #12100E",
"AD 	c #282726",
"BD 	c #040508",
"CD 	c #2C2C30",
"DD 	c #504F50",
"ED 	c #535253",
"FD 	c #524E4D",
"GD 	c #5B5754",
"HD 	c #34322D",
"ID 	c #746E67",
"JD 	c #423E39",
"KD 	c #65625A",
"LD 	c #706D65",
"MD 	c #1E1F1F",
"ND 	c #29292E",
"OD 	c #1E1C21",
"PD 	c #211D22",
"QD 	c #342F2F",
"RD 	c #3C3631",
"SD 	c #403931",
"TD 	c #3E3832",
"UD 	c #2D2927",
"VD 	c #010206",
"WD 	c #1E1A1D",
"XD 	c #272324",
"YD 	c #2B2828",
"ZD 	c #5B5957",
"`D 	c #5B5856",
" E 	c #40423F",
".E 	c #8E897F",
"+E 	c #958F82",
"@E 	c #8F897C",
"#E 	c #827C71",
"$E 	c #706A61",
"%E 	c #5A564E",
"&E 	c #535048",
"*E 	c #7E7A75",
"=E 	c #7B7870",
"-E 	c #656259",
";E 	c #656056",
">E 	c #7C776C",
",E 	c #898479",
"'E 	c #726C64",
")E 	c #3F3C37",
"!E 	c #020206",
"~E 	c #030408",
"{E 	c #191714",
"]E 	c #2A2B2E",
"^E 	c #2E2C28",
"/E 	c #3D3A34",
"(E 	c #747068",
"_E 	c #77736C",
":E 	c #353231",
"<E 	c #393631",
"[E 	c #211F22",
"}E 	c #312B2A",
"|E 	c #362E28",
"1E 	c #362F27",
"2E 	c #27221E",
"3E 	c #161418",
"4E 	c #201C1F",
"5E 	c #2F312F",
"6E 	c #77746C",
"7E 	c #7E7A70",
"8E 	c #7C776E",
"9E 	c #58554C",
"0E 	c #837D73",
"aE 	c #8F8980",
"bE 	c #8D877F",
"cE 	c #030205",
"dE 	c #050509",
"eE 	c #272524",
"fE 	c #2C2C29",
"gE 	c #272826",
"hE 	c #252523",
"iE 	c #272623",
"jE 	c #252323",
"kE 	c #272525",
"lE 	c #353230",
"mE 	c #393632",
"nE 	c #171615",
"oE 	c #0C0C0B",
"pE 	c #050508",
"qE 	c #0B0A0A",
"rE 	c #1B1916",
"sE 	c #2C2924",
"tE 	c #201E1E",
"uE 	c #1F1D1D",
"vE 	c #201F1A",
"wE 	c #2C2925",
"xE 	c #262723",
"yE 	c #2D2E2B",
"zE 	c #2E2F2C",
"AE 	c #131214",
"BE 	c #14151B",
"CE 	c #211E21",
"DE 	c #342B2A",
"EE 	c #3B2F29",
"FE 	c #3C2F25",
"GE 	c #392D23",
"HE 	c #28211B",
"IE 	c #0C090E",
"JE 	c #181519",
"KE 	c #4E4E4D",
"LE 	c #59564F",
"ME 	c #625F57",
"NE 	c #68645D",
"OE 	c #35332E",
"PE 	c #78736A",
"QE 	c #938F85",
"RE 	c #9D988E",
"SE 	c #9D978E",
"TE 	c #8B867E",
"UE 	c #0B0B0A",
"VE 	c #151311",
"WE 	c #161411",
"XE 	c #100F0C",
"YE 	c #0D0D0A",
"ZE 	c #090A08",
"`E 	c #0D0D0B",
" F 	c #0C0C0A",
".F 	c #0A0909",
"+F 	c #100F0D",
"@F 	c #110F0D",
"#F 	c #13110F",
"$F 	c #12110F",
"%F 	c #171614",
"&F 	c #0E0C0C",
"*F 	c #161413",
"=F 	c #111010",
"-F 	c #1E1B19",
";F 	c #171513",
">F 	c #12100D",
",F 	c #26231F",
"'F 	c #302D28",
")F 	c #2B2924",
"!F 	c #1E1D18",
"~F 	c #0A0A0A",
"{F 	c #111210",
"]F 	c #121312",
"^F 	c #121211",
"/F 	c #11110F",
"(F 	c #11120F",
"_F 	c #252123",
":F 	c #362C29",
"<F 	c #3E2F26",
"[F 	c #3F2F21",
"}F 	c #392A1E",
"|F 	c #281E16",
"1F 	c #110D0B",
"2F 	c #2D2F2D",
"3F 	c #55554F",
"4F 	c #645F5C",
"5F 	c #2A2827",
"6F 	c #9F9B92",
"7F 	c #A4A097",
"8F 	c #A7A39A",
"9F 	c #97928B",
"0F 	c #040506",
"aF 	c #000100",
"bF 	c #100E0B",
"cF 	c #110E0C",
"dF 	c #0E0C09",
"eF 	c #272223",
"fF 	c #372B28",
"gF 	c #3A2A1F",
"hF 	c #372515",
"iF 	c #302013",
"jF 	c #21160E",
"kF 	c #0E0806",
"lF 	c #242321",
"mF 	c #88847D",
"nF 	c #A29E95",
"oF 	c #A6A39A",
"pF 	c #A7A59C",
"qF 	c #96938C",
"rF 	c #5D5C57",
"sF 	c #292323",
"tF 	c #382C27",
"uF 	c #38281C",
"vF 	c #301D0D",
"wF 	c #28180A",
"xF 	c #1C1008",
"yF 	c #0B0503",
"zF 	c #827F78",
"AF 	c #83817A",
"BF 	c #74716C",
"CF 	c #050202",
"DF 	c #262120",
"EF 	c #392F27",
"FF 	c #3E2E20",
"GF 	c #362514",
"HF 	c #2D1F11",
"IF 	c #22190F",
"JF 	c #0F0C10",
"KF 	c #292A28",
"LF 	c #2C2D2A",
"MF 	c #333030",
"NF 	c #292725",
"OF 	c #272421",
"PF 	c #312F2B",
"QF 	c #060406",
"RF 	c #0C0A0F",
"SF 	c #0A080C",
"TF 	c #070509",
"UF 	c #050307",
"VF 	c #050306",
"WF 	c #0C0B0C",
"XF 	c #100F10",
"YF 	c #0F0F10",
"ZF 	c #1E1C1A",
"`F 	c #181714",
" G 	c #141210",
".G 	c #121214",
"+G 	c #070507",
"@G 	c #0F0F0F",
"#G 	c #0F0D0D",
"$G 	c #0B0B09",
"%G 	c #0C090A",
"&G 	c #0D0A0C",
"*G 	c #0E0B0D",
"=G 	c #0D0A0D",
"-G 	c #08080C",
";G 	c #15161C",
">G 	c #16181D",
",G 	c #2B2624",
"'G 	c #493F36",
")G 	c #564838",
"!G 	c #534432",
"~G 	c #4B3F30",
"{G 	c #433B30",
"]G 	c #3E3A32",
"^G 	c #262725",
"/G 	c #302D2A",
"(G 	c #1D1A17",
"_G 	c #161412",
":G 	c #1A1717",
"<G 	c #0C0A0E",
"[G 	c #17151B",
"}G 	c #18161C",
"|G 	c #141218",
"1G 	c #08060B",
"2G 	c #060409",
"3G 	c #050308",
"4G 	c #07050A",
"5G 	c #121012",
"6G 	c #3B3D38",
"7G 	c #2A2A26",
"8G 	c #1E1D1C",
"9G 	c #211E1E",
"0G 	c #1B1918",
"aG 	c #1D1B1A",
"bG 	c #1D1D1B",
"cG 	c #110F11",
"dG 	c #19171A",
"eG 	c #1D1A1F",
"fG 	c #171519",
"gG 	c #756A59",
"hG 	c #746955",
"iG 	c #6E6554",
"jG 	c #666662",
"kG 	c #575857",
"lG 	c #585859",
"mG 	c #4E4E4F",
"nG 	c #434040",
"oG 	c #272926",
"pG 	c #2E2E2B",
"qG 	c #4F4F4A",
"rG 	c #0C0A12",
"sG 	c #0A080F",
"tG 	c #08060D",
"uG 	c #09070E",
"vG 	c #171517",
"wG 	c #222429",
"xG 	c #212328",
"yG 	c #1F2125",
"zG 	c #0A090F",
"AG 	c #1F1D1F",
"BG 	c #242222",
"CG 	c #191617",
"DG 	c #191717",
"EG 	c #1A1A1A",
"FG 	c #201E23",
"GG 	c #211F24",
"HG 	c #1E1C22",
"IG 	c #16151C",
"JG 	c #08070E",
"KG 	c #14161C",
"LG 	c #877E6E",
"MG 	c #877E6B",
"NG 	c #7F7868",
"OG 	c #757165",
"PG 	c #6E6C65",
"QG 	c #6A6B67",
"RG 	c #585A59",
"SG 	c #605F59",
"TG 	c #525252",
"UG 	c #636363",
"VG 	c #555556",
"WG 	c #1E1D1D",
"XG 	c #08070C",
"YG 	c #121017",
"ZG 	c #191820",
"`G 	c #1C1B23",
" H 	c #1D1C25",
".H 	c #191821",
"+H 	c #0C0B13",
"@H 	c #0A0912",
"#H 	c #110E12",
"$H 	c #484749",
"%H 	c #484648",
"&H 	c #1D1F25",
"*H 	c #1F2126",
"=H 	c #212227",
"-H 	c #020302",
";H 	c #0D0E0E",
">H 	c #252325",
",H 	c #232021",
"'H 	c #1B1920",
")H 	c #1D1C23",
"!H 	c #1B1921",
"~H 	c #07060D",
"{H 	c #050408",
"]H 	c #302D2C",
"^H 	c #857D71",
"/H 	c #888173",
"(H 	c #837E70",
"_H 	c #706D63",
":H 	c #474647",
"<H 	c #515152",
"[H 	c #272625",
"}H 	c #171A1B",
"|H 	c #06070C",
"1H 	c #0D0E15",
"2H 	c #23232B",
"3H 	c #1F1F27",
"4H 	c #17161F",
"5H 	c #535252",
"6H 	c #4C4A4C",
"7H 	c #181A1F",
"8H 	c #1A1C22",
"9H 	c #24232A",
"0H 	c #201F27",
"aH 	c #292728",
"bH 	c #141517",
"cH 	c #1A1921",
"dH 	c #13151B",
"eH 	c #121419",
"fH 	c #635F57",
"gH 	c #817C6F",
"hH 	c #898476",
"iH 	c #848175",
"jH 	c #4B4B46",
"kH 	c #302E2E",
"lH 	c #14161A",
"mH 	c #101216",
"nH 	c #0F1115",
"oH 	c #0F100F",
"pH 	c #090A11",
"qH 	c #0B0C13",
"rH 	c #222128",
"sH 	c #24242B",
"tH 	c #17171F",
"uH 	c #0B0A13",
"vH 	c #080811",
"wH 	c #06050C",
"xH 	c #262428",
"yH 	c #424143",
"zH 	c #27262C",
"AH 	c #1B1C21",
"BH 	c #0C0D13",
"CH 	c #222426",
"DH 	c #0C0B12",
"EH 	c #2B2A2E",
"FH 	c #101217",
"GH 	c #7C786E",
"HH 	c #858176",
"IH 	c #817F76",
"JH 	c #121314",
"KH 	c #212220",
"LH 	c #121310",
"MH 	c #090912",
"NH 	c #0E0D16",
"OH 	c #232228",
"PH 	c #25252B",
"QH 	c #514F50",
"RH 	c #535350",
"SH 	c #5A5A57",
"TH 	c #27272D",
"UH 	c #2B2B30",
"VH 	c #50514F",
"WH 	c #232321",
"XH 	c #38373B",
"YH 	c #302F33",
"ZH 	c #232022",
"`H 	c #76746C",
" I 	c #807E75",
".I 	c #7D7C74",
"+I 	c #666661",
"@I 	c #0E0F11",
"#I 	c #141618",
"$I 	c #272825",
"%I 	c #1C1D19",
"&I 	c #0A0A11",
"*I 	c #212024",
"=I 	c #2D2C31",
"-I 	c #1B1919",
";I 	c #111318",
">I 	c #16141B",
",I 	c #0E1015",
"'I 	c #6E6D67",
")I 	c #6C6C67",
"!I 	c #2B2B26",
"~I 	c #28272C",
"{I 	c #3E3E40",
"]I 	c #514E4C",
"^I 	c #555653",
"/I 	c #4A4B47",
"(I 	c #28272D",
"_I 	c #5C5957",
":I 	c #545251",
"<I 	c #121315",
"[I 	c #696761",
"}I 	c #676660",
"|I 	c #302F2A",
"1I 	c #1D1B20",
"2I 	c #302E32",
"3I 	c #181619",
"4I 	c #040402",
"5I 	c #403E40",
"6I 	c #575451",
"7I 	c #585552",
"8I 	c #565653",
"9I 	c #2E2E32",
"0I 	c #232525",
"aI 	c #545050",
"bI 	c #2A2825",
"cI 	c #464444",
"dI 	c #1B191A",
"eI 	c #66645D",
"fI 	c #66655D",
"gI 	c #302E31",
"hI 	c #181618",
"iI 	c #2A292C",
"jI 	c #595654",
"kI 	c #585957",
"lI 	c #585856",
"mI 	c #595756",
"nI 	c #4B4C49",
"oI 	c #1D1F24",
"pI 	c #202222",
"qI 	c #29282D",
"rI 	c #4B4943",
"sI 	c #1E1E1C",
"tI 	c #151512",
"uI 	c #4F4B4A",
"vI 	c #595553",
"wI 	c #525250",
"xI 	c #1B1D1F",
"yI 	c #4C4B44",
"zI 	c #423F39",
"AI 	c #585454",
"BI 	c #575453",
"CI 	c #131518",
"DI 	c #131519",
"EI 	c #15181B",
"FI 	c #17191C",
"GI 	c #181A1D",
"HI 	c #46423F",
"II 	c #212025",
"JI 	c #201F23",
"KI 	c #3B3A35",
"LI 	c #48473F",
"MI 	c #46443D",
"NI 	c #43403A",
"OI 	c #20201C",
"PI 	c #4D4946",
"QI 	c #4F4C4C",
"RI 	c #4B4848",
"SI 	c #212326",
"TI 	c #090D11",
"UI 	c #0A0D12",
"VI 	c #0B0E14",
"WI 	c #0C1015",
"XI 	c #0D1116",
"YI 	c #101318",
"ZI 	c #13151C",
"`I 	c #12131B",
" J 	c #0B0C0F",
".J 	c #3D3937",
"+J 	c #282527",
"@J 	c #3B3839",
"#J 	c #383935",
"$J 	c #131415",
"%J 	c #5E5D5C",
"&J 	c #0B0C0E",
"*J 	c #43413A",
"=J 	c #423F38",
"-J 	c #161311",
";J 	c #4A494A",
">J 	c #524D48",
",J 	c #504C4A",
"'J 	c #222427",
")J 	c #1F2224",
"!J 	c #000205",
"~J 	c #010308",
"{J 	c #03070C",
"]J 	c #04080E",
"^J 	c #04080F",
"/J 	c #040910",
"(J 	c #060A12",
"_J 	c #070A12",
":J 	c #090C13",
"<J 	c #0A0C13",
"[J 	c #0A0D13",
"}J 	c #0B0D14",
"|J 	c #0C0E14",
"1J 	c #0D0F16",
"2J 	c #0E1017",
"3J 	c #0C0E16",
"4J 	c #0B0D16",
"5J 	c #0A0C15",
"6J 	c #23252A",
"7J 	c #2F2D2B",
"8J 	c #312E2F",
"9J 	c #746F6A",
"0J 	c #3A3B37",
"aJ 	c #373833",
"bJ 	c #221F21",
"cJ 	c #62605F",
"dJ 	c #262729",
"eJ 	c #3B3A34",
"fJ 	c #4F4C43",
"gJ 	c #292721",
"hJ 	c #19171D",
"iJ 	c #1D1B1F",
"jJ 	c #514C49",
"kJ 	c #514D4B",
"lJ 	c #161819",
"mJ 	c #1D2021",
"nJ 	c #0D0F11",
"oJ 	c #020405",
"pJ 	c #020406",
"qJ 	c #1B181A",
"rJ 	c #1C181B",
"sJ 	c #1A1719",
"tJ 	c #191618",
"uJ 	c #171418",
"vJ 	c #151317",
"wJ 	c #151217",
"xJ 	c #161217",
"yJ 	c #171317",
"zJ 	c #191417",
"AJ 	c #191516",
"BJ 	c #1A1515",
"CJ 	c #191513",
"DJ 	c #151110",
"EJ 	c #0C0708",
"FJ 	c #17191E",
"GJ 	c #171A1F",
"HJ 	c #191B20",
"IJ 	c #1B1D22",
"JJ 	c #292A2E",
"KJ 	c #3A3733",
"LJ 	c #3D3A39",
"MJ 	c #252428",
"NJ 	c #353233",
"OJ 	c #858079",
"PJ 	c #7F7A73",
"QJ 	c #282626",
"RJ 	c #5E5C5C",
"SJ 	c #625F58",
"TJ 	c #6D6A61",
"UJ 	c #6E6B61",
"VJ 	c #6C6860",
"WJ 	c #5C5850",
"XJ 	c #3A3730",
"YJ 	c #14130F",
"ZJ 	c #1D1D1C",
"`J 	c #191815",
" K 	c #171612",
".K 	c #181510",
"+K 	c #726C62",
"@K 	c #6F695E",
"#K 	c #6C665B",
"$K 	c #6F685E",
"%K 	c #726A60",
"&K 	c #72695E",
"*K 	c #71665B",
"=K 	c #706558",
"-K 	c #6F6456",
";K 	c #6C6254",
">K 	c #6B6153",
",K 	c #6A6052",
"'K 	c #695F50",
")K 	c #675E4F",
"!K 	c #61584A",
"~K 	c #605749",
"{K 	c #5F5648",
"]K 	c #5F5548",
"^K 	c #5F5547",
"/K 	c #625748",
"(K 	c #635749",
"_K 	c #655949",
":K 	c #625746",
"<K 	c #4C4334",
"[K 	c #231B12",
"}K 	c #16181C",
"|K 	c #2E2E33",
"1K 	c #3A3633",
"2K 	c #8C877F",
"3K 	c #868179",
"4K 	c #393A36",
"5K 	c #484546",
"6K 	c #848177",
"7K 	c #837F76",
"8K 	c #474342",
"9K 	c #47453E",
"0K 	c #1D1914",
"aK 	c #261F18",
"bK 	c #251D14",
"cK 	c #2C2318",
"dK 	c #706555",
"eK 	c #B9AC98",
"fK 	c #B5A691",
"gK 	c #AD9D88",
"hK 	c #AA9A85",
"iK 	c #B0A08B",
"jK 	c #B6A590",
"kK 	c #B7A791",
"lK 	c #B7A691",
"mK 	c #B8A58F",
"nK 	c #B8A68E",
"oK 	c #B8A58C",
"pK 	c #B6A48A",
"qK 	c #B5A38A",
"rK 	c #B4A289",
"sK 	c #B2A186",
"tK 	c #B09F84",
"uK 	c #AC9C80",
"vK 	c #A7967B",
"wK 	c #A39277",
"xK 	c #A19075",
"yK 	c #9F8E74",
"zK 	c #9D8C72",
"AK 	c #9D8B71",
"BK 	c #9E8C71",
"CK 	c #9D8B70",
"DK 	c #9E8C70",
"EK 	c #9A886C",
"FK 	c #78684F",
"GK 	c #35291A",
"HK 	c #090401",
"IK 	c #303034",
"JK 	c #4B494A",
"KK 	c #363334",
"LK 	c #8C8780",
"MK 	c #8D8880",
"NK 	c #87827B",
"OK 	c #312D2E",
"PK 	c #4F504D",
"QK 	c #4F504B",
"RK 	c #535051",
"SK 	c #605D5E",
"TK 	c #1A1A17",
"UK 	c #7A7871",
"VK 	c #858379",
"WK 	c #827F76",
"XK 	c #3F3B36",
"YK 	c #14110E",
"ZK 	c #050607",
"`K 	c #3B3A3D",
" L 	c #413D3B",
".L 	c #4F4C44",
"+L 	c #524F48",
"@L 	c #120B06",
"#L 	c #19110C",
"$L 	c #211912",
"%L 	c #281F16",
"&L 	c #33291E",
"*L 	c #392D21",
"=L 	c #392C1F",
"-L 	c #3E3020",
";L 	c #80715C",
">L 	c #BBA891",
",L 	c #CEBBA1",
"'L 	c #CAB69B",
")L 	c #C1AD91",
"!L 	c #C0AA8E",
"~L 	c #C9B397",
"{L 	c #D1BB9F",
"]L 	c #D4BEA3",
"^L 	c #D5BFA4",
"/L 	c #D6C0A3",
"(L 	c #D6C0A2",
"_L 	c #D6BFA1",
":L 	c #D5BFA0",
"<L 	c #D4BEA0",
"[L 	c #D3BD9D",
"}L 	c #D1BC9B",
"|L 	c #CCB796",
"1L 	c #C4B08F",
"2L 	c #BDA988",
"3L 	c #BBA685",
"4L 	c #B9A483",
"5L 	c #B7A381",
"6L 	c #B5A181",
"7L 	c #B6A180",
"8L 	c #B4A07F",
"9L 	c #B5A07F",
"0L 	c #B09B7B",
"aL 	c #8F7C5E",
"bL 	c #41311E",
"cL 	c #090300",
"dL 	c #040000",
"eL 	c #140C06",
"fL 	c #1F1A15",
"gL 	c #2F2B28",
"hL 	c #3D3A3A",
"iL 	c #585556",
"jL 	c #4F4D4D",
"kL 	c #171716",
"lL 	c #8A867F",
"mL 	c #8D8981",
"nL 	c #736F6B",
"oL 	c #100E10",
"pL 	c #4E4F4A",
"qL 	c #545252",
"rL 	c #636061",
"sL 	c #64625B",
"tL 	c #312E2A",
"uL 	c #28231D",
"vL 	c #352F26",
"wL 	c #423A30",
"xL 	c #53493D",
"yL 	c #63584A",
"zL 	c #6A5E50",
"AL 	c #716455",
"BL 	c #766858",
"CL 	c #7D6E5E",
"DL 	c #817160",
"EL 	c #7F6F5D",
"FL 	c #796957",
"GL 	c #96876F",
"HL 	c #BFAD92",
"IL 	c #CFBB9F",
"JL 	c #CCB79A",
"KL 	c #C2AC8F",
"LL 	c #C1AB8C",
"ML 	c #CEB799",
"NL 	c #D9C3A5",
"OL 	c #DDC7AA",
"PL 	c #DDC9AC",
"QL 	c #DECAAD",
"RL 	c #DFCAAD",
"SL 	c #DFCAAC",
"TL 	c #DFC9AC",
"UL 	c #DDC9AB",
"VL 	c #DDC9AA",
"WL 	c #DDC8A9",
"XL 	c #DCC8A8",
"YL 	c #D7C2A3",
"ZL 	c #CCB897",
"`L 	c #C0AB8A",
" M 	c #BCA786",
".M 	c #BBA785",
"+M 	c #BAA684",
"@M 	c #B8A383",
"#M 	c #B6A181",
"$M 	c #B3A07F",
"%M 	c #9E8B6D",
"&M 	c #615139",
"*M 	c #3B2E1C",
"=M 	c #443926",
"-M 	c #534632",
";M 	c #594B38",
">M 	c #5B4D3A",
",M 	c #584937",
"'M 	c #524533",
")M 	c #514434",
"!M 	c #584E42",
"~M 	c #4D463F",
"{M 	c #2A2624",
"]M 	c #29272B",
"^M 	c #807D77",
"/M 	c #86847C",
"(M 	c #6B6964",
"_M 	c #252324",
":M 	c #484547",
"<M 	c #464344",
"[M 	c #353735",
"}M 	c #3D3C36",
"|M 	c #605D56",
"1M 	c #67635A",
"2M 	c #666259",
"3M 	c #5F5B52",
"4M 	c #524F47",
"5M 	c #494741",
"6M 	c #352E27",
"7M 	c #6F6355",
"8M 	c #81735F",
"9M 	c #8A7B65",
"0M 	c #988872",
"aM 	c #A4947D",
"bM 	c #A89882",
"cM 	c #AD9C85",
"dM 	c #AF9D86",
"eM 	c #B4A28A",
"fM 	c #B6A38C",
"gM 	c #B3A08B",
"hM 	c #AA9883",
"iM 	c #AF9F86",
"jM 	c #C3B296",
"kM 	c #CFBC9F",
"lM 	c #CEB99B",
"mM 	c #C5AF91",
"nM 	c #C5AE90",
"oM 	c #D6BFA2",
"pM 	c #E5CFB3",
"qM 	c #E9D5B9",
"rM 	c #E9D6BC",
"sM 	c #E9D7BC",
"tM 	c #EAD7BC",
"uM 	c #E9D6BB",
"vM 	c #E8D5B9",
"wM 	c #E7D5B9",
"xM 	c #E7D5B8",
"yM 	c #E9D6B8",
"zM 	c #E4D0B2",
"AM 	c #D3C1A1",
"BM 	c #C1AE8E",
"CM 	c #BCA888",
"DM 	c #BCA887",
"EM 	c #BBA786",
"FM 	c #BAA586",
"GM 	c #B9A585",
"HM 	c #B6A283",
"IM 	c #B5A282",
"JM 	c #B5A382",
"KM 	c #AC9A7B",
"LM 	c #8F7F61",
"MM 	c #847357",
"NM 	c #968566",
"OM 	c #A79473",
"PM 	c #AA9877",
"QM 	c #AB9879",
"RM 	c #A18E70",
"SM 	c #8E7C60",
"TM 	c #7D6D53",
"UM 	c #7B6C59",
"VM 	c #62584B",
"WM 	c #6B6864",
"XM 	c #6B6764",
"YM 	c #161518",
"ZM 	c #64635E",
"`M 	c #73716C",
" N 	c #6D6D67",
".N 	c #474844",
"+N 	c #51514D",
"@N 	c #1D1B1D",
"#N 	c #030409",
"$N 	c #201F1C",
"%N 	c #151615",
"&N 	c #110E0E",
"*N 	c #67645D",
"=N 	c #6D6A60",
"-N 	c #6C695F",
";N 	c #646057",
">N 	c #54514A",
",N 	c #100B08",
"'N 	c #4A3F35",
")N 	c #90806A",
"!N 	c #A08D73",
"~N 	c #A59275",
"{N 	c #B19D80",
"]N 	c #BBA78A",
"^N 	c #BCA98E",
"/N 	c #BEAA8F",
"(N 	c #BFA98F",
"_N 	c #C1AC91",
":N 	c #C1AC92",
"<N 	c #BFAA92",
"[N 	c #BAA68D",
"}N 	c #B8A58A",
"|N 	c #C3B092",
"1N 	c #CFBA9B",
"2N 	c #CFB99A",
"3N 	c #C7B190",
"4N 	c #C7B191",
"5N 	c #DBC4A5",
"6N 	c #ECD6B9",
"7N 	c #F1DDC1",
"8N 	c #F0DEC3",
"9N 	c #F1DEC4",
"0N 	c #F1DFC5",
"aN 	c #F0DEC4",
"bN 	c #F0DDC3",
"cN 	c #EFDCC2",
"dN 	c #EFDCC1",
"eN 	c #EFDCC0",
"fN 	c #F1DEC0",
"gN 	c #ECD8B9",
"hN 	c #D8C4A5",
"iN 	c #C1AE8D",
"jN 	c #BAA685",
"kN 	c #BAA585",
"lN 	c #B9A584",
"mN 	c #B8A484",
"nN 	c #B7A383",
"oN 	c #B6A383",
"pN 	c #B2A080",
"qN 	c #A79575",
"rN 	c #BBA682",
"sN 	c #CBB58E",
"tN 	c #CEB993",
"uN 	c #CFBA95",
"vN 	c #C4AF8B",
"wN 	c #AC9875",
"xN 	c #938061",
"yN 	c #897860",
"zN 	c #6A5E4E",
"AN 	c #322D24",
"BN 	c #6A6964",
"CN 	c #74736D",
"DN 	c #72706A",
"EN 	c #71706A",
"FN 	c #6E6E69",
"GN 	c #14151C",
"HN 	c #1E1F1E",
"IN 	c #070508",
"JN 	c #202026",
"KN 	c #191A19",
"LN 	c #21211F",
"MN 	c #15171A",
"NN 	c #6A675F",
"ON 	c #6B685E",
"PN 	c #646058",
"QN 	c #110C07",
"RN 	c #524435",
"SN 	c #907D63",
"TN 	c #9B8667",
"UN 	c #A08A6A",
"VN 	c #AD9777",
"WN 	c #B9A283",
"XN 	c #BBA487",
"YN 	c #BBA588",
"ZN 	c #BCA489",
"`N 	c #BBA488",
" O 	c #BAA488",
".O 	c #B8A186",
"+O 	c #B7A184",
"@O 	c #C0AB8B",
"#O 	c #CBB594",
"$O 	c #CDB594",
"%O 	c #C7AF8C",
"&O 	c #C8B08E",
"*O 	c #DBC3A2",
"=O 	c #ECD5B7",
"-O 	c #F1DCC0",
";O 	c #F2DEC3",
">O 	c #F2DFC5",
",O 	c #F2DEC4",
"'O 	c #F1DDC2",
")O 	c #F2DDC1",
"!O 	c #F3DEC1",
"~O 	c #EDD8B9",
"{O 	c #D8C3A3",
"]O 	c #C0AC8A",
"^O 	c #B8A381",
"/O 	c #B8A281",
"(O 	c #B9A382",
"_O 	c #BAA584",
":O 	c #B8A483",
"<O 	c #B7A382",
"[O 	c #B39F7F",
"}O 	c #AA9675",
"|O 	c #A89371",
"1O 	c #B5A07B",
"2O 	c #C3AE88",
"3O 	c #CAB48E",
"4O 	c #CDB792",
"5O 	c #C8B18C",
"6O 	c #B19B78",
"7O 	c #978363",
"8O 	c #8B785F",
"9O 	c #332C22",
"0O 	c #6B6965",
"aO 	c #161417",
"bO 	c #74756F",
"cO 	c #71716B",
"dO 	c #72716B",
"eO 	c #0E0C0B",
"fO 	c #2A2D2D",
"gO 	c #0D0F12",
"hO 	c #5F5B53",
"iO 	c #161110",
"jO 	c #1D160F",
"kO 	c #231A0F",
"lO 	c #291F12",
"mO 	c #2E2216",
"nO 	c #3F3121",
"oO 	c #6D5B43",
"pO 	c #978163",
"qO 	c #9E8766",
"rO 	c #A28C6A",
"sO 	c #B29A79",
"tO 	c #BEA687",
"uO 	c #C0AA8B",
"vO 	c #BFA98B",
"wO 	c #BEA78A",
"xO 	c #BEA78B",
"yO 	c #BDA78A",
"zO 	c #BCA689",
"AO 	c #BBA387",
"BO 	c #BAA385",
"CO 	c #C0AA89",
"DO 	c #CAB290",
"EO 	c #CEB492",
"FO 	c #CCB28E",
"GO 	c #CDB491",
"HO 	c #DAC3A1",
"IO 	c #E8D1B1",
"JO 	c #EED8BB",
"KO 	c #F0DBC0",
"LO 	c #F1DEC3",
"MO 	c #F2DEC5",
"NO 	c #F1DDC3",
"OO 	c #F2DDBF",
"PO 	c #EBD5B6",
"QO 	c #D8C2A1",
"RO 	c #C3AD8B",
"SO 	c #BCA684",
"TO 	c #BBA583",
"UO 	c #BAA583",
"VO 	c #B5A080",
"WO 	c #AE9879",
"XO 	c #A99574",
"YO 	c #AE9977",
"ZO 	c #B8A37F",
"`O 	c #BDA885",
" P 	c #C2AD8A",
".P 	c #C1AB89",
"+P 	c #AF9979",
"@P 	c #988466",
"#P 	c #8F7C62",
"$P 	c #756652",
"%P 	c #41392B",
"&P 	c #1D1911",
"*P 	c #1F1B16",
"=P 	c #1E1A15",
"-P 	c #18150F",
";P 	c #100D09",
">P 	c #656662",
",P 	c #60605C",
"'P 	c #1C1E22",
")P 	c #1E2021",
"!P 	c #262829",
"~P 	c #15131B",
"{P 	c #1E1A18",
"]P 	c #2A231C",
"^P 	c #382D20",
"/P 	c #544632",
"(P 	c #726147",
"_P 	c #826E53",
":P 	c #816C53",
"<P 	c #826E52",
"[P 	c #947F61",
"}P 	c #A79270",
"|P 	c #AA9472",
"1P 	c #AC9674",
"2P 	c #BBA383",
"3P 	c #C7B192",
"4P 	c #C9B395",
"5P 	c #C7B294",
"6P 	c #C6B093",
"7P 	c #C5AF92",
"8P 	c #C4AD90",
"9P 	c #C3AD8E",
"0P 	c #C7B090",
"aP 	c #CFB896",
"bP 	c #D6BD99",
"cP 	c #D7BD9A",
"dP 	c #D8BE9C",
"eP 	c #DEC6A4",
"fP 	c #E5CEAE",
"gP 	c #E9D3B6",
"hP 	c #EDD8BD",
"iP 	c #F0DCC2",
"jP 	c #F1DFC7",
"kP 	c #F1DEC5",
"lP 	c #F0DDC2",
"mP 	c #F0DBBD",
"nP 	c #E8D2B3",
"oP 	c #D9C4A3",
"pP 	c #CEB897",
"qP 	c #CDB696",
"rP 	c #CBB493",
"sP 	c #C4AE8D",
"tP 	c #BEA988",
"uP 	c #BDA887",
"vP 	c #BBA687",
"wP 	c #BBA686",
"xP 	c #BBA787",
"yP 	c #BBA688",
"zP 	c #BAA688",
"AP 	c #B9A586",
"BP 	c #BBA887",
"CP 	c #BBA888",
"DP 	c #BEAB8B",
"EP 	c #BEAA8B",
"FP 	c #B4A083",
"GP 	c #A79478",
"HP 	c #A49278",
"IP 	c #968771",
"JP 	c #796F5C",
"KP 	c #6E6558",
"LP 	c #736A5E",
"MP 	c #746C61",
"NP 	c #665F55",
"OP 	c #454037",
"PP 	c #24201A",
"QP 	c #191612",
"RP 	c #181613",
"SP 	c #181513",
"TP 	c #111316",
"UP 	c #4C4E4A",
"VP 	c #17151D",
"WP 	c #16141C",
"XP 	c #15131A",
"YP 	c #212323",
"ZP 	c #4A4641",
"`P 	c #454244",
" Q 	c #221D1A",
".Q 	c #342B21",
"+Q 	c #4A3B29",
"@Q 	c #746146",
"#Q 	c #A08967",
"$Q 	c #B29A76",
"%Q 	c #AE9573",
"&Q 	c #A58F6D",
"*Q 	c #A89472",
"=Q 	c #B29D7C",
"-Q 	c #B39E7D",
";Q 	c #B39D7B",
">Q 	c #BFA889",
",Q 	c #CCB798",
"'Q 	c #CFB99B",
")Q 	c #CDB89A",
"!Q 	c #CCB699",
"~Q 	c #CDB799",
"{Q 	c #CCB799",
"]Q 	c #CCB598",
"^Q 	c #CAB495",
"/Q 	c #CCB695",
"(Q 	c #D4BE9B",
"_Q 	c #DCC4A1",
":Q 	c #E0C8A4",
"<Q 	c #E1C9A6",
"[Q 	c #E3CBA9",
"}Q 	c #E7D2B4",
"|Q 	c #EBD6BA",
"1Q 	c #EFDBC2",
"2Q 	c #F3E0C8",
"3Q 	c #F4E2CB",
"4Q 	c #F3E3CC",
"5Q 	c #F3E3CB",
"6Q 	c #F4E2CA",
"7Q 	c #F3DFC6",
"8Q 	c #EFDABE",
"9Q 	c #E5D0B0",
"0Q 	c #DCC6A6",
"aQ 	c #DBC4A4",
"bQ 	c #DEC7A7",
"cQ 	c #DAC2A2",
"dQ 	c #CDB796",
"eQ 	c #C2AD8C",
"fQ 	c #BFAA89",
"gQ 	c #BDA889",
"hQ 	c #BDA989",
"iQ 	c #BEA98A",
"jQ 	c #C2AD8E",
"kQ 	c #C6B295",
"lQ 	c #CBB79A",
"mQ 	c #CAB699",
"nQ 	c #C8B597",
"oQ 	c #C4B294",
"pQ 	c #C5B194",
"qQ 	c #C0AD91",
"rQ 	c #BBA98D",
"sQ 	c #BDAC90",
"tQ 	c #B9A890",
"uQ 	c #A99B84",
"vQ 	c #A59985",
"wQ 	c #AC9F8D",
"xQ 	c #AFA391",
"yQ 	c #9D9283",
"zQ 	c #6C6458",
"AQ 	c #39322A",
"BQ 	c #25201A",
"CQ 	c #211D18",
"DQ 	c #1A1713",
"EQ 	c #424444",
"FQ 	c #232526",
"GQ 	c #504F49",
"HQ 	c #4A4943",
"IQ 	c #403F39",
"JQ 	c #030208",
"KQ 	c #131118",
"LQ 	c #141212",
"MQ 	c #433F40",
"NQ 	c #444143",
"OQ 	c #100B0A",
"PQ 	c #28201B",
"QQ 	c #3B2E22",
"RQ 	c #4F3D29",
"SQ 	c #766145",
"TQ 	c #AC9573",
"UQ 	c #A7906F",
"VQ 	c #A18C6B",
"WQ 	c #A99475",
"XQ 	c #B39F80",
"YQ 	c #CBB596",
"ZQ 	c #CDB698",
"`Q 	c #CFB899",
" R 	c #CEB898",
".R 	c #CDB798",
"+R 	c #CCB596",
"@R 	c #C9B394",
"#R 	c #CAB494",
"$R 	c #D3BC9B",
"%R 	c #DCC4A2",
"&R 	c #E2CAA8",
"*R 	c #E4CBAB",
"=R 	c #E5CDAE",
"-R 	c #E7D0B3",
";R 	c #EAD5BA",
">R 	c #F0DBC2",
",R 	c #F6E2CB",
"'R 	c #F8E6CF",
")R 	c #F8E8D1",
"!R 	c #F8E9D1",
"~R 	c #F9E7D0",
"{R 	c #F7E2C9",
"]R 	c #EFDABD",
"^R 	c #E3CDAD",
"/R 	c #DFC7A8",
"(R 	c #E2CAAB",
"_R 	c #DCC4A5",
":R 	c #C4AE8E",
"<R 	c #BEA989",
"[R 	c #BFAA8A",
"}R 	c #C1AB8D",
"|R 	c #C6B092",
"1R 	c #CAB598",
"2R 	c #CEBA9D",
"3R 	c #CCB79C",
"4R 	c #C8B499",
"5R 	c #C3B194",
"6R 	c #C2B093",
"7R 	c #C2AF93",
"8R 	c #C0AE92",
"9R 	c #BFAD91",
"0R 	c #C5B397",
"aR 	c #C4B299",
"bR 	c #B7A88E",
"cR 	c #B4A68D",
"dR 	c #BAAC94",
"eR 	c #BDAF99",
"fR 	c #AC9E8C",
"gR 	c #796E60",
"hR 	c #42382D",
"iR 	c #2B231C",
"jR 	c #26201A",
"kR 	c #1B1611",
"lR 	c #242223",
"mR 	c #373431",
"nR 	c #4A453D",
"oR 	c #453F37",
"pR 	c #464039",
"qR 	c #48423C",
"rR 	c #49443D",
"sR 	c #443E38",
"tR 	c #403A34",
"uR 	c #3C3730",
"vR 	c #3B3630",
"wR 	c #3B3831",
"xR 	c #424443",
"yR 	c #3B3D3F",
"zR 	c #383A3C",
"AR 	c #06050A",
"BR 	c #403D36",
"CR 	c #443F37",
"DR 	c #514C40",
"ER 	c #5B5448",
"FR 	c #625B4E",
"GR 	c #655E52",
"HR 	c #686055",
"IR 	c #676054",
"JR 	c #675F53",
"KR 	c #635D51",
"LR 	c #575246",
"MR 	c #474238",
"NR 	c #413D34",
"OR 	c #423E35",
"PR 	c #423E37",
"QR 	c #41403A",
"RR 	c #3D3A3B",
"SR 	c #16120D",
"TR 	c #18140E",
"UR 	c #1D1711",
"VR 	c #2C241C",
"WR 	c #42362A",
"XR 	c #544432",
"YR 	c #604E37",
"ZR 	c #7A6549",
"`R 	c #957F61",
" S 	c #A08A6B",
".S 	c #9C8768",
"+S 	c #9B8869",
"@S 	c #A89578",
"#S 	c #B5A184",
"$S 	c #B39F7E",
"%S 	c #C8B393",
"&S 	c #CCB797",
"*S 	c #CBB595",
"=S 	c #CDB697",
"-S 	c #D5BD9D",
";S 	c #D9C1A0",
">S 	c #D7C1A0",
",S 	c #D4BD9D",
"'S 	c #D2BB9B",
")S 	c #D2BC9B",
"!S 	c #D8C1A1",
"~S 	c #E2CBAB",
"{S 	c #E4CBAD",
"]S 	c #E5CDB0",
"^S 	c #E8D1B4",
"/S 	c #EBD5B9",
"(S 	c #EFD9BF",
"_S 	c #F3DEC5",
":S 	c #F5E1C9",
"<S 	c #F6E4CC",
"[S 	c #F7E4CD",
"}S 	c #F7E4CB",
"|S 	c #F5DFC4",
"1S 	c #EED8B9",
"2S 	c #E4CDAE",
"3S 	c #E0C9AA",
"4S 	c #E3CBAC",
"5S 	c #D4BD9E",
"6S 	c #CBB494",
"7S 	c #C8B293",
"8S 	c #C7B292",
"9S 	c #CDB99C",
"0S 	c #C9B69A",
"aS 	c #C5B296",
"bS 	c #C1AE92",
"cS 	c #C0AD92",
"dS 	c #BEAC91",
"eS 	c #C8B59A",
"fS 	c #C9B69C",
"gS 	c #BCAC91",
"hS 	c #B7A88D",
"iS 	c #BBAC93",
"jS 	c #BEAF96",
"kS 	c #AEA08A",
"lS 	c #837664",
"mS 	c #5B4F40",
"nS 	c #53483C",
"oS 	c #4E453A",
"pS 	c #373027",
"qS 	c #17110B",
"rS 	c #080503",
"sS 	c #120E0C",
"tS 	c #15171C",
"uS 	c #524B42",
"vS 	c #6B6254",
"wS 	c #6D6455",
"xS 	c #6E6455",
"yS 	c #706658",
"zS 	c #73685B",
"AS 	c #645B4D",
"BS 	c #52493C",
"CS 	c #4C4337",
"DS 	c #494135",
"ES 	c #443E33",
"FS 	c #37393A",
"GS 	c #343738",
"HS 	c #4E483F",
"IS 	c #4C4538",
"JS 	c #59503F",
"KS 	c #7D7360",
"LS 	c #948A75",
"MS 	c #9C917C",
"NS 	c #9E917D",
"OS 	c #A0937E",
"PS 	c #9E917C",
"QS 	c #9D907C",
"RS 	c #9A8F7A",
"SS 	c #867C69",
"TS 	c #645B4B",
"US 	c #51493C",
"VS 	c #4B453A",
"WS 	c #010005",
"XS 	c #020107",
"YS 	c #131119",
"ZS 	c #4B4745",
"`S 	c #414142",
" T 	c #242019",
".T 	c #3D372B",
"+T 	c #494233",
"@T 	c #4E4435",
"#T 	c #594D3D",
"$T 	c #675744",
"%T 	c #74634C",
"&T 	c #7A674E",
"*T 	c #847055",
"=T 	c #907B60",
"-T 	c #978366",
";T 	c #968367",
">T 	c #99876A",
",T 	c #A8967A",
"'T 	c #B5A286",
")T 	c #B6A385",
"!T 	c #C6B190",
"~T 	c #CAB594",
"{T 	c #C9B493",
"]T 	c #CFB998",
"^T 	c #E1C9A9",
"/T 	c #ECD5B4",
"(T 	c #EDD7B5",
"_T 	c #EAD4B3",
":T 	c #E8D1B0",
"<T 	c #E5CFAF",
"[T 	c #E7D1B2",
"}T 	c #E9D3B5",
"|T 	c #E7D0B4",
"1T 	c #E6CEB3",
"2T 	c #E6CDB3",
"3T 	c #E5CDB2",
"4T 	c #E3CBB0",
"5T 	c #E1C9AE",
"6T 	c #E0C8AD",
"7T 	c #E0C9AE",
"8T 	c #E2CBB1",
"9T 	c #E4CCB3",
"0T 	c #E5CEB4",
"aT 	c #E5CFB2",
"bT 	c #E5CFB0",
"cT 	c #E5CEAF",
"dT 	c #E6CFB1",
"eT 	c #E8D1B2",
"fT 	c #E9D2B3",
"gT 	c #E7D0B0",
"hT 	c #E3CCAD",
"iT 	c #DFC8A9",
"jT 	c #DEC8A8",
"kT 	c #DCC5A6",
"lT 	c #D8C2A3",
"mT 	c #D0BA9B",
"nT 	c #CBB497",
"oT 	c #CBB498",
"pT 	c #CCB69B",
"qT 	c #CAB79B",
"rT 	c #CEB99E",
"sT 	c #CDB99E",
"tT 	c #C8B699",
"uT 	c #D0BCA1",
"vT 	c #D1BEA2",
"wT 	c #C4B397",
"xT 	c #BDAC92",
"yT 	c #BFAE94",
"zT 	c #C1B096",
"AT 	c #B6A68D",
"BT 	c #9D8E77",
"CT 	c #8F7F6B",
"DT 	c #92826F",
"ET 	c #8B7E6B",
"FT 	c #3F3528",
"GT 	c #2D251B",
"HT 	c #312A22",
"IT 	c #2E2822",
"JT 	c #201D1A",
"KT 	c #2E2B2A",
"LT 	c #58544D",
"MT 	c #59554E",
"NT 	c #202120",
"OT 	c #14141D",
"PT 	c #13131C",
"QT 	c #494339",
"RT 	c #5B5245",
"ST 	c #867B6A",
"TT 	c #A89B86",
"UT 	c #ACA08A",
"VT 	c #ABA08A",
"WT 	c #AEA18C",
"XT 	c #AFA28D",
"YT 	c #B3A692",
"ZT 	c #A49784",
"`T 	c #7C715E",
" U 	c #675B48",
".U 	c #5F5340",
"+U 	c #534938",
"@U 	c #484136",
"#U 	c #303233",
"$U 	c #535149",
"%U 	c #524C41",
"&U 	c #504736",
"*U 	c #675B46",
"=U 	c #A0947C",
"-U 	c #C2B59C",
";U 	c #C9BCA2",
">U 	c #CABBA1",
",U 	c #CBBCA1",
"'U 	c #C9BA9F",
")U 	c #837763",
"!U 	c #635745",
"~U 	c #5D5241",
"{U 	c #534C3E",
"]U 	c #444038",
"^U 	c #010106",
"/U 	c #0F0C0A",
"(U 	c #5F5D57",
"_U 	c #504B48",
":U 	c #504D4D",
"<U 	c #30291F",
"[U 	c #5C5241",
"}U 	c #71644F",
"|U 	c #73644F",
"1U 	c #796A53",
"2U 	c #7E6D55",
"3U 	c #86745B",
"4U 	c #88755B",
"5U 	c #8B785D",
"6U 	c #907D62",
"7U 	c #958366",
"8U 	c #948266",
"9U 	c #99876B",
"0U 	c #A9967B",
"aU 	c #B6A387",
"bU 	c #B8A486",
"cU 	c #B4A180",
"dU 	c #C5B090",
"eU 	c #C9B594",
"fU 	c #D0BA99",
"gU 	c #F7E2C2",
"hU 	c #FAE5C5",
"iU 	c #F8E2C3",
"jU 	c #F5DFC0",
"kU 	c #F2DCC0",
"lU 	c #F0DABF",
"mU 	c #EED9BE",
"nU 	c #EBD5BB",
"oU 	c #E9D2B9",
"pU 	c #E7CFB6",
"qU 	c #E3CBB1",
"rU 	c #DEC5AA",
"sU 	c #D7BEA2",
"tU 	c #D2B89C",
"uU 	c #D0B79A",
"vU 	c #D1B89C",
"wU 	c #D3BA9E",
"xU 	c #D6BDA1",
"yU 	c #DAC3A5",
"zU 	c #E1CAAC",
"AU 	c #E7D0B1",
"BU 	c #EAD3B4",
"CU 	c #EBD4B5",
"DU 	c #ECD6B6",
"EU 	c #ECD6B7",
"FU 	c #EAD4B5",
"GU 	c #E5CFB1",
"HU 	c #D7C1A2",
"IU 	c #CBB697",
"JU 	c #C8B395",
"KU 	c #CBB599",
"LU 	c #CDB89B",
"MU 	c #D3BEA1",
"NU 	c #D7C3A6",
"OU 	c #DCC7AC",
"PU 	c #DBC6AA",
"QU 	c #D2BEA1",
"RU 	c #CFBB9D",
"SU 	c #D6C2A4",
"TU 	c #CBB89B",
"UU 	c #C4B195",
"VU 	c #C4B296",
"WU 	c #B2A085",
"XU 	c #B19E84",
"YU 	c #B5A389",
"ZU 	c #AD9C82",
"`U 	c #8B7C64",
" V 	c #60523D",
".V 	c #534736",
"+V 	c #584D3F",
"@V 	c #4A4237",
"#V 	c #25211A",
"$V 	c #67645C",
"%V 	c #11121B",
"&V 	c #433F39",
"*V 	c #443E36",
"=V 	c #464034",
"-V 	c #5E5545",
";V 	c #988C78",
">V 	c #C5B79F",
",V 	c #CBBEA4",
"'V 	c #C9BCA3",
")V 	c #CBBDA5",
"!V 	c #CCBFA7",
"~V 	c #D2C6AF",
"{V 	c #D7CAB4",
"]V 	c #CBBCA7",
"^V 	c #968873",
"/V 	c #766751",
"(V 	c #695B44",
"_V 	c #594D39",
":V 	c #4A4134",
"<V 	c #444039",
"[V 	c #504E46",
"}V 	c #4F493E",
"|V 	c #4C4331",
"1V 	c #665A44",
"2V 	c #A6977F",
"3V 	c #CBBDA3",
"4V 	c #D2C4A9",
"5V 	c #D1C1A6",
"6V 	c #D2C2A6",
"7V 	c #CFC0A3",
"8V 	c #D1C1A5",
"9V 	c #D7C8AE",
"0V 	c #BFB099",
"aV 	c #8B7D69",
"bV 	c #675A46",
"cV 	c #605442",
"dV 	c #564D3F",
"eV 	c #454138",
"fV 	c #000004",
"gV 	c #07070E",
"hV 	c #5F5C57",
"iV 	c #181918",
"jV 	c #464140",
"kV 	c #4D4947",
"lV 	c #4F4A48",
"mV 	c #534E4C",
"nV 	c #534E4D",
"oV 	c #504E4E",
"pV 	c #362D21",
"qV 	c #675946",
"rV 	c #7D6E56",
"sV 	c #7C6B53",
"tV 	c #7E6C54",
"uV 	c #826F56",
"vV 	c #87745B",
"wV 	c #89765B",
"xV 	c #8B795E",
"yV 	c #917E63",
"zV 	c #958367",
"AV 	c #9A876B",
"BV 	c #A9967A",
"CV 	c #B6A386",
"DV 	c #B8A587",
"EV 	c #CAB595",
"FV 	c #CFB999",
"GV 	c #F6E2C2",
"HV 	c #FAE6C7",
"IV 	c #F8E4C6",
"JV 	c #F5E1C4",
"KV 	c #F2DEC2",
"LV 	c #F2DDC3",
"MV 	c #F1DCC4",
"NV 	c #EFDAC3",
"OV 	c #ECD6BF",
"PV 	c #E9D3BB",
"QV 	c #E5CEB6",
"RV 	c #E1CAB0",
"SV 	c #DDC5A9",
"TV 	c #D8BFA3",
"UV 	c #D6BC9F",
"VV 	c #D5BA9D",
"WV 	c #D5BB9E",
"XV 	c #D6BDA0",
"YV 	c #D9C0A3",
"ZV 	c #DDC5A7",
"`V 	c #E4CCAE",
" W 	c #E8D1B3",
".W 	c #EAD3B5",
"+W 	c #E9D3B4",
"@W 	c #EBD6B7",
"#W 	c #EDD7B8",
"$W 	c #D7C1A3",
"%W 	c #C9B495",
"&W 	c #C7B194",
"*W 	c #CAB597",
"=W 	c #CDB79B",
"-W 	c #D5BFA3",
";W 	c #DAC5A7",
">W 	c #DEC9AC",
",W 	c #DDC7A9",
"'W 	c #D2BD9F",
")W 	c #CEBA9B",
"!W 	c #D6C1A3",
"~W 	c #D7C2A5",
"{W 	c #CCB89B",
"]W 	c #C5B195",
"^W 	c #C5B295",
"/W 	c #BDAA8D",
"(W 	c #B19E82",
"_W 	c #AE9A7D",
":W 	c #AE997D",
"<W 	c #A49175",
"[W 	c #88765C",
"}W 	c #695841",
"|W 	c #685743",
"1W 	c #6D5E4C",
"2W 	c #584D3E",
"3W 	c #292419",
"4W 	c #2C2B27",
"5W 	c #6E6A62",
"6W 	c #706B62",
"7W 	c #090609",
"8W 	c #131210",
"9W 	c #12141B",
"0W 	c #101219",
"aW 	c #535151",
"bW 	c #6B6A66",
"cW 	c #454033",
"dW 	c #5B5243",
"eW 	c #938773",
"fW 	c #BEB098",
"gW 	c #C3B79D",
"hW 	c #C0B49B",
"iW 	c #C1B49D",
"jW 	c #C2B69F",
"kW 	c #CABFA9",
"lW 	c #D3C8B2",
"mW 	c #C8BBA7",
"nW 	c #948672",
"oW 	c #74644F",
"pW 	c #675841",
"qW 	c #574A34",
"rW 	c #493F30",
"sW 	c #433E35",
"tW 	c #504635",
"uW 	c #685B45",
"vW 	c #A3947C",
"wW 	c #C7B89E",
"xW 	c #CCBEA3",
"yW 	c #C9B89F",
"zW 	c #C9B89E",
"AW 	c #C7B79C",
"BW 	c #C8B89E",
"CW 	c #CCBCA3",
"DW 	c #B3A38D",
"EW 	c #81745F",
"FW 	c #665945",
"GW 	c #625643",
"HW 	c #584F40",
"IW 	c #282525",
"JW 	c #2F2C2B",
"KW 	c #19171C",
"LW 	c #0C0908",
"MW 	c #1F1A13",
"NW 	c #43392A",
"OW 	c #6E5F4A",
"PW 	c #817158",
"QW 	c #7D6B53",
"RW 	c #7E6B53",
"SW 	c #837057",
"TW 	c #857359",
"UW 	c #938065",
"VW 	c #978568",
"WW 	c #978468",
"XW 	c #9B886B",
"YW 	c #A99779",
"ZW 	c #B9A687",
"`W 	c #B6A382",
" X 	c #C6B191",
".X 	c #CBB696",
"+X 	c #CEB998",
"@X 	c #E2CCAB",
"#X 	c #F3DDBD",
"$X 	c #F8E4C4",
"%X 	c #F7E1C4",
"&X 	c #F4DFC2",
"*X 	c #F1DCC3",
"=X 	c #F2DCC5",
"-X 	c #F1DBC5",
";X 	c #EED8C3",
">X 	c #EBD5BF",
",X 	c #E7D0B8",
"'X 	c #E0C9AF",
")X 	c #DAC3A7",
"!X 	c #D9BFA3",
"~X 	c #D9BFA1",
"{X 	c #D9BEA0",
"]X 	c #D9C0A2",
"^X 	c #DCC3A6",
"/X 	c #DFC7A9",
"(X 	c #E9D4B5",
"_X 	c #ECD5B6",
":X 	c #CCB698",
"<X 	c #CBB597",
"[X 	c #CEB89B",
"}X 	c #D0BA9D",
"|X 	c #DAC4A6",
"1X 	c #DDC8AA",
"2X 	c #DBC5A7",
"3X 	c #D1BB9D",
"4X 	c #CEB99A",
"5X 	c #D4C0A1",
"6X 	c #D5C1A3",
"7X 	c #B8A589",
"8X 	c #AC9A7D",
"9X 	c #A99578",
"0X 	c #A89478",
"aX 	c #9F8C70",
"bX 	c #87755B",
"cX 	c #726048",
"dX 	c #77654F",
"eX 	c #7D6D58",
"fX 	c #685B49",
"gX 	c #3A3225",
"hX 	c #16130E",
"iX 	c #353632",
"jX 	c #35322F",
"kX 	c #6D685F",
"lX 	c #181517",
"mX 	c #141311",
"nX 	c #6C6A66",
"oX 	c #484239",
"pX 	c #4A4437",
"qX 	c #5C5343",
"rX 	c #8B806C",
"sX 	c #AFA38D",
"tX 	c #B2A790",
"uX 	c #ADA28C",
"vX 	c #ADA28D",
"wX 	c #AFA38F",
"xX 	c #B8AE9A",
"yX 	c #C0B6A3",
"zX 	c #B6AA99",
"AX 	c #897B69",
"BX 	c #6F604B",
"CX 	c #655640",
"DX 	c #584933",
"EX 	c #4A3F2F",
"FX 	c #453E34",
"GX 	c #524E45",
"HX 	c #5E5447",
"IX 	c #605443",
"JX 	c #6F604C",
"KX 	c #9B8C74",
"LX 	c #B7A890",
"MX 	c #BBAC94",
"NX 	c #B8A891",
"OX 	c #B8A78E",
"PX 	c #B7A68D",
"QX 	c #B8A68F",
"RX 	c #B8A790",
"SX 	c #9F9079",
"TX 	c #746752",
"UX 	c #625441",
"VX 	c #635645",
"WX 	c #2E2B29",
"XX 	c #18161B",
"YX 	c #453E33",
"ZX 	c #5A503D",
"`X 	c #74664F",
" Y 	c #7D6E55",
".Y 	c #7D6B54",
"+Y 	c #7A6851",
"@Y 	c #7D6A53",
"#Y 	c #816F56",
"$Y 	c #8A775D",
"%Y 	c #958268",
"&Y 	c #9A876C",
"*Y 	c #988569",
"=Y 	c #9C896C",
"-Y 	c #A99679",
";Y 	c #BAA687",
">Y 	c #C7B291",
",Y 	c #CDB795",
"'Y 	c #DDC6A4",
")Y 	c #EDD6B4",
"!Y 	c #F3DDBB",
"~Y 	c #F2DCBC",
"{Y 	c #F0DABC",
"]Y 	c #EEDABD",
"^Y 	c #F0DCC1",
"/Y 	c #F1DCC5",
"(Y 	c #F1DCC6",
"_Y 	c #F0DBC5",
":Y 	c #EFDAC4",
"<Y 	c #EBD5BE",
"[Y 	c #DAC2A6",
"}Y 	c #D8BFA2",
"|Y 	c #DABFA1",
"1Y 	c #DAC0A1",
"2Y 	c #DAC1A3",
"3Y 	c #E0C7A9",
"4Y 	c #E6CFB0",
"5Y 	c #E8D2B2",
"6Y 	c #D2BB9D",
"7Y 	c #D3BC9F",
"8Y 	c #D5BEA1",
"9Y 	c #D5BE9F",
"0Y 	c #D9C2A3",
"aY 	c #D9C2A4",
"bY 	c #D2BD9E",
"cY 	c #D1BD9F",
"dY 	c #C5B294",
"eY 	c #BCAA8D",
"fY 	c #BCA98D",
"gY 	c #B9A78B",
"hY 	c #B2A084",
"iY 	c #A9977B",
"jY 	c #A89579",
"kY 	c #AA977B",
"lY 	c #A59276",
"mY 	c #928267",
"nY 	c #84735B",
"oY 	c #897961",
"pY 	c #8F816A",
"qY 	c #7E735E",
"rY 	c #574F40",
"sY 	c #3A362C",
"tY 	c #33322B",
"uY 	c #20211F",
"vY 	c #3F3F3A",
"wY 	c #68635B",
"xY 	c #393534",
"yY 	c #312F30",
"zY 	c #4F493F",
"AY 	c #5E5444",
"BY 	c #847866",
"CY 	c #A29682",
"DY 	c #A29783",
"EY 	c #9B917E",
"FY 	c #9A907E",
"GY 	c #9B907F",
"HY 	c #A29787",
"IY 	c #A89E8E",
"JY 	c #9F9483",
"KY 	c #7B6F5D",
"LY 	c #6B5D49",
"MY 	c #5D4F39",
"NY 	c #4E4232",
"OY 	c #463E33",
"PY 	c #403C36",
"QY 	c #58534B",
"RY 	c #6C6455",
"SY 	c #726654",
"TY 	c #776956",
"UY 	c #958770",
"VY 	c #AC9F87",
"WY 	c #B0A38C",
"XY 	c #B0A08A",
"YY 	c #B0A089",
"ZY 	c #AE9E87",
"`Y 	c #AD9D87",
" Z 	c #968872",
".Z 	c #726550",
"+Z 	c #645744",
"@Z 	c #665A48",
"#Z 	c #5A5243",
"$Z 	c #433F36",
"%Z 	c #2C2928",
"&Z 	c #1B1E1F",
"*Z 	c #1C1E20",
"=Z 	c #252321",
"-Z 	c #625A4A",
";Z 	c #6C604B",
">Z 	c #786A52",
",Z 	c #7B6B53",
"'Z 	c #7B6A53",
")Z 	c #7D6C55",
"!Z 	c #7B6952",
"~Z 	c #806E55",
"{Z 	c #8B795F",
"]Z 	c #99876C",
"^Z 	c #9B896D",
"/Z 	c #9D8B6D",
"(Z 	c #A99678",
"_Z 	c #B6A384",
":Z 	c #BAA686",
"<Z 	c #BAA484",
"[Z 	c #BEA887",
"}Z 	c #C8B391",
"|Z 	c #CFB997",
"1Z 	c #CEB896",
"2Z 	c #CDB794",
"3Z 	c #D9C29F",
"4Z 	c #E6CFAB",
"5Z 	c #EBD4B1",
"6Z 	c #EBD4B2",
"7Z 	c #ECD7B9",
"8Z 	c #F2DEC7",
"9Z 	c #F2DFC9",
"0Z 	c #F3E0CA",
"aZ 	c #F6E1CB",
"bZ 	c #F3DCC5",
"cZ 	c #E8D0B6",
"dZ 	c #DDC6A8",
"eZ 	c #DAC2A3",
"fZ 	c #DBC1A2",
"gZ 	c #DBC2A3",
"hZ 	c #DDC4A6",
"iZ 	c #E6D0B1",
"jZ 	c #E7D1B1",
"kZ 	c #E9D3B3",
"lZ 	c #EAD3B3",
"mZ 	c #E2CBAC",
"nZ 	c #D8C0A1",
"oZ 	c #D6BE9E",
"pZ 	c #D8C1A0",
"qZ 	c #DAC3A2",
"rZ 	c #D9C1A1",
"sZ 	c #D0B99A",
"tZ 	c #C0AD8F",
"uZ 	c #B7A588",
"vZ 	c #B7A589",
"wZ 	c #B5A488",
"xZ 	c #AF9E82",
"yZ 	c #A9977C",
"zZ 	c #AB997E",
"AZ 	c #B09E82",
"BZ 	c #AD9B7F",
"CZ 	c #9D8D72",
"DZ 	c #908168",
"EZ 	c #93866D",
"FZ 	c #988D73",
"GZ 	c #8A8069",
"HZ 	c #6B6251",
"IZ 	c #544E42",
"JZ 	c #4E4A40",
"KZ 	c #46433A",
"LZ 	c #282926",
"MZ 	c #2F312E",
"NZ 	c #2F302D",
"OZ 	c #4C4A43",
"PZ 	c #68645C",
"QZ 	c #20212A",
"RZ 	c #21222A",
"SZ 	c #393533",
"TZ 	c #575146",
"UZ 	c #5A5245",
"VZ 	c #63594A",
"WZ 	c #847966",
"XZ 	c #A09480",
"YZ 	c #9F9582",
"ZZ 	c #988E7D",
"`Z 	c #958C7C",
" ` 	c #93897B",
".` 	c #988F80",
"+` 	c #9C9284",
"@` 	c #93897A",
"#` 	c #776C5C",
"$` 	c #706250",
"%` 	c #72624E",
"&` 	c #675944",
"*` 	c #534837",
"=` 	c #473E33",
"-` 	c #413D35",
";` 	c #353531",
">` 	c #59564E",
",` 	c #73695C",
"'` 	c #786B5B",
")` 	c #776959",
"!` 	c #8D806D",
"~` 	c #A59A85",
"{` 	c #ABA18D",
"]` 	c #AB9D8B",
"^` 	c #AB9E8A",
"/` 	c #A89B87",
"(` 	c #AA9C88",
"_` 	c #988B77",
":` 	c #776B58",
"<` 	c #665A49",
"[` 	c #645949",
"}` 	c #585042",
"|` 	c #403C34",
"1` 	c #45413B",
"2` 	c #292626",
"3` 	c #101316",
"4` 	c #14171A",
"5` 	c #171A1D",
"6` 	c #25231F",
"7` 	c #4C4840",
"8` 	c #615B4E",
"9` 	c #665C4B",
"0` 	c #6C5F4A",
"a` 	c #73644D",
"b` 	c #76674F",
"c` 	c #776650",
"d` 	c #7B6C55",
"e` 	c #7C6A54",
"f` 	c #7D6C54",
"g` 	c #806E56",
"h` 	c #8C7960",
"i` 	c #9C896F",
"j` 	c #A28F74",
"k` 	c #9F8C6F",
"l` 	c #AA9778",
"m` 	c #B6A284",
"n` 	c #BFA887",
"o` 	c #C9B392",
"p` 	c #CDB694",
"q` 	c #D5BE9B",
"r` 	c #E0C9A4",
"s` 	c #E4CDA9",
"t` 	c #E3CCA9",
"u` 	c #E3CDAB",
"v` 	c #F3E0C9",
"w` 	c #F4E2CC",
"x` 	c #F9E5CF",
"y` 	c #F7E0C9",
"z` 	c #EBD2B8",
"A` 	c #DEC6A8",
"B` 	c #DCC2A4",
"C` 	c #E3CEAE",
"D` 	c #E3CEAD",
"E` 	c #E4CEAE",
"F` 	c #E9D1B1",
"G` 	c #E6CEAF",
"H` 	c #E5CDAD",
"I` 	c #E4CCAD",
"J` 	c #E1CAAB",
"K` 	c #D7BF9F",
"L` 	c #D3BA99",
"M` 	c #D5BE9C",
"N` 	c #D7C09F",
"O` 	c #CFB798",
"P` 	c #C9B294",
"Q` 	c #CAB596",
"R` 	c #BAA88A",
"S` 	c #B3A185",
"T` 	c #B3A186",
"U` 	c #AD9C80",
"V` 	c #A9977D",
"W` 	c #AD9C81",
"X` 	c #AB9A7F",
"Y` 	c #9B8B72",
"Z` 	c #8C7E65",
"`` 	c #8D8068",
"  .	c #91856C",
". .	c #817660",
"+ .	c #655B48",
"@ .	c #564E3E",
"# .	c #564E42",
"$ .	c #4E473D",
"% .	c #302B25",
"& .	c #282A27",
"* .	c #252724",
"= .	c #67655E",
"- .	c #1F2029",
"; .	c #38393B",
"> .	c #595249",
", .	c #5E564A",
"' .	c #645A4D",
") .	c #807566",
"! .	c #9B917F",
"~ .	c #9C9483",
"{ .	c #938C7F",
"] .	c #8F887C",
"^ .	c #8B8479",
"/ .	c #8E877C",
"( .	c #8F897E",
"_ .	c #898175",
": .	c #736A5D",
"< .	c #716657",
"[ .	c #756856",
"} .	c #685C4B",
"| .	c #4E4436",
"1 .	c #3E382D",
"2 .	c #3C3931",
"3 .	c #3C3B36",
"4 .	c #2E302D",
"5 .	c #343530",
"6 .	c #59574F",
"7 .	c #736B5E",
"8 .	c #766B5B",
"9 .	c #908778",
"0 .	c #91897B",
"a .	c #8D8477",
"b .	c #8D8475",
"c .	c #8C8373",
"d .	c #8E8575",
"e .	c #928979",
"f .	c #8A7F70",
"g .	c #73695A",
"h .	c #615849",
"i .	c #544D40",
"j .	c #3B3830",
"k .	c #303232",
"l .	c #837B71",
"m .	c #877F74",
"n .	c #7E786F",
"o .	c #161716",
"p .	c #121518",
"q .	c #1B1E20",
"r .	c #0C0A06",
"s .	c #2A261F",
"t .	c #4D473C",
"u .	c #60594A",
"v .	c #665B49",
"w .	c #6B5F49",
"x .	c #6F614A",
"y .	c #73644C",
"z .	c #776850",
"A .	c #7E6E58",
"B .	c #806F59",
"C .	c #817059",
"D .	c #83725A",
"E .	c #8E7C63",
"F .	c #9E8B70",
"G .	c #A49276",
"H .	c #A18E71",
"I .	c #AB997A",
"J .	c #BEA886",
"K .	c #CFB897",
"L .	c #D3BC99",
"M .	c #DBC5A0",
"N .	c #DFC9A3",
"O .	c #DFC8A3",
"P .	c #DFC9A6",
"Q .	c #E8D3B4",
"R .	c #F5E3CC",
"S .	c #F3E2CD",
"T .	c #F4E3CD",
"U .	c #F7E5CE",
"V .	c #F3DDC5",
"W .	c #E5CEB2",
"X .	c #D9C0A1",
"Y .	c #DAC1A2",
"Z .	c #DDC4A5",
"` .	c #DEC6A7",
" ..	c #DFC9A9",
"...	c #DFCAAA",
"+..	c #E0CBAB",
"@..	c #E0CAAA",
"#..	c #E0CBAA",
"$..	c #E4CEAD",
"%..	c #E5CFAE",
"&..	c #E6D0AF",
"*..	c #E1CBAC",
"=..	c #DEC7A9",
"-..	c #DAC4A4",
";..	c #D2BB9A",
">..	c #D2BA99",
",..	c #D9C09F",
"'..	c #DBC3A3",
")..	c #D9C2A2",
"!..	c #C7B193",
"~..	c #C3AF90",
"{..	c #B1A083",
"]..	c #B1A084",
"^..	c #AB9B80",
"/..	c #A5957A",
"(..	c #A6957B",
"_..	c #AA997E",
":..	c #A6967C",
"<..	c #96876E",
"[..	c #86775F",
"}..	c #867961",
"|..	c #887B65",
"1..	c #796D57",
"2..	c #5F5440",
"3..	c #564C3A",
"4..	c #5C5244",
"5..	c #353028",
"6..	c #171A22",
"7..	c #1A1C23",
"8..	c #57544C",
"9..	c #433E3A",
"0..	c #5C5449",
"a..	c #6C6358",
"b..	c #7E776A",
"c..	c #807B70",
"d..	c #767269",
"e..	c #615B51",
"f..	c #393329",
"g..	c #29251D",
"h..	c #302E29",
"i..	c #60564A",
"j..	c #62594F",
"k..	c #5F5954",
"l..	c #5B544C",
"m..	c #575047",
"n..	c #574F44",
"o..	c #4A453B",
"p..	c #33302B",
"q..	c #827A70",
"r..	c #948B7F",
"s..	c #958C7E",
"t..	c #090607",
"u..	c #16191A",
"v..	c #131619",
"w..	c #15181C",
"x..	c #1C1F22",
"y..	c #25221D",
"z..	c #2E2A23",
"A..	c #695F4D",
"B..	c #6C604C",
"C..	c #6F634C",
"D..	c #70614B",
"E..	c #776751",
"F..	c #82725C",
"G..	c #85755F",
"H..	c #84745D",
"I..	c #85745D",
"J..	c #8F7D64",
"K..	c #A28F72",
"L..	c #AC997B",
"M..	c #B4A183",
"N..	c #B8A485",
"O..	c #BCA685",
"P..	c #C6B08F",
"Q..	c #CEB796",
"R..	c #CBB492",
"S..	c #CFB996",
"T..	c #D8C19D",
"U..	c #DBC49F",
"V..	c #DAC39E",
"W..	c #DCC5A2",
"X..	c #E7D2B3",
"Y..	c #F5E3CE",
"Z..	c #F3E2CE",
"`..	c #F5E2CC",
" +.	c #EDD7BF",
".+.	c #DDC6AA",
"++.	c #D8C0A0",
"@+.	c #DBC2A4",
"#+.	c #DBC6A5",
"$+.	c #DAC5A5",
"%+.	c #DAC5A4",
"&+.	c #DBC5A5",
"*+.	c #D9C4A4",
"=+.	c #D7C3A3",
"-+.	c #CEB99C",
";+.	c #C9B398",
">+.	c #C6B094",
",+.	c #C9B292",
"'+.	c #D8C09F",
")+.	c #E4CCAC",
"!+.	c #E8D0B1",
"~+.	c #D4BE9E",
"{+.	c #C6B091",
"]+.	c #C2AD8F",
"^+.	c #BEAA8C",
"/+.	c #B5A285",
"(+.	c #AF9D81",
"_+.	c #AF9E83",
":+.	c #A9997F",
"<+.	c #A29278",
"[+.	c #A19177",
"}+.	c #A49379",
"|+.	c #A19178",
"1+.	c #92836B",
"2+.	c #83745D",
"3+.	c #83765F",
"4+.	c #867962",
"5+.	c #786C56",
"6+.	c #645843",
"7+.	c #5E5441",
"8+.	c #655B4B",
"9+.	c #5E5548",
"0+.	c #3B342C",
"a+.	c #080912",
"b+.	c #221E1F",
"c+.	c #4F4A44",
"d+.	c #2D2A28",
"e+.	c #5F5D5B",
"f+.	c #615E5B",
"g+.	c #34332D",
"h+.	c #6C655C",
"i+.	c #6A6155",
"j+.	c #5D534A",
"k+.	c #574F49",
"l+.	c #56504C",
"m+.	c #383535",
"n+.	c #322F31",
"o+.	c #433F3B",
"p+.	c #47423D",
"q+.	c #323434",
"r+.	c #645E55",
"s+.	c #999184",
"t+.	c #978F81",
"u+.	c #877F73",
"v+.	c #665F56",
"w+.	c #34302A",
"x+.	c #0E0F10",
"y+.	c #242626",
"z+.	c #212322",
"A+.	c #141719",
"B+.	c #202325",
"C+.	c #272529",
"D+.	c #1A1614",
"E+.	c #3E3931",
"F+.	c #575045",
"G+.	c #61594B",
"H+.	c #68604E",
"I+.	c #6E6551",
"J+.	c #736853",
"K+.	c #736650",
"L+.	c #746850",
"M+.	c #70634D",
"N+.	c #71644D",
"O+.	c #796A55",
"P+.	c #867661",
"Q+.	c #8B7B65",
"R+.	c #887862",
"S+.	c #87775F",
"T+.	c #907F66",
"U+.	c #9F8D72",
"V+.	c #A59477",
"W+.	c #A39073",
"X+.	c #A49073",
"Y+.	c #AD9A7B",
"Z+.	c #B4A282",
"`+.	c #B7A484",
" @.	c #B7A282",
".@.	c #C2AD8B",
"+@.	c #C8B291",
"@@.	c #C9B391",
"#@.	c #C8B18F",
"$@.	c #CFB995",
"%@.	c #D9C29D",
"&@.	c #DAC49E",
"*@.	c #D8C29C",
"=@.	c #DBC5A1",
"-@.	c #E7D3B3",
";@.	c #F4E2C8",
">@.	c #F6E6D0",
",@.	c #F4E4CF",
"'@.	c #F4E3CC",
")@.	c #D9C4A6",
"!@.	c #D3BC9C",
"~@.	c #D7BE9E",
"{@.	c #D7BE9F",
"]@.	c #DAC3A3",
"^@.	c #D7C3A2",
"/@.	c #D6C3A2",
"(@.	c #D5C1A1",
"_@.	c #D2BE9D",
":@.	c #CEB999",
"<@.	c #C8B495",
"[@.	c #C1AE91",
"}@.	c #BAA78C",
"|@.	c #B3A085",
"1@.	c #B4A085",
"2@.	c #C4AE90",
"3@.	c #DFC8A8",
"4@.	c #EFD6B7",
"5@.	c #F3DCBD",
"6@.	c #EDD6B7",
"7@.	c #D9C3A3",
"8@.	c #C5B191",
"9@.	c #BFAB8D",
"0@.	c #BBA88B",
"a@.	c #B3A184",
"b@.	c #AE9D81",
"c@.	c #A9997E",
"d@.	c #9F8F75",
"e@.	c #9F9077",
"f@.	c #92846C",
"g@.	c #84775F",
"h@.	c #847861",
"i@.	c #867B63",
"j@.	c #7B715A",
"k@.	c #6C614B",
"l@.	c #6A5F4B",
"m@.	c #6F6553",
"n@.	c #665D4E",
"o@.	c #413B31",
"p@.	c #05060C",
"q@.	c #000105",
"r@.	c #191515",
"s@.	c #4D4740",
"t@.	c #676056",
"u@.	c #33302C",
"v@.	c #191B22",
"w@.	c #1E2127",
"x@.	c #282A30",
"y@.	c #37383D",
"z@.	c #131413",
"A@.	c #494645",
"B@.	c #58524D",
"C@.	c #7A746A",
"D@.	c #8E867A",
"E@.	c #82796F",
"F@.	c #635D54",
"G@.	c #322D28",
"H@.	c #070405",
"I@.	c #121517",
"J@.	c #252327",
"K@.	c #423C33",
"L@.	c #61594C",
"M@.	c #6B6150",
"N@.	c #6B614D",
"O@.	c #6C624D",
"P@.	c #71654F",
"Q@.	c #73674F",
"R@.	c #746851",
"S@.	c #72654F",
"T@.	c #72644F",
"U@.	c #7A6C57",
"V@.	c #887963",
"W@.	c #8E7E69",
"X@.	c #8F7F67",
"Y@.	c #9E8D74",
"Z@.	c #A59378",
"`@.	c #A39074",
" #.	c #AD9A7C",
".#.	c #B5A182",
"+#.	c #B6A282",
"@#.	c #B8A382",
"##.	c #C3AD8C",
"$#.	c #C5AE8C",
"%#.	c #CFB895",
"&#.	c #DAC39F",
"*#.	c #DBC4A0",
"=#.	c #D8C09C",
"-#.	c #D9C39F",
";#.	c #E7D3B2",
">#.	c #F8E7D1",
",#.	c #F6E6D1",
"'#.	c #E9D5BB",
")#.	c #D7C3A5",
"!#.	c #D2BB9C",
"~#.	c #D6BF9F",
"{#.	c #D6BFA0",
"]#.	c #D7C0A1",
"^#.	c #D6C1A1",
"/#.	c #D4C1A0",
"(#.	c #D3BF9F",
"_#.	c #CEBA9A",
":#.	c #C6B292",
"<#.	c #C2AF8F",
"[#.	c #C3AF91",
"}#.	c #C3AF92",
"|#.	c #BCA98F",
"1#.	c #B4A288",
"2#.	c #AE9C81",
"3#.	c #C3AD91",
"4#.	c #EFD7BA",
"5#.	c #F3DDBE",
"6#.	c #EFD7B9",
"7#.	c #DAC4A5",
"8#.	c #C4B092",
"9#.	c #BDA98C",
"0#.	c #B9A689",
"a#.	c #B19F83",
"b#.	c #AD9D82",
"c#.	c #A7987E",
"d#.	c #9F8F76",
"e#.	c #9D8D74",
"f#.	c #9F9076",
"g#.	c #9E8F76",
"h#.	c #92836C",
"i#.	c #847660",
"j#.	c #847762",
"k#.	c #867B64",
"l#.	c #7D715B",
"m#.	c #6F644F",
"n#.	c #6D614E",
"o#.	c #443C34",
"p#.	c #0E0A07",
"q#.	c #010204",
"r#.	c #191313",
"s#.	c #4C443C",
"t#.	c #675E53",
"u#.	c #686054",
"v#.	c #645D53",
"w#.	c #5C584E",
"x#.	c #423E3B",
"y#.	c #343538",
"z#.	c #212327",
"A#.	c #181B22",
"B#.	c #191C23",
"C#.	c #1F222A",
"D#.	c #262930",
"E#.	c #303339",
"F#.	c #313338",
"G#.	c #242729",
"H#.	c #2E2F2A",
"I#.	c #2D2E32",
"J#.	c #303135",
"K#.	c #363639",
"L#.	c #4E4B44",
"M#.	c #7C766C",
"N#.	c #777268",
"O#.	c #2D2924",
"P#.	c #131517",
"Q#.	c #1B1D1D",
"R#.	c #1A1510",
"S#.	c #494338",
"T#.	c #6D6452",
"U#.	c #655C48",
"V#.	c #635944",
"W#.	c #6A5E48",
"X#.	c #70644E",
"Y#.	c #756952",
"Z#.	c #746751",
"`#.	c #736551",
" $.	c #7C6E59",
".$.	c #8A7A65",
"+$.	c #8E7E68",
"@$.	c #8A7A63",
"#$.	c #9C8B73",
"$$.	c #A18F74",
"%$.	c #A49275",
"&$.	c #AE9B7D",
"*$.	c #B8A283",
"=$.	c #B9A383",
"-$.	c #C2AC8B",
";$.	c #C4AD8B",
">$.	c #D0B997",
",$.	c #DDC6A2",
"'$.	c #DEC7A3",
")$.	c #D9C19E",
"!$.	c #DAC4A0",
"~$.	c #E6D2B1",
"{$.	c #F3E0C4",
"]$.	c #F7E6CC",
"^$.	c #F5E5CD",
"/$.	c #F6E5CD",
"($.	c #F5E2C9",
"_$.	c #D9C4A5",
":$.	c #D5BE9D",
"<$.	c #D5C0A1",
"[$.	c #D5C2A1",
"}$.	c #D4C2A1",
"|$.	c #D3C1A0",
"1$.	c #CEBB9A",
"2$.	c #C5B291",
"3$.	c #C0AE8D",
"4$.	c #C0AF8E",
"5$.	c #C2AF91",
"6$.	c #C3B093",
"7$.	c #BEAC92",
"8$.	c #B9A78D",
"9$.	c #B1A087",
"0$.	c #DEC8A9",
"a$.	c #F0D9BB",
"b$.	c #ECD4B5",
"c$.	c #C4AF91",
"d$.	c #BCA88B",
"e$.	c #B09F83",
"f$.	c #AC9B81",
"g$.	c #9C8D74",
"h$.	c #9E8F77",
"i$.	c #92846D",
"j$.	c #857761",
"k$.	c #867A64",
"l$.	c #7D715C",
"m$.	c #6A604C",
"n$.	c #6C6251",
"o$.	c #645A4C",
"p$.	c #333430",
"q$.	c #080A0B",
"r$.	c #353734",
"s$.	c #0B0C0B",
"t$.	c #27201D",
"u$.	c #746B5C",
"v$.	c #776E63",
"w$.	c #6C665C",
"x$.	c #262323",
"y$.	c #191C22",
"z$.	c #1A1D24",
"A$.	c #1E2128",
"B$.	c #23262D",
"C$.	c #2B2F34",
"D$.	c #56534B",
"E$.	c #202127",
"F$.	c #2F3132",
"G$.	c #383531",
"H$.	c #23201C",
"I$.	c #08060C",
"J$.	c #1F1913",
"K$.	c #5E5649",
"L$.	c #7A7161",
"M$.	c #786F5C",
"N$.	c #675E4A",
"O$.	c #5E543F",
"P$.	c #655945",
"Q$.	c #6D624D",
"R$.	c #746852",
"S$.	c #91816B",
"T$.	c #8A7963",
"U$.	c #8E7D65",
"V$.	c #98876E",
"W$.	c #9E8D73",
"X$.	c #9E8D71",
"Y$.	c #AF9C7F",
"Z$.	c #B7A385",
"`$.	c #BEA888",
" %.	c #C2AC8C",
".%.	c #D0B896",
"+%.	c #DDC4A1",
"@%.	c #DDC5A2",
"#%.	c #D7BF9C",
"$%.	c #DEC8A7",
"%%.	c #E5D1B2",
"&%.	c #E6D3B7",
"*%.	c #E6D3B8",
"=%.	c #E5D1B5",
"-%.	c #DEC9AB",
";%.	c #D6C0A0",
">%.	c #D4BD9C",
",%.	c #D5BC9C",
"'%.	c #D3BC9E",
")%.	c #CFBA9C",
"!%.	c #CBB898",
"~%.	c #CAB897",
"{%.	c #CAB898",
"]%.	c #CCB999",
"^%.	c #CCBA99",
"/%.	c #C9B695",
"(%.	c #C4B290",
"_%.	c #C0AD8D",
":%.	c #C0AE8E",
"<%.	c #BEAB8D",
"[%.	c #BDAB8F",
"}%.	c #C1AF95",
"|%.	c #BFAD94",
"1%.	c #C1AF94",
"2%.	c #D8C4A3",
"3%.	c #E0CAAB",
"4%.	c #D2BC9C",
"5%.	c #C1AC8E",
"6%.	c #A8977D",
"7%.	c #9C8B72",
"8%.	c #9E8E74",
"9%.	c #9D8E75",
"0%.	c #847760",
"a%.	c #837661",
"b%.	c #857963",
"c%.	c #7B705A",
"d%.	c #6B604B",
"e%.	c #635844",
"f%.	c #615645",
"g%.	c #5B5242",
"h%.	c #494134",
"i%.	c #332C23",
"j%.	c #2E2923",
"k%.	c #151312",
"l%.	c #363835",
"m%.	c #1B1C22",
"n%.	c #18161A",
"o%.	c #3C342D",
"p%.	c #6F6457",
"q%.	c #8B8171",
"r%.	c #918878",
"s%.	c #92897B",
"t%.	c #867E73",
"u%.	c #17191F",
"v%.	c #181A21",
"w%.	c #1E2025",
"x%.	c #1E2024",
"y%.	c #08090A",
"z%.	c #544F48",
"A%.	c #1C1D23",
"B%.	c #2C2826",
"C%.	c #322D29",
"D%.	c #352F2B",
"E%.	c #302A25",
"F%.	c #15120F",
"G%.	c #08070D",
"H%.	c #16181A",
"I%.	c #1F2121",
"J%.	c #1E1C20",
"K%.	c #473F34",
"L%.	c #564D3E",
"M%.	c #79705E",
"N%.	c #908772",
"O%.	c #897F6A",
"P%.	c #706753",
"Q%.	c #625844",
"R%.	c #665B47",
"S%.	c #6E634E",
"T%.	c #746853",
"U%.	c #7D705A",
"V%.	c #8B7C67",
"W%.	c #92826D",
"X%.	c #8B7B64",
"Y%.	c #8D7D65",
"Z%.	c #96866C",
"`%.	c #9B8B70",
" &.	c #9B8A6F",
".&.	c #A29175",
"+&.	c #B09E81",
"@&.	c #C0AA8A",
"#&.	c #CAB392",
"$&.	c #D1B998",
"%&.	c #D0B995",
"&&.	c #CBB490",
"*&.	c #CBB491",
"=&.	c #D0BA98",
"-&.	c #D3BE9D",
";&.	c #D2BD9D",
">&.	c #D2BE9E",
",&.	c #D1BB9B",
"'&.	c #D0B998",
")&.	c #D2BA98",
"!&.	c #BFAC8C",
"~&.	c #B0A07F",
"{&.	c #AC9C7C",
"]&.	c #AD9B7C",
"^&.	c #AE9B7C",
"/&.	c #B19F7F",
"(&.	c #B8A584",
"_&.	c #C3B08D",
":&.	c #C7B393",
"<&.	c #C3B191",
"[&.	c #B4A285",
"}&.	c #BDAB90",
"|&.	c #CDBAA0",
"1&.	c #D1BEA3",
"2&.	c #D2BEA2",
"3&.	c #D7C2A2",
"4&.	c #D7C1A1",
"5&.	c #C0AB8D",
"6&.	c #BEA98C",
"7&.	c #B1A085",
"8&.	c #AF9F84",
"9&.	c #AE9E83",
"0&.	c #A8997D",
"a&.	c #9B8B71",
"b&.	c #9D8D73",
"c&.	c #857760",
"d&.	c #837760",
"e&.	c #857962",
"f&.	c #7B6F59",
"g&.	c #6A5E49",
"h&.	c #5E5340",
"i&.	c #5A503F",
"j&.	c #584F3E",
"k&.	c #584E3F",
"l&.	c #5D5548",
"m&.	c #645C52",
"n&.	c #655D55",
"o&.	c #1D1E24",
"p&.	c #3E403C",
"q&.	c #363834",
"r&.	c #1F1D20",
"s&.	c #201C1C",
"t&.	c #4A413A",
"u&.	c #7C7062",
"v&.	c #9B9382",
"w&.	c #9C9586",
"x&.	c #918B7F",
"y&.	c #3B3735",
"z&.	c #585249",
"A&.	c #2D2A29",
"B&.	c #2B2827",
"C&.	c #2E2B28",
"D&.	c #302C28",
"E&.	c #342F2B",
"F&.	c #2D2824",
"G&.	c #14100D",
"H&.	c #27262D",
"I&.	c #2B2C31",
"J&.	c #3F3F41",
"K&.	c #3D3C3F",
"L&.	c #353438",
"M&.	c #403B38",
"N&.	c #5B534B",
"O&.	c #605548",
"P&.	c #675C4B",
"Q&.	c #837864",
"R&.	c #958B76",
"S&.	c #8D8470",
"T&.	c #746B58",
"U&.	c #635A48",
"V&.	c #645B49",
"W&.	c #6C624F",
"X&.	c #726753",
"Y&.	c #746754",
"Z&.	c #766854",
"`&.	c #7C6E5A",
" *.	c #8A7B67",
".*.	c #93826E",
"+*.	c #93826D",
"@*.	c #8D7D66",
"#*.	c #8E7E66",
"$*.	c #96856C",
"%*.	c #99886E",
"&*.	c #97866B",
"**.	c #9F8E72",
"=*.	c #B9A587",
"-*.	c #BBA585",
";*.	c #BBA485",
">*.	c #BFA989",
",*.	c #C3AD8D",
"'*.	c #C1AA8A",
")*.	c #C5AD8D",
"!*.	c #C5AE8B",
"~*.	c #C1A986",
"{*.	c #C3AA89",
"]*.	c #C9B190",
"^*.	c #CCB594",
"/*.	c #CCB595",
"(*.	c #CFB796",
"_*.	c #D0B996",
":*.	c #D0B897",
"<*.	c #D1B999",
"[*.	c #CBB396",
"}*.	c #B9A487",
"|*.	c #A49375",
"1*.	c #9C8B6E",
"2*.	c #99886A",
"3*.	c #948365",
"4*.	c #968565",
"5*.	c #A89575",
"6*.	c #C2AE8D",
"7*.	c #C3B090",
"8*.	c #B29F7F",
"9*.	c #AC997A",
"0*.	c #BBA78C",
"a*.	c #D0BDA3",
"b*.	c #D9C4A9",
"c*.	c #D9C4A7",
"d*.	c #D8C1A2",
"e*.	c #D6C09F",
"f*.	c #D5BF9E",
"g*.	c #D1BA9B",
"h*.	c #BEAA8D",
"i*.	c #C0AC90",
"j*.	c #B4A387",
"k*.	c #A7977D",
"l*.	c #98886E",
"m*.	c #9A8A71",
"n*.	c #9B8C73",
"o*.	c #91826A",
"p*.	c #84755F",
"q*.	c #82755F",
"r*.	c #7A6E58",
"s*.	c #685C48",
"t*.	c #5C513F",
"u*.	c #594F3D",
"v*.	c #594F3E",
"w*.	c #605646",
"x*.	c #6F6556",
"y*.	c #786E61",
"z*.	c #766D61",
"A*.	c #33302A",
"B*.	c #262327",
"C*.	c #221F22",
"D*.	c #221D1D",
"E*.	c #4C423D",
"F*.	c #796D62",
"G*.	c #8F8577",
"H*.	c #928A7C",
"I*.	c #918B7E",
"J*.	c #565049",
"K*.	c #090B0D",
"L*.	c #1F1C17",
"M*.	c #292A2F",
"N*.	c #2B2D32",
"O*.	c #26292A",
"P*.	c #3B3B3E",
"Q*.	c #5B544A",
"R*.	c #615747",
"S*.	c #675C49",
"T*.	c #827762",
"U*.	c #938973",
"V*.	c #8B836E",
"W*.	c #736C59",
"X*.	c #5F5947",
"Y*.	c #5E5847",
"Z*.	c #665F4E",
"`*.	c #6E6653",
" =.	c #736856",
".=.	c #766956",
"+=.	c #7A6D59",
"@=.	c #877A64",
"#=.	c #90816C",
"$=.	c #95846E",
"%=.	c #92816A",
"&=.	c #918169",
"*=.	c #97866D",
"==.	c #98886D",
"-=.	c #96866A",
";=.	c #9D8D70",
">=.	c #AD9B7E",
",=.	c #B9A384",
"'=.	c #BAA384",
")=.	c #BEA889",
"!=.	c #C2AB8C",
"~=.	c #C0A98A",
"{=.	c #C1A987",
"]=.	c #C2AB89",
"^=.	c #C8B18E",
"/=.	c #CBB592",
"(=.	c #CCB694",
"_=.	c #CCB795",
":=.	c #CDB895",
"<=.	c #D1B997",
"[=.	c #CBB496",
"}=.	c #BBA68A",
"|=.	c #A7957A",
"1=.	c #97886B",
"2=.	c #8F7E61",
"3=.	c #918061",
"4=.	c #A89677",
"5=.	c #CDB999",
"6=.	c #B09C7E",
"7=.	c #D2BDA2",
"8=.	c #DBC6A8",
"9=.	c #D6C19F",
"0=.	c #D3BF9D",
"a=.	c #C2AE8E",
"b=.	c #BCA88A",
"c=.	c #BDAA8C",
"d=.	c #BFAC8F",
"e=.	c #B9A88C",
"f=.	c #B1A185",
"g=.	c #AD9E82",
"h=.	c #A5957B",
"i=.	c #9B8C71",
"j=.	c #95876C",
"k=.	c #98896F",
"l=.	c #998A71",
"m=.	c #8E8069",
"n=.	c #81745E",
"o=.	c #837761",
"p=.	c #796E58",
"q=.	c #675C48",
"r=.	c #5C523F",
"s=.	c #59503E",
"t=.	c #5A503E",
"u=.	c #786E5E",
"v=.	c #766C5E",
"w=.	c #645C4F",
"x=.	c #363029",
"y=.	c #202228",
"z=.	c #262826",
"A=.	c #1B1A21",
"B=.	c #232023",
"C=.	c #201D1E",
"D=.	c #211C1C",
"E=.	c #453E39",
"F=.	c #665E55",
"G=.	c #756E63",
"H=.	c #767166",
"I=.	c #767168",
"J=.	c #6F6B63",
"K=.	c #131515",
"L=.	c #363838",
"M=.	c #05060B",
"N=.	c #27241F",
"O=.	c #040202",
"P=.	c #3B3A3E",
"Q=.	c #35312D",
"R=.	c #534B41",
"S=.	c #5B5040",
"T=.	c #7D715D",
"U=.	c #8E846F",
"V=.	c #6E6756",
"W=.	c #555041",
"X=.	c #514C3E",
"Y=.	c #585345",
"Z=.	c #615A4C",
"`=.	c #6F6351",
" -.	c #83745F",
".-.	c #8A7A64",
"+-.	c #8A7861",
"@-.	c #8D7C63",
"#-.	c #95846B",
"$-.	c #98876C",
"%-.	c #928266",
"&-.	c #968669",
"*-.	c #A29174",
"=-.	c #A8977A",
"--.	c #AA9779",
";-.	c #AD987A",
">-.	c #B39E80",
",-.	c #B7A183",
"'-.	c #B5A082",
")-.	c #B9A485",
"!-.	c #BCA788",
"~-.	c #C6B290",
"{-.	c #CBB695",
"]-.	c #CEB795",
"^-.	c #D0B898",
"/-.	c #CCB497",
"(-.	c #B8A389",
"_-.	c #908268",
":-.	c #928469",
"<-.	c #928468",
"[-.	c #98866B",
"}-.	c #C6B293",
"|-.	c #CFBA9A",
"1-.	c #C5B092",
"2-.	c #C1AC8F",
"3-.	c #C4B093",
"4-.	c #D1BD9E",
"5-.	c #CDB797",
"6-.	c #CAB695",
"7-.	c #C7B392",
"8-.	c #C4B091",
"9-.	c #BEAB8C",
"0-.	c #B8A687",
"a-.	c #B4A184",
"b-.	c #A49478",
"c-.	c #A19176",
"d-.	c #A09076",
"e-.	c #9B8D74",
"f-.	c #94856D",
"g-.	c #8F8067",
"h-.	c #8F8068",
"i-.	c #8D7F68",
"j-.	c #83755F",
"k-.	c #776B56",
"l-.	c #786C58",
"m-.	c #7B705B",
"n-.	c #584E3D",
"o-.	c #5A4E3E",
"p-.	c #5F5443",
"q-.	c #6C6150",
"r-.	c #746958",
"s-.	c #736758",
"t-.	c #665C4D",
"u-.	c #40392F",
"v-.	c #16120E",
"w-.	c #141215",
"x-.	c #110D0F",
"y-.	c #2B2623",
"z-.	c #3E3833",
"A-.	c #76736C",
"B-.	c #737069",
"C-.	c #6D6B64",
"D-.	c #1C1818",
"E-.	c #1D1A19",
"F-.	c #1C1A19",
"G-.	c #39383B",
"H-.	c #231E19",
"I-.	c #514433",
"J-.	c #5F533E",
"K-.	c #7C705A",
"L-.	c #8D826D",
"M-.	c #857C69",
"N-.	c #6C6555",
"O-.	c #514C3D",
"P-.	c #494538",
"Q-.	c #4C493C",
"R-.	c #524D41",
"S-.	c #615749",
"T-.	c #65594A",
"U-.	c #776855",
"V-.	c #7B6B56",
"W-.	c #7B6B54",
"X-.	c #827158",
"Y-.	c #8F7F65",
"Z-.	c #95846A",
"`-.	c #918065",
" ;.	c #918064",
".;.	c #968568",
"+;.	c #98886B",
"@;.	c #978669",
"#;.	c #98866A",
"$;.	c #9B876C",
"%;.	c #A28E72",
"&;.	c #A59175",
"*;.	c #A69275",
"=;.	c #A89477",
"-;.	c #AD987B",
";;.	c #AB987A",
">;.	c #A59173",
",;.	c #A18D6F",
"';.	c #A38E70",
");.	c #BDA98A",
"!;.	c #C8B494",
"~;.	c #CDB897",
"{;.	c #B4A087",
"];.	c #8F8066",
"^;.	c #80745B",
"/;.	c #8E8067",
"(;.	c #9D8E73",
"_;.	c #A49277",
":;.	c #B5A385",
"<;.	c #CCB898",
"[;.	c #D5C0A0",
"};.	c #CAB497",
"|;.	c #C7B395",
"1;.	c #BFAA8B",
"2;.	c #BAA485",
"3;.	c #B29F80",
"4;.	c #B19F80",
"5;.	c #AF9D7F",
"6;.	c #AE9C7E",
"7;.	c #AC9B7E",
"8;.	c #AA987D",
"9;.	c #A19074",
"0;.	c #97876D",
"a;.	c #95866C",
"b;.	c #95866D",
"c;.	c #93856C",
"d;.	c #8D7E67",
"e;.	c #877862",
"f;.	c #82745D",
"g;.	c #7B6E58",
"h;.	c #706450",
"i;.	c #675B49",
"j;.	c #685C4A",
"k;.	c #6A5F4C",
"l;.	c #645A47",
"m;.	c #5B513F",
"n;.	c #574C3C",
"o;.	c #594E3E",
"p;.	c #5B503F",
"q;.	c #6A5F4D",
"r;.	c #736754",
"s;.	c #6B5F4E",
"t;.	c #4F4639",
"u;.	c #28231C",
"v;.	c #110E0B",
"w;.	c #191613",
"x;.	c #151616",
"y;.	c #06070A",
"z;.	c #78766E",
"A;.	c #0C0A10",
"B;.	c #201B1D",
"C;.	c #1F1A1A",
"D;.	c #1C1816",
"E;.	c #161211",
"F;.	c #1C1610",
"G;.	c #3C3125",
"H;.	c #4D402D",
"I;.	c #5E513B",
"J;.	c #8B806A",
"K;.	c #847B67",
"L;.	c #6D6554",
"M;.	c #534D3F",
"N;.	c #494438",
"O;.	c #494539",
"P;.	c #4C483C",
"Q;.	c #524B41",
"R;.	c #5D5448",
"S;.	c #64594C",
"T;.	c #6F6252",
"U;.	c #776652",
"V;.	c #75654E",
"W;.	c #7C6D53",
"X;.	c #8D7C62",
"Y;.	c #96866B",
"Z;.	c #928166",
"`;.	c #8E7D61",
" >.	c #907F64",
".>.	c #918166",
"+>.	c #917F66",
"@>.	c #948269",
"#>.	c #97856C",
"$>.	c #9E8B72",
"%>.	c #9D896F",
"&>.	c #A08C71",
"*>.	c #A69277",
"=>.	c #A69276",
"->.	c #9F8B70",
";>.	c #99856A",
">>.	c #9A8669",
",>.	c #C8B394",
"'>.	c #CFB89A",
")>.	c #CBB499",
"!>.	c #B39F87",
"~>.	c #8B7B62",
"{>.	c #7A6D55",
"]>.	c #8C7E66",
"^>.	c #A8967B",
"/>.	c #CDB898",
"(>.	c #D5BD9E",
"_>.	c #CDB597",
":>.	c #C8B193",
"<>.	c #C2AC8D",
"[>.	c #BCA587",
"}>.	c #B39D7F",
"|>.	c #AE9A7C",
"1>.	c #AA987A",
"2>.	c #AB997B",
"3>.	c #AC997D",
"4>.	c #AE9C80",
"5>.	c #A8967C",
"6>.	c #9B8A70",
"7>.	c #918167",
"8>.	c #908068",
"9>.	c #91826B",
"0>.	c #887A65",
"a>.	c #796C58",
"b>.	c #716451",
"c>.	c #665B4A",
"d>.	c #5F5345",
"e>.	c #5F5445",
"f>.	c #5D5343",
"g>.	c #574E3E",
"h>.	c #584E3E",
"i>.	c #594E3F",
"j>.	c #5E5242",
"k>.	c #695D4B",
"l>.	c #726551",
"m>.	c #6B5D4B",
"n>.	c #53483A",
"o>.	c #2F281F",
"p>.	c #14100B",
"q>.	c #27252B",
"r>.	c #232127",
"s>.	c #1D1F23",
"t>.	c #3A3735",
"u>.	c #79766F",
"v>.	c #6F6E69",
"w>.	c #565753",
"x>.	c #111419",
"y>.	c #0F1010",
"z>.	c #121313",
"A>.	c #303236",
"B>.	c #221E20",
"C>.	c #221C1C",
"D>.	c #1F1A18",
"E>.	c #181A1E",
"F>.	c #2B251F",
"G>.	c #4B4033",
"H>.	c #584B39",
"I>.	c #635740",
"J>.	c #8A7F6A",
"K>.	c #857B67",
"L>.	c #6F6856",
"M>.	c #585243",
"N>.	c #4D483C",
"O>.	c #4A473C",
"P>.	c #4C473D",
"Q>.	c #554E43",
"R>.	c #6E6454",
"S>.	c #776A57",
"T>.	c #776853",
"U>.	c #75654F",
"V>.	c #7D6D54",
"W>.	c #9C8C71",
"X>.	c #97886C",
"Y>.	c #928168",
"Z>.	c #97876F",
"`>.	c #9B8B74",
" ,.	c #A09178",
".,.	c #9F8E76",
"+,.	c #9B8971",
"@,.	c #9A886D",
"#,.	c #A79379",
"$,.	c #A38F75",
"%,.	c #AB987C",
"&,.	c #CBB797",
"*,.	c #CDB896",
"=,.	c #CFB898",
"-,.	c #CFB89B",
";,.	c #CBB49A",
">,.	c #B5A188",
",,.	c #8D7E64",
"',.	c #7C6F57",
"),.	c #9E8E75",
"!,.	c #A8977B",
"~,.	c #D0BB9C",
"{,.	c #DBC5A6",
"],.	c #DEC9A9",
"^,.	c #D5BEA0",
"/,.	c #C6B192",
"(,.	c #BFAA8C",
"_,.	c #B5A183",
":,.	c #AA997B",
"<,.	c #AB9A7C",
"[,.	c #AF9F83",
"},.	c #A9987E",
"|,.	c #9A8B70",
"1,.	c #908267",
"2,.	c #908269",
"3,.	c #91826C",
"4,.	c #8E816C",
"5,.	c #877A66",
"6,.	c #807460",
"7,.	c #786C5A",
"8,.	c #706553",
"9,.	c #675D4D",
"0,.	c #5F5649",
"a,.	c #5B5344",
"b,.	c #594F40",
"c,.	c #6E6251",
"d,.	c #796B58",
"e,.	c #796A56",
"f,.	c #70624E",
"g,.	c #5C5040",
"h,.	c #3B3329",
"i,.	c #1D1913",
"j,.	c #060303",
"k,.	c #23242A",
"l,.	c #25262C",
"m,.	c #24262C",
"n,.	c #1C1E25",
"o,.	c #1B1D24",
"p,.	c #1B1E25",
"q,.	c #1D2026",
"r,.	c #25272D",
"s,.	c #24262A",
"t,.	c #3F3C3C",
"u,.	c #545453",
"v,.	c #0F1116",
"w,.	c #0C0E0F",
"x,.	c #121416",
"y,.	c #212426",
"z,.	c #26282B",
"A,.	c #1D1819",
"B,.	c #26282C",
"C,.	c #13151A",
"D,.	c #12141A",
"E,.	c #28231F",
"F,.	c #524A41",
"G,.	c #6C6153",
"H,.	c #6F624E",
"I,.	c #6E624A",
"J,.	c #877C66",
"K,.	c #827864",
"L,.	c #6F6655",
"M,.	c #544C3F",
"N,.	c #504A3F",
"O,.	c #464339",
"P,.	c #3B362F",
"Q,.	c #3A352D",
"R,.	c #473F35",
"S,.	c #5C5346",
"T,.	c #6C5F50",
"U,.	c #6D5F4D",
"V,.	c #74644E",
"W,.	c #8C7C64",
"X,.	c #A09176",
"Y,.	c #9B8C72",
"Z,.	c #96886D",
"`,.	c #8E8167",
" '.	c #897A63",
".'.	c #8A7C66",
"+'.	c #91826D",
"@'.	c #978972",
"#'.	c #94846B",
"$'.	c #95836A",
"%'.	c #9F8D73",
"&'.	c #AB987D",
"*'.	c #A69378",
"='.	c #A18E73",
"-'.	c #9F8C71",
";'.	c #A59277",
">'.	c #BAA789",
",'.	c #C2AE90",
"''.	c #C7B293",
")'.	c #C8B294",
"!'.	c #C8B295",
"~'.	c #C8B296",
"{'.	c #C4AF95",
"]'.	c #B19E85",
"^'.	c #7E7058",
"/'.	c #877961",
"('.	c #A29177",
"_'.	c #C7B396",
":'.	c #CDB79A",
"<'.	c #CDB99B",
"['.	c #C9B597",
"}'.	c #C5B193",
"|'.	c #C0AB8E",
"1'.	c #BDA88C",
"2'.	c #B8A488",
"3'.	c #B29F82",
"4'.	c #A39276",
"5'.	c #9F8F74",
"6'.	c #A09074",
"7'.	c #A19076",
"8'.	c #A49479",
"9'.	c #8A7D65",
"0'.	c #867A65",
"a'.	c #827664",
"b'.	c #7C715F",
"c'.	c #776C5A",
"d'.	c #706655",
"e'.	c #6A6050",
"f'.	c #62594B",
"g'.	c #585145",
"h'.	c #484137",
"i'.	c #474035",
"j'.	c #4D4639",
"k'.	c #544D3F",
"l'.	c #554D3E",
"m'.	c #544B3D",
"n'.	c #5F5545",
"o'.	c #776C5B",
"p'.	c #897B67",
"q'.	c #82735D",
"r'.	c #716552",
"s'.	c #524A3D",
"t'.	c #2C2820",
"u'.	c #13161B",
"v'.	c #13151D",
"w'.	c #1E2026",
"x'.	c #222529",
"y'.	c #21242A",
"z'.	c #21252B",
"A'.	c #21242B",
"B'.	c #1F2227",
"C'.	c #1A1C24",
"D'.	c #1A1C25",
"E'.	c #1C1E27",
"F'.	c #1C2027",
"G'.	c #1C1F26",
"H'.	c #191C24",
"I'.	c #151821",
"J'.	c #161821",
"K'.	c #181B23",
"L'.	c #191D24",
"M'.	c #1C1F25",
"N'.	c #181820",
"O'.	c #2B2824",
"P'.	c #3D3B35",
"Q'.	c #676661",
"R'.	c #4F5150",
"S'.	c #2A2C2F",
"T'.	c #050409",
"U'.	c #090B11",
"V'.	c #080A0C",
"W'.	c #0D0F0F",
"X'.	c #0C0F11",
"Y'.	c #0E1012",
"Z'.	c #0F0C0C",
"`'.	c #120F0F",
" ).	c #1B1E22",
".).	c #191D21",
"+).	c #1B1E21",
"@).	c #191C1F",
"#).	c #17191D",
"$).	c #0D0F14",
"%).	c #0B0D12",
"&).	c #090C11",
"*).	c #201D1C",
"=).	c #4B443E",
"-).	c #897E6D",
";).	c #827660",
">).	c #796D55",
",).	c #857A64",
"').	c #807662",
")).	c #5F5746",
"!).	c #454038",
"~).	c #2A2721",
"{).	c #1F1B15",
"]).	c #302922",
"^).	c #4E463C",
"/).	c #665949",
"().	c #60523F",
"_).	c #685A44",
":).	c #A4957C",
"<).	c #AE9F85",
"[).	c #AB9D83",
"}).	c #A1947B",
"|).	c #8D816A",
"1).	c #746953",
"2).	c #716651",
"3).	c #928169",
"4).	c #9F8C74",
"5).	c #A8957C",
"6).	c #A9967D",
"7).	c #A18F75",
"8).	c #99866C",
"9).	c #958267",
"0).	c #97846A",
"a).	c #9C8A6E",
"b).	c #A18F73",
"c).	c #A59376",
"d).	c #AB977A",
"e).	c #AC987B",
"f).	c #AF9B7E",
"g).	c #B09C7F",
"h).	c #B19C80",
"i).	c #B19C81",
"j).	c #B09C81",
"k).	c #AE9A81",
"l).	c #A29078",
"m).	c #8F7F68",
"n).	c #877860",
"o).	c #8C7D65",
"p).	c #938369",
"q).	c #9D8A70",
"r).	c #A79278",
"s).	c #A49076",
"t).	c #A28E74",
"u).	c #A08C73",
"v).	c #9D8A71",
"w).	c #9A876F",
"x).	c #96846C",
"y).	c #938269",
"z).	c #908069",
"A).	c #94856B",
"B).	c #95856C",
"C).	c #98886F",
"D).	c #98876F",
"E).	c #95856D",
"F).	c #8D7F67",
"G).	c #82745E",
"H).	c #716652",
"I).	c #64594A",
"J).	c #645A4A",
"K).	c #615748",
"L).	c #5C5347",
"M).	c #50483E",
"N).	c #3B352E",
"O).	c #28221C",
"P).	c #252018",
"Q).	c #383228",
"R).	c #4B4438",
"S).	c #51493B",
"T).	c #5F5747",
"U).	c #7D7361",
"V).	c #938570",
"W).	c #837660",
"X).	c #655D4D",
"Y).	c #37342A",
"Z).	c #0C0F14",
"`).	c #0E1016",
" !.	c #181A20",
".!.	c #1D1F26",
"+!.	c #1B2026",
"@!.	c #181C24",
"#!.	c #161A22",
"$!.	c #14171E",
"%!.	c #12151B",
"&!.	c #12141C",
"*!.	c #14161F",
"=!.	c #161822",
"-!.	c #171923",
";!.	c #171B23",
">!.	c #171921",
",!.	c #151820",
"'!.	c #13161D",
")!.	c #15171E",
"!!.	c #171A20",
"~!.	c #15181E",
"{!.	c #0D0D16",
"]!.	c #101019",
"^!.	c #111019",
"/!.	c #05060D",
"(!.	c #000106",
"_!.	c #46423C",
":!.	c #4E504D",
"<!.	c #4A4C49",
"[!.	c #4A4B4C",
"}!.	c #04060C",
"|!.	c #1E2227",
"1!.	c #181C22",
"2!.	c #090B0F",
"3!.	c #080A0E",
"4!.	c #07090E",
"5!.	c #06080C",
"6!.	c #282323",
"7!.	c #58514A",
"8!.	c #928675",
"9!.	c #897C67",
"0!.	c #7D705B",
"a!.	c #827763",
"b!.	c #5D5245",
"c!.	c #574F43",
"d!.	c #231F1C",
"e!.	c #120F0B",
"f!.	c #655A4F",
"g!.	c #64574B",
"h!.	c #574A3A",
"i!.	c #5A4C39",
"j!.	c #7D6F59",
"k!.	c #A4977E",
"l!.	c #B5A68D",
"m!.	c #B6A88E",
"n!.	c #AB9C85",
"o!.	c #8F826C",
"p!.	c #534935",
"q!.	c #5B503C",
"r!.	c #7C6D58",
"s!.	c #96856E",
"t!.	c #A5937A",
"u!.	c #AD9B81",
"v!.	c #AE9B81",
"w!.	c #A79479",
"x!.	c #9F8C72",
"y!.	c #98866C",
"z!.	c #9B896E",
"A!.	c #9D8A6F",
"B!.	c #9F8D71",
"C!.	c #A08E71",
"D!.	c #A18E72",
"E!.	c #A18D73",
"F!.	c #A08C72",
"G!.	c #99876F",
"H!.	c #92826B",
"I!.	c #8E7F68",
"J!.	c #928269",
"K!.	c #948169",
"L!.	c #96846B",
"M!.	c #97836B",
"N!.	c #97846C",
"O!.	c #96836C",
"P!.	c #96836D",
"Q!.	c #95836C",
"R!.	c #93816C",
"S!.	c #90816B",
"T!.	c #90816A",
"U!.	c #93836B",
"V!.	c #96866E",
"W!.	c #988870",
"X!.	c #92826C",
"Y!.	c #82745F",
"Z!.	c #6A5E4B",
"`!.	c #5A4F40",
" ~.	c #584E40",
".~.	c #5F5346",
"+~.	c #615647",
"@~.	c #5E5549",
"#~.	c #514941",
"$~.	c #37312C",
"%~.	c #13100A",
"&~.	c #302B24",
"*~.	c #494238",
"=~.	c #4F473B",
"-~.	c #4E4638",
";~.	c #5E5546",
">~.	c #7E7362",
",~.	c #938670",
"'~.	c #96866D",
")~.	c #0A0C12",
"!~.	c #14161B",
"~~.	c #15181F",
"{~.	c #151921",
"]~.	c #141920",
"^~.	c #10151D",
"/~.	c #0E1119",
"(~.	c #12141D",
"_~.	c #05050C",
":~.	c #06060D",
"<~.	c #05060F",
"[~.	c #04050D",
"}~.	c #06060F",
"|~.	c #090A13",
"1~.	c #0B0B15",
"2~.	c #03050D",
"3~.	c #000107",
"4~.	c #4D4941",
"5~.	c #686257",
"6~.	c #6C6459",
"7~.	c #2D2F2C",
"8~.	c #2B2D2A",
"9~.	c #101112",
"0~.	c #605F5E",
"a~.	c #47494A",
"b~.	c #050605",
"c~.	c #0C0805",
"d~.	c #0C0704",
"e~.	c #080502",
"f~.	c #22252C",
"g~.	c #1E2228",
"h~.	c #181B20",
"i~.	c #23201F",
"j~.	c #554E47",
"k~.	c #81786B",
"l~.	c #938675",
"m~.	c #8C7E6A",
"n~.	c #80745F",
"o~.	c #7F725F",
"p~.	c #817664",
"q~.	c #7B7261",
"r~.	c #6E6555",
"s~.	c #625949",
"t~.	c #5E5446",
"u~.	c #574E42",
"v~.	c #403B32",
"w~.	c #24201B",
"x~.	c #49433B",
"y~.	c #635B50",
"z~.	c #544839",
"A~.	c #544936",
"B~.	c #A79980",
"C~.	c #BBAC92",
"D~.	c #BCAE94",
"E~.	c #AD9F87",
"F~.	c #90836C",
"G~.	c #695E48",
"H~.	c #584D39",
"I~.	c #625743",
"J~.	c #716550",
"K~.	c #7F715C",
"L~.	c #8C7D66",
"M~.	c #A5947B",
"N~.	c #AC9A81",
"O~.	c #A69379",
"P~.	c #9D8D71",
"Q~.	c #9E8D72",
"R~.	c #9E8E72",
"S~.	c #9E8C72",
"T~.	c #9C8971",
"U~.	c #97876E",
"V~.	c #98876D",
"W~.	c #96856D",
"X~.	c #96846E",
"Y~.	c #94846E",
"Z~.	c #93846E",
"`~.	c #91846D",
" {.	c #93846C",
".{.	c #97886E",
"+{.	c #99896F",
"@{.	c #9A8B71",
"#{.	c #867963",
"${.	c #6D624E",
"%{.	c #5B5141",
"&{.	c #5A5042",
"*{.	c #5F5446",
"={.	c #635747",
"-{.	c #4D473E",
";{.	c #12110D",
">{.	c #2F2B23",
",{.	c #4E473A",
"'{.	c #4D4537",
"){.	c #5D5546",
"!{.	c #918570",
"~{.	c #887B67",
"{{.	c #6C6356",
"]{.	c #3D3931",
"^{.	c #121013",
"/{.	c #171518",
"({.	c #110E11",
"_{.	c #16191E",
":{.	c #151920",
"<{.	c #14181E",
"[{.	c #100D0E",
"}{.	c #131010",
"|{.	c #0C0C14",
"1{.	c #010208",
"2{.	c #504B43",
"3{.	c #6A6458",
"4{.	c #6C6559",
"5{.	c #645D54",
"6{.	c #494740",
"7{.	c #61605E",
"8{.	c #5D5D5C",
"9{.	c #0B090A",
"0{.	c #0D0A08",
"a{.	c #120F0C",
"b{.	c #171312",
"c{.	c #201D1B",
"d{.	c #070502",
"e{.	c #100904",
"f{.	c #170F07",
"g{.	c #1B1208",
"h{.	c #1E1309",
"i{.	c #1C1209",
"j{.	c #19110A",
"k{.	c #17140F",
"l{.	c #2C2824",
"m{.	c #49463F",
"n{.	c #3E3C34",
"o{.	c #211F1A",
"p{.	c #0F0905",
"q{.	c #23180F",
"r{.	c #39291C",
"s{.	c #453221",
"t{.	c #44301E",
"u{.	c #3B2A19",
"v{.	c #2B1D11",
"w{.	c #20160D",
"x{.	c #1B110A",
"y{.	c #1D120A",
"z{.	c #23150C",
"A{.	c #2E251C",
"B{.	c #3D3932",
"C{.	c #3C3834",
"D{.	c #3E3B35",
"E{.	c #3F3C36",
"F{.	c #423D37",
"G{.	c #443F39",
"H{.	c #423C35",
"I{.	c #3F3B33",
"J{.	c #3C3831",
"K{.	c #3A3630",
"L{.	c #38332F",
"M{.	c #2D2926",
"N{.	c #161312",
"O{.	c #797063",
"P{.	c #8E8271",
"Q{.	c #8B7E6A",
"R{.	c #807561",
"S{.	c #7B7060",
"T{.	c #746B5B",
"U{.	c #675F50",
"V{.	c #5D5445",
"W{.	c #595042",
"X{.	c #50483C",
"Y{.	c #39342B",
"Z{.	c #1E1B17",
"`{.	c #423D36",
" ].	c #5D554C",
".].	c #5E5448",
"+].	c #524737",
"@].	c #564B38",
"#].	c #AEA088",
"$].	c #BFAF97",
"%].	c #BDAD95",
"&].	c #AB9C84",
"*].	c #8E8068",
"=].	c #746750",
"-].	c #71634F",
";].	c #766855",
">].	c #796C57",
",].	c #867862",
"'].	c #978771",
")].	c #9C8C75",
"!].	c #9E8E76",
"~].	c #9D8C74",
"{].	c #9B8A72",
"]].	c #998870",
"^].	c #998A6F",
"/].	c #9A8A70",
"(].	c #99886F",
"_].	c #92836A",
":].	c #91836A",
"<].	c #92826A",
"[].	c #93826A",
"}].	c #908169",
"|].	c #8F7F69",
"1].	c #8E7F69",
"2].	c #8E7E6A",
"3].	c #8D7E6A",
"4].	c #8D7E69",
"5].	c #8B7D68",
"6].	c #8B7E68",
"7].	c #8C7E68",
"8].	c #8F8169",
"9].	c #95876D",
"0].	c #897B64",
"a].	c #625646",
"b].	c #625648",
"c].	c #675B4B",
"d].	c #211E19",
"e].	c #433D33",
"f].	c #4B4336",
"g].	c #726959",
"h].	c #837865",
"i].	c #857863",
"j].	c #7D725F",
"k].	c #312C29",
"l].	c #36312C",
"m].	c #3A3430",
"n].	c #413A36",
"o].	c #463F3B",
"p].	c #4B443F",
"q].	c #4C443F",
"r].	c #4A423C",
"s].	c #3B342F",
"t].	c #322B27",
"u].	c #2D2622",
"v].	c #29231E",
"w].	c #2C2623",
"x].	c #39373A",
"y].	c #35302D",
"z].	c #2E241E",
"A].	c #271911",
"B].	c #29170F",
"C].	c #311E17",
"D].	c #392F29",
"E].	c #3C3833",
"F].	c #423D39",
"G].	c #35302C",
"H].	c #3B3430",
"I].	c #403B35",
"J].	c #433D37",
"K].	c #443D38",
"L].	c #413935",
"M].	c #322824",
"N].	c #100805",
"O].	c #0D0604",
"P].	c #140B08",
"Q].	c #221813",
"R].	c #2A201B",
"S].	c #2E2420",
"T].	c #2D2420",
"U].	c #2D2520",
"V].	c #2A231F",
"W].	c #25201D",
"X].	c #25211E",
"Y].	c #262321",
"Z].	c #262322",
"`].	c #232125",
" ^.	c #0A0B12",
".^.	c #645E54",
"+^.	c #635D53",
"@^.	c #3F413D",
"#^.	c #1D2020",
"$^.	c #232524",
"%^.	c #504D4C",
"&^.	c #434447",
"*^.	c #212329",
"=^.	c #282424",
"-^.	c #292421",
";^.	c #383129",
">^.	c #51493E",
",^.	c #5C5447",
"'^.	c #60574D",
")^.	c #625A52",
"!^.	c #322F28",
"~^.	c #221D15",
"{^.	c #1E160C",
"]^.	c #25170A",
"^^.	c #3E2A1A",
"/^.	c #573E29",
"(^.	c #63462E",
"_^.	c #674931",
":^.	c #654931",
"<^.	c #614932",
"[^.	c #5C4A33",
"}^.	c #635442",
"|^.	c #7E7261",
"1^.	c #958876",
"2^.	c #9A8C78",
"3^.	c #867965",
"4^.	c #584D3D",
"5^.	c #2B2319",
"6^.	c #241C13",
"7^.	c #2C1E11",
"8^.	c #482F1A",
"9^.	c #6F4D2F",
"0^.	c #8C633E",
"a^.	c #936841",
"b^.	c #8A623C",
"c^.	c #724E2E",
"d^.	c #614024",
"e^.	c #5D3B21",
"f^.	c #613E22",
"g^.	c #664328",
"h^.	c #70563D",
"i^.	c #7D7364",
"j^.	c #7C7366",
"k^.	c #7D7366",
"l^.	c #847969",
"m^.	c #85796A",
"n^.	c #867A6A",
"o^.	c #86796A",
"p^.	c #857969",
"q^.	c #7F7463",
"r^.	c #756C60",
"s^.	c #423D34",
"t^.	c #8D8271",
"u^.	c #8A7F6C",
"v^.	c #675E4E",
"w^.	c #5D5446",
"x^.	c #524B3D",
"y^.	c #4C4436",
"z^.	c #4C4336",
"A^.	c #453D32",
"B^.	c #2F2A22",
"C^.	c #1B1815",
"D^.	c #3F3B34",
"E^.	c #5B5346",
"F^.	c #524838",
"G^.	c #8F836E",
"H^.	c #BBAD95",
"I^.	c #C9B99F",
"J^.	c #C4B59B",
"K^.	c #B1A188",
"L^.	c #998A70",
"M^.	c #94856E",
"N^.	c #7A6D58",
"O^.	c #756954",
"P^.	c #776A56",
"Q^.	c #7A6C58",
"R^.	c #7E705B",
"S^.	c #80725D",
"T^.	c #81735D",
"U^.	c #80725C",
"V^.	c #7F725B",
"W^.	c #83765D",
"X^.	c #8A7B64",
"Y^.	c #8C7D64",
"Z^.	c #8D7E65",
"`^.	c #8E7F66",
" /.	c #8E7F67",
"./.	c #8E7E67",
"+/.	c #897A62",
"@/.	c #887961",
"#/.	c #867860",
"$/.	c #80715B",
"%/.	c #7B6D59",
"&/.	c #7B6E5A",
"*/.	c #7B6D5A",
"=/.	c #7B6D5C",
"-/.	c #7A6D5B",
";/.	c #7B6E5C",
">/.	c #7C6F5C",
",/.	c #7B6E5B",
"'/.	c #7A6E5B",
")/.	c #7A6D5A",
"!/.	c #7C6F5A",
"~/.	c #93846B",
"{/.	c #998970",
"]/.	c #8B7D65",
"^/.	c #756953",
"//.	c #695C4B",
"(/.	c #6E614E",
"_/.	c #6C5E4B",
":/.	c #675A49",
"</.	c #5A5041",
"[/.	c #3C352B",
"}/.	c #15120E",
"|/.	c #25221B",
"1/.	c #403A30",
"2/.	c #494237",
"3/.	c #494235",
"4/.	c #645C4C",
"5/.	c #706551",
"6/.	c #6D6251",
"7/.	c #5A5346",
"8/.	c #35312A",
"9/.	c #35302B",
"0/.	c #665D53",
"a/.	c #786C5D",
"b/.	c #7D705F",
"c/.	c #807261",
"d/.	c #857767",
"e/.	c #8A7B6B",
"f/.	c #8E7F6E",
"g/.	c #8D7D6D",
"h/.	c #887A69",
"i/.	c #7D6F5F",
"j/.	c #706354",
"k/.	c #584A3D",
"l/.	c #524337",
"m/.	c #584A3F",
"n/.	c #665C54",
"o/.	c #6F6963",
"p/.	c #726B67",
"q/.	c #756C63",
"r/.	c #746457",
"s/.	c #674F3D",
"t/.	c #57351F",
"u/.	c #562D14",
"v/.	c #643922",
"w/.	c #6C4934",
"x/.	c #6E5745",
"y/.	c #716555",
"z/.	c #746E60",
"A/.	c #7B7266",
"B/.	c #786F64",
"C/.	c #716A5E",
"D/.	c #696256",
"E/.	c #655D51",
"F/.	c #685F52",
"G/.	c #6F6559",
"H/.	c #796E61",
"I/.	c #807568",
"J/.	c #857A6C",
"K/.	c #85796C",
"L/.	c #7F7166",
"M/.	c #66564A",
"N/.	c #473528",
"O/.	c #332014",
"P/.	c #321F12",
"Q/.	c #402C1E",
"R/.	c #594435",
"S/.	c #6A5646",
"T/.	c #6E5C4B",
"U/.	c #6C5B4B",
"V/.	c #6A5A49",
"W/.	c #655747",
"X/.	c #615546",
"Y/.	c #5B5347",
"Z/.	c #514A41",
"`/.	c #45403A",
" (.	c #07090F",
".(.	c #454039",
"+(.	c #5A544A",
"@(.	c #4E4A41",
"#(.	c #5D5B59",
"$(.	c #424244",
"%(.	c #3A3530",
"&(.	c #3A332A",
"*(.	c #42392D",
"=(.	c #524738",
"-(.	c #665A47",
";(.	c #7F705B",
">(.	c #837460",
",(.	c #857665",
"'(.	c #817565",
")(.	c #6D6355",
"!(.	c #484034",
"~(.	c #2F2619",
"{(.	c #2A1C0C",
"](.	c #341D0B",
"^(.	c #55351E",
"/(.	c #754D2F",
"((.	c #815634",
"_(.	c #835937",
":(.	c #815939",
"<(.	c #7D593A",
"[(.	c #785B3D",
"}(.	c #81684D",
"|(.	c #9F876B",
"1(.	c #B69C7E",
"2(.	c #BBA080",
"3(.	c #A98E70",
"4(.	c #79624B",
"5(.	c #433323",
"6(.	c #372A1B",
"7(.	c #3C2917",
"8(.	c #553318",
"9(.	c #83542C",
"0(.	c #A8713E",
"a(.	c #B37842",
"b(.	c #A9713E",
"c(.	c #8F5C2F",
"d(.	c #7C4C25",
"e(.	c #794822",
"f(.	c #7F4D24",
"g(.	c #84542E",
"h(.	c #8E6946",
"i(.	c #947C61",
"j(.	c #96856F",
"k(.	c #968674",
"l(.	c #978776",
"m(.	c #978876",
"n(.	c #998976",
"o(.	c #9A8976",
"p(.	c #9B8B77",
"q(.	c #9D8C77",
"r(.	c #9F8D79",
"s(.	c #A18E7A",
"t(.	c #A2907B",
"u(.	c #A18F7A",
"v(.	c #A18F79",
"w(.	c #A08E78",
"x(.	c #9C8B75",
"y(.	c #988772",
"z(.	c #978773",
"A(.	c #958775",
"B(.	c #75695B",
"C(.	c #3B332B",
"D(.	c #0B0604",
"E(.	c #413A30",
"F(.	c #756A5D",
"G(.	c #8C8070",
"H(.	c #897D6C",
"I(.	c #796E5D",
"J(.	c #554C3C",
"K(.	c #483F31",
"L(.	c #41382B",
"M(.	c #40372A",
"N(.	c #443A2D",
"O(.	c #3E352B",
"P(.	c #2A231D",
"Q(.	c #3C3832",
"R(.	c #585248",
"S(.	c #54493A",
"T(.	c #9D907A",
"U(.	c #CFBEA4",
"V(.	c #CAB99F",
"W(.	c #BBAA8E",
"X(.	c #A7957C",
"Y(.	c #A6957D",
"Z(.	c #90826B",
"`(.	c #6C604E",
" _.	c #6B5F4D",
"._.	c #6D614F",
"+_.	c #6D614D",
"@_.	c #6D634D",
"#_.	c #70654F",
"$_.	c #766A54",
"%_.	c #7B6E59",
"&_.	c #82755D",
"*_.	c #84765E",
"=_.	c #867861",
"-_.	c #867760",
";_.	c #85765F",
">_.	c #81735C",
",_.	c #7F725A",
"'_.	c #7D7059",
")_.	c #6B5F4F",
"!_.	c #6B6051",
"~_.	c #6C6052",
"{_.	c #6B5F51",
"]_.	c #695D4F",
"^_.	c #695E4E",
"/_.	c #675C4C",
"(_.	c #6C5F4B",
"__.	c #7D6E59",
":_.	c #91816A",
"<_.	c #8D7E66",
"[_.	c #786A54",
"}_.	c #695D49",
"|_.	c #6C5E4C",
"1_.	c #70624F",
"2_.	c #6D5E4B",
"3_.	c #675947",
"4_.	c #393229",
"5_.	c #110F0B",
"6_.	c #23201A",
"7_.	c #3E382F",
"8_.	c #494236",
"9_.	c #4A4236",
"0_.	c #50493C",
"a_.	c #5E5647",
"b_.	c #665D4C",
"c_.	c #685D4C",
"d_.	c #675C4A",
"e_.	c #655A4B",
"f_.	c #544D41",
"g_.	c #312D26",
"h_.	c #17130F",
"i_.	c #4B4338",
"j_.	c #887A68",
"k_.	c #9D8A72",
"l_.	c #A48F75",
"m_.	c #A69178",
"n_.	c #A9947A",
"o_.	c #A79178",
"p_.	c #A08C74",
"q_.	c #938069",
"r_.	c #85725D",
"s_.	c #766250",
"t_.	c #695544",
"u_.	c #624F3D",
"v_.	c #6B5949",
"w_.	c #807265",
"x_.	c #8D8479",
"y_.	c #8F867B",
"z_.	c #968778",
"A_.	c #9C826C",
"B_.	c #8E674C",
"C_.	c #754323",
"D_.	c #72350F",
"E_.	c #824520",
"F_.	c #8A5836",
"G_.	c #8A6A4E",
"H_.	c #8C7B63",
"I_.	c #8E8571",
"J_.	c #918976",
"K_.	c #958978",
"L_.	c #948776",
"M_.	c #877B6A",
"N_.	c #807361",
"O_.	c #837764",
"P_.	c #8B7D6A",
"Q_.	c #958774",
"R_.	c #9D8D7A",
"S_.	c #A1917D",
"T_.	c #A08F7C",
"U_.	c #968371",
"V_.	c #7A6452",
"W_.	c #5B422E",
"X_.	c #4A301B",
"Y_.	c #4D311B",
"Z_.	c #5C4129",
"`_.	c #795C44",
" :.	c #8A7057",
".:.	c #8E775D",
"+:.	c #8A745B",
"@:.	c #867158",
"#:.	c #7D6A54",
"$:.	c #786752",
"%:.	c #746551",
"&:.	c #746753",
"*:.	c #6E6453",
"=:.	c #4C473F",
"-:.	c #37332D",
";:.	c #4A453C",
">:.	c #433F38",
",:.	c #373530",
"':.	c #646160",
"):.	c #605E5D",
"!:.	c #1D191B",
"~:.	c #36302E",
"{:.	c #3F3832",
"]:.	c #3D3329",
"^:.	c #44392B",
"/:.	c #564937",
"(:.	c #6C5E48",
"_:.	c #796851",
"::.	c #85735A",
"<:.	c #87755D",
"[:.	c #8A7762",
"}:.	c #887863",
"|:.	c #746656",
"1:.	c #4D4234",
"2:.	c #322518",
"3:.	c #2E1C0B",
"4:.	c #391E09",
"5:.	c #5C361B",
"6:.	c #7A4D2B",
"7:.	c #84542F",
"8:.	c #855632",
"9:.	c #835735",
"0:.	c #7F5938",
"a:.	c #7B5B3C",
"b:.	c #84674A",
"c:.	c #A28465",
"d:.	c #B99875",
"e:.	c #C29F79",
"f:.	c #B5926E",
"g:.	c #876A4D",
"h:.	c #513D2A",
"i:.	c #443323",
"j:.	c #442F1C",
"k:.	c #573416",
"l:.	c #845327",
"m:.	c #AB6F38",
"n:.	c #B5753A",
"o:.	c #AB6D35",
"p:.	c #935A29",
"q:.	c #834D22",
"r:.	c #814A20",
"s:.	c #885123",
"t:.	c #8C592D",
"u:.	c #946C47",
"v:.	c #997E62",
"w:.	c #98856F",
"x:.	c #988674",
"y:.	c #9A8977",
"z:.	c #9A8B76",
"A:.	c #9C8C77",
"B:.	c #9E8D77",
"C:.	c #A3907A",
"D:.	c #A4927B",
"E:.	c #A4917B",
"F:.	c #A5917C",
"G:.	c #A5917A",
"H:.	c #A18E77",
"I:.	c #9C8A73",
"J:.	c #9B8A75",
"K:.	c #9C8D7A",
"L:.	c #7C6F5F",
"M:.	c #3E362C",
"N:.	c #040100",
"O:.	c #40382E",
"P:.	c #8D806F",
"Q:.	c #8A7D6C",
"R:.	c #786C5C",
"S:.	c #625848",
"T:.	c #514738",
"U:.	c #403629",
"V:.	c #413729",
"W:.	c #443B2D",
"X:.	c #3E352A",
"Y:.	c #29231C",
"Z:.	c #605649",
"`:.	c #5B4F3E",
" <.	c #736651",
".<.	c #A89982",
"+<.	c #CCBDA3",
"@<.	c #D3C2A7",
"#<.	c #B5A388",
"$<.	c #B29F85",
"%<.	c #AC9B82",
"&<.	c #91836C",
"*<.	c #695D4C",
"=<.	c #695E4D",
"-<.	c #6A5F4E",
";<.	c #6B614E",
"><.	c #6B604D",
",<.	c #6C614D",
"'<.	c #6E644F",
")<.	c #736852",
"!<.	c #796D58",
"~<.	c #7E725C",
"{<.	c #80745D",
"]<.	c #82755E",
"^<.	c #84765F",
"/<.	c #857861",
"(<.	c #7E715B",
"_<.	c #645C4D",
":<.	c #655C50",
"<<.	c #675D51",
"[<.	c #665C4F",
"}<.	c #665B4D",
"|<.	c #635649",
"1<.	c #5E5343",
"2<.	c #5E5240",
"3<.	c #7B6D57",
"4<.	c #7A6C55",
"5<.	c #6C5E4A",
"6<.	c #6E604D",
"7<.	c #726350",
"8<.	c #665846",
"9<.	c #574D3E",
"0<.	c #231F19",
"a<.	c #4B4437",
"b<.	c #5E5648",
"c<.	c #665D4D",
"d<.	c #675D4C",
"e<.	c #645A4B",
"f<.	c #554D42",
"g<.	c #302C25",
"h<.	c #50463A",
"i<.	c #A38E73",
"j<.	c #A58F70",
"k<.	c #A68F70",
"l<.	c #A89274",
"m<.	c #A89275",
"n<.	c #AB9577",
"o<.	c #AA9377",
"p<.	c #A48E73",
"q<.	c #958067",
"r<.	c #86725C",
"s<.	c #77624E",
"t<.	c #6A5442",
"u<.	c #624D3A",
"v<.	c #6C5847",
"w<.	c #827467",
"x<.	c #90877C",
"y<.	c #93897D",
"z<.	c #998A7A",
"A<.	c #A2856F",
"B<.	c #966A4D",
"C<.	c #7C4320",
"D<.	c #793307",
"E<.	c #884318",
"F<.	c #8F5830",
"G<.	c #8D6B4A",
"H<.	c #938974",
"I<.	c #968D79",
"J<.	c #998C79",
"K<.	c #978977",
"L<.	c #8E816E",
"M<.	c #867865",
"N<.	c #897B66",
"O<.	c #9A8A75",
"P<.	c #9F8E79",
"Q<.	c #A4927C",
"R<.	c #95816D",
"S<.	c #7B644F",
"T<.	c #60452E",
"U<.	c #573921",
"V<.	c #5B3C22",
"W<.	c #66482C",
"X<.	c #7E6245",
"Y<.	c #907658",
"Z<.	c #967F63",
"`<.	c #917B61",
" [.	c #8A755B",
".[.	c #766750",
"+[.	c #726652",
"@[.	c #6D6353",
"#[.	c #2E2C2E",
"$[.	c #2B2823",
"%[.	c #3F3932",
"&[.	c #36332F",
"*[.	c #625F5D",
"=[.	c #09070C",
"-[.	c #342F2E",
";[.	c #3D3732",
">[.	c #42372C",
",[.	c #524637",
"'[.	c #685B47",
")[.	c #746650",
"![.	c #7F7058",
"~[.	c #84735C",
"{[.	c #867660",
"][.	c #847560",
"^[.	c #706253",
"/[.	c #4A3F33",
"([.	c #312418",
"_[.	c #2D1C0C",
":[.	c #38200A",
"<[.	c #58361C",
"[[.	c #734A2B",
"}[.	c #7B5130",
"|[.	c #7C5433",
"1[.	c #7A5536",
"2[.	c #77563A",
"3[.	c #74583D",
"4[.	c #7B6249",
"5[.	c #977D60",
"6[.	c #B09270",
"7[.	c #BD9B76",
"8[.	c #B3916D",
"9[.	c #886A4E",
"0[.	c #574230",
"a[.	c #4E3D2E",
"b[.	c #4E3A28",
"c[.	c #583B20",
"d[.	c #7B512A",
"e[.	c #9D6837",
"f[.	c #A76E39",
"g[.	c #A06834",
"h[.	c #8D592A",
"i[.	c #855127",
"j[.	c #844E27",
"k[.	c #885329",
"l[.	c #8C5C34",
"m[.	c #926E4D",
"n[.	c #957F65",
"o[.	c #928470",
"p[.	c #908473",
"q[.	c #918676",
"r[.	c #928677",
"s[.	c #938777",
"t[.	c #948877",
"u[.	c #958877",
"v[.	c #978A78",
"w[.	c #9A8B79",
"x[.	c #9B8C79",
"y[.	c #9C8E7B",
"z[.	c #9D8E7C",
"A[.	c #9F907D",
"B[.	c #9E8F7B",
"C[.	c #998B76",
"D[.	c #948671",
"E[.	c #948673",
"F[.	c #968A78",
"G[.	c #3B342B",
"H[.	c #897D6B",
"I[.	c #52493A",
"J[.	c #473E30",
"K[.	c #43392C",
"L[.	c #42382B",
"M[.	c #3D352A",
"N[.	c #27231B",
"O[.	c #3E3932",
"P[.	c #635643",
"Q[.	c #AD9D84",
"R[.	c #CCBBA2",
"S[.	c #D3C1A6",
"T[.	c #CEBBA0",
"U[.	c #B19E83",
"V[.	c #A9987D",
"W[.	c #6E614F",
"X[.	c #6D604E",
"Y[.	c #6D604F",
"Z[.	c #6E6250",
"`[.	c #6F6350",
" }.	c #6F634F",
".}.	c #736751",
"+}.	c #766A53",
"@}.	c #80735D",
"#}.	c #847761",
"$}.	c #877963",
"%}.	c #83755E",
"&}.	c #7F735D",
"*}.	c #7D725C",
"=}.	c #776C59",
"-}.	c #5B5546",
";}.	c #5C5749",
">}.	c #5F554A",
",}.	c #685E50",
"'}.	c #776A5C",
")}.	c #7C6E5F",
"!}.	c #7A6C5C",
"~}.	c #716352",
"{}.	c #6A5C49",
"]}.	c #655845",
"^}.	c #665946",
"/}.	c #685A46",
"(}.	c #70624D",
"_}.	c #80715A",
":}.	c #918268",
"<}.	c #7C6D56",
"[}.	c #6E5F4B",
"}}.	c #6F604D",
"|}.	c #6C5D49",
"1}.	c #635743",
"2}.	c #12100C",
"3}.	c #221E18",
"4}.	c #4A4336",
"5}.	c #514A3D",
"6}.	c #655C4D",
"7}.	c #655B4A",
"8}.	c #635A4A",
"9}.	c #2F2C24",
"0}.	c #887C68",
"a}.	c #9D8B73",
"b}.	c #9D8B6F",
"c}.	c #A08E72",
"d}.	c #A08F74",
"e}.	c #A39176",
"f}.	c #A08E74",
"g}.	c #9B8970",
"h}.	c #8D7C66",
"i}.	c #806E5B",
"j}.	c #715F4E",
"k}.	c #665344",
"l}.	c #5E4C3C",
"m}.	c #655547",
"n}.	c #796F64",
"o}.	c #878179",
"p}.	c #8C857D",
"q}.	c #91867B",
"r}.	c #96806D",
"s}.	c #8A644B",
"t}.	c #744020",
"u}.	c #76340D",
"v}.	c #82431B",
"w}.	c #865430",
"x}.	c #85664A",
"y}.	c #897863",
"z}.	c #8E8573",
"A}.	c #918978",
"B}.	c #928878",
"C}.	c #8F8575",
"D}.	c #8B8271",
"E}.	c #867C6C",
"F}.	c #817564",
"G}.	c #837765",
"H}.	c #887C6A",
"I}.	c #908370",
"J}.	c #998B77",
"K}.	c #958773",
"L}.	c #8B7B69",
"M}.	c #74614E",
"N}.	c #5D4633",
"O}.	c #563C27",
"P}.	c #5A3F29",
"Q}.	c #62482F",
"R}.	c #765F44",
"S}.	c #877359",
"T}.	c #81725D",
"U}.	c #696151",
"V}.	c #655E51",
"W}.	c #575147",
"X}.	c #48433C",
"Y}.	c #343028",
"Z}.	c #63625D",
"`}.	c #62605D",
" |.	c #38322C",
".|.	c #433B34",
"+|.	c #534C3F",
"@|.	c #6A6051",
"#|.	c #6F6455",
"$|.	c #726859",
"%|.	c #5F564C",
"&|.	c #423A33",
"*|.	c #2F2820",
"=|.	c #2C2319",
"-|.	c #332617",
";|.	c #4A3624",
">|.	c #5D432F",
",|.	c #634933",
"'|.	c #654C37",
")|.	c #654F3A",
"!|.	c #66533F",
"~|.	c #655544",
"{|.	c #6B5C4B",
"]|.	c #7E6F5B",
"^|.	c #927F67",
"/|.	c #9F876C",
"(|.	c #9B8266",
"_|.	c #7D6852",
":|.	c #605043",
"<|.	c #5E5147",
"[|.	c #5F5143",
"}|.	c #5D4A38",
"||.	c #684C32",
"1|.	c #7B5635",
"2|.	c #825934",
"3|.	c #815832",
"4|.	c #7D5530",
"5|.	c #815734",
"6|.	c #815433",
"7|.	c #7D5230",
"8|.	c #7E5737",
"9|.	c #81664C",
"0|.	c #80725E",
"a|.	c #7C7566",
"b|.	c #797367",
"c|.	c #797368",
"d|.	c #7A7368",
"e|.	c #7B7469",
"f|.	c #7C7568",
"g|.	c #7D7669",
"h|.	c #7F776A",
"i|.	c #80776A",
"j|.	c #81796B",
"k|.	c #837A6C",
"l|.	c #847B6D",
"m|.	c #83796B",
"n|.	c #7E7564",
"o|.	c #78705F",
"p|.	c #787061",
"q|.	c #7B7264",
"r|.	c #61594D",
"s|.	c #2E2922",
"t|.	c #352F27",
"u|.	c #665E50",
"v|.	c #7F7563",
"w|.	c #7E7361",
"x|.	c #6E6452",
"y|.	c #504738",
"z|.	c #483F32",
"A|.	c #433A2D",
"B|.	c #42392C",
"C|.	c #443B2E",
"D|.	c #26221B",
"E|.	c #161612",
"F|.	c #3F3C34",
"G|.	c #615B50",
"H|.	c #897B63",
"I|.	c #B3A389",
"J|.	c #CAB9A0",
"K|.	c #CFBCA2",
"L|.	c #CCB99E",
"M|.	c #C2AE94",
"N|.	c #BBA88D",
"O|.	c #B8A58B",
"P|.	c #B2A086",
"Q|.	c #9E8D76",
"R|.	c #897B65",
"S|.	c #897A65",
"T|.	c #867964",
"U|.	c #857762",
"V|.	c #82735F",
"W|.	c #81725E",
"X|.	c #887962",
"Y|.	c #8A7B63",
"Z|.	c #8D7D63",
"`|.	c #8F7E64",
" 1.	c #908066",
".1.	c #908067",
"+1.	c #8B7C65",
"@1.	c #867A63",
"#1.	c #887A64",
"$1.	c #877A63",
"%1.	c #877962",
"&1.	c #847860",
"*1.	c #82765E",
"=1.	c #776D59",
"-1.	c #665E4E",
";1.	c #5A5548",
">1.	c #574E41",
",1.	c #756A5A",
"'1.	c #9F907F",
")1.	c #AF9F8D",
"!1.	c #AE9E8A",
"~1.	c #9F8E78",
"{1.	c #8D7C64",
"]1.	c #85745C",
"^1.	c #85755D",
"/1.	c #86765D",
"(1.	c #8A7A60",
"_1.	c #8E7D63",
":1.	c #95866A",
"<1.	c #9A8A6E",
"[1.	c #9B8B6F",
"}1.	c #928268",
"|1.	c #7F7159",
"11.	c #70614D",
"21.	c #71624E",
"31.	c #695A46",
"41.	c #605340",
"51.	c #544A3A",
"61.	c #383227",
"71.	c #211E18",
"81.	c #4A4436",
"91.	c #504A3D",
"01.	c #5C5548",
"a1.	c #534C41",
"b1.	c #2F2A23",
"c1.	c #39342C",
"d1.	c #6C6456",
"e1.	c #7D715E",
"f1.	c #7C705D",
"g1.	c #7F7461",
"h1.	c #74695A",
"i1.	c #6A5F51",
"j1.	c #61554A",
"k1.	c #5A4F45",
"l1.	c #554A40",
"m1.	c #584F46",
"n1.	c #74726F",
"o1.	c #79736E",
"p1.	c #7A6D61",
"q1.	c #6F5745",
"r1.	c #634027",
"s1.	c #6A3D21",
"t1.	c #734529",
"u1.	c #714E34",
"v1.	c #716857",
"w1.	c #767264",
"x1.	c #797569",
"y1.	c #7A7469",
"z1.	c #777166",
"A1.	c #726D62",
"B1.	c #6D685D",
"C1.	c #6A6459",
"D1.	c #696358",
"E1.	c #6B6558",
"F1.	c #6E685B",
"G1.	c #756E61",
"H1.	c #797164",
"I1.	c #7A7264",
"J1.	c #615649",
"K1.	c #4E4133",
"L1.	c #463729",
"M1.	c #4A392A",
"N1.	c #503F2F",
"O1.	c #5F503E",
"P1.	c #726858",
"Q1.	c #6F6658",
"R1.	c #5C574B",
"S1.	c #565147",
"T1.	c #545046",
"U1.	c #34312B",
"V1.	c #48423B",
"W1.	c #292627",
"X1.	c #2D2928",
"Y1.	c #4C4943",
"Z1.	c #28251F",
"`1.	c #322C23",
" 2.	c #3B332A",
".2.	c #3F372E",
"+2.	c #423B33",
"@2.	c #474139",
"#2.	c #4F4942",
"$2.	c #676057",
"%2.	c #716556",
"&2.	c #6A5E52",
"*2.	c #645B53",
"=2.	c #5D5147",
"-2.	c #504135",
";2.	c #4C392A",
">2.	c #4C3625",
",2.	c #533C29",
"'2.	c #674D37",
")2.	c #7A5A43",
"!2.	c #77553C",
"~2.	c #6A4B31",
"{2.	c #614730",
"]2.	c #60503E",
"^2.	c #5E584A",
"/2.	c #5B5850",
"(2.	c #5E5A52",
"_2.	c #4E4B41",
":2.	c #1C1914",
"<2.	c #2D2820",
"[2.	c #5E5342",
"}2.	c #514737",
"|2.	c #4B4234",
"12.	c #463D31",
"22.	c #41392C",
"32.	c #433B2E",
"42.	c #645D51",
"52.	c #786A55",
"62.	c #94856C",
"72.	c #B9A88D",
"82.	c #C9B79C",
"92.	c #CBB89D",
"02.	c #CDBA9F",
"a2.	c #D1BEA5",
"b2.	c #D3C0A7",
"c2.	c #CFBDA3",
"d2.	c #BFAB93",
"e2.	c #B2A088",
"f2.	c #AF9F87",
"g2.	c #B09F87",
"h2.	c #AE9D86",
"i2.	c #A89780",
"j2.	c #98866E",
"k2.	c #A18E76",
"l2.	c #AF9B81",
"m2.	c #B6A185",
"n2.	c #BCA687",
"o2.	c #C5AF93",
"p2.	c #B3A086",
"q2.	c #867863",
"r2.	c #7B715B",
"s2.	c #756D59",
"t2.	c #655D4E",
"u2.	c #5A5448",
"v2.	c #534B3F",
"w2.	c #8A7D6B",
"x2.	c #C5B49F",
"y2.	c #DBC9B2",
"z2.	c #DCC9B1",
"A2.	c #CDB99F",
"B2.	c #A99478",
"C2.	c #9E8A6F",
"D2.	c #9B886C",
"E2.	c #9D8B6E",
"F2.	c #9D8C71",
"G2.	c #83755D",
"H2.	c #655642",
"I2.	c #5D4F3C",
"J2.	c #383127",
"K2.	c #13110D",
"L2.	c #010201",
"M2.	c #3C372E",
"N2.	c #50493D",
"O2.	c #62594A",
"P2.	c #635948",
"Q2.	c #635947",
"R2.	c #2D2923",
"S2.	c #423F37",
"T2.	c #565248",
"U2.	c #524D44",
"V2.	c #46423D",
"W2.	c #4E5150",
"X2.	c #505355",
"Y2.	c #4F463C",
"Z2.	c #4D3D2E",
"`2.	c #553E2E",
" 3.	c #5A4232",
".3.	c #564535",
"+3.	c #52483C",
"@3.	c #54544D",
"#3.	c #54524B",
"$3.	c #38342D",
"%3.	c #312C26",
"&3.	c #332E27",
"*3.	c #38332B",
"=3.	c #46423B",
"-3.	c #47453F",
";3.	c #3E3E39",
">3.	c #6B655A",
",3.	c #6A6258",
"'3.	c #6A6861",
")3.	c #77746D",
"!3.	c #2A2D2C",
"~3.	c #4F504E",
"{3.	c #5F5851",
"]3.	c #423B34",
"^3.	c #2D2620",
"/3.	c #231C16",
"(3.	c #362D23",
"_3.	c #5E4E40",
":3.	c #775F4E",
"<3.	c #725844",
"[3.	c #5F4935",
"}3.	c #4F3E2E",
"|3.	c #4C4236",
"13.	c #4A473E",
"23.	c #474640",
"33.	c #615544",
"43.	c #584C3A",
"53.	c #504535",
"63.	c #4C4335",
"73.	c #473E32",
"83.	c #443B2F",
"93.	c #3D362B",
"03.	c #26231C",
"a3.	c #191813",
"b3.	c #444037",
"c3.	c #686153",
"d3.	c #746956",
"e3.	c #7F7059",
"f3.	c #9B8A71",
"g3.	c #BCAA8E",
"h3.	c #C9B69B",
"i3.	c #CAB79C",
"j3.	c #D0BDA2",
"k3.	c #D9C8AD",
"l3.	c #E5D4BC",
"m3.	c #E9D8BF",
"n3.	c #E4D2B9",
"o3.	c #D0BCA3",
"p3.	c #C1AE94",
"q3.	c #C0AE93",
"r3.	c #C1AE95",
"s3.	c #B7A48C",
"t3.	c #A59279",
"u3.	c #AF9A7F",
"v3.	c #C4AE91",
"w3.	c #D9BF9C",
"x3.	c #DFC4A0",
"y3.	c #E5CAA7",
"z3.	c #E4CAA9",
"A3.	c #CBB698",
"B3.	c #A29276",
"C3.	c #887960",
"D3.	c #887B64",
"E3.	c #7E735D",
"F3.	c #7C715C",
"G3.	c #746B57",
"H3.	c #615949",
"I3.	c #5D5648",
"J3.	c #A89A82",
"K3.	c #DCCAB0",
"L3.	c #EEDABF",
"M3.	c #F1DBC0",
"N3.	c #BFA88A",
"O3.	c #BFA98A",
"P3.	c #B9A385",
"Q3.	c #A89376",
"R3.	c #9E8A6E",
"S3.	c #A19073",
"T3.	c #A19175",
"U3.	c #746651",
"V3.	c #6E604C",
"W3.	c #6D5F4A",
"X3.	c #63533F",
"Y3.	c #504636",
"Z3.	c #373126",
"`3.	c #14120E",
" 4.	c #4F483C",
".4.	c #585144",
"+4.	c #605849",
"@4.	c #63584B",
"#4.	c #2D2822",
"$4.	c #3F4344",
"%4.	c #424646",
"&4.	c #424544",
"*4.	c #403C35",
"=4.	c #443E34",
"-4.	c #474137",
";4.	c #47433B",
">4.	c #434642",
",4.	c #292A27",
"'4.	c #0A0C14",
")4.	c #090B12",
"!4.	c #67635C",
"~4.	c #898276",
"{4.	c #8A8274",
"]4.	c #716F68",
"^4.	c #252725",
"/4.	c #655F58",
"(4.	c #645E56",
"_4.	c #2D2721",
":4.	c #231D17",
"<4.	c #393128",
"[4.	c #5F5145",
"}4.	c #745F50",
"|4.	c #6F5A48",
"14.	c #604D3D",
"24.	c #534538",
"34.	c #262017",
"44.	c #4B4334",
"54.	c #625543",
"64.	c #5C503E",
"74.	c #564B3B",
"84.	c #4B4235",
"94.	c #423A2D",
"04.	c #3D362C",
"a4.	c #26221C",
"b4.	c #1D1A16",
"c4.	c #4A443A",
"d4.	c #6C6353",
"e4.	c #766A55",
"f4.	c #807058",
"g4.	c #9A896E",
"h4.	c #B9A68A",
"i4.	c #C6B397",
"j4.	c #CFBCA1",
"k4.	c #E8D8C1",
"l4.	c #ECDDC5",
"m4.	c #E6D5BC",
"n4.	c #D0BDA4",
"o4.	c #C2AF94",
"p4.	c #C1AE93",
"q4.	c #B6A289",
"r4.	c #9D886D",
"s4.	c #AE987C",
"t4.	c #C3AC8E",
"u4.	c #D0B796",
"v4.	c #D9BD9A",
"w4.	c #E0C49F",
"x4.	c #E7CBA6",
"y4.	c #E5CCA8",
"z4.	c #8A7B66",
"A4.	c #887A63",
"B4.	c #7E725B",
"C4.	c #7C705B",
"D4.	c #726854",
"E4.	c #5A513F",
"F4.	c #524939",
"G4.	c #6B614F",
"H4.	c #8A7C68",
"I4.	c #A3927B",
"J4.	c #C5B398",
"K4.	c #E5D3B5",
"L4.	c #F1DCBE",
"M4.	c #F3DEBF",
"N4.	c #C1AA8B",
"O4.	c #C3AE8E",
"P4.	c #A39379",
"Q4.	c #897A64",
"R4.	c #746652",
"S4.	c #6B5C49",
"T4.	c #60513E",
"U4.	c #4E4434",
"V4.	c #363026",
"W4.	c #16120F",
"X4.	c #4C463A",
"Y4.	c #675B4D",
"Z4.	c #524B40",
"`4.	c #2B2721",
" 5.	c #454746",
".5.	c #40403A",
"+5.	c #43433B",
"@5.	c #46453E",
"#5.	c #454844",
"$5.	c #8E877B",
"%5.	c #938B7D",
"&5.	c #847D72",
"*5.	c #68625C",
"=5.	c #736F67",
"-5.	c #737169",
";5.	c #655E57",
">5.	c #3A332D",
",5.	c #473E36",
"'5.	c #5F5348",
")5.	c #6E5D4E",
"!5.	c #6A594A",
"~5.	c #635345",
"{5.	c #5B4E43",
"]5.	c #595046",
"^5.	c #0F0F0D",
"/5.	c #221B13",
"(5.	c #433B2C",
"_5.	c #544A39",
":5.	c #564A38",
"<5.	c #423A2E",
"[5.	c #413A2D",
"}5.	c #453C31",
"|5.	c #3E372D",
"15.	c #26221D",
"25.	c #020301",
"35.	c #231F1B",
"45.	c #534C42",
"55.	c #837259",
"65.	c #B5A185",
"75.	c #C3AF94",
"85.	c #D3BFA7",
"95.	c #DDCCB4",
"05.	c #DFCFB7",
"a5.	c #DAC8B0",
"b5.	c #C8B49B",
"c5.	c #BCA88D",
"d5.	c #BDAA8F",
"e5.	c #9F8A71",
"f5.	c #998469",
"g5.	c #A59073",
"h5.	c #B59F81",
"i5.	c #BEA585",
"j5.	c #C6AB88",
"k5.	c #D5B994",
"l5.	c #E1C7A1",
"m5.	c #E4CBA7",
"n5.	c #897962",
"o5.	c #8A7A62",
"p5.	c #87785F",
"q5.	c #84765D",
"r5.	c #81725B",
"s5.	c #72654D",
"t5.	c #74664E",
"u5.	c #918269",
"v5.	c #B4A388",
"w5.	c #DCC7A8",
"x5.	c #E8D5B4",
"y5.	c #ECD8B8",
"z5.	c #EDD9B9",
"A5.	c #E2CDAE",
"B5.	c #C4AF90",
"C5.	c #B29D7F",
"D5.	c #B29D80",
"E5.	c #948267",
"F5.	c #95836B",
"G5.	c #7F715B",
"H5.	c #685A49",
"I5.	c #695A49",
"J5.	c #5E503F",
"K5.	c #544736",
"L5.	c #4C4234",
"M5.	c #362F26",
"N5.	c #171410",
"O5.	c #4C4639",
"P5.	c #524B3E",
"Q5.	c #595043",
"R5.	c #5E5445",
"S5.	c #5E5344",
"T5.	c #5B5043",
"U5.	c #4B443A",
"V5.	c #47463E",
"W5.	c #4F4E46",
"X5.	c #54534C",
"Y5.	c #52514B",
"Z5.	c #7B756B",
"`5.	c #827B6F",
" 6.	c #272928",
".6.	c #737066",
"+6.	c #7D7A70",
"@6.	c #737068",
"#6.	c #373531",
"$6.	c #5C5750",
"%6.	c #48423D",
"&6.	c #49433C",
"*6.	c #4F4841",
"=6.	c #5B5149",
"-6.	c #64584D",
";6.	c #65584C",
">6.	c #64564B",
",6.	c #5F534A",
"'6.	c #5C534B",
")6.	c #0E0F0D",
"!6.	c #1B140D",
"~6.	c #342B1E",
"{6.	c #403625",
"]6.	c #433926",
"^6.	c #463A28",
"/6.	c #493E2E",
"(6.	c #4C4133",
"_6.	c #483E32",
":6.	c #433A30",
"<6.	c #423B30",
"[6.	c #3E382E",
"}6.	c #26231D",
"|6.	c #272520",
"16.	c #5D574C",
"26.	c #847867",
"36.	c #A08D71",
"46.	c #B29E82",
"56.	c #BAA58A",
"66.	c #BBA58B",
"76.	c #BCA78C",
"86.	c #BEAA90",
"96.	c #C4B098",
"06.	c #C3B096",
"a6.	c #BAA68C",
"b6.	c #B7A287",
"c6.	c #B8A489",
"d6.	c #BAA589",
"e6.	c #B19D81",
"f6.	c #A08B71",
"g6.	c #99846A",
"h6.	c #A28D71",
"i6.	c #AB9578",
"j6.	c #AE9677",
"k6.	c #B39978",
"l6.	c #CAB08C",
"m6.	c #E3CAA6",
"n6.	c #EDD5B3",
"o6.	c #DAC5A8",
"p6.	c #CCB99D",
"q6.	c #C0AD93",
"r6.	c #B09E85",
"s6.	c #8A7A61",
"t6.	c #8F7E67",
"u6.	c #8F7F66",
"v6.	c #8D7D64",
"w6.	c #897960",
"x6.	c #86775E",
"y6.	c #83735A",
"z6.	c #89795F",
"A6.	c #9D8C70",
"B6.	c #AC997C",
"C6.	c #B19D7F",
"D6.	c #C1AD8E",
"E6.	c #D5C09F",
"F6.	c #E5CEAD",
"G6.	c #E8D3B1",
"H6.	c #EAD7B5",
"I6.	c #EAD6B5",
"J6.	c #E9D5B6",
"K6.	c #BBA88A",
"L6.	c #A18D72",
"M6.	c #A49074",
"N6.	c #8B7A61",
"O6.	c #7E6E57",
"P6.	c #7C6D57",
"Q6.	c #766754",
"R6.	c #625545",
"S6.	c #635646",
"T6.	c #665848",
"U6.	c #5D4F40",
"V6.	c #544838",
"W6.	c #352E25",
"X6.	c #3C372F",
"Y6.	c #4D453A",
"Z6.	c #4B4133",
"`6.	c #4A4031",
" 7.	c #41392F",
".7.	c #241F19",
"+7.	c #4E4C45",
"@7.	c #424440",
"#7.	c #414340",
"$7.	c #424542",
"%7.	c #090B10",
"&7.	c #534F47",
"*7.	c #22201F",
"=7.	c #5D5853",
"-7.	c #3D3733",
";7.	c #3C3732",
">7.	c #393531",
",7.	c #2E2C2D",
"'7.	c #61584F",
")7.	c #645A51",
"!7.	c #625851",
"~7.	c #5E574F",
"{7.	c #140F09",
"]7.	c #282115",
"^7.	c #32291A",
"/7.	c #372D1C",
"(7.	c #3E3222",
"_7.	c #483D2D",
":7.	c #4D4335",
"<7.	c #4A4135",
"[7.	c #463F34",
"}7.	c #463F36",
"|7.	c #3E3930",
"17.	c #25231D",
"27.	c #AD997C",
"37.	c #B6A084",
"47.	c #B8A287",
"57.	c #B59E85",
"67.	c #B29C82",
"77.	c #AE987E",
"87.	c #B09B80",
"97.	c #B49F84",
"07.	c #B8A388",
"a7.	c #A99378",
"b7.	c #A28D72",
"c7.	c #A89377",
"d7.	c #AD977B",
"e7.	c #AA9376",
"f7.	c #AB9373",
"g7.	c #C6AE8C",
"h7.	c #E8D1AF",
"i7.	c #F6E1C2",
"j7.	c #F6E2C4",
"k7.	c #F0DCBE",
"l7.	c #E6D1B5",
"m7.	c #D7C3A8",
"n7.	c #C1AD94",
"o7.	c #8B7B61",
"p7.	c #918069",
"q7.	c #96846D",
"r7.	c #948268",
"s7.	c #8E7D64",
"t7.	c #88785F",
"u7.	c #827258",
"v7.	c #CEB797",
"w7.	c #D4BC9A",
"x7.	c #DBC5A2",
"y7.	c #E5CEAB",
"z7.	c #EED8B6",
"A7.	c #EFDAB9",
"B7.	c #F0DBBA",
"C7.	c #EEDBBA",
"D7.	c #EDD9BB",
"E7.	c #E1CCB0",
"F7.	c #BBA78B",
"G7.	c #81705A",
"H7.	c #6B5E4C",
"I7.	c #6A5D4B",
"J7.	c #675948",
"K7.	c #625444",
"L7.	c #615445",
"M7.	c #5E5142",
"N7.	c #574B3C",
"O7.	c #4B4134",
"P7.	c #322B22",
"Q7.	c #221F1B",
"R7.	c #3E3831",
"S7.	c #4A453A",
"T7.	c #433A2E",
"U7.	c #403627",
"V7.	c #403526",
"W7.	c #43372B",
"X7.	c #3C332B",
"Y7.	c #221C17",
"Z7.	c #53524B",
"`7.	c #60605A",
" 8.	c #4A4B46",
".8.	c #3B3E3B",
"+8.	c #1F1D1B",
"@8.	c #2A2621",
"#8.	c #5C5752",
"$8.	c #38322E",
"%8.	c #37322E",
"&8.	c #6B6961",
"*8.	c #6C6962",
"=8.	c #645C56",
"-8.	c #50504B",
";8.	c #0E0B06",
">8.	c #201A11",
",8.	c #292115",
"'8.	c #302718",
")8.	c #392F1F",
"!8.	c #463C2D",
"~8.	c #4D4436",
"{8.	c #454035",
"]8.	c #232019",
"^8.	c #28241C",
"/8.	c #948772",
"(8.	c #B6A083",
"_8.	c #B9A285",
":8.	c #B7A085",
"<8.	c #B29B80",
"[8.	c #AF987D",
"}8.	c #AC957A",
"|8.	c #AF9A7E",
"18.	c #B39E83",
"28.	c #B6A086",
"38.	c #BCA78B",
"48.	c #BDA88B",
"58.	c #B8A286",
"68.	c #AC977B",
"78.	c #AF997E",
"88.	c #A99377",
"98.	c #A99272",
"08.	c #C5AE8D",
"a8.	c #F9E5C7",
"b8.	c #F9E6C8",
"c8.	c #F3DEC0",
"d8.	c #DBC5A9",
"e8.	c #A7947A",
"f8.	c #87765D",
"g8.	c #8B7A62",
"h8.	c #907E66",
"i8.	c #938066",
"j8.	c #938166",
"k8.	c #8A785E",
"l8.	c #827156",
"m8.	c #907D60",
"n8.	c #B8A282",
"o8.	c #D8BF9C",
"p8.	c #E5CFAC",
"q8.	c #F0DBB9",
"r8.	c #F4DFBF",
"s8.	c #F4E1C0",
"t8.	c #F2E0C0",
"u8.	c #E5D0B4",
"v8.	c #98856A",
"w8.	c #8F7E65",
"x8.	c #7A6A55",
"y8.	c #6B5C4A",
"z8.	c #645647",
"A8.	c #625546",
"B8.	c #605244",
"C8.	c #5F5344",
"D8.	c #605445",
"E8.	c #5F5244",
"F8.	c #594D3F",
"G8.	c #4C4235",
"H8.	c #352D23",
"I8.	c #1A140D",
"J8.	c #3F3A33",
"K8.	c #49453C",
"L8.	c #49463C",
"M8.	c #48443A",
"N8.	c #474136",
"O8.	c #43382A",
"P8.	c #45392E",
"Q8.	c #3D352B",
"R8.	c #221C16",
"S8.	c #40413D",
"T8.	c #5C5C56",
"U8.	c #464743",
"V8.	c #383B38",
"W8.	c #171412",
"X8.	c #3A3737",
"Y8.	c #655F5A",
"Z8.	c #19130C",
"`8.	c #20190F",
" 9.	c #241D10",
".9.	c #2E2518",
"+9.	c #3F3628",
"@9.	c #484135",
"#9.	c #3C382E",
"$9.	c #35312B",
"%9.	c #38332A",
"&9.	c #332D22",
"*9.	c #2B251B",
"=9.	c #292316",
"-9.	c #3B3222",
";9.	c #6A5E4A",
">9.	c #AC987D",
",9.	c #B49E81",
"'9.	c #B8A183",
")9.	c #B39B7E",
"!9.	c #AD957A",
"~9.	c #A68E74",
"{9.	c #A58D72",
"]9.	c #A48C71",
"^9.	c #A68E73",
"/9.	c #A79075",
"(9.	c #AA9379",
"_9.	c #AB947A",
":9.	c #AC977C",
"<9.	c #AD977C",
"[9.	c #AB967A",
"}9.	c #A48F74",
"|9.	c #A79276",
"19.	c #A28D70",
"29.	c #A38C6D",
"39.	c #E3CCAC",
"49.	c #EED9BA",
"59.	c #E4CEB0",
"69.	c #BFA88B",
"79.	c #AA947A",
"89.	c #937F65",
"99.	c #86735A",
"09.	c #837157",
"a9.	c #907D61",
"b9.	c #937F63",
"c9.	c #917C61",
"d9.	c #8F7B5E",
"e9.	c #8B775A",
"f9.	c #9C8667",
"g9.	c #BDA484",
"h9.	c #CEB593",
"i9.	c #D0B694",
"j9.	c #D3BB98",
"k9.	c #D9C4A1",
"l9.	c #E2CEAC",
"m9.	c #E4D1B1",
"n9.	c #E4D1B2",
"o9.	c #E1D0B2",
"p9.	c #E0CFB2",
"q9.	c #D5C2A6",
"r9.	c #B2A184",
"s9.	c #978569",
"t9.	c #695A48",
"u9.	c #665747",
"v9.	c #655748",
"w9.	c #645648",
"x9.	c #635647",
"y9.	c #625445",
"z9.	c #605345",
"A9.	c #615446",
"B9.	c #5F5245",
"C9.	c #5C4F42",
"D9.	c #564C3E",
"E9.	c #474038",
"F9.	c #34312C",
"G9.	c #2F2C27",
"H9.	c #36332D",
"I9.	c #3B3932",
"J9.	c #3D3A32",
"K9.	c #4A3E30",
"L9.	c #493D2F",
"M9.	c #493E31",
"N9.	c #3F372D",
"O9.	c #221E17",
"P9.	c #33332F",
"Q9.	c #444642",
"R9.	c #343531",
"S9.	c #1B1A17",
"T9.	c #464342",
"U9.	c #35312C",
"V9.	c #322F2A",
"W9.	c #393430",
"X9.	c #1A140C",
"Y9.	c #1D160C",
"Z9.	c #261D12",
"`9.	c #3B3226",
" 0.	c #4B4237",
".0.	c #353027",
"+0.	c #1F1D16",
"@0.	c #1D1A14",
"#0.	c #52493B",
"$0.	c #665741",
"%0.	c #7B6C53",
"&0.	c #B29D81",
"*0.	c #B8A184",
"=0.	c #B9A183",
"-0.	c #AF977B",
";0.	c #A68E72",
">0.	c #9E866C",
",0.	c #9D866B",
"'0.	c #9D846A",
")0.	c #9E856B",
"!0.	c #9E866B",
"~0.	c #9D856B",
"{0.	c #9C866B",
"]0.	c #9A846A",
"^0.	c #998369",
"/0.	c #978167",
"(0.	c #967F66",
"_0.	c #957F66",
":0.	c #968067",
"<0.	c #998368",
"[0.	c #9D8668",
"}0.	c #B9A282",
"|0.	c #DDC6A6",
"10.	c #C3AC8C",
"20.	c #BDA586",
"30.	c #B79F82",
"40.	c #AD967A",
"50.	c #877258",
"60.	c #806C52",
"70.	c #877358",
"80.	c #947F62",
"90.	c #9A8467",
"00.	c #9B8367",
"a0.	c #9B8466",
"b0.	c #A08869",
"c0.	c #B49B7A",
"d0.	c #CBB08F",
"e0.	c #D1B693",
"f0.	c #CEB390",
"g0.	c #BAA88C",
"h0.	c #B6A489",
"i0.	c #B09E83",
"j0.	c #9F8E71",
"k0.	c #928165",
"l0.	c #938165",
"m0.	c #927F64",
"n0.	c #675A4A",
"o0.	c #66594A",
"p0.	c #655849",
"q0.	c #645748",
"r0.	c #615548",
"s0.	c #615648",
"t0.	c #675C4E",
"u0.	c #6D6356",
"v0.	c #70675C",
"w0.	c #6A625B",
"x0.	c #393630",
"y0.	c #23211D",
"z0.	c #23231E",
"A0.	c #2C2B25",
"B0.	c #3F3931",
"C0.	c #4B4135",
"D0.	c #4C3F31",
"E0.	c #4C4033",
"F0.	c #423A2F",
"G0.	c #3F4240",
"H0.	c #464742",
"I0.	c #43423C",
"J0.	c #453F3A",
"K0.	c #4A443F",
"L0.	c #302D29",
"M0.	c #211E22",
"N0.	c #45403F",
"O0.	c #0F0C09",
"P0.	c #18120B",
"Q0.	c #201910",
"R0.	c #372F25",
"S0.	c #4A4338",
"T0.	c #4A433A",
"U0.	c #36312A",
"V0.	c #1A1813",
"W0.	c #0F0C08",
"X0.	c #322C21",
"Y0.	c #635848",
"Z0.	c #7E6D54",
"`0.	c #B49E83",
" a.	c #AB957A",
".a.	c #A28C71",
"+a.	c #9D866C",
"@a.	c #9C856C",
"#a.	c #9C856B",
"$a.	c #99836A",
"%a.	c #978269",
"&a.	c #958068",
"*a.	c #948067",
"=a.	c #937E66",
"-a.	c #937D65",
";a.	c #917B63",
">a.	c #8F7A61",
",a.	c #8E7960",
"'a.	c #947F65",
")a.	c #A38C70",
"!a.	c #BBA586",
"~a.	c #D0B999",
"{a.	c #C9B293",
"]a.	c #BEA788",
"^a.	c #B7A081",
"/a.	c #B69F80",
"(a.	c #AF997C",
"_a.	c #9B866B",
":a.	c #887359",
"<a.	c #816E53",
"[a.	c #8B765C",
"}a.	c #9A8568",
"|a.	c #A08B6D",
"1a.	c #A18A6D",
"2a.	c #A38C6E",
"3a.	c #AE9675",
"4a.	c #C6AC8A",
"5a.	c #D7BC98",
"6a.	c #D3B895",
"7a.	c #CFB794",
"8a.	c #C3AE90",
"9a.	c #AC997F",
"0a.	c #97866C",
"aa.	c #938267",
"ba.	c #99856C",
"ca.	c #907E63",
"da.	c #8F7D63",
"ea.	c #82725A",
"fa.	c #736451",
"ga.	c #6D5F4E",
"ha.	c #6B5E4E",
"ia.	c #6A5D4E",
"ja.	c #685C4E",
"ka.	c #665B4C",
"la.	c #65594B",
"ma.	c #64584B",
"na.	c #61574A",
"oa.	c #655A4E",
"pa.	c #716659",
"qa.	c #7C7264",
"ra.	c #7B7268",
"sa.	c #211F1C",
"ta.	c #181A17",
"ua.	c #3E3830",
"va.	c #4F4537",
"wa.	c #4D4032",
"xa.	c #453C32",
"ya.	c #43423B",
"za.	c #45433B",
"Aa.	c #48463D",
"Ba.	c #181616",
"Ca.	c #403B36",
"Da.	c #413D38",
"Ea.	c #2F2C28",
"Fa.	c #2D2A27",
"Ga.	c #292726",
"Ha.	c #272528",
"Ia.	c #3F3A34",
"Ja.	c #433D35",
"Ka.	c #4B443D",
"La.	c #585048",
"Ma.	c #100C08",
"Na.	c #302A21",
"Oa.	c #37332C",
"Pa.	c #1D1B16",
"Qa.	c #302B21",
"Ra.	c #625847",
"Sa.	c #83735B",
"Ta.	c #7A6A53",
"Ua.	c #7E6D56",
"Va.	c #93836C",
"Wa.	c #A2927B",
"Xa.	c #9B8B75",
"Ya.	c #92816B",
"Za.	c #8B7963",
"`a.	c #887460",
" b.	c #88755F",
".b.	c #88745F",
"+b.	c #89755F",
"@b.	c #89765F",
"#b.	c #87745E",
"$b.	c #86755E",
"%b.	c #85735D",
"&b.	c #89775F",
"*b.	c #8A765F",
"=b.	c #867359",
"-b.	c #907C62",
";b.	c #9D876D",
">b.	c #AA9478",
",b.	c #D0BB9B",
"'b.	c #C5AF90",
")b.	c #B59F80",
"!b.	c #B49F81",
"~b.	c #958369",
"{b.	c #796750",
"]b.	c #928067",
"^b.	c #98856B",
"/b.	c #968268",
"(b.	c #998569",
"_b.	c #A89273",
":b.	c #C3AB8A",
"<b.	c #D1B897",
"[b.	c #CDB593",
"}b.	c #C7AF8D",
"|b.	c #B5A386",
"1b.	c #A08F75",
"2b.	c #8B7C62",
"3b.	c #98856C",
"4b.	c #907E65",
"5b.	c #786B56",
"6b.	c #685C4D",
"7b.	c #65594C",
"8b.	c #60574A",
"9b.	c #5D5449",
"0b.	c #5B5146",
"ab.	c #595044",
"bb.	c #564E43",
"cb.	c #6B6156",
"db.	c #776E61",
"eb.	c #3E3B36",
"fb.	c #1C1F1C",
"gb.	c #252622",
"hb.	c #524739",
"ib.	c #504233",
"jb.	c #4F4336",
"kb.	c #473E34",
"lb.	c #4B453B",
"mb.	c #4F483B",
"nb.	c #50483A",
"ob.	c #504939",
"pb.	c #4C4535",
"qb.	c #4F4838",
"rb.	c #302C29",
"sb.	c #2B2926",
"tb.	c #47413A",
"ub.	c #574F45",
"vb.	c #857866",
"wb.	c #9A8E7B",
"xb.	c #9E927F",
"yb.	c #695F52",
"zb.	c #5E594F",
"Ab.	c #0F0B08",
"Bb.	c #29241E",
"Cb.	c #423C34",
"Db.	c #37342C",
"Eb.	c #120F0E",
"Fb.	c #302B22",
"Gb.	c #605747",
"Hb.	c #80735E",
"Ib.	c #615543",
"Jb.	c #695D4D",
"Kb.	c #726656",
"Lb.	c #564B3D",
"Mb.	c #53463A",
"Nb.	c #54473A",
"Ob.	c #55483A",
"Pb.	c #57493A",
"Qb.	c #584A3B",
"Rb.	c #594C3C",
"Sb.	c #594C3D",
"Tb.	c #5F513F",
"Ub.	c #776551",
"Vb.	c #74614C",
"Wb.	c #725F48",
"Xb.	c #806D56",
"Yb.	c #917D64",
"Zb.	c #9E886E",
"`b.	c #B09A7E",
" c.	c #BFAA8D",
".c.	c #B6A082",
"+c.	c #A99476",
"@c.	c #9A886E",
"#c.	c #7E6F58",
"$c.	c #615441",
"%c.	c #5A4D3C",
"&c.	c #706350",
"*c.	c #756752",
"=c.	c #71614D",
"-c.	c #77664F",
";c.	c #907C61",
">c.	c #B1997D",
",c.	c #BBA285",
"'c.	c #B39B7C",
")c.	c #A99274",
"!c.	c #A38E71",
"~c.	c #9A896F",
"{c.	c #807159",
"]c.	c #766C58",
"^c.	c #433E36",
"/c.	c #403B34",
"(c.	c #3D3730",
"_c.	c #3C362E",
":c.	c #3A342C",
"<c.	c #38332C",
"[c.	c #433C34",
"}c.	c #554C43",
"|c.	c #5F584D",
"1c.	c #615A50",
"2c.	c #4D4842",
"3c.	c #202221",
"4c.	c #403A31",
"5c.	c #54493B",
"6c.	c #574A39",
"7c.	c #514437",
"8c.	c #483F35",
"9c.	c #2C2620",
"0c.	c #404342",
"ac.	c #736A58",
"bc.	c #897D66",
"cc.	c #8F8165",
"dc.	c #908162",
"ec.	c #897B5C",
"fc.	c #867A5E",
"gc.	c #7C725D",
"hc.	c #676052",
"ic.	c #1C1918",
"jc.	c #161414",
"kc.	c #191614",
"lc.	c #33302D",
"mc.	c #332E28",
"nc.	c #685E4F",
"oc.	c #7C6F5B",
"pc.	c #B7A689",
"qc.	c #D1C0A3",
"rc.	c #DCCCAE",
"sc.	c #D5C4A7",
"tc.	c #B09F86",
"uc.	c #82725E",
"vc.	c #6C5E4F",
"wc.	c #403A33",
"xc.	c #7A6E5C",
"yc.	c #3E362B",
"zc.	c #221D18",
"Ac.	c #110F0A",
"Bc.	c #100C09",
"Cc.	c #100D08",
"Dc.	c #110D09",
"Ec.	c #130F08",
"Fc.	c #151009",
"Gc.	c #17130C",
"Hc.	c #1A1710",
"Ic.	c #1A160F",
"Jc.	c #1B150D",
"Kc.	c #2D2519",
"Lc.	c #655645",
"Mc.	c #62513E",
"Nc.	c #5F4D39",
"Oc.	c #72604B",
"Pc.	c #837059",
"Qc.	c #8A765D",
"Rc.	c #958065",
"Sc.	c #A48F72",
"Tc.	c #A89276",
"Uc.	c #A08A6E",
"Vc.	c #968266",
"Wc.	c #958165",
"Xc.	c #887760",
"Yc.	c #645644",
"Zc.	c #3D3325",
"`c.	c #30291E",
" d.	c #362F24",
".d.	c #483E30",
"+d.	c #4A3D2E",
"@d.	c #584935",
"#d.	c #7E6A54",
"$d.	c #A58D73",
"%d.	c #AB9175",
"&d.	c #9F8669",
"*d.	c #937C60",
"=d.	c #8E795E",
"-d.	c #8C785F",
";d.	c #8C7961",
">d.	c #897760",
",d.	c #9C8B74",
"'d.	c #8F8069",
")d.	c #675A44",
"!d.	c #5A4E3A",
"~d.	c #635746",
"{d.	c #3A3428",
"]d.	c #201D16",
"^d.	c #1A1814",
"/d.	c #161511",
"(d.	c #151310",
"_d.	c #13110C",
":d.	c #241E18",
"<d.	c #362E27",
"[d.	c #3E372E",
"}d.	c #3F372F",
"|d.	c #3C352F",
"1d.	c #37322D",
"2d.	c #332F2B",
"3d.	c #2F2C29",
"4d.	c #20221F",
"5d.	c #282823",
"6d.	c #594D3E",
"7d.	c #5B4E3C",
"8d.	c #514438",
"9d.	c #494036",
"0d.	c #2E2821",
"ad.	c #3D403E",
"bd.	c #4E4841",
"cd.	c #8E826C",
"dd.	c #B1A283",
"ed.	c #BDAA83",
"fd.	c #C1AD80",
"gd.	c #BBA77C",
"hd.	c #B2A17B",
"id.	c #918567",
"jd.	c #5F5744",
"kd.	c #443F36",
"ld.	c #474443",
"md.	c #151718",
"nd.	c #3C3D3F",
"od.	c #322F2B",
"pd.	c #2B2722",
"qd.	c #312C24",
"rd.	c #6C6351",
"sd.	c #83745E",
"td.	c #A49174",
"ud.	c #C4B18F",
"vd.	c #DFCDAA",
"wd.	c #EEDDB9",
"xd.	c #E6D3B1",
"yd.	c #86745C",
"zd.	c #6C5D4C",
"Ad.	c #5B5246",
"Bd.	c #242727",
"Cd.	c #030407",
"Dd.	c #221E1B",
"Ed.	c #211E1B",
"Fd.	c #2E2A22",
"Gd.	c #5A5446",
"Hd.	c #796E5F",
"Id.	c #5F574C",
"Jd.	c #1E1C17",
"Kd.	c #19140F",
"Ld.	c #483F36",
"Md.	c #5C5142",
"Nd.	c #5C4E3C",
"Od.	c #5C4C3A",
"Pd.	c #73624F",
"Qd.	c #87755F",
"Rd.	c #8A775E",
"Sd.	c #917D62",
"Td.	c #A08B6F",
"Ud.	c #A69074",
"Vd.	c #9F896E",
"Wd.	c #968166",
"Xd.	c #96846A",
"Yd.	c #857560",
"Zd.	c #30261C",
"`d.	c #1D1811",
" e.	c #231D16",
".e.	c #302920",
"+e.	c #3B3127",
"@e.	c #44362A",
"#e.	c #594938",
"$e.	c #7F6B55",
"%e.	c #A38C72",
"&e.	c #A78E72",
"*e.	c #9A8265",
"=e.	c #8F785D",
"-e.	c #8C775D",
";e.	c #8B7861",
">e.	c #88765F",
",e.	c #9A8A73",
"'e.	c #8D7D68",
")e.	c #423726",
"!e.	c #4B4132",
"~e.	c #433B2F",
"{e.	c #15100C",
"]e.	c #27201A",
"^e.	c #2E271F",
"/e.	c #2D261E",
"(e.	c #2A241F",
"_e.	c #2D2823",
":e.	c #2C2723",
"<e.	c #25221F",
"[e.	c #463D33",
"}e.	c #5C4F3F",
"|e.	c #5F4F3D",
"1e.	c #564837",
"2e.	c #524537",
"3e.	c #494136",
"4e.	c #3D403C",
"5e.	c #3A3E3A",
"6e.	c #3A3D39",
"7e.	c #393C39",
"8e.	c #403932",
"9e.	c #63594B",
"0e.	c #B3A281",
"ae.	c #C1AC81",
"be.	c #C7AF7F",
"ce.	c #BFA97B",
"de.	c #B09D74",
"ee.	c #867958",
"fe.	c #554D37",
"ge.	c #403B31",
"he.	c #5B5756",
"ie.	c #67625E",
"je.	c #050709",
"ke.	c #1F1D1A",
"le.	c #312C28",
"me.	c #342F27",
"ne.	c #494336",
"oe.	c #6B6451",
"pe.	c #B7A685",
"qe.	c #D3C4A1",
"re.	c #E5D8B2",
"se.	c #DDCDAA",
"te.	c #7D6C56",
"ue.	c #675949",
"ve.	c #3B3832",
"we.	c #1C1F20",
"xe.	c #090606",
"ye.	c #211D19",
"ze.	c #221F1A",
"Ae.	c #2D2A23",
"Be.	c #585246",
"Ce.	c #776F61",
"De.	c #171816",
"Ee.	c #0C0E0D",
"Fe.	c #14120D",
"Ge.	c #403A32",
"He.	c #554C40",
"Ie.	c #554B3B",
"Je.	c #716351",
"Ke.	c #8A7965",
"Le.	c #8D7B64",
"Me.	c #927E65",
"Ne.	c #A89378",
"Oe.	c #97856A",
"Pe.	c #93836A",
"Qe.	c #574B3D",
"Re.	c #2D241B",
"Se.	c #1B1610",
"Te.	c #201C16",
"Ue.	c #3B3229",
"Ve.	c #473B2F",
"We.	c #5C4D3C",
"Xe.	c #7D6B56",
"Ye.	c #9D8970",
"Ze.	c #A18C70",
"`e.	c #978166",
" f.	c #8D785E",
".f.	c #89765D",
"+f.	c #84735D",
"@f.	c #80705A",
"#f.	c #8A7C65",
"$f.	c #958871",
"%f.	c #887A67",
"&f.	c #564A3A",
"*f.	c #3C3223",
"=f.	c #211D17",
"-f.	c #27231D",
";f.	c #312B24",
">f.	c #2C2721",
",f.	c #1F1E19",
"'f.	c #2B2821",
")f.	c #60513D",
"!f.	c #584938",
"~f.	c #524538",
"{f.	c #464844",
"]f.	c #40433E",
"^f.	c #3B3E39",
"/f.	c #373A37",
"(f.	c #39352E",
"_f.	c #5F564B",
":f.	c #897C69",
"<f.	c #AD9E7F",
"[f.	c #BBA780",
"}f.	c #C0AB7D",
"|f.	c #B49F75",
"1f.	c #A1906A",
"2f.	c #796E50",
"3f.	c #534B38",
"4f.	c #403A2F",
"5f.	c #615B4B",
"6f.	c #736A57",
"7f.	c #847A61",
"8f.	c #93866C",
"9f.	c #AB9F82",
"0f.	c #B9AD90",
"af.	c #AEA287",
"bf.	c #887C65",
"cf.	c #5A4F42",
"df.	c #4F483E",
"ef.	c #3F3E40",
"ff.	c #1F1A17",
"gf.	c #3A342E",
"hf.	c #443D37",
"if.	c #37312B",
"jf.	c #221E1A",
"kf.	c #504B41",
"lf.	c #6B6458",
"mf.	c #6A655A",
"nf.	c #0A0C0A",
"of.	c #030403",
"pf.	c #302C27",
"qf.	c #423B2F",
"rf.	c #443C2E",
"sf.	c #7D6F5D",
"tf.	c #86755F",
"uf.	c #97866E",
"vf.	c #9E8C73",
"wf.	c #87765F",
"xf.	c #6E6352",
"yf.	c #2A221B",
"zf.	c #1D1813",
"Af.	c #2D2821",
"Bf.	c #41372E",
"Cf.	c #504437",
"Df.	c #6D5E4D",
"Ef.	c #918068",
"Ff.	c #84715B",
"Gf.	c #82705B",
"Hf.	c #7E6E59",
"If.	c #7E6E5B",
"Jf.	c #6F6250",
"Kf.	c #766B59",
"Lf.	c #807663",
"Mf.	c #352F23",
"Nf.	c #3A342A",
"Of.	c #332F27",
"Pf.	c #2F2B25",
"Qf.	c #2C2822",
"Rf.	c #27221D",
"Sf.	c #292520",
"Tf.	c #25201B",
"Uf.	c #211F19",
"Vf.	c #2B2820",
"Wf.	c #5D4F3D",
"Xf.	c #61503C",
"Yf.	c #5A4A39",
"Zf.	c #534639",
"`f.	c #484037",
" g.	c #4C4E49",
".g.	c #474944",
"+g.	c #434641",
"@g.	c #3C3F3A",
"#g.	c #373A36",
"$g.	c #3B3E3C",
"%g.	c #9B8F75",
"&g.	c #A69576",
"*g.	c #AB9B75",
"=g.	c #9F8F6C",
"-g.	c #8D8161",
";g.	c #6C634C",
">g.	c #36373A",
",g.	c #585553",
"'g.	c #52524C",
")g.	c #0E1014",
"!g.	c #1A1712",
"~g.	c #39352D",
"{g.	c #312E27",
"]g.	c #131411",
"^g.	c #5E584C",
"/g.	c #5F5646",
"(g.	c #696152",
"_g.	c #625B4C",
":g.	c #4F493C",
"<g.	c #433C32",
"[g.	c #453E36",
"}g.	c #3F3B35",
"|g.	c #1D1815",
"1g.	c #39332E",
"2g.	c #433C36",
"3g.	c #35302A",
"4g.	c #1B1816",
"5g.	c #272320",
"6g.	c #3F3933",
"7g.	c #4E4840",
"8g.	c #35322D",
"9g.	c #1A1815",
"0g.	c #040504",
"ag.	c #211C15",
"bg.	c #605545",
"cg.	c #695C4A",
"dg.	c #7D6F5B",
"eg.	c #857763",
"fg.	c #6F614E",
"gg.	c #625747",
"hg.	c #5B5143",
"ig.	c #4E463A",
"jg.	c #27201B",
"kg.	c #211C18",
"lg.	c #312C25",
"mg.	c #372F27",
"ng.	c #4A4034",
"og.	c #645849",
"pg.	c #695A4A",
"qg.	c #685B4A",
"rg.	c #574D40",
"sg.	c #484033",
"tg.	c #4D473B",
"ug.	c #453F35",
"vg.	c #2F2A21",
"wg.	c #231F18",
"xg.	c #24211B",
"yg.	c #1F1D18",
"zg.	c #10100C",
"Ag.	c #161410",
"Bg.	c #15140F",
"Cg.	c #181511",
"Dg.	c #322C25",
"Eg.	c #29241D",
"Fg.	c #24211A",
"Gg.	c #2E2A20",
"Hg.	c #473E31",
"Ig.	c #5D4E3C",
"Jg.	c #61513C",
"Kg.	c #5B4C3A",
"Lg.	c #534539",
"Mg.	c #4E4F4B",
"Ng.	c #4A4C48",
"Og.	c #474A45",
"Pg.	c #3F423E",
"Qg.	c #3A3D38",
"Rg.	c #4B4541",
"Sg.	c #61594E",
"Tg.	c #6F6454",
"Ug.	c #746653",
"Vg.	c #786B54",
"Wg.	c #6E634D",
"Xg.	c #655D49",
"Yg.	c #524C3F",
"Zg.	c #2B2E32",
"`g.	c #27292F",
" h.	c #454747",
".h.	c #65635D",
"+h.	c #090605",
"@h.	c #433C33",
"#h.	c #413A31",
"$h.	c #3A362E",
"%h.	c #201F1B",
"&h.	c #0D0F0E",
"*h.	c #292924",
"=h.	c #3C3933",
"-h.	c #2C2927",
";h.	c #5C554C",
">h.	c #645C51",
",h.	c #685F54",
"'h.	c #6B6258",
")h.	c #6D655C",
"!h.	c #1C1714",
"~h.	c #38312C",
"{h.	c #413A35",
"]h.	c #342E29",
"^h.	c #231F1D",
"/h.	c #302B26",
"(h.	c #38322D",
"_h.	c #36322C",
":h.	c #15110C",
"<h.	c #2A241D",
"[h.	c #463B2F",
"}h.	c #5B4F42",
"|h.	c #5B5042",
"1h.	c #4D4336",
"2h.	c #42392E",
"3h.	c #3C3329",
"4h.	c #2E2720",
"5h.	c #27211B",
"6h.	c #241F1B",
"7h.	c #26211D",
"8h.	c #1E1916",
"9h.	c #15100D",
"0h.	c #1D1712",
"ah.	c #332A22",
"bh.	c #43392E",
"ch.	c #42372D",
"dh.	c #41392E",
"eh.	c #40372E",
"fh.	c #1B140F",
"gh.	c #110D08",
"hh.	c #110D0A",
"ih.	c #0E0A08",
"jh.	c #0A0704",
"kh.	c #070603",
"lh.	c #030301",
"mh.	c #231E1B",
"nh.	c #332D27",
"oh.	c #342D26",
"ph.	c #2B241E",
"qh.	c #473D30",
"rh.	c #5C4D3B",
"sh.	c #5A4B3A",
"th.	c #52453A",
"uh.	c #463E36",
"vh.	c #4D4D47",
"wh.	c #494B46",
"xh.	c #434541",
"yh.	c #4B4540",
"zh.	c #4D433C",
"Ah.	c #4B4138",
"Bh.	c #4A4137",
"Ch.	c #40372F",
"Dh.	c #363128",
"Eh.	c #282420",
"Fh.	c #181A22",
"Gh.	c #1C1E26",
"Hh.	c #1A1B23",
"Ih.	c #2F3136",
"Jh.	c #303237",
"Kh.	c #323438",
"Lh.	c #303136",
"Mh.	c #2E2F33",
"Nh.	c #252226",
"Oh.	c #62615B",
"Ph.	c #100C0B",
"Qh.	c #2B2622",
"Rh.	c #443D35",
"Sh.	c #464138",
"Th.	c #262520",
"Uh.	c #0E100F",
"Vh.	c #494942",
"Wh.	c #44433B",
"Xh.	c #34342F",
"Yh.	c #32322E",
"Zh.	c #232121",
"`h.	c #414243",
" i.	c #5E574D",
".i.	c #645B50",
"+i.	c #6E655A",
"@i.	c #766D63",
"#i.	c #746C63",
"$i.	c #6A635D",
"%i.	c #413B35",
"&i.	c #24201C",
"*i.	c #22201C",
"=i.	c #2C2823",
"-i.	c #191511",
";i.	c #493F35",
">i.	c #4E4439",
",i.	c #483F34",
"'i.	c #3C342A",
")i.	c #312A21",
"!i.	c #241D16",
"~i.	c #201914",
"{i.	c #1F1914",
"]i.	c #211B17",
"^i.	c #221C18",
"/i.	c #211C17",
"(i.	c #15110F",
"_i.	c #2D2720",
":i.	c #302821",
"<i.	c #2D261F",
"[i.	c #2C271F",
"}i.	c #2C2722",
"|i.	c #0D0A07",
"1i.	c #2E281F",
"2i.	c #29251C",
"3i.	c #312C22",
"4i.	c #473D31",
"5i.	c #5B4F3D",
"6i.	c #615340",
"7i.	c #5B4D3E",
"8i.	c #51463B",
"9i.	c #443D36",
"0i.	c #4B4C47",
"ai.	c #48423E",
"bi.	c #423C37",
"ci.	c #141211",
"di.	c #292B2F",
"ei.	c #27292E",
"fi.	c #25282E",
"gi.	c #24272E",
"hi.	c #5E5D56",
"ii.	c #62615A",
"ji.	c #4A443D",
"ki.	c #575044",
"li.	c #2A2823",
"mi.	c #60584D",
"ni.	c #655B51",
"oi.	c #70665D",
"pi.	c #73685F",
"qi.	c #70675E",
"ri.	c #665D57",
"si.	c #1B1614",
"ti.	c #38312E",
"ui.	c #423B36",
"vi.	c #342E2A",
"wi.	c #26211E",
"xi.	c #24201E",
"yi.	c #2B2723",
"zi.	c #332E2B",
"Ai.	c #373331",
"Bi.	c #17140E",
"Ci.	c #29231D",
"Di.	c #312922",
"Ei.	c #2D251E",
"Fi.	c #261E18",
"Gi.	c #28201A",
"Hi.	c #2C241E",
"Ii.	c #2E261F",
"Ji.	c #2F2720",
"Ki.	c #2B251E",
"Li.	c #0A0603",
"Mi.	c #1E1914",
"Ni.	c #2C2621",
"Oi.	c #29241F",
"Pi.	c #302A24",
"Qi.	c #383128",
"Ri.	c #2C271D",
"Si.	c #312C23",
"Ti.	c #554A3E",
"Ui.	c #4E453C",
"Vi.	c #2C2825",
"Wi.	c #46403D",
"Xi.	c #23201D",
"Yi.	c #141411",
"Zi.	c #221F1F",
"`i.	c #2A2729",
" j.	c #2F3034",
".j.	c #2C292B",
"+j.	c #292628",
"@j.	c #292629",
"#j.	c #272429",
"$j.	c #282529",
"%j.	c #57524A",
"&j.	c #20201D",
"*j.	c #655F55",
"=j.	c #62594E",
"-j.	c #6B6259",
";j.	c #6E645B",
">j.	c #675F56",
",j.	c #181311",
"'j.	c #403834",
")j.	c #36302B",
"!j.	c #302B28",
"~j.	c #36312E",
"{j.	c #383330",
"]j.	c #322D2A",
"^j.	c #1C1913",
"/j.	c #26211C",
"(j.	c #322D26",
"_j.	c #332C24",
":j.	c #342D25",
"<j.	c #372F26",
"[j.	c #3F362D",
"}j.	c #4E4539",
"|j.	c #494137",
"1j.	c #373129",
"2j.	c #1C1611",
"3j.	c #201B17",
"4j.	c #302B23",
"5j.	c #302C23",
"6j.	c #312E26",
"7j.	c #37312A",
"8j.	c #3D352D",
"9j.	c #3F382E",
"0j.	c #3E362E",
"aj.	c #423B35",
"bj.	c #3F3936",
"cj.	c #272426",
"dj.	c #1D1B17",
"ej.	c #2C2923",
"fj.	c #4D4844",
"gj.	c #34312D",
"hj.	c #312E29",
"ij.	c #2F2B27",
"jj.	c #393530",
"kj.	c #3A3532",
"lj.	c #5C5857",
"mj.	c #595656",
"nj.	c #565354",
"oj.	c #525051",
"pj.	c #514F4F",
"qj.	c #514E4D",
"rj.	c #514B46",
"sj.	c #504944",
"tj.	c #4F4740",
"uj.	c #504842",
"vj.	c #514A44",
"wj.	c #4B4440",
"xj.	c #49413E",
"yj.	c #47403E",
"zj.	c #4A4341",
"Aj.	c #4F4845",
"Bj.	c #4B4643",
"Cj.	c #5C564B",
"Dj.	c #3D3E40",
"Ej.	c #645F58",
"Fj.	c #736D63",
"Gj.	c #716A5F",
"Hj.	c #6E685D",
"Ij.	c #6B6459",
"Jj.	c #686357",
"Kj.	c #645D52",
"Lj.	c #61594F",
"Mj.	c #60584E",
"Nj.	c #625B4F",
"Oj.	c #625951",
"Pj.	c #615951",
"Qj.	c #5C544C",
"Rj.	c #564F46",
"Sj.	c #514B44",
"Tj.	c #4B4A42",
"Uj.	c #44433C",
"Vj.	c #322C27",
"Wj.	c #3E3733",
"Xj.	c #4C4643",
"Yj.	c #28241E",
"Zj.	c #332D26",
"`j.	c #51483C",
" k.	c #6C6152",
".k.	c #6A5F50",
"+k.	c #665B4E",
"@k.	c #50483D",
"#k.	c #1C1712",
"$k.	c #1E1A16",
"%k.	c #3C362D",
"&k.	c #363229",
"*k.	c #282521",
"=k.	c #171411",
"-k.	c #322D2B",
";k.	c #3B3736",
">k.	c #2D2929",
",k.	c #27241E",
"'k.	c #5A554B",
")k.	c #7B7669",
"!k.	c #847E70",
"~k.	c #878072",
"{k.	c #8A8175",
"]k.	c #898174",
"^k.	c #847D71",
"/k.	c #817A6D",
"(k.	c #736A60",
"_k.	c #706A5F",
":k.	c #685F56",
"<k.	c #605850",
"[k.	c #91877D",
"}k.	c #968C83",
"|k.	c #968D85",
"1k.	c #938B85",
"2k.	c #908984",
"3k.	c #8B857F",
"4k.	c #88817B",
"5k.	c #867F78",
"6k.	c #898076",
"7k.	c #898073",
"8k.	c #8B8072",
"9k.	c #8A7E6E",
"0k.	c #8A7C6B",
"ak.	c #867866",
"bk.	c #847764",
"ck.	c #847663",
"dk.	c #887968",
"ek.	c #897A69",
"fk.	c #8B7D6B",
"gk.	c #897B6B",
"hk.	c #857869",
"ik.	c #7B7061",
"jk.	c #73675B",
"kk.	c #786C61",
"lk.	c #7B6E62",
"mk.	c #847769",
"nk.	c #86796C",
"ok.	c #897E70",
"pk.	c #887E72",
"qk.	c #817870",
"rk.	c #363131",
"sk.	c #252624",
"tk.	c #4D4942",
"uk.	c #69635A",
"vk.	c #7D756A",
"wk.	c #81786A",
"xk.	c #7C7365",
"yk.	c #766E60",
"zk.	c #6A6357",
"Ak.	c #655C52",
"Bk.	c #574F47",
"Ck.	c #524B43",
"Dk.	c #544C46",
"Ek.	c #5D594E",
"Fk.	c #535148",
"Gk.	c #4B4942",
"Hk.	c #484740",
"Ik.	c #4C4C46",
"Jk.	c #241F1A",
"Kk.	c #352F2A",
"Lk.	c #48413D",
"Mk.	c #59524D",
"Nk.	c #524A45",
"Ok.	c #38322F",
"Pk.	c #2A251F",
"Qk.	c #3A3027",
"Rk.	c #726456",
"Sk.	c #706454",
"Tk.	c #584E43",
"Uk.	c #342C24",
"Vk.	c #1B1512",
"Wk.	c #2F2C25",
"Xk.	c #413930",
"Yk.	c #33312C",
"Zk.	c #161313",
"`k.	c #2E2A29",
" l.	c #2E2B2B",
".l.	c #37332A",
"+l.	c #B3AA97",
"@l.	c #BCB39D",
"#l.	c #BCB19B",
"$l.	c #BCAF9A",
"%l.	c #B6AA96",
"&l.	c #B3A792",
"*l.	c #ADA18D",
"=l.	c #ADA18E",
"-l.	c #AEA28E",
";l.	c #A59986",
">l.	c #9C8F7D",
",l.	c #9B8F7D",
"'l.	c #9B9180",
")l.	c #998F7D",
"!l.	c #978C7A",
"~l.	c #948979",
"{l.	c #928778",
"]l.	c #8D8375",
"^l.	c #8B7F72",
"/l.	c #7F7467",
"(l.	c #8F8376",
"_l.	c #A7998A",
":l.	c #B7A898",
"<l.	c #BDAE9D",
"[l.	c #BEAFA0",
"}l.	c #BBADA1",
"|l.	c #B8ACA0",
"1l.	c #B0A599",
"2l.	c #A99D91",
"3l.	c #A79B8C",
"4l.	c #AB9D8C",
"5l.	c #AE9D8A",
"6l.	c #B1A089",
"7l.	c #B29E84",
"8l.	c #AF997D",
"9l.	c #AC977A",
"0l.	c #AB9679",
"al.	c #AE987D",
"bl.	c #AB967C",
"cl.	c #998771",
"dl.	c #91806B",
"el.	c #978672",
"fl.	c #9E8B76",
"gl.	c #AA9680",
"hl.	c #AF9C84",
"il.	c #B4A28B",
"jl.	c #B6A792",
"kl.	c #AB9F8F",
"ll.	c #786F61",
"ml.	c #6A6256",
"nl.	c #6B6357",
"ol.	c #6A6056",
"pl.	c #5F564D",
"ql.	c #575046",
"rl.	c #504941",
"sl.	c #514A43",
"tl.	c #544D46",
"ul.	c #5A544B",
"vl.	c #58554A",
"wl.	c #524F46",
"xl.	c #0B0705",
"yl.	c #39332F",
"zl.	c #4F4743",
"Al.	c #5D534C",
"Bl.	c #524843",
"Cl.	c #625647",
"Dl.	c #7E7060",
"El.	c #877967",
"Fl.	c #817361",
"Gl.	c #7B6E5D",
"Hl.	c #3F352B",
"Il.	c #282019",
"Jl.	c #1B1712",
"Kl.	c #171310",
"Ll.	c #312D27",
"Ml.	c #423C32",
"Nl.	c #36332E",
"Ol.	c #181515",
"Pl.	c #302B2A",
"Ql.	c #8D8675",
"Rl.	c #C3B9A3",
"Sl.	c #CDC1A7",
"Tl.	c #CABDA3",
"Ul.	c #C8B99F",
"Vl.	c #BEAF97",
"Wl.	c #B9AB92",
"Xl.	c #B4A68E",
"Yl.	c #B7A892",
"Zl.	c #AE9E88",
"`l.	c #A3937D",
" m.	c #A2937D",
".m.	c #A39680",
"+m.	c #A59782",
"@m.	c #A39580",
"#m.	c #A2937E",
"$m.	c #A0917D",
"%m.	c #9D8F7D",
"&m.	c #9B8E7C",
"*m.	c #998C7B",
"=m.	c #958677",
"-m.	c #8E7F6F",
";m.	c #897B6A",
">m.	c #9B8C7C",
",m.	c #B4A390",
"'m.	c #C2B19C",
")m.	c #C7B5A0",
"!m.	c #C8B6A3",
"~m.	c #C6B5A4",
"{m.	c #C3B2A3",
"]m.	c #B9AA9B",
"^m.	c #AE9F8F",
"/m.	c #AA9A88",
"(m.	c #AF9E88",
"_m.	c #B3A188",
":m.	c #B6A287",
"<m.	c #B69F81",
"[m.	c #B79F7F",
"}m.	c #B69C7C",
"|m.	c #B39B7A",
"1m.	c #B09877",
"2m.	c #B19978",
"3m.	c #B19877",
"4m.	c #B09778",
"5m.	c #AE9678",
"6m.	c #A18B71",
"7m.	c #9C876E",
"8m.	c #97826B",
"9m.	c #9D8870",
"0m.	c #A59077",
"am.	c #BEA98B",
"bm.	c #BEA98E",
"cm.	c #B4A590",
"dm.	c #817669",
"em.	c #4C463F",
"fm.	c #655D53",
"gm.	c #7D7467",
"hm.	c #857C6D",
"im.	c #827868",
"jm.	c #7A7162",
"km.	c #6E675A",
"lm.	c #6C6558",
"mm.	c #555047",
"nm.	c #46433D",
"om.	c #574F48",
"pm.	c #5D534B",
"qm.	c #5C5149",
"rm.	c #524942",
"sm.	c #13130F",
"tm.	c #16150F",
"um.	c #2D2921",
"vm.	c #554F45",
"wm.	c #62584A",
"xm.	c #645948",
"ym.	c #AC9C87",
"zm.	c #B6A690",
"Am.	c #A1927F",
"Bm.	c #837766",
"Cm.	c #3E362D",
"Dm.	c #020200",
"Em.	c #342F29",
"Fm.	c #464037",
"Gm.	c #464036",
"Hm.	c #0D0A0A",
"Im.	c #1F1B1A",
"Jm.	c #342F2D",
"Km.	c #3D3835",
"Lm.	c #52514C",
"Mm.	c #3D392E",
"Nm.	c #8B8675",
"Om.	c #C1B8A1",
"Pm.	c #CCC2A7",
"Qm.	c #CABEA4",
"Rm.	c #C6B99F",
"Sm.	c #BBAD94",
"Tm.	c #B3A68D",
"Um.	c #AFA28A",
"Vm.	c #B5A88F",
"Wm.	c #B6A88F",
"Xm.	c #AA9B82",
"Ym.	c #9D8D75",
"Zm.	c #9C8D75",
"`m.	c #9D9079",
" n.	c #A0927D",
".n.	c #A1937E",
"+n.	c #A1937D",
"@n.	c #9F907C",
"#n.	c #9D8F7C",
"$n.	c #9A8D7C",
"%n.	c #988B7B",
"&n.	c #968877",
"*n.	c #908271",
"=n.	c #8B7E6C",
"-n.	c #8D7F6E",
";n.	c #9D8D7D",
">n.	c #B4A490",
",n.	c #C3B29E",
"'n.	c #C8B7A2",
")n.	c #C9B9A4",
"!n.	c #C7B8A5",
"~n.	c #C4B6A5",
"{n.	c #BAAC9D",
"]n.	c #AFA190",
"^n.	c #AA9B88",
"/n.	c #B09F8A",
"(n.	c #B3A289",
"_n.	c #B6A388",
":n.	c #B49D7F",
"<n.	c #B19A7C",
"[n.	c #AD9778",
"}n.	c #A99477",
"|n.	c #A79277",
"1n.	c #A08B73",
"2n.	c #94826B",
"3n.	c #9F8C75",
"4n.	c #B29E83",
"5n.	c #B3A58F",
"6n.	c #413C38",
"7n.	c #82796B",
"8n.	c #796F61",
"9n.	c #70685B",
"0n.	c #696357",
"an.	c #726A5E",
"bn.	c #756B62",
"cn.	c #696057",
"dn.	c #5F574F",
"en.	c #504A42",
"fn.	c #645F56",
"gn.	c #1E1C1E",
"hn.	c #5D544C",
"in.	c #62554C",
"jn.	c #5D5046",
"kn.	c #534941",
"ln.	c #37312E",
"mn.	c #10100B",
"nn.	c #2A2923",
"on.	c #302D24",
"pn.	c #746C5F",
"qn.	c #887E6E",
"rn.	c #7E7160",
"sn.	c #A1927C",
"tn.	c #C5B49D",
"un.	c #CFBEA7",
"vn.	c #CDBBA4",
"wn.	c #C6B49E",
"xn.	c #BAAA94",
"yn.	c #998B78",
"zn.	c #564C40",
"An.	c #534A40",
"Bn.	c #060603",
"Cn.	c #352F29",
"Dn.	c #484038",
"En.	c #494138",
"Fn.	c #3A352F",
"Gn.	c #151111",
"Hn.	c #161212",
"In.	c #25201F",
"Jn.	c #3C3734",
"Kn.	c #36332A",
"Ln.	c #7E7A6C",
"Mn.	c #B0A997",
"Nn.	c #BBB49D",
"On.	c #B7AF99",
"Pn.	c #B3A892",
"Qn.	c #A79B86",
"Rn.	c #A0957F",
"Sn.	c #9D917D",
"Tn.	c #9F927D",
"Un.	c #93856F",
"Vn.	c #877762",
"Wn.	c #887C67",
"Xn.	c #918572",
"Yn.	c #928775",
"Zn.	c #918677",
"`n.	c #8B8173",
" o.	c #887D6E",
".o.	c #857A6B",
"+o.	c #857B6D",
"@o.	c #918678",
"#o.	c #A5998A",
"$o.	c #B4A797",
"%o.	c #BBAE9D",
"&o.	c #BDB2A1",
"*o.	c #BCB1A2",
"=o.	c #B9AEA1",
"-o.	c #AEA497",
";o.	c #A3998B",
">o.	c #9F9485",
",o.	c #A49887",
"'o.	c #A59886",
")o.	c #A79A85",
"!o.	c #A69882",
"~o.	c #A89981",
"{o.	c #A3927C",
"]o.	c #9C8C74",
"^o.	c #9A8B73",
"/o.	c #998B73",
"(o.	c #968871",
"_o.	c #817563",
":o.	c #897D6A",
"<o.	c #9D8E79",
"[o.	c #A7967F",
"}o.	c #B0A087",
"|o.	c #B2A38A",
"1o.	c #A49885",
"2o.	c #746C60",
"3o.	c #1A181A",
"4o.	c #70695D",
"5o.	c #797165",
"6o.	c #70685C",
"7o.	c #6E665B",
"8o.	c #736B60",
"9o.	c #7A7166",
"0o.	c #776E66",
"ao.	c #6A6259",
"bo.	c #6A655B",
"co.	c #625E54",
"do.	c #1C1814",
"eo.	c #6A5F55",
"fo.	c #706256",
"go.	c #6B5D51",
"ho.	c #33312B",
"io.	c #373229",
"jo.	c #7B7162",
"ko.	c #8F8271",
"lo.	c #867764",
"mo.	c #857660",
"no.	c #A89781",
"oo.	c #C8B79F",
"po.	c #D2C1A7",
"qo.	c #CFBFA5",
"ro.	c #BBAB94",
"so.	c #988976",
"to.	c #55493A",
"uo.	c #27221B",
"vo.	c #191611",
"wo.	c #0F0D09",
"xo.	c #484138",
"yo.	c #4A4138",
"zo.	c #464035",
"Ao.	c #413C35",
"Bo.	c #322E2C",
"Co.	c #241F1F",
"Do.	c #25201E",
"Eo.	c #3B3532",
"Fo.	c #2A2723",
"Go.	c #575753",
"Ho.	c #030508",
"Io.	c #646157",
"Jo.	c #8B8679",
"Ko.	c #948F7E",
"Lo.	c #928B7A",
"Mo.	c #8C8675",
"No.	c #807769",
"Oo.	c #797263",
"Po.	c #766D60",
"Qo.	c #786D60",
"Ro.	c #7B705E",
"So.	c #756753",
"To.	c #6C5C4A",
"Uo.	c #6A5C4A",
"Vo.	c #6B6253",
"Wo.	c #6B6355",
"Xo.	c #6B6356",
"Yo.	c #686259",
"Zo.	c #656057",
"`o.	c #807A71",
" p.	c #888278",
".p.	c #8D877E",
"+p.	c #847F78",
"@p.	c #7B766D",
"#p.	c #777169",
"$p.	c #7B756A",
"%p.	c #7D766A",
"&p.	c #817B6D",
"*p.	c #817A6E",
"=p.	c #827A6D",
"-p.	c #70675A",
";p.	c #6C6659",
">p.	c #5C564C",
",p.	c #4F4A41",
"'p.	c #5F594F",
")p.	c #7E7365",
"!p.	c #897F6D",
"~p.	c #8D8372",
"{p.	c #5B564E",
"]p.	c #2A2724",
"^p.	c #0E1116",
"/p.	c #5F5951",
"(p.	c #615A51",
"_p.	c #6E685E",
":p.	c #6D675D",
"<p.	c #686159",
"[p.	c #5D554D",
"}p.	c #5A514A",
"|p.	c #1C1813",
"1p.	c #796D61",
"2p.	c #857667",
"3p.	c #857567",
"4p.	c #72665B",
"5p.	c #1F1D1C",
"6p.	c #1A1714",
"7p.	c #413D36",
"8p.	c #4E483E",
"9p.	c #474034",
"0p.	c #5B5142",
"ap.	c #978875",
"bp.	c #92816D",
"cp.	c #94836E",
"dp.	c #B5A48D",
"ep.	c #D3C1A9",
"fp.	c #DBCAB1",
"gp.	c #D8C7AE",
"hp.	c #D0BEA6",
"ip.	c #BEAD96",
"jp.	c #978674",
"kp.	c #6E5F4E",
"lp.	c #554838",
"mp.	c #564A3B",
"np.	c #484035",
"op.	c #2F2921",
"pp.	c #27241C",
"qp.	c #282520",
"rp.	c #483E35",
"sp.	c #49423B",
"tp.	c #3D3734",
"up.	c #302929",
"vp.	c #3C3533",
"wp.	c #3B3634",
"xp.	c #282422",
"yp.	c #5E554D",
"zp.	c #6F604A",
"Ap.	c #6E5A45",
"Bp.	c #6C5945",
"Cp.	c #645443",
"Dp.	c #5E5143",
"Ep.	c #574C41",
"Fp.	c #514940",
"Gp.	c #4A4543",
"Hp.	c #474444",
"Ip.	c #545151",
"Jp.	c #585656",
"Kp.	c #575556",
"Lp.	c #625E5B",
"Mp.	c #69645B",
"Np.	c #04070E",
"Op.	c #3D3D3F",
"Pp.	c #6F6A62",
"Qp.	c #605952",
"Rp.	c #524B44",
"Sp.	c #625953",
"Tp.	c #5A564D",
"Up.	c #998A78",
"Vp.	c #9A8A79",
"Wp.	c #817568",
"Xp.	c #25221C",
"Yp.	c #6C6657",
"Zp.	c #736855",
"`p.	c #958772",
" q.	c #A99882",
".q.	c #A7957F",
"+q.	c #AD9B83",
"@q.	c #CCBAA1",
"#q.	c #E7D5BD",
"$q.	c #EDDDC5",
"%q.	c #EADBC2",
"&q.	c #E2D2B8",
"*q.	c #A2927C",
"=q.	c #80705D",
"-q.	c #736351",
";q.	c #7A6C5A",
">q.	c #7C7060",
",q.	c #4F483D",
"'q.	c #454137",
")q.	c #080806",
"!q.	c #2A2622",
"~q.	c #4D473F",
"{q.	c #544A3F",
"]q.	c #53493F",
"^q.	c #352E2C",
"/q.	c #37312D",
"(q.	c #3F3834",
"_q.	c #403936",
":q.	c #3A3533",
"<q.	c #63625C",
"[q.	c #1C1F23",
"}q.	c #16191D",
"|q.	c #615D5A",
"1q.	c #66605D",
"2q.	c #5E5956",
"3q.	c #695A4B",
"4q.	c #836D51",
"5q.	c #896D4E",
"6q.	c #886B4C",
"7q.	c #7D6447",
"8q.	c #6E5943",
"9q.	c #5D4D3D",
"0q.	c #50453A",
"aq.	c #444447",
"bq.	c #474649",
"cq.	c #4A4A4D",
"dq.	c #494A4D",
"eq.	c #4A4A4C",
"fq.	c #202327",
"gq.	c #434445",
"hq.	c #05080F",
"iq.	c #04070F",
"jq.	c #05070E",
"kq.	c #554E49",
"lq.	c #524B45",
"mq.	c #57504A",
"nq.	c #66615C",
"oq.	c #5E5D58",
"pq.	c #211D1A",
"qq.	c #60584F",
"rq.	c #8E8274",
"sq.	c #9D8D7C",
"tq.	c #26231B",
"uq.	c #B4A189",
"vq.	c #BCAA92",
"wq.	c #DAC9B0",
"xq.	c #F3E3CA",
"yq.	c #F7E9D1",
"zq.	c #F5E7CF",
"Aq.	c #EEDDC4",
"Bq.	c #A6947E",
"Cq.	c #887761",
"Dq.	c #81705C",
"Eq.	c #8B7B67",
"Fq.	c #8F806E",
"Gq.	c #7D7262",
"Hq.	c #5C5648",
"Iq.	c #524D42",
"Jq.	c #534F46",
"Kq.	c #72695C",
"Lq.	c #685D4F",
"Mq.	c #594F46",
"Nq.	c #473F3A",
"Oq.	c #342D2A",
"Pq.	c #37302C",
"Qq.	c #403835",
"Rq.	c #221F1E",
"Sq.	c #090B0E",
"Tq.	c #564F4A",
"Uq.	c #59544E",
"Vq.	c #5D5B54",
"Wq.	c #6E6B69",
"Xq.	c #6A6664",
"Yq.	c #5F5B5A",
"Zq.	c #2D292A",
"`q.	c #382E2D",
" r.	c #685543",
".r.	c #997A56",
"+r.	c #A68053",
"@r.	c #A2794B",
"#r.	c #926E44",
"$r.	c #7E603F",
"%r.	c #655038",
"&r.	c #4D4031",
"*r.	c #454548",
"=r.	c #49494C",
"-r.	c #4C4C50",
";r.	c #4F4F53",
">r.	c #525254",
",r.	c #323538",
"'r.	c #424446",
")r.	c #050810",
"!r.	c #17151A",
"~r.	c #544E4B",
"{r.	c #5B5450",
"]r.	c #2B2520",
"^r.	c #685F55",
"/r.	c #938576",
"(r.	c #9C8C7B",
"_r.	c #988A79",
":r.	c #7D7265",
"<r.	c #221F16",
"[r.	c #4A4439",
"}r.	c #9F8F79",
"|r.	c #B3A28B",
"1r.	c #B7A58D",
"2r.	c #C0AE97",
"3r.	c #DCCBB4",
"4r.	c #F3E5CD",
"5r.	c #F7EBD3",
"6r.	c #F6EAD2",
"7r.	c #EEDFC8",
"8r.	c #D3C1AB",
"9r.	c #A2917C",
"0r.	c #83725D",
"ar.	c #7E6D58",
"br.	c #887764",
"cr.	c #8B7B6A",
"dr.	c #796D5E",
"er.	c #595144",
"fr.	c #4D483D",
"gr.	c #4D4A41",
"hr.	c #3F3E37",
"ir.	c #1C1C17",
"jr.	c #695C4D",
"kr.	c #5F5448",
"lr.	c #4B423A",
"mr.	c #38312B",
"nr.	c #3A3330",
"or.	c #362F2C",
"pr.	c #2E2926",
"qr.	c #3E3934",
"rr.	c #5C5B54",
"sr.	c #5E5E57",
"tr.	c #696664",
"ur.	c #5F5B5B",
"vr.	c #413D3E",
"wr.	c #262225",
"xr.	c #1F1B1E",
"yr.	c #28201F",
"zr.	c #5E4B38",
"Ar.	c #9B7A51",
"Br.	c #AC824E",
"Cr.	c #A27540",
"Dr.	c #8D6233",
"Er.	c #77542F",
"Fr.	c #5B4228",
"Gr.	c #3C2E1E",
"Hr.	c #535255",
"Ir.	c #585658",
"Jr.	c #514F48",
"Kr.	c #60605D",
"Lr.	c #535351",
"Mr.	c #06070F",
"Nr.	c #625B52",
"Or.	c #1E1814",
"Pr.	c #3F3730",
"Qr.	c #706459",
"Rr.	c #908272",
"Sr.	c #938574",
"Tr.	c #8B7E6E",
"Ur.	c #130F0A",
"Vr.	c #211B16",
"Wr.	c #241E17",
"Xr.	c #272017",
"Yr.	c #3F372B",
"Zr.	c #564B3C",
"`r.	c #615443",
" s.	c #998873",
".s.	c #AE9C86",
"+s.	c #B1A08A",
"@s.	c #BAA994",
"#s.	c #D6C6B1",
"$s.	c #EEE0C9",
"%s.	c #F2E8D0",
"&s.	c #F1E8D0",
"*s.	c #EADCC5",
"=s.	c #CEBEA8",
"-s.	c #81715C",
";s.	c #7D6D59",
">s.	c #867561",
",s.	c #847564",
"'s.	c #716557",
")s.	c #534A3E",
"!s.	c #494337",
"~s.	c #48443B",
"{s.	c #3D3B32",
"]s.	c #1E1C15",
"^s.	c #050301",
"/s.	c #0E0906",
"(s.	c #3C342B",
"_s.	c #706351",
":s.	c #6A5B4A",
"<s.	c #635648",
"[s.	c #4E4339",
"}s.	c #392E2A",
"|s.	c #362E2A",
"1s.	c #332C29",
"2s.	c #2A2321",
"3s.	c #443F3C",
"4s.	c #46413A",
"5s.	c #55544D",
"6s.	c #55554E",
"7s.	c #716F6C",
"8s.	c #5E5A59",
"9s.	c #151114",
"0s.	c #1B1212",
"as.	c #443223",
"bs.	c #795935",
"cs.	c #885E30",
"ds.	c #835524",
"es.	c #70451A",
"fs.	c #5A3818",
"gs.	c #412A15",
"hs.	c #24180D",
"is.	c #0E0B07",
"js.	c #2D2F31",
"ks.	c #58554D",
"ls.	c #59554C",
"ms.	c #58544B",
"ns.	c #62615C",
"os.	c #4C4D47",
"ps.	c #6F6961",
"qs.	c #6F665C",
"rs.	c #696157",
"ss.	c #5B554F",
"ts.	c #2E2824",
"us.	c #5E554B",
"vs.	c #796D5F",
"ws.	c #8E8070",
"xs.	c #928373",
"ys.	c #8C7F71",
"zs.	c #74695F",
"As.	c #403A36",
"Bs.	c #0E0A05",
"Cs.	c #16120B",
"Ds.	c #15110A",
"Es.	c #151008",
"Fs.	c #1D160E",
"Gs.	c #362E24",
"Hs.	c #493F34",
"Is.	c #4A4035",
"Js.	c #44392D",
"Ks.	c #4B3F31",
"Ls.	c #584B3A",
"Ms.	c #615341",
"Ns.	c #776854",
"Os.	c #978671",
"Ps.	c #AA9781",
"Qs.	c #A89A85",
"Rs.	c #B7A996",
"Ss.	c #C5BAA7",
"Ts.	c #C9C0AC",
"Us.	c #C9C1AD",
"Vs.	c #C1B7A3",
"Ws.	c #AEA28C",
"Xs.	c #958873",
"Ys.	c #8E7F6C",
"Zs.	c #8E7F6B",
"`s.	c #847463",
" t.	c #716354",
".t.	c #554F43",
"+t.	c #252017",
"@t.	c #201B13",
"#t.	c #27221A",
"$t.	c #1E1A12",
"%t.	c #100D06",
"&t.	c #0A0702",
"*t.	c #0A0703",
"=t.	c #070602",
"-t.	c #1F1C19",
";t.	c #473D32",
">t.	c #7A6B57",
",t.	c #796853",
"'t.	c #786653",
")t.	c #6F5F4E",
"!t.	c #594C3F",
"~t.	c #3D312C",
"{t.	c #322A26",
"]t.	c #2E2925",
"^t.	c #282320",
"/t.	c #6C6967",
"(t.	c #73706D",
"_t.	c #6F6B68",
":t.	c #3B3737",
"<t.	c #120F11",
"[t.	c #140C0D",
"}t.	c #2A1B11",
"|t.	c #4A2E16",
"1t.	c #593111",
"2t.	c #5C300B",
"3t.	c #552C0A",
"4t.	c #48270D",
"5t.	c #311C0C",
"6t.	c #180E07",
"7t.	c #0A0D10",
"8t.	c #272A2D",
"9t.	c #54534D",
"0t.	c #070911",
"at.	c #4C4B42",
"bt.	c #4D4B43",
"ct.	c #0F0807",
"dt.	c #6E645A",
"et.	c #807365",
"ft.	c #958777",
"gt.	c #A09182",
"ht.	c #A09285",
"it.	c #897F75",
"jt.	c #0F0A05",
"kt.	c #383027",
"lt.	c #4F4335",
"mt.	c #695C4C",
"nt.	c #796B5B",
"ot.	c #665647",
"pt.	c #625241",
"qt.	c #6C5C49",
"rt.	c #7B6A57",
"st.	c #93816D",
"tt.	c #A18E7B",
"ut.	c #9C8B79",
"vt.	c #897C6B",
"wt.	c #786D5E",
"xt.	c #706859",
"yt.	c #908574",
"zt.	c #AA9C8B",
"At.	c #A99A87",
"Bt.	c #9C8D79",
"Ct.	c #857664",
"Dt.	c #716353",
"Et.	c #685D50",
"Ft.	c #554B3F",
"Gt.	c #51473A",
"Ht.	c #584E41",
"It.	c #5D5347",
"Jt.	c #4A4235",
"Kt.	c #2C261B",
"Lt.	c #201B11",
"Mt.	c #201D14",
"Nt.	c #18150D",
"Ot.	c #090602",
"Pt.	c #3A3227",
"Qt.	c #9B886F",
"Rt.	c #96836B",
"St.	c #82715E",
"Tt.	c #615345",
"Ut.	c #3C3029",
"Vt.	c #2A211E",
"Wt.	c #28221E",
"Xt.	c #2D2825",
"Yt.	c #252221",
"Zt.	c #0C0D0C",
"`t.	c #75726E",
" u.	c #6E6B68",
".u.	c #0F0A0A",
"+u.	c #1D1009",
"@u.	c #321908",
"#u.	c #3F1C05",
"$u.	c #482105",
"%u.	c #462206",
"&u.	c #3E230C",
"*u.	c #2C1B0C",
"=u.	c #120B05",
"-u.	c #05070B",
";u.	c #212428",
">u.	c #474947",
",u.	c #060710",
"'u.	c #38332E",
")u.	c #464038",
"!u.	c #554E44",
"~u.	c #544D42",
"{u.	c #514A3F",
"]u.	c #4C473C",
"^u.	c #3F3B32",
"/u.	c #3D3933",
"(u.	c #201E22",
"_u.	c #272723",
":u.	c #5B5951",
"<u.	c #7F7970",
"[u.	c #867F74",
"}u.	c #68645A",
"|u.	c #16100E",
"1u.	c #A19584",
"2u.	c #B1A595",
"3u.	c #B0A596",
"4u.	c #968E81",
"5u.	c #18110A",
"6u.	c #52483B",
"7u.	c #7A6F5D",
"8u.	c #7F705E",
"9u.	c #7C6A57",
"0u.	c #7B6A56",
"au.	c #83715E",
"bu.	c #887664",
"cu.	c #7F6D5C",
"du.	c #705E4C",
"eu.	c #6B5A47",
"fu.	c #705E4A",
"gu.	c #756450",
"hu.	c #7E6D59",
"iu.	c #8F7E69",
"ju.	c #9C8A76",
"ku.	c #938372",
"lu.	c #716658",
"mu.	c #423A31",
"nu.	c #221E19",
"ou.	c #8F8879",
"pu.	c #B4A997",
"qu.	c #B2A591",
"ru.	c #847765",
"su.	c #6F6352",
"tu.	c #665A4C",
"uu.	c #6E6254",
"vu.	c #6D6153",
"wu.	c #695C4E",
"xu.	c #665A4B",
"yu.	c #6E6252",
"zu.	c #746858",
"Au.	c #5C5344",
"Bu.	c #393225",
"Cu.	c #2E281C",
"Du.	c #302C20",
"Eu.	c #242117",
"Fu.	c #0F0C05",
"Gu.	c #262320",
"Hu.	c #443C2F",
"Iu.	c #9E8F78",
"Ju.	c #B4A38A",
"Ku.	c #9B8873",
"Lu.	c #6F5F50",
"Mu.	c #3B2F25",
"Nu.	c #231A15",
"Ou.	c #241D19",
"Pu.	c #2F2A26",
"Qu.	c #272422",
"Ru.	c #6A6862",
"Su.	c #52504A",
"Tu.	c #77756F",
"Uu.	c #706C68",
"Vu.	c #100C0A",
"Wu.	c #170F08",
"Xu.	c #271608",
"Yu.	c #301905",
"Zu.	c #381D07",
"`u.	c #391F09",
" v.	c #35220E",
".v.	c #281D0F",
"+v.	c #120E08",
"@v.	c #040709",
"#v.	c #202426",
"$v.	c #463E35",
"%v.	c #4D4439",
"&v.	c #6D6253",
"*v.	c #867967",
"=v.	c #8A7F6D",
"-v.	c #766C5B",
";v.	c #4C4338",
">v.	c #50473D",
",v.	c #4E463D",
"'v.	c #464139",
")v.	c #3B3B35",
"!v.	c #3B3734",
"~v.	c #252320",
"{v.	c #1F1D19",
"]v.	c #2D2C26",
"^v.	c #1A1310",
"/v.	c #5C524C",
"(v.	c #7F7264",
"_v.	c #8A7D6E",
":v.	c #A99C8D",
"<v.	c #BAAD9D",
"[v.	c #B7AB9B",
"}v.	c #988F82",
"|v.	c #605A51",
"1v.	c #171009",
"2v.	c #54483B",
"3v.	c #807060",
"4v.	c #897564",
"5v.	c #87725F",
"6v.	c #846F5C",
"7v.	c #856F5D",
"8v.	c #836E5D",
"9v.	c #796554",
"0v.	c #6C5949",
"av.	c #6B5847",
"bv.	c #705D4B",
"cv.	c #74624F",
"dv.	c #796856",
"ev.	c #857563",
"fv.	c #8F7F6D",
"gv.	c #87796A",
"hv.	c #8B8478",
"iv.	c #B1A797",
"jv.	c #B0A491",
"kv.	c #9D907D",
"lv.	c #817462",
"mv.	c #675B4C",
"nv.	c #6E6153",
"ov.	c #6C5E50",
"pv.	c #6B5D4E",
"qv.	c #736555",
"rv.	c #786A5B",
"sv.	c #605647",
"tv.	c #3C3426",
"uv.	c #322B20",
"vv.	c #353024",
"wv.	c #29251A",
"xv.	c #110E07",
"yv.	c #433D34",
"zv.	c #463C2F",
"Av.	c #6E6150",
"Bv.	c #9F907B",
"Cv.	c #BAA992",
"Dv.	c #C2B097",
"Ev.	c #BDAA92",
"Fv.	c #A4917D",
"Gv.	c #766555",
"Hv.	c #3E3025",
"Iv.	c #251A13",
"Jv.	c #261D19",
"Kv.	c #79756F",
"Lv.	c #726E6A",
"Mv.	c #191715",
"Nv.	c #150C05",
"Ov.	c #190D03",
"Pv.	c #1F1206",
"Qv.	c #211408",
"Rv.	c #22170C",
"Sv.	c #1C150E",
"Tv.	c #100E0A",
"Uv.	c #232626",
"Vv.	c #534B43",
"Wv.	c #554B3E",
"Xv.	c #655847",
"Yv.	c #968874",
"Zv.	c #BAAB96",
"`v.	c #C2B39D",
" w.	c #BEAE98",
".w.	c #BCAB93",
"+w.	c #BAAA90",
"@w.	c #C0B197",
"#w.	c #C2B39A",
"$w.	c #A5977F",
"%w.	c #5A5044",
"&w.	c #494239",
"*w.	c #22211C",
"=w.	c #1A1915",
"-w.	c #38352F",
";w.	c #32302B",
">w.	c #2C2A27",
",w.	c #292724",
"'w.	c #070807",
")w.	c #100A05",
"!w.	c #5F544A",
"~w.	c #817466",
"{w.	c #817363",
"]w.	c #8E8171",
"^w.	c #B0A494",
"/w.	c #C2B5A3",
"(w.	c #BBAD9C",
"_w.	c #9B8E80",
":w.	c #61564B",
"<w.	c #473F37",
"[w.	c #080603",
"}w.	c #1C160C",
"|w.	c #897662",
"1w.	c #87725E",
"2w.	c #826C59",
"3w.	c #7F6957",
"4w.	c #7A6554",
"5w.	c #715E4C",
"6w.	c #685645",
"7w.	c #6B5848",
"8w.	c #6F5D4C",
"9w.	c #6B5D4D",
"0w.	c #726557",
"aw.	c #6E6357",
"bw.	c #534C43",
"cw.	c #7D776C",
"dw.	c #A59D8C",
"ew.	c #A59B87",
"fw.	c #938874",
"gw.	c #726554",
"hw.	c #6A5D4D",
"iw.	c #6A5E4F",
"jw.	c #6D6051",
"kw.	c #6D5F51",
"lw.	c #6D6050",
"mw.	c #7A6D5D",
"nw.	c #625849",
"ow.	c #3E3629",
"pw.	c #372F24",
"qw.	c #3C352A",
"rw.	c #2F2B1F",
"sw.	c #16130B",
"tw.	c #37322F",
"uw.	c #796D59",
"vw.	c #9E917A",
"ww.	c #B6A78F",
"xw.	c #BEAE96",
"yw.	c #BCAA93",
"zw.	c #A5937E",
"Aw.	c #7E6D5B",
"Bw.	c #504133",
"Cw.	c #3D3025",
"Dw.	c #382D25",
"Ew.	c #3C342C",
"Fw.	c #1E1D1A",
"Gw.	c #21211E",
"Hw.	c #726F69",
"Iw.	c #7B7771",
"Jw.	c #0C0907",
"Kw.	c #675A47",
"Lw.	c #9E8F79",
"Mw.	c #C6B69F",
"Nw.	c #CCBDA5",
"Ow.	c #C6B49B",
"Pw.	c #CAB99D",
"Qw.	c #CCBA9F",
"Rw.	c #AE9D84",
"Sw.	c #7E6F59",
"Tw.	c #665744",
"Uw.	c #645646",
"Vw.	c #463E34",
"Ww.	c #090906",
"Xw.	c #292019",
"Yw.	c #2D2218",
"Zw.	c #392C20",
"`w.	c #5D5041",
" x.	c #786A59",
".x.	c #7C6D5C",
"+x.	c #B2A595",
"@x.	c #C4B6A4",
"#x.	c #BEAE9C",
"$x.	c #A69683",
"%x.	c #837463",
"&x.	c #7B6E60",
"*x.	c #40362D",
"=x.	c #2B231B",
"-x.	c #272119",
";x.	c #25231C",
">x.	c #22211A",
",x.	c #24231C",
"'x.	c #2D2A21",
")x.	c #342F24",
"!x.	c #3E3729",
"~x.	c #7B6B57",
"{x.	c #826E5A",
"]x.	c #816C57",
"^x.	c #7D6853",
"/x.	c #796551",
"(x.	c #725E4D",
"_x.	c #695645",
":x.	c #635141",
"<x.	c #675545",
"[x.	c #534738",
"}x.	c #43392B",
"|x.	c #42392F",
"1x.	c #403830",
"2x.	c #787162",
"3x.	c #837966",
"4x.	c #817561",
"5x.	c #7E715D",
"6x.	c #7D6E5D",
"7x.	c #6B5E4F",
"8x.	c #6F6151",
"9x.	c #726454",
"0x.	c #817261",
"ax.	c #4B4236",
"bx.	c #484234",
"cx.	c #353125",
"dx.	c #2A271F",
"ex.	c #27251F",
"fx.	c #2B2621",
"gx.	c #2C261F",
"hx.	c #261F19",
"ix.	c #393029",
"jx.	c #6D6359",
"kx.	c #928879",
"lx.	c #9D917F",
"mx.	c #9C8D7B",
"nx.	c #9C8C78",
"ox.	c #A09079",
"px.	c #A2907A",
"qx.	c #7F6C57",
"rx.	c #685644",
"sx.	c #5D4C3C",
"tx.	c #514335",
"ux.	c #4B3F34",
"vx.	c #28241D",
"wx.	c #060706",
"xx.	c #73706A",
"yx.	c #545452",
"zx.	c #04050E",
"Ax.	c #04060F",
"Bx.	c #9C8D77",
"Cx.	c #C4B49C",
"Dx.	c #C9B9A1",
"Ex.	c #C3B39A",
"Fx.	c #C0AF95",
"Gx.	c #C3B196",
"Hx.	c #C4B197",
"Ix.	c #7C6C55",
"Jx.	c #655646",
"Kx.	c #5B4E40",
"Lx.	c #433B31",
"Mx.	c #2F2B26",
"Nx.	c #130D08",
"Ox.	c #271E15",
"Px.	c #33261B",
"Qx.	c #392A1D",
"Rx.	c #3F2E21",
"Sx.	c #524233",
"Tx.	c #675745",
"Ux.	c #71614F",
"Vx.	c #8B7C6C",
"Wx.	c #B3A493",
"Xx.	c #C7B7A4",
"Yx.	c #C5B39E",
"Zx.	c #B8A691",
"`x.	c #C1AF9C",
" y.	c #C0AE9B",
".y.	c #AB9A86",
"+y.	c #897966",
"@y.	c #766655",
"#y.	c #716452",
"$y.	c #706657",
"%y.	c #675E51",
"&y.	c #655D4F",
"*y.	c #635C4D",
"=y.	c #68604F",
"-y.	c #6D604D",
";y.	c #7C6B54",
">y.	c #7F6A55",
",y.	c #7E6954",
"'y.	c #7B6753",
")y.	c #786451",
"!y.	c #6F5C4B",
"~y.	c #645242",
"{y.	c #604F3F",
"]y.	c #655444",
"^y.	c #6B5B4B",
"/y.	c #504438",
"(y.	c #30281D",
"_y.	c #201A13",
":y.	c #1A1611",
"<y.	c #29251F",
"[y.	c #4D463A",
"}y.	c #796D5A",
"|y.	c #857764",
"1y.	c #897A67",
"2y.	c #6C5F4F",
"3y.	c #756857",
"4y.	c #7D6F5E",
"5y.	c #8D7E6C",
"6y.	c #776E5C",
"7y.	c #746C5A",
"8y.	c #6D6555",
"9y.	c #6A6153",
"0y.	c #6B6354",
"ay.	c #6E6456",
"by.	c #746759",
"cy.	c #706251",
"dy.	c #786857",
"ey.	c #A39381",
"fy.	c #C3B49F",
"gy.	c #CBBBA6",
"hy.	c #C8B5A1",
"iy.	c #BBA793",
"jy.	c #A5917D",
"ky.	c #907E69",
"ly.	c #887662",
"my.	c #87745F",
"ny.	c #826E59",
"oy.	c #735D49",
"py.	c #6B5643",
"qy.	c #5D4D3B",
"ry.	c #554839",
"sy.	c #2A251D",
"ty.	c #484A46",
"uy.	c #5E5D59",
"vy.	c #02030C",
"wy.	c #03050E",
"xy.	c #050710",
"yy.	c #524839",
"zy.	c #BEAD95",
"Ay.	c #C4B29A",
"By.	c #BEAC94",
"Cy.	c #BDA98E",
"Dy.	c #796850",
"Ey.	c #645441",
"Fy.	c #635444",
"Gy.	c #584B3E",
"Hy.	c #40382F",
"Iy.	c #54544F",
"Jy.	c #150D06",
"Ky.	c #2A1E12",
"Ly.	c #362718",
"My.	c #3C2A1B",
"Ny.	c #5D4B39",
"Oy.	c #695746",
"Py.	c #AA9987",
"Qy.	c #C0AD99",
"Ry.	c #C6B29A",
"Sy.	c #CBB69D",
"Ty.	c #D3BEA6",
"Uy.	c #DFCAB2",
"Vy.	c #DCC6AE",
"Wy.	c #C9B39B",
"Xy.	c #AF9880",
"Yy.	c #A28D75",
"Zy.	c #9E8B73",
"`y.	c #9E8C74",
" z.	c #9C8A74",
".z.	c #9B8A74",
"+z.	c #9A8974",
"@z.	c #968672",
"#z.	c #94836F",
"$z.	c #90806C",
"%z.	c #8D7F6A",
"&z.	c #8B7C68",
"*z.	c #8D7E68",
"=z.	c #8C7A64",
"-z.	c #8B775F",
";z.	c #89745D",
">z.	c #88735D",
",z.	c #85705C",
"'z.	c #7D6A57",
")z.	c #6E5D4B",
"!z.	c #605040",
"~z.	c #5B4C3C",
"{z.	c #615242",
"]z.	c #1D1A13",
"^z.	c #685D4E",
"/z.	c #7E7260",
"(z.	c #8A7D6A",
"_z.	c #8C7F6A",
":z.	c #7D705D",
"<z.	c #958673",
"[z.	c #9A8B77",
"}z.	c #90836F",
"|z.	c #928672",
"1z.	c #948974",
"2z.	c #948872",
"3z.	c #8E816D",
"4z.	c #90836D",
"5z.	c #92846F",
"6z.	c #968772",
"7z.	c #9B8973",
"8z.	c #988670",
"9z.	c #927F69",
"0z.	c #998670",
"az.	c #B8A48F",
"bz.	c #D0BDA8",
"cz.	c #D5C3AD",
"dz.	c #C8B4A0",
"ez.	c #AF9C89",
"fz.	c #958370",
"gz.	c #877562",
"hz.	c #84725E",
"iz.	c #826D5A",
"jz.	c #745D49",
"kz.	c #6B5541",
"lz.	c #5F4E3B",
"mz.	c #2B261D",
"nz.	c #7D7872",
"oz.	c #040505",
"pz.	c #4A4B48",
"qz.	c #01020A",
"rz.	c #060811",
"sz.	c #5E5443",
"tz.	c #675945",
"uz.	c #95856F",
"vz.	c #BAAB93",
"wz.	c #C1B199",
"xz.	c #BFAD96",
"yz.	c #BEAB93",
"zz.	c #BBA88E",
"Az.	c #685945",
"Bz.	c #665746",
"Cz.	c #594D40",
"Dz.	c #040200",
"Ez.	c #1D1309",
"Fz.	c #362617",
"Gz.	c #43301E",
"Hz.	c #483421",
"Iz.	c #523F2E",
"Jz.	c #614F3E",
"Kz.	c #6B5A4A",
"Lz.	c #7E6E5D",
"Mz.	c #9D8D79",
"Nz.	c #BCA891",
"Oz.	c #CDB79E",
"Pz.	c #DCC6AC",
"Qz.	c #E6D1B6",
"Rz.	c #DFC8AF",
"Sz.	c #CDB59C",
"Tz.	c #B9A086",
"Uz.	c #B19A7F",
"Vz.	c #AE997F",
"Wz.	c #AC977F",
"Xz.	c #AB987E",
"Yz.	c #AA967E",
"Zz.	c #A9967E",
"`z.	c #A7937C",
" A.	c #A6927A",
".A.	c #A28F77",
"+A.	c #A08E76",
"@A.	c #9E8B74",
"#A.	c #A18E75",
"$A.	c #A18E74",
"%A.	c #9F8A72",
"&A.	c #9C8770",
"*A.	c #9A866F",
"=A.	c #95826D",
"-A.	c #867663",
";A.	c #706150",
">A.	c #5D503F",
",A.	c #584B3B",
"'A.	c #5D5040",
")A.	c #635748",
"!A.	c #453F34",
"~A.	c #7B715F",
"{A.	c #877C68",
"]A.	c #897E68",
"^A.	c #7B6F5B",
"/A.	c #685D4B",
"(A.	c #6C614F",
"_A.	c #736655",
":A.	c #807360",
"<A.	c #8C7E6C",
"[A.	c #968975",
"}A.	c #9B8D78",
"|A.	c #9C8F79",
"1A.	c #9A8E78",
"2A.	c #9D917A",
"3A.	c #9D927B",
"4A.	c #9D9179",
"5A.	c #9C8F77",
"6A.	c #9B8E76",
"7A.	c #9A8C74",
"8A.	c #A09078",
"9A.	c #A3927A",
"0A.	c #A7947C",
"aA.	c #A48F79",
"bA.	c #BDA993",
"cA.	c #D1BFA9",
"dA.	c #D4C4AE",
"eA.	c #D4C4AD",
"fA.	c #CDBBA7",
"gA.	c #B7A693",
"hA.	c #9D8C7A",
"iA.	c #8D7C6A",
"jA.	c #897765",
"kA.	c #867360",
"lA.	c #806D58",
"mA.	c #735E4A",
"nA.	c #68533F",
"oA.	c #604F3C",
"pA.	c #4B4337",
"qA.	c #2B271E",
"rA.	c #7E7A72",
"sA.	c #4B4D48",
"tA.	c #5C5C57",
"uA.	c #01030A",
"vA.	c #090C14",
"wA.	c #665D51",
"xA.	c #655A4A",
"yA.	c #8C806B",
"zA.	c #AB9F8A",
"AA.	c #B0A290",
"BA.	c #AE9F8E",
"CA.	c #AFA08D",
"DA.	c #AE9F8A",
"EA.	c #AFA189",
"FA.	c #B1A28B",
"GA.	c #A0907B",
"HA.	c #6C5E4D",
"IA.	c #53493E",
"JA.	c #291C11",
"KA.	c #4B3826",
"LA.	c #5C4631",
"MA.	c #604933",
"NA.	c #5D4734",
"OA.	c #5A4837",
"PA.	c #5F5041",
"QA.	c #65584A",
"RA.	c #827663",
"SA.	c #90826E",
"TA.	c #9E8C79",
"UA.	c #B49F8A",
"VA.	c #C4AF98",
"WA.	c #CBB79F",
"XA.	c #C2AD96",
"YA.	c #B39D86",
"ZA.	c #A9937A",
"`A.	c #AD987F",
" B.	c #AD9980",
".B.	c #AB9780",
"+B.	c #AB987F",
"@B.	c #AA967F",
"#B.	c #A8937D",
"$B.	c #A39078",
"%B.	c #9F8D74",
"&B.	c #9D8971",
"*B.	c #A29077",
"=B.	c #9F8D76",
"-B.	c #9B8974",
";B.	c #958571",
">B.	c #6F6251",
",B.	c #584D3C",
"'B.	c #0D0906",
")B.	c #12100B",
"!B.	c #2F2C23",
"~B.	c #5D5545",
"{B.	c #706754",
"]B.	c #7C705C",
"^B.	c #746855",
"/B.	c #685E4D",
"(B.	c #7F7361",
"_B.	c #877B68",
":B.	c #8C7F6C",
"<B.	c #928570",
"[B.	c #928671",
"}B.	c #958B74",
"|B.	c #968B74",
"1B.	c #958A71",
"2B.	c #978B71",
"3B.	c #968970",
"4B.	c #978870",
"5B.	c #988971",
"6B.	c #A8947E",
"7B.	c #AA957E",
"8B.	c #A9947D",
"9B.	c #A28E77",
"0B.	c #A18D77",
"aB.	c #B09C88",
"bB.	c #BEAC97",
"cB.	c #C1B19C",
"dB.	c #C2B29D",
"eB.	c #BCAC99",
"fB.	c #A99988",
"gB.	c #8F8170",
"hB.	c #7E6D5C",
"iB.	c #7D6C59",
"jB.	c #796653",
"kB.	c #6F5A46",
"lB.	c #66513D",
"mB.	c #5F4E3C",
"nB.	c #4C4438",
"oB.	c #2A261D",
"pB.	c #04050B",
"qB.	c #2B2C29",
"rB.	c #4E4C44",
"sB.	c #665F51",
"tB.	c #867D6F",
"uB.	c #80776C",
"vB.	c #786E63",
"wB.	c #786E62",
"xB.	c #766B5E",
"yB.	c #574D43",
"zB.	c #433C35",
"AB.	c #2A2620",
"BB.	c #141214",
"CB.	c #312317",
"DB.	c #5B4733",
"EB.	c #705941",
"FB.	c #725B42",
"GB.	c #544535",
"HB.	c #473F33",
"IB.	c #4F473C",
"JB.	c #5A5144",
"KB.	c #6A5C4F",
"LB.	c #7C6C5D",
"MB.	c #897767",
"NB.	c #857463",
"OB.	c #7E6D5A",
"PB.	c #82705C",
"QB.	c #95816E",
"RB.	c #A6937E",
"SB.	c #A5947D",
"TB.	c #A5927D",
"UB.	c #A4907C",
"VB.	c #A3907B",
"WB.	c #9F8C77",
"XB.	c #8C7A63",
"YB.	c #907F68",
"ZB.	c #837561",
"`B.	c #80725F",
" C.	c #7F715F",
".C.	c #7D705E",
"+C.	c #766958",
"@C.	c #6C604F",
"#C.	c #615646",
"$C.	c #5D5242",
"%C.	c #5C5242",
"&C.	c #221E15",
"*C.	c #060401",
"=C.	c #12100A",
"-C.	c #201B14",
";C.	c #332D21",
">C.	c #534A3B",
",C.	c #716655",
"'C.	c #6D6352",
")C.	c #6F6555",
"!C.	c #6B6250",
"~C.	c #746856",
"{C.	c #7B705C",
"]C.	c #857B65",
"^C.	c #847A64",
"/C.	c #847963",
"(C.	c #8B8067",
"_C.	c #A6947C",
":C.	c #AD9A82",
"<C.	c #AF9B82",
"[C.	c #AC987F",
"}C.	c #9F8B74",
"|C.	c #8E7B66",
"1C.	c #887562",
"2C.	c #8A7866",
"3C.	c #8C7D6C",
"4C.	c #5E5042",
"5C.	c #615243",
"6C.	c #665745",
"7C.	c #65513E",
"8C.	c #634F3B",
"9C.	c #60503C",
"0C.	c #5D5140",
"aC.	c #4D4538",
"bC.	c #2A261C",
"cC.	c #110F14",
"dC.	c #817C73",
"eC.	c #4A4840",
"fC.	c #635C4F",
"gC.	c #3E3937",
"hC.	c #443F3B",
"iC.	c #45403B",
"jC.	c #383432",
"kC.	c #332518",
"lC.	c #604C37",
"mC.	c #765F46",
"nC.	c #776048",
"oC.	c #6B5744",
"pC.	c #4B3E30",
"qC.	c #292217",
"rC.	c #403B33",
"sC.	c #5E5347",
"tC.	c #5E5046",
"uC.	c #716355",
"vC.	c #907F70",
"wC.	c #A0917F",
"xC.	c #A49582",
"yC.	c #A59481",
"zC.	c #A59480",
"AC.	c #A4937F",
"BC.	c #A5937F",
"CC.	c #A4917E",
"DC.	c #978572",
"EC.	c #887762",
"FC.	c #82725D",
"GC.	c #7E705D",
"HC.	c #6C6253",
"IC.	c #252119",
"JC.	c #050300",
"KC.	c #1C1710",
"LC.	c #6B6154",
"MC.	c #756B5D",
"NC.	c #736A5B",
"OC.	c #685F51",
"PC.	c #605848",
"QC.	c #685F4D",
"RC.	c #716754",
"SC.	c #796F5B",
"TC.	c #786E5A",
"UC.	c #796F5A",
"VC.	c #7F755E",
"WC.	c #897D67",
"XC.	c #8D7F69",
"YC.	c #8F8269",
"ZC.	c #A08F77",
"`C.	c #A9987F",
" D.	c #AE9B83",
".D.	c #AF9C83",
"+D.	c #9D8973",
"@D.	c #6E5D4C",
"#D.	c #645445",
"$D.	c #645547",
"%D.	c #635546",
"&D.	c #4B3F33",
"*D.	c #473A2E",
"=D.	c #554737",
"-D.	c #5B4B3A",
";D.	c #5C4B39",
">D.	c #5F4D3A",
",D.	c #5E4F3C",
"'D.	c #4C4537",
")D.	c #29251B",
"!D.	c #827D75",
"~D.	c #545551",
"{D.	c #50514E",
"]D.	c #262824",
"^D.	c #5E574A",
"/D.	c #614D38",
"(D.	c #786148",
"_D.	c #79634C",
":D.	c #6B5946",
"<D.	c #1F1910",
"[D.	c #625950",
"}D.	c #61574E",
"|D.	c #665C50",
"1D.	c #796E62",
"2D.	c #A79A89",
"3D.	c #A79987",
"4D.	c #A89887",
"5D.	c #A79785",
"6D.	c #A89784",
"7D.	c #A79683",
"8D.	c #A89783",
"9D.	c #A69582",
"0D.	c #9D8C79",
"aD.	c #8B7B68",
"bD.	c #81735E",
"cD.	c #7F725D",
"dD.	c #796E5B",
"eD.	c #6C6452",
"fD.	c #625A4B",
"gD.	c #5D5647",
"hD.	c #5E5749",
"iD.	c #625A4C",
"jD.	c #696153",
"kD.	c #726A5A",
"lD.	c #645D4E",
"mD.	c #645F52",
"nD.	c #27251E",
"oD.	c #1B1812",
"pD.	c #776D60",
"qD.	c #776E60",
"rD.	c #766F60",
"sD.	c #72695B",
"tD.	c #696253",
"uD.	c #5F584A",
"vD.	c #6B6351",
"wD.	c #756C59",
"xD.	c #766D59",
"yD.	c #786F5A",
"zD.	c #817762",
"AD.	c #8E846E",
"BD.	c #938770",
"CD.	c #958971",
"DD.	c #998A74",
"ED.	c #A4947E",
"FD.	c #AC9C85",
"GD.	c #AF9F88",
"HD.	c #AB9982",
"ID.	c #9D8B76",
"JD.	c #877764",
"KD.	c #736454",
"LD.	c #675A4B",
"MD.	c #594E41",
"ND.	c #4D4338",
"OD.	c #4C4134",
"PD.	c #594B39",
"QD.	c #5D4E3B",
"RD.	c #5F5342",
"SD.	c #4D4638",
"TD.	c #29241A",
"UD.	c #121015",
"VD.	c #1B1A22",
"WD.	c #807B74",
"XD.	c #7D7871",
"YD.	c #575752",
"ZD.	c #615E53",
"`D.	c #5A564B",
" E.	c #343438",
".E.	c #333337",
"+E.	c #0D0B10",
"@E.	c #312518",
"#E.	c #604D39",
"$E.	c #766149",
"%E.	c #78634C",
"&E.	c #4B4031",
"*E.	c #241D14",
"=E.	c #1F1C16",
"-E.	c #434038",
";E.	c #48443C",
">E.	c #605951",
",E.	c #655D54",
"'E.	c #8D8478",
")E.	c #9A9182",
"!E.	c #9A8F80",
"~E.	c #9B8F7F",
"{E.	c #9B8D7D",
"]E.	c #9B8D7C",
"^E.	c #A0917E",
"/E.	c #9E8F7C",
"(E.	c #847662",
"_E.	c #796E59",
":E.	c #746A57",
"<E.	c #6C6453",
"[E.	c #645C4E",
"}E.	c #635C4E",
"|E.	c #635B4D",
"1E.	c #686152",
"2E.	c #726A5B",
"3E.	c #655F4F",
"4E.	c #46443C",
"5E.	c #21201A",
"6E.	c #6E665A",
"7E.	c #777062",
"8E.	c #6A6355",
"9E.	c #60584A",
"0E.	c #5F5849",
"aE.	c #625B4A",
"bE.	c #68614F",
"cE.	c #726A57",
"dE.	c #766E5A",
"eE.	c #7F7663",
"fE.	c #8C836F",
"gE.	c #908771",
"hE.	c #918872",
"iE.	c #9B907C",
"jE.	c #A19582",
"kE.	c #A29683",
"lE.	c #9F9380",
"mE.	c #9B8E7B",
"nE.	c #908371",
"oE.	c #807463",
"pE.	c #584F42",
"qE.	c #4F4538",
"rE.	c #5D513F",
"sE.	c #615442",
"tE.	c #4E4639",
"uE.	c #29231A",
"vE.	c #7D776F",
"wE.	c #484944",
"xE.	c #41423D",
"yE.	c #2E2E29",
"zE.	c #55534A",
"AE.	c #353439",
"BE.	c #303035",
"CE.	c #1C1A21",
"DE.	c #1D1B21",
"EE.	c #31261A",
"FE.	c #60503D",
"GE.	c #75634C",
"HE.	c #76644E",
"IE.	c #363025",
"JE.	c #312D24",
"KE.	c #39362E",
"LE.	c #403D34",
"ME.	c #3F3D34",
"NE.	c #3E3A33",
"OE.	c #4B453F",
"PE.	c #6A6257",
"QE.	c #675E52",
"RE.	c #6A5E51",
"SE.	c #736657",
"TE.	c #756956",
"UE.	c #6F6552",
"VE.	c #6E6552",
"WE.	c #6C6352",
"XE.	c #6A6252",
"YE.	c #696052",
"ZE.	c #655E4F",
"`E.	c #716A5A",
" F.	c #5C5647",
".F.	c #443F34",
"+F.	c #39362F",
"@F.	c #2B2923",
"#F.	c #787063",
"$F.	c #6D6558",
"%F.	c #696150",
"&F.	c #6B6352",
"*F.	c #726B58",
"=F.	c #716957",
"-F.	c #6A6251",
";F.	c #716A59",
">F.	c #736C5B",
",F.	c #6C6556",
"'F.	c #6D6659",
")F.	c #6F695B",
"!F.	c #6B6457",
"~F.	c #5C5549",
"{F.	c #363129",
"]F.	c #3D3830",
"^F.	c #464238",
"/F.	c #444035",
"(F.	c #454034",
"_F.	c #4C4437",
":F.	c #594F41",
"<F.	c #645A49",
"[F.	c #695E4C",
"}F.	c #675D4B",
"|F.	c #2A251B",
"1F.	c #1F1D23",
"2F.	c #1A181F",
"3F.	c #363438",
"4F.	c #19171E",
"5F.	c #0B0A11",
"6F.	c #7A746B",
"7F.	c #282722",
"8F.	c #25251F",
"9F.	c #22221D",
"0F.	c #1D1E1B",
"aF.	c #1B1C19",
"bF.	c #181916",
"cF.	c #161714",
"dF.	c #141412",
"eF.	c #1D1B19",
"fF.	c #323136",
"gF.	c #2D2C32",
"hF.	c #222127",
"iF.	c #232128",
"jF.	c #2F261C",
"kF.	c #6C604D",
"lF.	c #464135",
"mF.	c #3A372E",
"nF.	c #24221E",
"oF.	c #221F1C",
"pF.	c #27221C",
"qF.	c #231E17",
"rF.	c #1E1A13",
"sF.	c #3B3027",
"tF.	c #4F4338",
"uF.	c #504436",
"vF.	c #504434",
"wF.	c #554938",
"xF.	c #645846",
"yF.	c #6B6151",
"zF.	c #6A6151",
"AF.	c #696051",
"BF.	c #635B4C",
"CF.	c #716959",
"DF.	c #0C0806",
"EF.	c #332E29",
"FF.	c #362F29",
"GF.	c #787064",
"HF.	c #6F6759",
"IF.	c #746B5D",
"JF.	c #776E5F",
"KF.	c #766D5D",
"LF.	c #756D5B",
"MF.	c #78705E",
"NF.	c #736A59",
"OF.	c #564E3F",
"PF.	c #554F42",
"QF.	c #4B463C",
"RF.	c #2A2722",
"SF.	c #25231E",
"TF.	c #16140F",
"UF.	c #1C1A15",
"VF.	c #323029",
"WF.	c #403C33",
"XF.	c #413D32",
"YF.	c #474135",
"ZF.	c #6D6252",
"`F.	c #6A6150",
" G.	c #504A3E",
".G.	c #211F25",
"+G.	c #1D1B22",
"@G.	c #1F1D24",
"#G.	c #060502",
"$G.	c #040401",
"%G.	c #151319",
"&G.	c #25252C",
"*G.	c #25242B",
"=G.	c #252329",
"-G.	c #544B3E",
";G.	c #665C4C",
">G.	c #61594A",
",G.	c #575346",
"'G.	c #4B483C",
")G.	c #39372D",
"!G.	c #2A2821",
"~G.	c #201D19",
"{G.	c #12120F",
"]G.	c #12120E",
"^G.	c #3A322B",
"/G.	c #4F4437",
"(G.	c #625948",
"_G.	c #685F4F",
":G.	c #686151",
"<G.	c #564F45",
"[G.	c #0F0E0A",
"}G.	c #201A15",
"|G.	c #666057",
"1G.	c #797267",
"2G.	c #766E62",
"3G.	c #736B5C",
"4G.	c #7C7364",
"5G.	c #7D7464",
"6G.	c #7C7462",
"7G.	c #766E5E",
"8G.	c #0C0909",
"9G.	c #2C2A24",
"0G.	c #3E3B33",
"aG.	c #3F3C33",
"bG.	c #3F3B31",
"cG.	c #554E41",
"dG.	c #655C4F",
"eG.	c #49494A",
"fG.	c #1E1C23",
"gG.	c #222026",
"hG.	c #7C766E",
"iG.	c #767069",
"jG.	c #030507",
"kG.	c #161419",
"lG.	c #534C40",
"mG.	c #60594C",
"nG.	c #666053",
"oG.	c #615C4F",
"pG.	c #524E42",
"qG.	c #3D3A2F",
"rG.	c #2C2A22",
"sG.	c #191914",
"tG.	c #1C1B16",
"uG.	c #272621",
"vG.	c #1F1B18",
"wG.	c #38312A",
"xG.	c #3E352C",
"yG.	c #635D4E",
"zG.	c #645E4F",
"AG.	c #655F50",
"BG.	c #675E50",
"CG.	c #2C2922",
"DG.	c #080403",
"EG.	c #110B0A",
"FG.	c #39332D",
"GG.	c #7A7268",
"HG.	c #776F62",
"IG.	c #7D7365",
"JG.	c #817767",
"KG.	c #736B5B",
"LG.	c #746C5D",
"MG.	c #6F6859",
"NG.	c #5F584B",
"OG.	c #3B3731",
"PG.	c #0F0C0D",
"QG.	c #110F0E",
"RG.	c #15130E",
"SG.	c #2F2C26",
"TG.	c #403D35",
"UG.	c #423E36",
"VG.	c #433E33",
"WG.	c #6B6252",
"XG.	c #5F574B",
"YG.	c #24252B",
"ZG.	c #49443A",
"`G.	c #514B40",
" H.	c #5F5A4F",
".H.	c #6B6659",
"+H.	c #676255",
"@H.	c #575447",
"#H.	c #444136",
"$H.	c #37352C",
"%H.	c #322F29",
"&H.	c #2D2C25",
"*H.	c #37342F",
"=H.	c #3B3934",
"-H.	c #2A2522",
";H.	c #514B3F",
">H.	c #60584B",
",H.	c #62594C",
"'H.	c #5C5446",
")H.	c #655D50",
"!H.	c #16110E",
"~H.	c #7D7465",
"{H.	c #7E7465",
"]H.	c #595247",
"^H.	c #282621",
"/H.	c #393730",
"(H.	c #474339",
"_H.	c #212028",
":H.	c #756F69",
"<H.	c #78726C",
"[H.	c #44413A",
"}H.	c #4A463D",
"|H.	c #524E44",
"1H.	c #625D52",
"2H.	c #6E6A5D",
"3H.	c #6B675A",
"4H.	c #5C594C",
"5H.	c #4E4A3F",
"6H.	c #47443A",
"7H.	c #46423A",
"8H.	c #0E0B08",
"9H.	c #2C2821",
"0H.	c #332E25",
"aH.	c #484337",
"bH.	c #5F564A",
"cH.	c #5A5145",
"dH.	c #594F42",
"eH.	c #655C4E",
"fH.	c #5C5547",
"gH.	c #0A0606",
"hH.	c #7D7568",
"iH.	c #716759",
"jH.	c #7B7263",
"kH.	c #474036",
"lH.	c #403930",
"mH.	c #16110C",
"nH.	c #4F4B42",
"oH.	c #4D4940",
"pH.	c #554E42",
"qH.	c #3A332B",
"rH.	c #7C756D",
"sH.	c #6C6865",
"tH.	c #524D45",
"uH.	c #615C52",
"vH.	c #6C685B",
"wH.	c #686457",
"xH.	c #5C584C",
"yH.	c #524E43",
"zH.	c #504C42",
"AH.	c #514D44",
"BH.	c #545048",
"CH.	c #0B0809",
"DH.	c #0A0707",
"EH.	c #5D564B",
"FH.	c #61584D",
"GH.	c #5A4F43",
"HH.	c #443D32",
"IH.	c #1E1B15",
"JH.	c #17110E",
"KH.	c #413A32",
"LH.	c #807669",
"MH.	c #7A6F61",
"NH.	c #7C7263",
"OH.	c #252019",
"PH.	c #211F21",
"QH.	c #514B41",
"RH.	c #242227",
"SH.	c #686760",
"TH.	c #1B191E",
"UH.	c #4F4B43",
"VH.	c #5B574B",
"WH.	c #534F44",
"XH.	c #1D1B18",
"YH.	c #786D5C",
"ZH.	c #110A06",
"`H.	c #160F08",
" I.	c #150F09",
".I.	c #110C08",
"+I.	c #090504",
"@I.	c #7A7265",
"#I.	c #887E70",
"$I.	c #7F7465",
"%I.	c #756B5B",
"&I.	c #7B7262",
"*I.	c #352F25",
"=I.	c #302A22",
"-I.	c #2D271F",
";I.	c #221D17",
">I.	c #130F0B",
",I.	c #42403A",
"'I.	c #464239",
")I.	c #3B362D",
"!I.	c #201D18",
"~I.	c #232126",
"{I.	c #746E68",
"]I.	c #7B746D",
"^I.	c #191619",
"/I.	c #1C191B",
"(I.	c #626059",
"_I.	c #373934",
":I.	c #2D2B25",
"<I.	c #4B483F",
"[I.	c #49463D",
"}I.	c #4A463E",
"|I.	c #272521",
"1I.	c #22201E",
"2I.	c #171417",
"3I.	c #171315",
"4I.	c #1A1715",
"5I.	c #534E45",
"6I.	c #827766",
"7I.	c #1E1812",
"8I.	c #494033",
"9I.	c #898173",
"0I.	c #968B7C",
"aI.	c #887C6C",
"bI.	c #746959",
"cI.	c #6E6557",
"dI.	c #2A251C",
"eI.	c #201B16",
"fI.	c #0D0907",
"gI.	c #15110B",
"hI.	c #120E0A",
"iI.	c #393A35",
"jI.	c #7B746C",
"kI.	c #1A171A",
"lI.	c #373434",
"mI.	c #1E1B1C",
"nI.	c #45453F",
"oI.	c #3A3B36",
"pI.	c #1B181C",
"qI.	c #1D191D",
"rI.	c #241F21",
"sI.	c #252220",
"tI.	c #49423A",
"uI.	c #564B3E",
"vI.	c #837866",
"wI.	c #352C23",
"xI.	c #564D40",
"yI.	c #625A50",
"zI.	c #989081",
"AI.	c #A79B8B",
"BI.	c #958977",
"CI.	c #7D715F",
"DI.	c #746857",
"EI.	c #756A5C",
"FI.	c #423C30",
"GI.	c #272219",
"HI.	c #1F1B17",
"II.	c #1C1915",
"JI.	c #736C66",
"KI.	c #7B736C",
"LI.	c #6A6663",
"MI.	c #31312C",
"NI.	c #2D2A2D",
"OI.	c #363335",
"PI.	c #373334",
"QI.	c #383536",
"RI.	c #777670",
"SI.	c #6F6D67",
"TI.	c #3B3C37",
"UI.	c #3D3E39",
"VI.	c #3D3A33",
"WI.	c #201D20",
"XI.	c #272325",
"YI.	c #2D2828",
"ZI.	c #4D4539",
"`I.	c #584D40",
" J.	c #8F8470",
".J.	c #665C4E",
"+J.	c #332C25",
"@J.	c #796B59",
"#J.	c #8E7F6A",
"$J.	c #A29989",
"%J.	c #B2A693",
"&J.	c #A0927F",
"*J.	c #827562",
"=J.	c #443D31",
"-J.	c #2B261E",
";J.	c #27231C",
">J.	c #1A1612",
",J.	c #1A1512",
"'J.	c #161210",
")J.	c #141111",
"!J.	c #171516",
"~J.	c #211F23",
"{J.	c #10131A",
"]J.	c #79726A",
"^J.	c #322F32",
"/J.	c #5C5959",
"(J.	c #5B5A55",
"_J.	c #605E57",
":J.	c #6E6C66",
"<J.	c #3C3D38",
"[J.	c #201D1F",
"}J.	c #262222",
"|J.	c #2C2726",
"1J.	c #332D2B",
"2J.	c #4F473A",
"3J.	c #504739",
"4J.	c #5C5041",
"5J.	c #7C705F",
"6J.	c #958A75",
"7J.	c #918671",
"8J.	c #3C3429",
"9J.	c #0A0503",
"0J.	c #080200",
"aJ.	c #867864",
"bJ.	c #9A8B74",
"cJ.	c #8F816C",
"dJ.	c #A59A89",
"eJ.	c #B4A994",
"fJ.	c #A29481",
"gJ.	c #756957",
"hJ.	c #766A58",
"iJ.	c #312B22",
"jJ.	c #18140F",
"kJ.	c #16110F",
"lJ.	c #030102",
"mJ.	c #11141A",
"nJ.	c #716A64",
"oJ.	c #797069",
"pJ.	c #2C292A",
"qJ.	c #2E2A2B",
"rJ.	c #37332E",
"sJ.	c #5A5751",
"tJ.	c #211D1F",
"uJ.	c #1F1B1C",
"vJ.	c #211D1D",
"wJ.	c #282220",
"xJ.	c #2C2622",
"yJ.	c #2B2521",
"zJ.	c #241E1A",
"AJ.	c #53493C",
"BJ.	c #53493A",
"CJ.	c #978A76",
"DJ.	c #504536",
"EJ.	c #372E23",
"FJ.	c #322A21",
"GJ.	c #31291F",
"HJ.	c #2C251A",
"IJ.	c #221C11",
"JJ.	c #291F10",
"KJ.	c #5E5241",
"LJ.	c #8F7F6A",
"MJ.	c #978871",
"NJ.	c #201A12",
"OJ.	c #120F0A",
"PJ.	c #17120B",
"QJ.	c #9F9481",
"RJ.	c #ADA08C",
"SJ.	c #9D8F7A",
"TJ.	c #817360",
"UJ.	c #342E25",
"VJ.	c #191410",
"WJ.	c #1D1814",
"XJ.	c #3E3D37",
"YJ.	c #786F67",
"ZJ.	c #2E3132",
"`J.	c #423D3A",
" K.	c #413C3A",
".K.	c #423D3B",
"+K.	c #40413C",
"@K.	c #53534C",
"#K.	c #68645B",
"$K.	c #3B3730",
"%K.	c #3A3731",
"&K.	c #474740",
"*K.	c #45453E",
"=K.	c #41413B",
"-K.	c #242020",
";K.	c #24201F",
">K.	c #2B2420",
",K.	c #574D3C",
"'K.	c #7D6F5C",
")K.	c #736554",
"!K.	c #776B59",
"~K.	c #615440",
"{K.	c #776851",
"]K.	c #A09177",
"^K.	c #6E614D",
"/K.	c #5B4F3F",
"(K.	c #574D3F",
"_K.	c #554B3C",
":K.	c #5A4F3E",
"<K.	c #9E907B",
"[K.	c #7E715C",
"}K.	c #776957",
"|K.	c #373127",
"1K.	c #373A3A",
"2K.	c #4B453E",
"3K.	c #7F756A",
"4K.	c #847B70",
"5K.	c #888075",
"6K.	c #8D867B",
"7K.	c #5F5950",
"8K.	c #4E473F",
"9K.	c #413B34",
"0K.	c #45443D",
"aK.	c #312F33",
"bK.	c #262221",
"cK.	c #292522",
"dK.	c #312924",
"eK.	c #5B5041",
"fK.	c #8B7C66",
"gK.	c #96876D",
"hK.	c #97866F",
"iK.	c #A1917A",
"jK.	c #AB9D84",
"kK.	c #AB9C83",
"lK.	c #A19179",
"mK.	c #8B7B60",
"nK.	c #A6947A",
"oK.	c #92836D",
"pK.	c #968670",
"qK.	c #998A73",
"rK.	c #84755E",
"sK.	c #534A3C",
"tK.	c #312B25",
"uK.	c #37322B",
"vK.	c #3A393D",
"wK.	c #3A3832",
"xK.	c #8F8372",
"yK.	c #B0A18D",
"zK.	c #B0A38E",
"AK.	c #AC9E8B",
"BK.	c #AD9E8C",
"CK.	c #B2A492",
"DK.	c #B4A795",
"EK.	c #B7AC9A",
"FK.	c #B7AC9C",
"GK.	c #A49C8F",
"HK.	c #746E64",
"IK.	c #837F75",
"JK.	c #514840",
"KK.	c #4E453E",
"LK.	c #46453F",
"MK.	c #3A3A3D",
"NK.	c #24211F",
"OK.	c #352E24",
"PK.	c #3E362A",
"QK.	c #4E4538",
"RK.	c #AD9D83",
"SK.	c #B0A086",
"TK.	c #B3A388",
"UK.	c #B5A58A",
"VK.	c #AF9D84",
"WK.	c #908064",
"XK.	c #958468",
"YK.	c #A8957A",
"ZK.	c #A28F75",
"`K.	c #AB997C",
" L.	c #AF9E81",
".L.	c #AC997E",
"+L.	c #A08E75",
"@L.	c #84755D",
"#L.	c #7B6C56",
"$L.	c #7E6F5A",
"%L.	c #7E715E",
"&L.	c #756958",
"*L.	c #453D31",
"=L.	c #39332B",
"-L.	c #3D3D40",
";L.	c #3E3D41",
">L.	c #3B3B3F",
",L.	c #6E675F",
"'L.	c #766D65",
")L.	c #181312",
"!L.	c #9B8E79",
"~L.	c #BEAC93",
"{L.	c #BEAD93",
"]L.	c #B9A88F",
"^L.	c #BAA890",
"/L.	c #C1B099",
"(L.	c #C2B29C",
"_L.	c #C1B39D",
":L.	c #ACA190",
"<L.	c #7C7467",
"[L.	c #837E74",
"}L.	c #989284",
"|L.	c #9A9588",
"1L.	c #8E8A7F",
"2L.	c #605C54",
"3L.	c #23211C",
"4L.	c #343736",
"5L.	c #49413A",
"6L.	c #5B5148",
"7L.	c #5A524A",
"8L.	c #534D46",
"9L.	c #49443F",
"0L.	c #342C22",
"aL.	c #362C22",
"bL.	c #392F24",
"cL.	c #41372A",
"dL.	c #504638",
"eL.	c #5F5543",
"fL.	c #605341",
"gL.	c #988970",
"hL.	c #A6957C",
"iL.	c #A19278",
"jL.	c #8D7B60",
"kL.	c #948367",
"lL.	c #A79579",
"mL.	c #A18F72",
"nL.	c #A08C70",
"oL.	c #A49173",
"pL.	c #A69375",
"qL.	c #88775D",
"rL.	c #82725B",
"sL.	c #7B6B55",
"tL.	c #796954",
"uL.	c #7F705C",
"vL.	c #80715E",
"wL.	c #776B5A",
"xL.	c #3D362E",
"yL.	c #3B352B",
"zL.	c #3C3B3E",
"AL.	c #38373C",
"BL.	c #756C65",
"CL.	c #716963",
"DL.	c #221611",
"EL.	c #402F24",
"FL.	c #5B5247",
"GL.	c #9C8E78",
"HL.	c #BDAB91",
"IL.	c #BCAA8F",
"JL.	c #B7A48B",
"KL.	c #B8A48B",
"LL.	c #C1AF97",
"ML.	c #BFB098",
"NL.	c #AC9F8C",
"OL.	c #7E7466",
"PL.	c #524A42",
"QL.	c #817B71",
"RL.	c #989183",
"SL.	c #999385",
"TL.	c #8E887D",
"UL.	c #615D54",
"VL.	c #24221D",
"WL.	c #43433D",
"XL.	c #5C5B53",
"YL.	c #413C36",
"ZL.	c #4C443D",
"`L.	c #594E46",
" M.	c #62574E",
".M.	c #63584E",
"+M.	c #565651",
"@M.	c #3F3D40",
"#M.	c #363539",
"$M.	c #282421",
"%M.	c #2C251F",
"&M.	c #393026",
"*M.	c #463B2E",
"=M.	c #473C2E",
"-M.	c #4B4032",
";M.	c #574C3D",
">M.	c #5F5343",
",M.	c #625745",
"'M.	c #605543",
")M.	c #7F6F59",
"!M.	c #A6967D",
"~M.	c #A4937A",
"{M.	c #9B8B73",
"]M.	c #94836B",
"^M.	c #A08E73",
"/M.	c #9D8A6D",
"(M.	c #9E8B6F",
"_M.	c #958467",
":M.	c #887860",
"<M.	c #86765F",
"[M.	c #7D6D57",
"}M.	c #82735E",
"|M.	c #3B352D",
"1M.	c #766E66",
"2M.	c #30312D",
"3M.	c #070406",
"4M.	c #140908",
"5M.	c #2D1910",
"6M.	c #583D2A",
"7M.	c #7D6147",
"8M.	c #8B735B",
"9M.	c #50504A",
"0M.	c #9C907C",
"aM.	c #B9A990",
"bM.	c #B7A78E",
"cM.	c #B3A28A",
"dM.	c #B2A089",
"eM.	c #BAA991",
"fM.	c #BDAD94",
"gM.	c #BAAB94",
"hM.	c #A79B88",
"iM.	c #564E45",
"jM.	c #545148",
"kM.	c #7C776B",
"lM.	c #918B7D",
"mM.	c #888378",
"nM.	c #5A5951",
"oM.	c #47403A",
"pM.	c #4F463E",
"qM.	c #584D46",
"rM.	c #61554D",
"sM.	c #63574E",
"tM.	c #44403A",
"uM.	c #3C3A3C",
"vM.	c #333236",
"wM.	c #2E2A26",
"xM.	c #645848",
"yM.	c #645746",
"zM.	c #645745",
"AM.	c #7F6E59",
"BM.	c #A5947A",
"CM.	c #BAA88D",
"DM.	c #C3B297",
"EM.	c #C2B094",
"FM.	c #A29072",
"GM.	c #9A896C",
"HM.	c #96856B",
"IM.	c #766955",
"JM.	c #6B604F",
"KM.	c #5A5141",
"LM.	c #483F33",
"MM.	c #1E1B14",
"NM.	c #64605E",
"OM.	c #2C2F2F",
"PM.	c #090506",
"QM.	c #170B08",
"RM.	c #30170B",
"SM.	c #624026",
"TM.	c #8F6948",
"UM.	c #9E7E5F",
"VM.	c #927F68",
"WM.	c #736C5F",
"XM.	c #4C4D49",
"YM.	c #8F8477",
"ZM.	c #A49785",
"`M.	c #A39683",
" N.	c #A09280",
".N.	c #9F907E",
"+N.	c #A49581",
"@N.	c #A59682",
"#N.	c #A79984",
"$N.	c #A29582",
"%N.	c #938877",
"&N.	c #70685A",
"*N.	c #4F483F",
"=N.	c #6C675C",
"-N.	c #7C7569",
";N.	c #736D64",
">N.	c #1C1C18",
",N.	c #151614",
"'N.	c #161715",
")N.	c #584F49",
"!N.	c #584E46",
"~N.	c #584E44",
"{N.	c #5B5047",
"]N.	c #5C5249",
"^N.	c #373639",
"/N.	c #615547",
"(N.	c #857460",
"_N.	c #80705C",
":N.	c #776754",
"<N.	c #6A5D49",
"[N.	c #695B48",
"}N.	c #6A5C48",
"|N.	c #A4947A",
"1N.	c #A7967D",
"2N.	c #A4937B",
"3N.	c #A8987C",
"4N.	c #D0BEA3",
"5N.	c #D8C6AC",
"6N.	c #D4C2A7",
"7N.	c #AC987C",
"8N.	c #A79476",
"9N.	c #9D8D76",
"0N.	c #7E7059",
"aN.	c #84745F",
"bN.	c #867762",
"cN.	c #786D59",
"dN.	c #595143",
"eN.	c #221F18",
"fN.	c #07090B",
"gN.	c #736D68",
"hN.	c #373A38",
"iN.	c #383B3B",
"jN.	c #0B0608",
"kN.	c #190C0A",
"lN.	c #33180A",
"mN.	c #644024",
"nN.	c #916844",
"oN.	c #9F7B5A",
"pN.	c #6E6759",
"qN.	c #2B2E31",
"rN.	c #655E58",
"sN.	c #70675D",
"tN.	c #6F675C",
"uN.	c #706559",
"vN.	c #736759",
"wN.	c #3B3632",
"xN.	c #534C45",
"yN.	c #48463F",
"zN.	c #585049",
"AN.	c #453D37",
"BN.	c #070808",
"CN.	c #6C615A",
"DN.	c #645951",
"EN.	c #554B43",
"FN.	c #484039",
"GN.	c #342E27",
"HN.	c #8A7A66",
"IN.	c #907E68",
"JN.	c #8B7863",
"KN.	c #83705C",
"LN.	c #7B6956",
"MN.	c #71624F",
"NN.	c #6E5F4C",
"ON.	c #6B5B49",
"PN.	c #A29279",
"QN.	c #A6947D",
"RN.	c #A5947C",
"SN.	c #AF9D82",
"TN.	c #C3B197",
"UN.	c #D7C6AC",
"VN.	c #E0CEB4",
"WN.	c #DBC9AF",
"XN.	c #AF9B7F",
"YN.	c #A69376",
"ZN.	c #A89577",
"`N.	c #A79578",
" O.	c #AA9A80",
".O.	c #8C7C66",
"+O.	c #998973",
"@O.	c #8D7F6B",
"#O.	c #736553",
"$O.	c #5D5346",
"%O.	c #6D6B63",
"&O.	c #514A45",
"*O.	c #726A64",
"=O.	c #756F6B",
"-O.	c #0D0708",
";O.	c #1A0D09",
">O.	c #633E22",
",O.	c #8E6441",
"'O.	c #9C7958",
")O.	c #8E7860",
"!O.	c #6C6457",
"~O.	c #272B2E",
"{O.	c #25282C",
"]O.	c #4C4743",
"^O.	c #4F4840",
"/O.	c #504840",
"(O.	c #39342E",
"_O.	c #1B1817",
":O.	c #2C2827",
"<O.	c #3C3634",
"[O.	c #3E3935",
"}O.	c #4E4D46",
"|O.	c #4B4B45",
"1O.	c #655F56",
"2O.	c #746C64",
"3O.	c #675D55",
"4O.	c #564D45",
"5O.	c #38332D",
"6O.	c #1C1916",
"7O.	c #2E2A25",
"8O.	c #6B5E4D",
"9O.	c #97846D",
"0O.	c #897761",
"aO.	c #7F6D59",
"bO.	c #766652",
"cO.	c #6D5D4B",
"dO.	c #6D5E4A",
"eO.	c #71624D",
"fO.	c #7C6C57",
"gO.	c #A3937A",
"hO.	c #A99980",
"iO.	c #A89980",
"jO.	c #A6977E",
"kO.	c #A5957C",
"lO.	c #A7957B",
"mO.	c #C5B399",
"nO.	c #DAC8AD",
"oO.	c #E2D1B6",
"pO.	c #DECCB2",
"qO.	c #CBB99D",
"rO.	c #A89679",
"sO.	c #AC9A7C",
"tO.	c #AF9C7E",
"uO.	c #A89779",
"vO.	c #AB9A7E",
"wO.	c #A5967D",
"xO.	c #8C7D68",
"yO.	c #93836D",
"zO.	c #95866E",
"AO.	c #978974",
"BO.	c #252328",
"CO.	c #716F67",
"DO.	c #76736B",
"EO.	c #726A63",
"FO.	c #79726B",
"GO.	c #77716C",
"HO.	c #3B3B36",
"IO.	c #575855",
"JO.	c #191917",
"KO.	c #0E0808",
"LO.	c #1B0E09",
"MO.	c #341A0A",
"NO.	c #603E22",
"OO.	c #896441",
"PO.	c #997958",
"QO.	c #8D7960",
"RO.	c #292D2F",
"SO.	c #262A2C",
"TO.	c #524C44",
"UO.	c #655E56",
"VO.	c #645C53",
"WO.	c #49403B",
"XO.	c #57504C",
"YO.	c #645F5D",
"ZO.	c #060707",
"`O.	c #6C645C",
" P.	c #60574F",
".P.	c #554C45",
"+P.	c #3F362B",
"@P.	c #998570",
"#P.	c #95826C",
"$P.	c #897762",
"%P.	c #7D6C58",
"&P.	c #746451",
"*P.	c #726150",
"=P.	c #70604F",
"-P.	c #726450",
";P.	c #A09077",
">P.	c #A8977E",
",P.	c #A8987F",
"'P.	c #A59479",
")P.	c #AC9B7F",
"!P.	c #BFAE92",
"~P.	c #D6C4A8",
"{P.	c #E1CFB3",
"]P.	c #DCCBAF",
"^P.	c #A79577",
"/P.	c #AD9B7D",
"(P.	c #A89678",
"_P.	c #A79679",
":P.	c #A9997D",
"<P.	c #AB9C81",
"[P.	c #A3957C",
"}P.	c #8C7F68",
"|P.	c #837560",
"1P.	c #8A7C67",
"2P.	c #9F9078",
"3P.	c #978975",
"4P.	c #796C5A",
"5P.	c #5A5953",
"6P.	c #676562",
"7P.	c #363832",
"8P.	c #383932",
"9P.	c #34302B",
"0P.	c #1B0F09",
"aP.	c #321C0D",
"bP.	c #5A3D25",
"cP.	c #806043",
"dP.	c #8F7459",
"eP.	c #85745E",
"fP.	c #57534A",
"gP.	c #534940",
"hP.	c #4F453B",
"iP.	c #52483F",
"jP.	c #595049",
"kP.	c #584F47",
"lP.	c #3F362A",
"mP.	c #9C8972",
"nP.	c #99856E",
"oP.	c #6D5F4C",
"pP.	c #6E604E",
"qP.	c #776955",
"rP.	c #85765E",
"sP.	c #A08F76",
"tP.	c #A39177",
"uP.	c #A59476",
"vP.	c #B7A688",
"wP.	c #CEBC9E",
"xP.	c #D8C5A9",
"yP.	c #C2AF92",
"zP.	c #9F8D70",
"AP.	c #A39174",
"BP.	c #9E8D70",
"CP.	c #A8997F",
"DP.	c #9A8C76",
"EP.	c #736653",
"FP.	c #988871",
"GP.	c #938671",
"HP.	c #756A58",
"IP.	c #6F6861",
"JP.	c #3D3E38",
"KP.	c #3E3E36",
"LP.	c #3F3D36",
"MP.	c #4E4741",
"NP.	c #4B433B",
"OP.	c #4C3E31",
"PP.	c #4E3E30",
"QP.	c #4A3C2E",
"RP.	c #43362A",
"SP.	c #362D24",
"TP.	c #0F0F0C",
"UP.	c #19120C",
"VP.	c #2D2114",
"WP.	c #4D3C2C",
"XP.	c #6B5844",
"YP.	c #766552",
"ZP.	c #5F584F",
"`P.	c #313135",
" Q.	c #2C2A2E",
".Q.	c #3D3C37",
"+Q.	c #7F7769",
"@Q.	c #5B5147",
"#Q.	c #453C34",
"$Q.	c #383029",
"%Q.	c #675D53",
"&Q.	c #7D776E",
"*Q.	c #58514B",
"=Q.	c #554D45",
"-Q.	c #3F3529",
";Q.	c #9D8972",
">Q.	c #9A856F",
",Q.	c #8F7B66",
"'Q.	c #786854",
")Q.	c #5A4E3B",
"!Q.	c #5E5140",
"~Q.	c #685947",
"{Q.	c #685A45",
"]Q.	c #786851",
"^Q.	c #8D7B63",
"/Q.	c #9A8971",
"(Q.	c #9E8D75",
"_Q.	c #9B886D",
":Q.	c #D1BC9F",
"<Q.	c #CEB99D",
"[Q.	c #9F8B6E",
"}Q.	c #968366",
"|Q.	c #99866A",
"1Q.	c #98876B",
"2Q.	c #948366",
"3Q.	c #A3937C",
"4Q.	c #928370",
"5Q.	c #6F624D",
"6Q.	c #7A6B56",
"7Q.	c #92836E",
"8Q.	c #51493D",
"9Q.	c #423B31",
"0Q.	c #3A3933",
"aQ.	c #6E6760",
"bQ.	c #413E35",
"cQ.	c #3F3A32",
"dQ.	c #3F342D",
"eQ.	c #41342A",
"fQ.	c #473628",
"gQ.	c #543C2A",
"hQ.	c #61412C",
"iQ.	c #69452D",
"jQ.	c #66442C",
"kQ.	c #593E29",
"lQ.	c #443121",
"mQ.	c #281E14",
"nQ.	c #110E0A",
"oQ.	c #26221A",
"pQ.	c #443E35",
"qQ.	c #716A62",
"rQ.	c #676156",
"sQ.	c #080A10",
"tQ.	c #020309",
"uQ.	c #010108",
"vQ.	c #040309",
"wQ.	c #625B53",
"xQ.	c #7E7569",
"yQ.	c #928877",
"zQ.	c #7F7565",
"AQ.	c #2F2620",
"BQ.	c #1B130F",
"CQ.	c #322821",
"DQ.	c #54493F",
"EQ.	c #6F6458",
"FQ.	c #564F49",
"GQ.	c #363631",
"HQ.	c #32332F",
"IQ.	c #322B23",
"JQ.	c #70614F",
"KQ.	c #9E8A73",
"LQ.	c #9B8770",
"MQ.	c #8F7C67",
"NQ.	c #726250",
"OQ.	c #534636",
"PQ.	c #483D2C",
"QQ.	c #574B3A",
"RQ.	c #5A4D3B",
"SQ.	c #574938",
"TQ.	c #554734",
"UQ.	c #675843",
"VQ.	c #9A8972",
"WQ.	c #9C8A72",
"XQ.	c #9C886C",
"YQ.	c #AB987B",
"ZQ.	c #CEBA9C",
"`Q.	c #CCB89A",
" R.	c #9F8A6E",
".R.	c #948165",
"+R.	c #968368",
"@R.	c #958368",
"#R.	c #8F7D62",
"$R.	c #8C7A5F",
"%R.	c #938368",
"&R.	c #A2937B",
"*R.	c #90816E",
"=R.	c #544A3C",
"-R.	c #4F463A",
";R.	c #222428",
">R.	c #736E67",
",R.	c #4D4C44",
"'R.	c #423F36",
")R.	c #353129",
"!R.	c #332B24",
"~R.	c #32251E",
"{R.	c #342318",
"]R.	c #412A1A",
"^R.	c #5C3722",
"/R.	c #734327",
"(R.	c #7E4928",
"_R.	c #7A4827",
":R.	c #694024",
"<R.	c #4E321C",
"[R.	c #2D1E10",
"}R.	c #120E09",
"|R.	c #181814",
"1R.	c #24241F",
"2R.	c #857E73",
"3R.	c #847C70",
"4R.	c #746D61",
"5R.	c #03020B",
"6R.	c #373435",
"7R.	c #262325",
"8R.	c #36342E",
"9R.	c #6B675F",
"0R.	c #58524B",
"aR.	c #564F48",
"bR.	c #786D61",
"cR.	c #7D7160",
"dR.	c #2A221A",
"eR.	c #0C0605",
"fR.	c #0E0705",
"gR.	c #4E433B",
"hR.	c #5D574E",
"iR.	c #5C584F",
"jR.	c #2F302B",
"kR.	c #2D2E2A",
"lR.	c #2A2B28",
"mR.	c #292420",
"nR.	c #302923",
"oR.	c #3E3428",
"pR.	c #716250",
"qR.	c #9E8A72",
"rR.	c #9B876F",
"sR.	c #8D7B65",
"tR.	c #4C3F32",
"uR.	c #423628",
"vR.	c #544734",
"wR.	c #564835",
"xR.	c #695B47",
"yR.	c #9C8A71",
"zR.	c #9B896C",
"AR.	c #CFBC9E",
"BR.	c #CDBB9D",
"CR.	c #A59074",
"DR.	c #998669",
"ER.	c #A1937A",
"FR.	c #615444",
"GR.	c #504538",
"HR.	c #6D665E",
"IR.	c #53534D",
"JR.	c #2A2521",
"KR.	c #2B1B12",
"LR.	c #3C2213",
"MR.	c #5B321E",
"NR.	c #744024",
"OR.	c #7F4623",
"PR.	c #7B4521",
"QR.	c #6B3E1F",
"RR.	c #502F18",
"SR.	c #2C1B0E",
"TR.	c #110B07",
"UR.	c #1C1C19",
"VR.	c #292A26",
"WR.	c #918A7D",
"XR.	c #908779",
"YR.	c #7C7367",
"ZR.	c #04040D",
"`R.	c #05040B",
" S.	c #3D3D36",
".S.	c #6B665D",
"+S.	c #5B5349",
"@S.	c #796E5E",
"#S.	c #736857",
"$S.	c #312A20",
"%S.	c #100905",
"&S.	c #4E433A",
"*S.	c #6C6256",
"=S.	c #786F62",
"-S.	c #7C756A",
";S.	c #2F2923",
">S.	c #3D3428",
",S.	c #A08D74",
"'S.	c #645747",
")S.	c #43382D",
"!S.	c #3E3429",
"~S.	c #554939",
"{S.	c #4F4230",
"]S.	c #524432",
"^S.	c #7C6D5A",
"/S.	c #91836D",
"(S.	c #94846C",
"_S.	c #907F65",
":S.	c #B7A389",
"<S.	c #C2AF95",
"[S.	c #AF9C80",
"}S.	c #948773",
"|S.	c #8E816F",
"1S.	c #756959",
"2S.	c #443B31",
"3S.	c #807260",
"4S.	c #877966",
"5S.	c #4E4437",
"6S.	c #494035",
"7S.	c #6F6760",
"8S.	c #797268",
"9S.	c #757069",
"0S.	c #484945",
"aS.	c #4C4E48",
"bS.	c #454741",
"cS.	c #211C1A",
"dS.	c #261B15",
"eS.	c #372216",
"fS.	c #522F1E",
"gS.	c #673A22",
"hS.	c #714022",
"iS.	c #6F3F20",
"jS.	c #61391D",
"kS.	c #482C17",
"lS.	c #28190D",
"mS.	c #1D1C18",
"nS.	c #7A766C",
"oS.	c #958D7E",
"pS.	c #666056",
"qS.	c #59574E",
"rS.	c #06070E",
"sS.	c #343132",
"tS.	c #2A2728",
"uS.	c #4F463B",
"vS.	c #4E4438",
"wS.	c #52483A",
"xS.	c #52473A",
"yS.	c #40362C",
"zS.	c #292119",
"AS.	c #1D150F",
"BS.	c #261F17",
"CS.	c #443C32",
"DS.	c #666055",
"ES.	c #1F1B19",
"FS.	c #3C3428",
"GS.	c #A5937C",
"HS.	c #A7927A",
"IS.	c #A49179",
"JS.	c #90806B",
"KS.	c #574B3E",
"LS.	c #261E16",
"MS.	c #4F4436",
"NS.	c #6E5F4D",
"OS.	c #5C503F",
"PS.	c #84725D",
"QS.	c #826E58",
"RS.	c #8A7761",
"SS.	c #8F7C68",
"TS.	c #756249",
"US.	c #735E48",
"VS.	c #6F5C46",
"WS.	c #64533E",
"XS.	c #584A36",
"YS.	c #524535",
"ZS.	c #685E51",
"`S.	c #695E4F",
" T.	c #55493C",
".T.	c #4E4337",
"+T.	c #29221C",
"@T.	c #19150F",
"#T.	c #73695B",
"$T.	c #AD9F8E",
"%T.	c #B6A795",
"&T.	c #A49684",
"*T.	c #786D5D",
"=T.	c #3B3D39",
"-T.	c #1E2125",
";T.	c #1A1D21",
">T.	c #221B1A",
",T.	c #2D1F1A",
"'T.	c #3B241B",
")T.	c #45281A",
"!T.	c #4B2A1A",
"~T.	c #4A2A19",
"{T.	c #432818",
"]T.	c #342114",
"^T.	c #20150D",
"/T.	c #0F0907",
"(T.	c #151411",
"_T.	c #918A7E",
":T.	c #928B7D",
"<T.	c #222020",
"[T.	c #36322D",
"}T.	c #3B342D",
"|T.	c #30281F",
"1T.	c #31281E",
"2T.	c #53493B",
"3T.	c #363028",
"4T.	c #333029",
"5T.	c #292623",
"6T.	c #1D1A18",
"7T.	c #615E57",
"8T.	c #242421",
"9T.	c #3B3528",
"0T.	c #AF9F85",
"aT.	c #988873",
"bT.	c #130E09",
"cT.	c #17120D",
"dT.	c #5C5243",
"eT.	c #978973",
"fT.	c #AA9A82",
"gT.	c #A29580",
"hT.	c #706757",
"iT.	c #322A20",
"jT.	c #221C14",
"kT.	c #322A1E",
"lT.	c #8B7864",
"mT.	c #917D68",
"nT.	c #71614C",
"oT.	c #544636",
"pT.	c #45392C",
"qT.	c #3F3527",
"rT.	c #85735C",
"sT.	c #A38E77",
"tT.	c #A08C75",
"uT.	c #8B7A64",
"vT.	c #655745",
"wT.	c #3C3224",
"xT.	c #332D23",
"yT.	c #3A352C",
"zT.	c #887A6B",
"AT.	c #7F7263",
"BT.	c #5C5247",
"CT.	c #2A241E",
"DT.	c #28251E",
"ET.	c #847B6E",
"FT.	c #CDBFAB",
"GT.	c #BCAE9B",
"HT.	c #000104",
"IT.	c #837B72",
"JT.	c #706E67",
"KT.	c #242726",
"LT.	c #171C1F",
"MT.	c #14181C",
"NT.	c #231F20",
"OT.	c #282020",
"PT.	c #271C1A",
"QT.	c #241512",
"RT.	c #24140F",
"ST.	c #24150F",
"TT.	c #241711",
"UT.	c #1F1610",
"VT.	c #0E0A0A",
"WT.	c #807A70",
"XT.	c #837D72",
"YT.	c #292B27",
"ZT.	c #211E20",
"`T.	c #201E1B",
" U.	c #23201E",
".U.	c #3C362B",
"+U.	c #18130F",
"@U.	c #1A1615",
"#U.	c #67625A",
"$U.	c #222024",
"%U.	c #282522",
"&U.	c #393227",
"*U.	c #AF9E85",
"=U.	c #B49F85",
"-U.	c #B09B83",
";U.	c #9C8B76",
">U.	c #A99A82",
",U.	c #C7B59E",
"'U.	c #BCAD99",
")U.	c #1B160E",
"!U.	c #9D8B78",
"~U.	c #9F8D77",
"{U.	c #796C59",
"]U.	c #393025",
"^U.	c #100B05",
"/U.	c #0A0400",
"(U.	c #C8B39C",
"_U.	c #C4B198",
":U.	c #AF9E86",
"<U.	c #837462",
"[U.	c #443C35",
"}U.	c #897C6E",
"|U.	c #A39582",
"1U.	c #988977",
"2U.	c #2C2720",
"3U.	c #877E71",
"4U.	c #C3B5A4",
"5U.	c #CABCA9",
"6U.	c #BDAF9D",
"7U.	c #8D8072",
"8U.	c #584D43",
"9U.	c #413931",
"0U.	c #3E3B3B",
"aU.	c #5A534D",
"bU.	c #867C73",
"cU.	c #878077",
"dU.	c #181B1F",
"eU.	c #1B1D20",
"fU.	c #2B2729",
"gU.	c #211C1F",
"hU.	c #140E11",
"iU.	c #0E090C",
"jU.	c #0F090D",
"kU.	c #120E10",
"lU.	c #5C5950",
"mU.	c #070908",
"nU.	c #1D1E1C",
"oU.	c #4A473F",
"pU.	c #413D33",
"qU.	c #454237",
"rU.	c #4F4A3E",
"sU.	c #231F1A",
"tU.	c #151211",
"uU.	c #5D5B53",
"vU.	c #636159",
"wU.	c #514943",
"xU.	c #46403B",
"yU.	c #7A6F5A",
"zU.	c #B19C83",
"AU.	c #574C40",
"BU.	c #130E0A",
"CU.	c #B1A28A",
"DU.	c #CDBAA2",
"EU.	c #C0B19C",
"FU.	c #807668",
"GU.	c #211F18",
"HU.	c #706457",
"IU.	c #A3917E",
"JU.	c #B29E88",
"KU.	c #A99782",
"LU.	c #B9A693",
"MU.	c #D4BFA7",
"NU.	c #D0BCA2",
"OU.	c #BFAC94",
"PU.	c #948373",
"QU.	c #928476",
"RU.	c #AF9E8C",
"SU.	c #A39380",
"TU.	c #736559",
"UU.	c #2E2721",
"VU.	c #8C8274",
"WU.	c #C1B4A2",
"XU.	c #C7B9A5",
"YU.	c #BAAD9A",
"ZU.	c #8C8171",
"`U.	c #12121B",
" V.	c #03050A",
".V.	c #898075",
"+V.	c #8C857B",
"@V.	c #2B2D29",
"#V.	c #090A09",
"$V.	c #242523",
"%V.	c #49473E",
"&V.	c #44423A",
"*V.	c #151412",
"=V.	c #58504A",
"-V.	c #4F4A46",
";V.	c #25272A",
">V.	c #332F25",
",V.	c #A99A81",
"'V.	c #AE9A7F",
")V.	c #96866F",
"!V.	c #544A3D",
"~V.	c #16100C",
"{V.	c #221B14",
"]V.	c #716656",
"^V.	c #CBB69C",
"/V.	c #CEBAA2",
"(V.	c #C0B09A",
"_V.	c #252219",
":V.	c #3B322B",
"<V.	c #7F7161",
"[V.	c #AA9782",
"}V.	c #B7A28C",
"|V.	c #B19D88",
"1V.	c #0D0A05",
"2V.	c #C6B49F",
"3V.	c #D7C2A9",
"4V.	c #D1BDA3",
"5V.	c #C5B198",
"6V.	c #A18F7D",
"7V.	c #A19182",
"8V.	c #B9A792",
"9V.	c #AE9D89",
"0V.	c #807162",
"aV.	c #3A3128",
"bV.	c #17110A",
"cV.	c #8E8374",
"dV.	c #BBAD9B",
"eV.	c #BFB19D",
"fV.	c #867C6B",
"gV.	c #50473B",
"hV.	c #342D24",
"iV.	c #2A261E",
"jV.	c #1A1610",
"kV.	c #49473F",
"lV.	c #10101A",
"mV.	c #221E1C",
"nV.	c #837A6E",
"oV.	c #77736A",
"pV.	c #090810",
"qV.	c #02020A",
"rV.	c #03030C",
"sV.	c #070711",
"tV.	c #0A0B0A",
"uV.	c #1C1E1E",
"vV.	c #302F34",
"wV.	c #544E48",
"xV.	c #6C635B",
"yV.	c #322E24",
"zV.	c #A6987F",
"AV.	c #AA967C",
"BV.	c #211A15",
"CV.	c #2D251D",
"DV.	c #B8A78F",
"EV.	c #C4B49D",
"FV.	c #8C8170",
"GV.	c #675C4F",
"HV.	c #B6A38D",
"IV.	c #BDA891",
"JV.	c #BAA790",
"KV.	c #A0907C",
"LV.	c #D1BFA7",
"MV.	c #D8C3AA",
"NV.	c #D4C0A5",
"OV.	c #CAB59C",
"PV.	c #AE9C87",
"QV.	c #211D15",
"RV.	c #6D6458",
"SV.	c #B5A593",
"TV.	c #C5B39C",
"UV.	c #978774",
"VV.	c #5D5144",
"WV.	c #40362B",
"XV.	c #988C7B",
"YV.	c #B8AA96",
"ZV.	c #817667",
"`V.	c #302D2B",
" W.	c #010205",
".W.	c #756D62",
"+W.	c #7F7669",
"@W.	c #847D6F",
"#W.	c #010006",
"$W.	c #05050D",
"%W.	c #0D0E0C",
"&W.	c #080A0A",
"*W.	c #36353B",
"=W.	c #353539",
"-W.	c #5A524B",
";W.	c #6A6158",
">W.	c #73695F",
",W.	c #70675F",
"'W.	c #A3957D",
")W.	c #574C3F",
"!W.	c #29211B",
"~W.	c #332A21",
"{W.	c #796D5C",
"]W.	c #B7A78F",
"^W.	c #D2BEA4",
"/W.	c #CAB9A2",
"(W.	c #9C8F7E",
"_W.	c #585044",
":W.	c #B2A18A",
"<W.	c #C3AE96",
"[W.	c #C5AF96",
"}W.	c #877B6B",
"|W.	c #655B50",
"1W.	c #746A5A",
"2W.	c #D4C1A8",
"3W.	c #D8C2A9",
"4W.	c #D3BEA4",
"5W.	c #7F7261",
"6W.	c #332E23",
"7W.	c #3A352B",
"8W.	c #BFAE9A",
"9W.	c #C9B69E",
"0W.	c #C2AF97",
"aW.	c #A89683",
"bW.	c #736858",
"cW.	c #A09481",
"dW.	c #B6A793",
"eW.	c #AD9F8D",
"fW.	c #271F19",
"gW.	c #110F16",
"hW.	c #19161A",
"iW.	c #565751",
"jW.	c #1F1E26",
"kW.	c #746A60",
"lW.	c #7C7164",
"mW.	c #433E3B",
"nW.	c #020208",
"oW.	c #0C0D16",
"pW.	c #171821",
"qW.	c #1A1A23",
"rW.	c #414042",
"sW.	c #313036",
"tW.	c #110F0F",
"uW.	c #6F655C",
"vW.	c #312E25",
"wW.	c #706855",
"xW.	c #9C9078",
"yW.	c #51483B",
"zW.	c #766B5A",
"AW.	c #C9B9A3",
"BW.	c #9E9281",
"CW.	c #493F31",
"DW.	c #847766",
"EW.	c #B7A58E",
"FW.	c #C9B49A",
"GW.	c #C4B097",
"HW.	c #AE9D88",
"IW.	c #857968",
"JW.	c #D4BEA4",
"KW.	c #CCB79D",
"LW.	c #B7A38D",
"MW.	c #837563",
"NW.	c #393327",
"OW.	c #BDAD98",
"PW.	c #C6B49C",
"QW.	c #BEAB94",
"RW.	c #A2927F",
"SW.	c #7A6D5E",
"TW.	c #9B8F7C",
"UW.	c #B1A48F",
"VW.	c #B4A692",
"WW.	c #AC9E8D",
"XW.	c #453D34",
"YW.	c #100D10",
"ZW.	c #595A56",
"`W.	c #585955",
" X.	c #555652",
".X.	c #807768",
"+X.	c #181922",
"@X.	c #1D1B1B",
"#X.	c #232020",
"$X.	c #413D3C",
"%X.	c #5C544E",
"&X.	c #1C1A20",
"*X.	c #5C5545",
"=X.	c #807660",
"-X.	c #7C6D59",
";X.	c #1B1510",
">X.	c #211A11",
",X.	c #A3947E",
"'X.	c #BCAB92",
")X.	c #BEAC95",
"!X.	c #B2A38F",
"~X.	c #877D6D",
"{X.	c #3A3125",
"]X.	c #B3A18A",
"^X.	c #C7B198",
"/X.	c #C9B199",
"(X.	c #C3AE97",
"_X.	c #A99884",
":X.	c #998C78",
"<X.	c #CCB9A2",
"[X.	c #D7C0A8",
"}X.	c #B6A28C",
"|X.	c #363027",
"1X.	c #786D5F",
"2X.	c #B19F8C",
"3X.	c #B9A690",
"4X.	c #AF9C86",
"5X.	c #8D7E6D",
"6X.	c #827565",
"7X.	c #968977",
"8X.	c #998C7A",
"9X.	c #908475",
"0X.	c #0D0A0E",
"aX.	c #5A5B58",
"bX.	c #595A57",
"cX.	c #585956",
"dX.	c #545552",
"eX.	c #4D4F4C",
"fX.	c #4A443C",
"gX.	c #6F6758",
"hX.	c #7A705F",
"iX.	c #7C7464",
"jX.	c #494749",
"kX.	c #4B4849",
"lX.	c #0A0A14",
"mX.	c #48433E",
"nX.	c #191712",
"oX.	c #443E31",
"pX.	c #665847",
"qX.	c #625443",
"rX.	c #2E261E",
"sX.	c #100A07",
"tX.	c #140E08",
"uX.	c #4E4536",
"vX.	c #A4937D",
"wX.	c #342B1F",
"xX.	c #7A6D5C",
"yX.	c #B3A189",
"zX.	c #C8B297",
"AX.	c #C9B298",
"BX.	c #C4AF96",
"CX.	c #A89782",
"DX.	c #706556",
"EX.	c #3A3327",
"FX.	c #4B4436",
"GX.	c #CBB8A0",
"HX.	c #D6C1A7",
"IX.	c #D2BDA3",
"JX.	c #CAB59B",
"KX.	c #B5A28B",
"LX.	c #332D20",
"MX.	c #2F2B21",
"NX.	c #AE9B84",
"OX.	c #A08D77",
"PX.	c #2F281E",
"QX.	c #3C3328",
"RX.	c #5C5144",
"SX.	c #6D6052",
"TX.	c #5E5F5D",
"UX.	c #626260",
"VX.	c #5F605D",
"WX.	c #5A5C59",
"XX.	c #565047",
"YX.	c #252623",
"ZX.	c #3F3E42",
"`X.	c #4B4A4D",
" Y.	c #504E4F",
".Y.	c #525050",
"+Y.	c #0A0910",
"@Y.	c #13120E",
"#Y.	c #3C372D",
"$Y.	c #5C5042",
"%Y.	c #2C251E",
"&Y.	c #827461",
"*Y.	c #9F8F7A",
"=Y.	c #948674",
"-Y.	c #706759",
";Y.	c #3F3A30",
">Y.	c #393125",
",Y.	c #B19F87",
"'Y.	c #C7B196",
")Y.	c #C9B196",
"!Y.	c #C3AD94",
"~Y.	c #A79681",
"{Y.	c #383125",
"]Y.	c #474033",
"^Y.	c #8F8370",
"/Y.	c #C8B69E",
"(Y.	c #D5C0A6",
"_Y.	c #D1BDA2",
":Y.	c #B7A48D",
"<Y.	c #302C21",
"[Y.	c #9F8E7B",
"}Y.	c #A8957E",
"|Y.	c #9C8973",
"1Y.	c #756655",
"2Y.	c #2A241B",
"3Y.	c #312B21",
"4Y.	c #564A3D",
"5Y.	c #56493C",
"6Y.	c #4C4136",
"7Y.	c #382F27",
"8Y.	c #14121A",
"9Y.	c #5E5F5C",
"0Y.	c #646562",
"aY.	c #656563",
"bY.	c #686866",
"cY.	c #646663",
"dY.	c #555755",
"eY.	c #141010",
"fY.	c #332C26",
"gY.	c #3E3E41",
"hY.	c #4A494D",
"iY.	c #504E50",
"jY.	c #595758",
"kY.	c #505150",
"lY.	c #0C0D0D",
"mY.	c #2F2E2A",
"nY.	c #413D3D",
"oY.	c #222025",
"pY.	c #38352C",
"qY.	c #5A5244",
"rY.	c #0F0B09",
"sY.	c #100C07",
"tY.	c #41382D",
"uY.	c #978A74",
"vY.	c #9B8D79",
"wY.	c #433E34",
"xY.	c #3D3629",
"yY.	c #AC9B85",
"zY.	c #C3AE93",
"AY.	c #C6AF95",
"BY.	c #C0AB93",
"CY.	c #A39480",
"DY.	c #6D6454",
"EY.	c #363024",
"FY.	c #443D30",
"GY.	c #8C806E",
"HY.	c #C7B69F",
"IY.	c #D6C3A9",
"JY.	c #D3C0A6",
"KY.	c #B9A892",
"LY.	c #463F30",
"MY.	c #383327",
"NY.	c #685F50",
"OY.	c #988875",
"PY.	c #726553",
"QY.	c #413A2E",
"RY.	c #27231A",
"SY.	c #51463A",
"TY.	c #5C5E59",
"UY.	c #62635F",
"VY.	c #656663",
"WY.	c #6A6A68",
"XY.	c #696A68",
"YY.	c #292B29",
"ZY.	c #131011",
"`Y.	c #484036",
" Z.	c #615A4F",
".Z.	c #2A2725",
"+Z.	c #403F43",
"@Z.	c #4E4C4E",
"#Z.	c #585657",
"$Z.	c #0C0E0E",
"%Z.	c #0B0A12",
"&Z.	c #413F3F",
"*Z.	c #47423E",
"=Z.	c #21221F",
"-Z.	c #48433D",
";Z.	c #312D28",
">Z.	c #4C453C",
",Z.	c #3D372F",
"'Z.	c #0C0804",
")Z.	c #7F7564",
"!Z.	c #756D5F",
"~Z.	c #585349",
"{Z.	c #332F28",
"]Z.	c #302A1F",
"^Z.	c #AD9A81",
"/Z.	c #B29D84",
"(Z.	c #AC9983",
"_Z.	c #8F816F",
":Z.	c #595245",
"<Z.	c #312D22",
"[Z.	c #B2A48E",
"}Z.	c #C5B49C",
"|Z.	c #C2B098",
"1Z.	c #726958",
"2Z.	c #3A3529",
"3Z.	c #2C281D",
"4Z.	c #534B3D",
"5Z.	c #493E34",
"6Z.	c #010004",
"7Z.	c #5A5B57",
"8Z.	c #5B5C58",
"9Z.	c #1F211F",
"0Z.	c #2F302C",
"aZ.	c #373630",
"bZ.	c #424144",
"cZ.	c #06040A",
"dZ.	c #433C31",
"eZ.	c #5C5348",
"fZ.	c #1B1710",
"gZ.	c #786B58",
"hZ.	c #907E67",
"iZ.	c #97836C",
"jZ.	c #907E6A",
"kZ.	c #0F0F0B",
"lZ.	c #15130D",
"mZ.	c #9E8E79",
"nZ.	c #877866",
"oZ.	c #433D31",
"pZ.	c #1C1A12",
"qZ.	c #15120B",
"rZ.	c #6A5A4A",
"sZ.	c #4B3F32",
"tZ.	c #231C15",
"uZ.	c #0A0705",
"vZ.	c #2E271D",
"wZ.	c #483E33",
"xZ.	c #4F4438",
"yZ.	c #25211B",
"zZ.	c #32332D",
"AZ.	c #2E2C2F",
"BZ.	c #454344",
"CZ.	c #525352",
"DZ.	c #4B4C4C",
"EZ.	c #252520",
"FZ.	c #4D4841",
"GZ.	c #635C53",
"HZ.	c #635C51",
"IZ.	c #171613",
"JZ.	c #443D34",
"KZ.	c #81705D",
"LZ.	c #5E5245",
"MZ.	c #040503",
"NZ.	c #3C362C",
"OZ.	c #887865",
"PZ.	c #7F6F5C",
"QZ.	c #6B5D4C",
"RZ.	c #231D15",
"SZ.	c #29241B",
"TZ.	c #685949",
"UZ.	c #615343",
"VZ.	c #42372B",
"WZ.	c #0D0905",
"XZ.	c #282219",
"YZ.	c #433A2F",
"ZZ.	c #4B4136",
"`Z.	c #19140E",
" `.	c #06080F",
".`.	c #262621",
"+`.	c #5F584E",
"@`.	c #615B4F",
"#`.	c #5C554A",
"$`.	c #0A0804",
"%`.	c #7F715D",
"&`.	c #867662",
"*`.	c #574D41",
"=`.	c #3B352C",
"-`.	c #847562",
";`.	c #706352",
">`.	c #504639",
",`.	c #251F16",
"'`.	c #383025",
")`.	c #14110B",
"!`.	c #362E26",
"~`.	c #14100C",
"{`.	c #171416",
"]`.	c #2E2F2B",
"^`.	c #2E2D31",
"/`.	c #0A0C0C",
"(`.	c #262722",
"_`.	c #574F46",
":`.	c #575148",
"<`.	c #171510",
"[`.	c #24211C",
"}`.	c #1D1C19",
"|`.	c #181610",
"1`.	c #726556",
"2`.	c #1F1B12",
"3`.	c #191711",
"4`.	c #383229",
"5`.	c #251F17",
"6`.	c #0B0804",
"7`.	c #17120C",
"8`.	c #1B1711",
"9`.	c #322E2A",
"0`.	c #332E2A",
"a`.	c #1B1717",
"b`.	c #665E52",
"c`.	c #2C2D29",
"d`.	c #3E3A39",
"e`.	c #373333",
"f`.	c #2F2C2C",
"g`.	c #130F0D",
"h`.	c #4A443B",
"i`.	c #27241B",
"j`.	c #332D24",
"k`.	c #090804",
"l`.	c #0F0C06",
"m`.	c #191510",
"n`.	c #1A150F",
"o`.	c #4B443B",
"p`.	c #2A2B27",
"q`.	c #242021",
"r`.	c #1E1A1C",
"s`.	c #555455",
"t`.	c #4B463F",
"u`.	c #4E453D",
"v`.	c #837768",
"w`.	c #786F63",
"x`.	c #252122",
"y`.	c #050604",
"z`.	c #332F2C",
"A`.	c #0A0C11",
"B`.	c #1D1816",
"C`.	c #4A423A",
"D`.	c #796D60",
"E`.	c #0D0705",
"F`.	c #120C07",
"G`.	c #150F0A",
"H`.	c #130F0C",
"I`.	c #090A12",
"J`.	c #1B1615",
"K`.	c #433B33",
"L`.	c #655D52",
"M`.	c #120A04",
"N`.	c #1F1408",
"O`.	c #2A1B0D",
"P`.	c #312214",
"Q`.	c #352718",
"R`.	c #2E2317",
"S`.	c #1D170F",
"T`.	c #0D0A09",
"U`.	c #36312D",
"V`.	c #23211E",
"W`.	c #554B40",
"X`.	c #5B5145",
"Y`.	c #564E4A",
"Z`.	c #120A05",
"``.	c #2E2113",
"  +	c #493821",
". +	c #5A4527",
"+ +	c #61492A",
"@ +	c #60492D",
"# +	c #4B3B25",
"$ +	c #271F11",
"% +	c #0B0603",
"& +	c #0E1011",
"* +	c #120F0D",
"= +	c #48433A",
"- +	c #04040C",
"; +	c #4F4844",
"> +	c #5B5248",
", +	c #665E56",
"' +	c #423D3C",
") +	c #413220",
"! +	c #685334",
"~ +	c #7C623A",
"{ +	c #81643A",
"] +	c #7C613D",
"^ +	c #5F4C31",
"/ +	c #2E2414",
"( +	c #0B0602",
"_ +	c #585247",
": +	c #48433B",
"< +	c #34302C",
"[ +	c #433D39",
"} +	c #6E655C",
"| +	c #150F08",
"1 +	c #423522",
"2 +	c #6C5839",
"3 +	c #816941",
"4 +	c #856B41",
"5 +	c #806744",
"6 +	c #625137",
"7 +	c #2D2415",
"8 +	c #120E0D",
"9 +	c #554F44",
"0 +	c #06060E",
"a +	c #504B49",
"b +	c #524C47",
"c +	c #675E57",
"d +	c #716962",
"e +	c #302819",
"f +	c #52452D",
"g +	c #655537",
"h +	c #6B593A",
"i +	c #68573D",
"j +	c #504430",
"k +	c #231C11",
"l +	c #534C44",
"m +	c #635A4F",
"n +	c #61584C",
"o +	c #635B4F",
"p +	c #564E44",
"q +	c #56504B",
"r +	c #665D56",
"s +	c #6D635C",
"t +	c #625B59",
"u +	c #454040",
"v +	c #271F13",
"w +	c #322919",
"x +	c #362C1D",
"y +	c #352D1F",
"z +	c #282218",
"A +	c #0E0C06",
"B +	c #474239",
"C +	c #544C43",
"D +	c #9D9281",
"E +	c #A09380",
"F +	c #9E927E",
"G +	c #A19583",
"H +	c #897F6E",
"I +	c #564F44",
"J +	c #333437",
"K +	c #655C54",
"L +	c #6B635A",
"M +	c #6D655E",
"N +	c #605A57",
"O +	c #443F3E",
"P +	c #171916",
"Q +	c #0B0803",
"R +	c #0D0803",
"S +	c #0C0803",
"T +	c #0B0703",
"U +	c #62594D",
"V +	c #A19686",
"W +	c #C9BCA8",
"X +	c #D0C0A8",
"Y +	c #CEBFA6",
"Z +	c #D0C1A9",
"` +	c #AEA28D",
" .+	c #7A705E",
"..+	c #5F574A",
"+.+	c #433E37",
"@.+	c #313237",
"#.+	c #35363A",
"$.+	c #05080E",
"%.+	c #1A1718",
"&.+	c #453F3B",
"*.+	c #696058",
"=.+	c #31322E",
"-.+	c #1E1F1C",
";.+	c #0C0905",
">.+	c #A89C89",
",.+	c #D2C4AD",
"'.+	c #DACAB1",
").+	c #D9C8AE",
"!.+	c #D7C7AB",
"~.+	c #D9C9AE",
"{.+	c #D8C7AF",
"].+	c #B3A58E",
"^.+	c #605544",
"/.+	c #5D5345",
"(.+	c #534B40",
"_.+	c #6A635B",
":.+	c #433E3C",
"<.+	c #26231E",
"[.+	c #2E2924",
"}.+	c #292521",
"|.+	c #201E19",
"1.+	c #1C1713",
"2.+	c #221D19",
"3.+	c #23201B",
"4.+	c #262326",
"5.+	c #585046",
"6.+	c #A39783",
"7.+	c #CFC0A6",
"8.+	c #CEBDA4",
"9.+	c #CDBCA1",
"0.+	c #CDBDA2",
"a.+	c #CBBAA2",
"b.+	c #1F1D22",
"c.+	c #05070C",
"d.+	c #0D0C14",
"e.+	c #151613",
"f.+	c #6A6057",
"g.+	c #6D655D",
"h.+	c #605A56",
"i.+	c #59524C",
"j.+	c #5D554E",
"k.+	c #504940",
"l.+	c #3A3732",
"m.+	c #5D564A",
"n.+	c #9C907A",
"o.+	c #BDAF97",
"p.+	c #C3B499",
"q.+	c #C1B198",
"r.+	c #C3B198",
"s.+	c #BEAE95",
"t.+	c #A0917A",
"u.+	c #736652",
"v.+	c #5D5344",
"w.+	c #030104",
"x.+	c #262429",
"y.+	c #14110F",
"z.+	c #232529",
"A.+	c #47413D",
"B.+	c #6D645A",
"C.+	c #625C58",
"D.+	c #6D6661",
"E.+	c #7C7670",
"F.+	c #71695E",
"G.+	c #7B7167",
"H.+	c #7E766A",
"I.+	c #7B7368",
"J.+	c #545047",
"K.+	c #5C5444",
"L.+	c #665C49",
"M.+	c #968A74",
"N.+	c #BAAC93",
"O.+	c #C1B298",
"P.+	c #C1B197",
"Q.+	c #C2B299",
"R.+	c #C0B097",
"S.+	c #A0917B",
"T.+	c #0E1112",
"U.+	c #16141A",
"V.+	c #090C12",
"W.+	c #817973",
"X.+	c #837A73",
"Y.+	c #847B74",
"Z.+	c #837A74",
"`.+	c #817A75",
" ++	c #78746E",
".++	c #4E4C4C",
"+++	c #807970",
"@++	c #24221F",
"#++	c #565148",
"$++	c #635B4E",
"%++	c #918770",
"&++	c #B7AB93",
"*++	c #C0B49C",
"=++	c #C2B59E",
"-++	c #C0B49D",
";++	c #BFB29B",
">++	c #A39681",
",++	c #52493D",
"'++	c #101314",
")++	c #494441",
"!++	c #6D6A65",
"~++	c #7B766F",
"{++	c #7F7771",
"]++	c #807872",
"^++	c #7E7772",
"/++	c #7C7672",
"(++	c #524E4C",
"_++	c #5A5451",
":++	c #2F2D26",
"<++	c #625846",
"[++	c #847C68",
"}++	c #9F9683",
"|++	c #A19987",
"1++	c #9F9686",
"2++	c #A19889",
"3++	c #A29889",
"4++	c #A59C8A",
"5++	c #A79C8B",
"6++	c #938878",
"7++	c #4B4339",
"8++	c #2F2C2A",
"9++	c #2A2623",
"0++	c #3A3632",
"a++	c #1B191D",
"b++	c #706961",
"c++	c #746F6B",
"d++	c #726F6B",
"e++	c #2A2922",
"f++	c #504D42",
"g++	c #625C4D",
"h++	c #6E6657",
"i++	c #675F57",
"j++	c #463E38",
"k++	c #2D2621",
"l++	c #231E1C",
"m++	c #171919",
"n++	c #3C3C37",
"o++	c #0F0B0A",
"p++	c #221D20",
"q++	c #231F1E",
"r++	c #716A63",
"s++	c #686462",
"t++	c #5E574B",
"u++	c #3A3738",
"v++	c #4C4747",
"w++	c #554F4B",
"x++	c #211C1D",
"y++	c #251C1D",
"z++	c #281D1E",
"A++	c #271D1C",
"B++	c #231C1B",
"C++	c #0F1216",
"D++	c #080C11",
"E++	c #322F27",
"F++	c #2E2921",
"G++	c #302A23",
"H++	c #565352",
"I++	c #625E5D",
"J++	c #64605F",
"K++	c #2F2C2E",
"L++	c #605B50",
"M++	c #5F5A4D",
"N++	c #625D53",
"O++	c #3F3D3F",
"P++	c #222321",
"Q++	c #211C1E",
"R++	c #241B1A",
"S++	c #2D1A16",
"T++	c #2C1916",
"U++	c #271A19",
"V++	c #0E1114",
"W++	c #463C33",
"X++	c #4A3E2D",
"Y++	c #4B3B29",
"Z++	c #4A3B2A",
"`++	c #4A3D2D",
" @+	c #4C433B",
".@+	c #46403C",
"+@+	c #555249",
"@@+	c #514D4D",
"#@+	c #2E1710",
"$@+	c #30130A",
"%@+	c #32140C",
"&@+	c #2B1713",
"*@+	c #1B1414",
"=@+	c #080C10",
"-@+	c #352C24",
";@+	c #4F3E2C",
">@+	c #694F33",
",@+	c #6F5132",
"'@+	c #6B4D2F",
")@+	c #62482D",
"!@+	c #5A4530",
"~@+	c #514134",
"{@+	c #443A32",
"]@+	c #000005",
"^@+	c #05070D",
"/@+	c #777671",
"(@+	c #555651",
"_@+	c #595A55",
":@+	c #2C2C31",
"<@+	c #4F4B4B",
"[@+	c #3D393A",
"}@+	c #302623",
"|@+	c #35231B",
"1@+	c #35180F",
"2@+	c #361107",
"3@+	c #341106",
"4@+	c #2C130D",
"5@+	c #1B1211",
"6@+	c #080C0F",
"7@+	c #1E130A",
"8@+	c #4E3720",
"9@+	c #7B5731",
"0@+	c #885C31",
"a@+	c #81572C",
"b@+	c #6F4A25",
"c@+	c #5D3E22",
"d@+	c #483221",
"e@+	c #32251C",
"f@+	c #39393C",
"g@+	c #7D7B77",
"h@+	c #82807C",
"i@+	c #797672",
"j@+	c #1B191F",
"k@+	c #565252",
"l@+	c #4C4849",
"m@+	c #201C1E",
"n@+	c #161112",
"o@+	c #322823",
"p@+	c #37231B",
"q@+	c #3A1B11",
"r@+	c #381106",
"s@+	c #310D03",
"t@+	c #291009",
"u@+	c #190F0E",
"v@+	c #080B0F",
"w@+	c #180E05",
"x@+	c #4A341B",
"y@+	c #7C572C",
"z@+	c #8B5D2B",
"A@+	c #865625",
"B@+	c #754A1F",
"C@+	c #5D3B1C",
"D@+	c #432B18",
"E@+	c #281A11",
"F@+	c #83817D",
"G@+	c #888581",
"H@+	c #7C7975",
"I@+	c #555252",
"J@+	c #1B1516",
"K@+	c #352219",
"L@+	c #371A0F",
"M@+	c #341006",
"N@+	c #2D0C02",
"O@+	c #250F08",
"P@+	c #170E0D",
"Q@+	c #141514",
"R@+	c #191008",
"S@+	c #47341C",
"T@+	c #75562C",
"U@+	c #845C29",
"V@+	c #805524",
"W@+	c #714A1F",
"X@+	c #5C3C1D",
"Y@+	c #412C1A",
"Z@+	c #251911",
"`@+	c #140F0C",
" #+	c #7F7E79",
".#+	c #84837D",
"+#+	c #4D4A4B",
"@#+	c #333032",
"##+	c #191517",
"$#+	c #191414",
"%#+	c #1A1414",
"&#+	c #261C18",
"*#+	c #2C1B13",
"=#+	c #2E130A",
"-#+	c #2D0D04",
";#+	c #270B02",
">#+	c #210D07",
",#+	c #150D0E",
"'#+	c #2F2110",
")#+	c #50391A",
"!#+	c #5C3E1B",
"~#+	c #5F3F1A",
"{#+	c #583A19",
"]#+	c #4A321A",
"^#+	c #757470",
"/#+	c #1F1B1D",
"(#+	c #130E11",
"_#+	c #110C0D",
":#+	c #110C0C",
"<#+	c #16100F",
"[#+	c #1F191A",
"}#+	c #1F1C1A",
"|#+	c #201813",
"1#+	c #25160D",
"2#+	c #281107",
"3#+	c #280D04",
"4#+	c #240C03",
"5#+	c #1F0E09",
"6#+	c #140D0E",
"7#+	c #080B0E",
"8#+	c #656460",
"9#+	c #0F0701",
"0#+	c #201104",
"a#+	c #281605",
"b#+	c #2F1B08",
"c#+	c #2F1D0A",
"d#+	c #2D1D0F",
"e#+	c #241910",
"f#+	c #140E0B",
"g#+	c #3C3737",
"h#+	c #2F292A",
"i#+	c #1E1718",
"j#+	c #110A0A",
"k#+	c #0E0706",
"l#+	c #0E0605",
"m#+	c #140C0A",
"n#+	c #1E1715",
"o#+	c #26201E",
"p#+	c #1E1B1A",
"q#+	c #1E160F",
"r#+	c #22130A",
"s#+	c #251007",
"t#+	c #280F07",
"u#+	c #230D05",
"v#+	c #1C0D09",
"w#+	c #120C0D",
"x#+	c #0C0502",
"y#+	c #130903",
"z#+	c #1A0F07",
"A#+	c #1F160F",
"B#+	c #1D1511",
"C#+	c #696663",
"D#+	c #595750",
"E#+	c #3D3839",
"F#+	c #393333",
"G#+	c #302927",
"H#+	c #251C17",
"I#+	c #1E120C",
"J#+	c #1E110B",
"K#+	c #22150F",
"L#+	c #281B14",
"M#+	c #2C211A",
"N#+	c #2A221C",
"O#+	c #28211C",
"P#+	c #231C14",
"Q#+	c #22170E",
"R#+	c #24150A",
"S#+	c #251108",
"T#+	c #281109",
"U#+	c #220F07",
"V#+	c #27252A",
"W#+	c #322E2E",
"X#+	c #312B29",
"Y#+	c #332A23",
"Z#+	c #382A20",
"`#+	c #3E2C1F",
" $+	c #412E21",
".$+	c #422F21",
"+$+	c #402E1F",
"@$+	c #3B2C1D",
"#$+	c #36281C",
"$$+	c #34281D",
"%$+	c #30251B",
"&$+	c #2C2216",
"*$+	c #26190E",
"=$+	c #231408",
"-$+	c #241107",
";$+	c #251109",
">$+	c #1A0E0A",
",$+	c #110B0D",
"'$+	c #050204",
")$+	c #181917",
"!$+	c #0D0E0D",
"~$+	c #372B21",
"{$+	c #493627",
"]$+	c #563D2A",
"^$+	c #5B412B",
"/$+	c #5C422C",
"($+	c #5B422D",
"_$+	c #533C27",
":$+	c #483420",
"<$+	c #402E1C",
"[$+	c #3F2E1E",
"}$+	c #342718",
"|$+	c #2A1C0E",
"1$+	c #261407",
"2$+	c #231005",
"3$+	c #241108",
"4$+	c #200F09",
"5$+	c #1B0F0C",
"6$+	c #020002",
"7$+	c #1C1717",
"8$+	c #241B17",
"9$+	c #3A2B20",
"0$+	c #4F3826",
"a$+	c #5D4028",
"b$+	c #614327",
"c$+	c #604227",
"d$+	c #604228",
"e$+	c #593D25",
"f$+	c #4C331C",
"g$+	c #442D19",
"h$+	c #432F1B",
"i$+	c #3F2D1B",
"j$+	c #372616",
"k$+	c #2E1D0D",
"l$+	c #261306",
"m$+	c #220F04",
"n$+	c #221007",
"o$+	c #1F100A",
"p$+	c #1A0F0C",
"q$+	c #100B0D",
"r$+	c #05070A",
"s$+	c #343337",
"t$+	c #1E1917",
"u$+	c #271D17",
"v$+	c #402F20",
"w$+	c #543B24",
"x$+	c #5D3F23",
"y$+	c #604022",
"z$+	c #5F3F22",
"A$+	c #5E3F23",
"B$+	c #563A1F",
"C$+	c #4A3118",
"D$+	c #432C16",
"E$+	c #432D18",
"F$+	c #3F2C18",
"G$+	c #382714",
"H$+	c #2D1C0B",
"I$+	c #261405",
"J$+	c #210E04",
"K$+	c #201007",
"L$+	c #20110A",
"M$+	c #1B100D",
"N$+	c #120D0E",
"O$+	c #282524",
"P$+	c #2F2F34",
"Q$+	c #36363A",
"R$+	c #291E16",
"S$+	c #42301F",
"T$+	c #543A21",
"U$+	c #593A1C",
"V$+	c #59381A",
"W$+	c #57371A",
"X$+	c #55371B",
"Y$+	c #4F3218",
"Z$+	c #442B12",
"`$+	c #3E2710",
" %+	c #3F2813",
".%+	c #3C2813",
"+%+	c #352410",
"@%+	c #2A1907",
"#%+	c #251303",
"$%+	c #200E04",
"%%+	c #1F1007",
"&%+	c #20120B",
"*%+	c #1C110E",
"=%+	c #140E0F",
"-%+	c #6E655D",
";%+	c #38383C",
">%+	c #3F3E41",
",%+	c #36362F",
"'%+	c #31312B",
")%+	c #211A17",
"!%+	c #2D2017",
"~%+	c #473320",
"{%+	c #573C22",
"]%+	c #583819",
"^%+	c #543314",
"/%+	c #523214",
"(%+	c #503114",
"_%+	c #4B2E13",
":%+	c #42280E",
"<%+	c #3C240D",
"[%+	c #3C2510",
"}%+	c #3B2610",
"|%+	c #35220D",
"1%+	c #2A1805",
"2%+	c #241102",
"3%+	c #200E03",
"4%+	c #221107",
"5%+	c #22140C",
"6%+	c #1E140F",
"7%+	c #150F10",
"8%+	c #43423A",
"9%+	c #403F37",
"0%+	c #3B3A33",
"a%+	c #32302C",
"b%+	c #131412",
"c%+	c #3A3635",
"d%+	c #2D2A2A",
"e%+	c #221A17",
"f%+	c #312217",
"g%+	c #4A3521",
"h%+	c #593D22",
"i%+	c #593819",
"j%+	c #553314",
"k%+	c #523213",
"l%+	c #4D2F14",
"m%+	c #452A10",
"n%+	c #3F260E",
"o%+	c #3F2710",
"p%+	c #37230C",
"q%+	c #2D1906",
"r%+	c #271303",
"s%+	c #241103",
"t%+	c #251308",
"u%+	c #201510",
"v%+	c #171010",
"w%+	c #0F0C0E",
"x%+	c #6B6662",
"y%+	c #46463D",
"z%+	c #4A493F",
"A%+	c #3C3839",
"B%+	c #2A2523",
"C%+	c #291F1A",
"D%+	c #37271A",
"E%+	c #503924",
"F%+	c #5E4124",
"G%+	c #5E3D1B",
"H%+	c #5B3817",
"I%+	c #583716",
"J%+	c #583718",
"K%+	c #553618",
"L%+	c #4D3114",
"M%+	c #472C11",
"N%+	c #462D13",
"O%+	c #442C13",
"P%+	c #3E280F",
"Q%+	c #351F09",
"R%+	c #301B06",
"S%+	c #2E1A08",
"T%+	c #2E1B0C",
"U%+	c #2C1B11",
"V%+	c #271A13",
"W%+	c #1A1211",
"X%+	c #3A383B",
"Y%+	c #49493F",
"Z%+	c #515147",
"`%+	c #525249",
" &+	c #3D3633",
".&+	c #39322F",
"+&+	c #342C27",
"@&+	c #32261D",
"#&+	c #3E2C1C",
"$&+	c #604224",
"%&+	c #613E1C",
"&&+	c #5F3B18",
"*&+	c #5D3A18",
"=&+	c #5D3B1A",
"-&+	c #5A3A1B",
";&+	c #533417",
">&+	c #4B3013",
",&+	c #4A2F13",
"'&+	c #492F13",
")&+	c #432B10",
"!&+	c #3D250C",
"~&+	c #3B230C",
"{&+	c #39220E",
"]&+	c #382211",
"^&+	c #2C1C15",
"/&+	c #1E1411",
"(&+	c #130E0E",
"_&+	c #14100F",
":&+	c #1C1715",
"<&+	c #797671",
"[&+	c #76736F",
"}&+	c #4B4C4B",
"|&+	c #4E4D45",
"1&+	c #59584F",
"2&+	c #57574F",
"3&+	c #352D26",
"4&+	c #3A312C",
"5&+	c #413731",
"6&+	c #41352C",
"7&+	c #3E2F22",
"8&+	c #46321F",
"9&+	c #583F25",
"0&+	c #634324",
"a&+	c #63401D",
"b&+	c #613E1A",
"c&+	c #603D1A",
"d&+	c #613E1D",
"e&+	c #5E3C1D",
"f&+	c #563718",
"g&+	c #4E3213",
"h&+	c #4C3112",
"i&+	c #472E11",
"j&+	c #42290F",
"k&+	c #412810",
"l&+	c #412713",
"m&+	c #3F2917",
"n&+	c #3A2619",
"o&+	c #1F1512",
"p&+	c #15100E",
"q&+	c #171210",
"r&+	c #14100E",
"s&+	c #696562",
"t&+	c #7A7773",
"u&+	c #76726F",
"v&+	c #1C191A",
"w&+	c #1C1817",
"x&+	c #55564F",
"y&+	c #2F2E33",
"z&+	c #393A3D",
"A&+	c #1E1712",
"B&+	c #231B13",
"C&+	c #231911",
"D&+	c #261A12",
"E&+	c #352721",
"F&+	c #46372F",
"G&+	c #4B3B2F",
"H&+	c #473525",
"I&+	c #4B351F",
"J&+	c #593E22",
"K&+	c #624121",
"L&+	c #63401C",
"M&+	c #613E1B",
"N&+	c #62401D",
"O&+	c #5F3D1C",
"P&+	c #573818",
"Q&+	c #4F3213",
"R&+	c #4C3012",
"S&+	c #4B3012",
"T&+	c #472E12",
"U&+	c #41290F",
"V&+	c #402711",
"W&+	c #3F2714",
"X&+	c #3E2918",
"Y&+	c #382519",
"Z&+	c #2F1F17",
"`&+	c #1F1511",
" *+	c #171111",
".*+	c #181210",
"+*+	c #44443E",
"@*+	c #201B1A",
"#*+	c #1E1815",
"$*+	c #1E1714",
"%*+	c #181512",
"&*+	c #1D1713",
"**+	c #1E140E",
"=*+	c #1F130A",
"-*+	c #1E1105",
";*+	c #1E1005",
">*+	c #2F2017",
",*+	c #443327",
"'*+	c #4B3829",
")*+	c #493320",
"!*+	c #493019",
"~*+	c #523519",
"{*+	c #5A3919",
"]*+	c #5C3917",
"^*+	c #5D3A17",
"/*+	c #5F3C1A",
"(*+	c #5D3C1A",
"_*+	c #583817",
":*+	c #513413",
"<*+	c #4D3215",
"[*+	c #462E13",
"}*+	c #3A230C",
"|*+	c #331E0A",
"1*+	c #321E0D",
"2*+	c #311E10",
"3*+	c #251711",
"4*+	c #1B110F",
"5*+	c #17110F",
"6*+	c #181211",
"7*+	c #191210",
"8*+	c #040206",
"9*+	c #585350",
"0*+	c #211917",
"a*+	c #1F1410",
"b*+	c #1E1410",
"c*+	c #2D2B2E",
"d*+	c #221D1B",
"e*+	c #24170E",
"f*+	c #211205",
"g*+	c #1E0F03",
"h*+	c #2A190D",
"i*+	c #3C281A",
"j*+	c #452E1C",
"k*+	c #452B16",
"l*+	c #452911",
"m*+	c #4C2E11",
"n*+	c #533111",
"o*+	c #563311",
"p*+	c #583513",
"q*+	c #583615",
"r*+	c #5A3817",
"s*+	c #5B3A18",
"t*+	c #593917",
"u*+	c #553716",
"v*+	c #553718",
"w*+	c #52361A",
"x*+	c #462E15",
"y*+	c #311C08",
"z*+	c #251203",
"A*+	c #211004",
"B*+	c #1F1006",
"C*+	c #1C0E07",
"D*+	c #190D08",
"E*+	c #140B0A",
"F*+	c #140D0D",
"G*+	c #17100F",
"H*+	c #18110E",
"I*+	c #1C110D",
"J*+	c #1C0E08",
"K*+	c #1E0E08",
"L*+	c #1F110B",
"M*+	c #232422",
"N*+	c #221D1E",
"O*+	c #211B19",
"P*+	c #231913",
"Q*+	c #25160B",
"R*+	c #261507",
"S*+	c #251304",
"T*+	c #230F02",
"U*+	c #2A1406",
"V*+	c #38200E",
"W*+	c #412710",
"X*+	c #44270E",
"Y*+	c #45270C",
"Z*+	c #4B2C0D",
"`*+	c #512F0F",
" =+	c #533110",
".=+	c #553311",
"+=+	c #563614",
"@=+	c #5A3A18",
"#=+	c #5B3B19",
"$=+	c #593B1A",
"%=+	c #5A3C1D",
"&=+	c #563B1F",
"*=+	c #463119",
"==+	c #2D1A08",
"-=+	c #1D0D01",
";=+	c #180B03",
">=+	c #160A05",
",=+	c #140804",
"'=+	c #120805",
")=+	c #110A0B",
"!=+	c #170F0C",
"~=+	c #36352F",
"{=+	c #383730",
"]=+	c #190F0B",
"^=+	c #1E0D06",
"/=+	c #220C04",
"(=+	c #250E05",
"_=+	c #231108",
":=+	c #201811",
"<=+	c #37363A",
"[=+	c #444547",
"}=+	c #4B4B4E",
"|=+	c #4F5052",
"1=+	c #272427",
"2=+	c #262224",
"3=+	c #272120",
"4=+	c #271E1C",
"5=+	c #271D19",
"6=+	c #251A14",
"7=+	c #25170E",
"8=+	c #281407",
"9=+	c #2A1303",
"0=+	c #2A1202",
"a=+	c #2A1001",
"b=+	c #2E1303",
"c=+	c #391C06",
"d=+	c #402108",
"e=+	c #45240A",
"f=+	c #47270B",
"g=+	c #4C2C0D",
"h=+	c #512F10",
"i=+	c #523111",
"j=+	c #533212",
"k=+	c #543415",
"l=+	c #59391A",
"m=+	c #5B3C1C",
"n=+	c #5A3E1F",
"o=+	c #553C21",
"p=+	c #45301A",
"q=+	c #2A1908",
"r=+	c #1B0C03",
"s=+	c #180C06",
"t=+	c #170C08",
"u=+	c #130906",
"v=+	c #110705",
"w=+	c #0F0808",
"x=+	c #120B0B",
"y=+	c #3E3D36",
"z=+	c #1D0E08",
"A=+	c #2D150C",
"B=+	c #36180A",
"C=+	c #38190A",
"D=+	c #30180A",
"E=+	c #23180E",
"F=+	c #1B1A16",
"G=+	c #1E2121",
"H=+	c #161614",
"I=+	c #3E4044",
"J=+	c #424447",
"K=+	c #3F4043",
"L=+	c #2C292D",
"M=+	c #292526",
"N=+	c #2B2627",
"O=+	c #2E2828",
"P=+	c #312928",
"Q=+	c #392C28",
"R=+	c #3D2E25",
"S=+	c #3C291A",
"T=+	c #3B2411",
"U=+	c #3A1E09",
"V=+	c #3C1C04",
"W=+	c #3E1C03",
"X=+	c #3D1A03",
"Y=+	c #3C1903",
"Z=+	c #3F1C04",
"`=+	c #421F04",
" -+	c #452207",
".-+	c #462509",
"+-+	c #49290E",
"@-+	c #4A2B0F",
"#-+	c #4A2C10",
"$-+	c #4B2D12",
"%-+	c #4D3015",
"&-+	c #503318",
"*-+	c #52351A",
"=-+	c #52361B",
"--+	c #52381E",
";-+	c #4D361E",
">-+	c #3E2A17",
",-+	c #251607",
"'-+	c #190C04",
")-+	c #180D08",
"!-+	c #180D09",
"~-+	c #140A07",
"{-+	c #120806",
"]-+	c #181A19",
"^-+	c #080201",
"/-+	c #220F08",
"(-+	c #391C10",
"_-+	c #45220F",
":-+	c #46200E",
"<-+	c #3A1C0D",
"[-+	c #26160B",
"}-+	c #121414",
"|-+	c #2F2C30",
"1-+	c #2F2B2C",
"2-+	c #2F2828",
"3-+	c #302827",
"4-+	c #332B29",
"5-+	c #392D2A",
"6-+	c #49362C",
"7-+	c #553E2B",
"8-+	c #5B4128",
"9-+	c #5B3F22",
"0-+	c #55300F",
"a-+	c #542B08",
"b-+	c #522705",
"c-+	c #4F2405",
"d-+	c #4A2005",
"e-+	c #461E04",
"f-+	c #431E03",
"g-+	c #421F05",
"h-+	c #421F07",
"i-+	c #3D1E07",
"j-+	c #391C07",
"k-+	c #381D08",
"l-+	c #3A210C",
"m-+	c #3C230E",
"n-+	c #3D2510",
"o-+	c #3D2611",
"p-+	c #3D2713",
"q-+	c #3A2614",
"r-+	c #2F1E0F",
"s-+	c #160A03",
"t-+	c #150B07",
"u-+	c #150C09",
"v-+	c #140A08",
"w-+	c #120906",
"x-+	c #100909",
"y-+	c #130B0B",
"z-+	c #170E0B",
"A-+	c #18100A",
"B-+	c #0A070C",
"C-+	c #060100",
"D-+	c #210E08",
"E-+	c #3B1D11",
"F-+	c #492310",
"G-+	c #4A220E",
"H-+	c #3F200F",
"I-+	c #27170B",
"J-+	c #0E0A06",
"K-+	c #322C2C",
"L-+	c #332A28",
"M-+	c #342A26",
"N-+	c #362924",
"O-+	c #382B24",
"P-+	c #3D2D23",
"Q-+	c #4F3726",
"R-+	c #634326",
"S-+	c #6D4824",
"T-+	c #6F4820",
"U-+	c #6B4219",
"V-+	c #663812",
"W-+	c #63340E",
"X-+	c #5F300C",
"Y-+	c #592D0C",
"Z-+	c #52280C",
"`-+	c #492209",
" ;+	c #421E07",
".;+	c #401E07",
"+;+	c #3F1E09",
"@;+	c #371A08",
"#;+	c #2E1405",
"$;+	c #2A1206",
"%;+	c #2B1307",
"&;+	c #2B1406",
"*;+	c #2B1506",
"=;+	c #2A1507",
"-;+	c #2A1607",
";;+	c #2A1608",
">;+	c #2A1708",
",;+	c #281609",
"';+	c #231308",
");+	c #120702",
"!;+	c #0F0703",
"~;+	c #0F0805",
"{;+	c #100806",
"];+	c #120907",
"^;+	c #150C0B",
"/;+	c #1B110B",
"(;+	c #141217",
"_;+	c #4F4946",
":;+	c #343237",
"<;+	c #2A292E",
"[;+	c #313433",
"};+	c #1D0C07",
"|;+	c #381C10",
"1;+	c #482311",
"2;+	c #482411",
"3;+	c #3E2111",
"4;+	c #26170C",
"5;+	c #4F504C",
"6;+	c #312A29",
"7;+	c #372B25",
"8;+	c #3C2B20",
"9;+	c #3F2B1E",
"0;+	c #422A1B",
"a;+	c #42291A",
"b;+	c #432918",
"c;+	c #533219",
"d;+	c #69401B",
"e;+	c #75471A",
"f;+	c #764817",
"g;+	c #704213",
"h;+	c #673810",
"i;+	c #613311",
"j;+	c #5C3211",
"k;+	c #563013",
"l;+	c #4F2B12",
"m;+	c #46230E",
"n;+	c #3F1E0A",
"o;+	c #3E1E0B",
"p;+	c #3D1E0C",
"q;+	c #331809",
"r;+	c #281106",
"s;+	c #250F07",
"t;+	c #271108",
"u;+	c #291309",
"v;+	c #281409",
"w;+	c #281509",
"x;+	c #28150A",
"y;+	c #27160A",
"z;+	c #25150A",
"A;+	c #21130A",
"B;+	c #190D06",
"C;+	c #0F0601",
"D;+	c #090301",
"E;+	c #100907",
"F;+	c #130B09",
"G;+	c #160D0C",
"H;+	c #170E0C",
"I;+	c #1B110C",
"J;+	c #1C120B",
"K;+	c #19120E",
"L;+	c #19161C",
"M;+	c #4D4744",
"N;+	c #4A4441",
"O;+	c #322F2C",
"P;+	c #333237",
"Q;+	c #333137",
"R;+	c #24222A",
"S;+	c #1D1B23",
"T;+	c #170A06",
"U;+	c #301A10",
"V;+	c #3E2213",
"W;+	c #3F2212",
"X;+	c #351E11",
"Y;+	c #22150C",
"Z;+	c #353131",
"`;+	c #39322C",
" >+	c #3F2D23",
".>+	c #482C19",
"+>+	c #502C13",
"@>+	c #562C11",
"#>+	c #592A0F",
"$>+	c #572A0E",
"%>+	c #53290D",
"&>+	c #5E310E",
"*>+	c #724013",
"=>+	c #7B4814",
"->+	c #7B4813",
";>+	c #6F4011",
">>+	c #5C310D",
",>+	c #4F280E",
"'>+	c #482710",
")>+	c #442713",
"!>+	c #3F2211",
"~>+	c #3B1D0D",
"{>+	c #381909",
"]>+	c #391B0A",
"^>+	c #371A0A",
"/>+	c #2D1407",
"(>+	c #220D05",
"_>+	c #1F0B05",
":>+	c #230F07",
"<>+	c #271309",
"[>+	c #28160B",
"}>+	c #28170D",
"|>+	c #1A0F08",
"1>+	c #0F0702",
"2>+	c #070200",
"3>+	c #140D0B",
"4>+	c #190F0D",
"5>+	c #1D120C",
"6>+	c #1D120B",
"7>+	c #1F1C23",
"8>+	c #3F3B38",
"9>+	c #323034",
"0>+	c #313037",
"a>+	c #2C2B32",
"b>+	c #232229",
"c>+	c #615C56",
"d>+	c #0F0705",
"e>+	c #20130D",
"f>+	c #2A180F",
"g>+	c #2B180E",
"h>+	c #24160D",
"i>+	c #181009",
"j>+	c #090603",
"k>+	c #403934",
"l>+	c #4B392C",
"m>+	c #58331D",
"n>+	c #652E0F",
"o>+	c #702C07",
"p>+	c #762E05",
"q>+	c #762E04",
"r>+	c #6F3007",
"s>+	c #672F0A",
"t>+	c #6C370D",
"u>+	c #774312",
"v>+	c #7D4913",
"w>+	c #7B4A14",
"x>+	c #6C3E12",
"y>+	c #4F290B",
"z>+	c #381A08",
"A>+	c #2E180B",
"B>+	c #2B190F",
"C>+	c #2A160E",
"D>+	c #2C1309",
"E>+	c #2E1306",
"F>+	c #321406",
"G>+	c #311405",
"H>+	c #280F04",
"I>+	c #1C0803",
"J>+	c #190703",
"K>+	c #1F0C05",
"L>+	c #231007",
"M>+	c #251208",
"N>+	c #25130A",
"O>+	c #24140C",
"P>+	c #21140C",
"Q>+	c #1F130B",
"R>+	c #190F07",
"S>+	c #110802",
"T>+	c #080300",
"U>+	c #050100",
"V>+	c #100906",
"W>+	c #160E0A",
"X>+	c #1A100D",
"Y>+	c #131012",
"Z>+	c #222129",
"`>+	c #161317",
" ,+	c #4B4542",
".,+	c #47423F",
"+,+	c #2A292F",
"@,+	c #34302D",
"#,+	c #3A3C38",
"$,+	c #0D0706",
"%,+	c #110906",
"&,+	c #5B5B57",
"*,+	c #4A4037",
"=,+	c #5C402D",
"-,+	c #6D3519",
";,+	c #7B2D08",
">,+	c #852B02",
",,+	c #8A2F02",
"',+	c #863203",
"),+	c #7C3609",
"!,+	c #6F360E",
"~,+	c #6D3B12",
"{,+	c #724415",
"],+	c #724615",
"^,+	c #714517",
"/,+	c #633B16",
"(,+	c #47270F",
"_,+	c #2C160B",
":,+	c #1F1210",
"<,+	c #230F09",
"[,+	c #270E04",
"},+	c #2D0F02",
"|,+	c #250B01",
"1,+	c #1A0601",
"2,+	c #170602",
"3,+	c #1C0904",
"4,+	c #200D05",
"5,+	c #201008",
"6,+	c #1B0E08",
"7,+	c #170D07",
"8,+	c #150C06",
"9,+	c #150B05",
"0,+	c #180D05",
"a,+	c #1A0E06",
"b,+	c #170C04",
"c,+	c #110601",
"d,+	c #0D0401",
"e,+	c #0F0501",
"f,+	c #170C05",
"g,+	c #20120D",
"h,+	c #20120C",
"i,+	c #22120A",
"j,+	c #221309",
"k,+	c #1D130C",
"l,+	c #141112",
"m,+	c #1A171E",
"n,+	c #252225",
"o,+	c #26242A",
"p,+	c #383332",
"q,+	c #484340",
"r,+	c #636260",
"s,+	c #0C0906",
"t,+	c #1D1C1A",
"u,+	c #736E64",
"v,+	c #79746B",
"w,+	c #413D37",
"x,+	c #50443B",
"y,+	c #624230",
"z,+	c #723419",
"A,+	c #7B2706",
"B,+	c #822602",
"C,+	c #852E05",
"D,+	c #80330A",
"E,+	c #723712",
"F,+	c #613515",
"G,+	c #5A3516",
"H,+	c #5A3918",
"I,+	c #583A18",
"J,+	c #3C2616",
"K,+	c #2C1F19",
"L,+	c #251F1D",
"M,+	c #241C1B",
"N,+	c #23130E",
"O,+	c #250C03",
"P,+	c #2A0C01",
"Q,+	c #2C0D01",
"R,+	c #1C0701",
"S,+	c #1A0702",
"T,+	c #1E0904",
"U,+	c #210F06",
"V,+	c #140905",
"W,+	c #0B0402",
"X,+	c #090200",
"Y,+	c #130701",
"Z,+	c #1F1005",
"`,+	c #221307",
" '+	c #1C0E05",
".'+	c #1E0F05",
"+'+	c #241408",
"@'+	c #29180C",
"#'+	c #2A190E",
"$'+	c #29160C",
"%'+	c #291609",
"&'+	c #20150C",
"*'+	c #181313",
"='+	c #100E15",
"-'+	c #282528",
";'+	c #676563",
">'+	c #433D38",
",'+	c #888279",
"''+	c #343235",
")'+	c #4A484A",
"!'+	c #625D51",
"~'+	c #534D43",
"{'+	c #4E4941",
"]'+	c #524840",
"^'+	c #5D4235",
"/'+	c #67321D",
"('+	c #6A250A",
"_'+	c #6D2407",
":'+	c #702D0F",
"<'+	c #6B3419",
"['+	c #5E3720",
"}'+	c #4A311F",
"|'+	c #39271A",
"1'+	c #322418",
"2'+	c #332619",
"3'+	c #322619",
"4'+	c #312419",
"5'+	c #2E231C",
"6'+	c #2E2724",
"7'+	c #2B2625",
"8'+	c #271813",
"9'+	c #260C03",
"0'+	c #2A0900",
"a'+	c #2C0A00",
"b'+	c #270900",
"c'+	c #200801",
"d'+	c #200A03",
"e'+	c #210D05",
"f'+	c #1F0E05",
"g'+	c #180C05",
"h'+	c #100704",
"i'+	c #050000",
"j'+	c #130601",
"k'+	c #241206",
"l'+	c #2A180A",
"m'+	c #291608",
"n'+	c #2A1609",
"o'+	c #2F1A0A",
"p'+	c #311C0B",
"q'+	c #2F190B",
"r'+	c #2E1708",
"s'+	c #291506",
"t'+	c #22160C",
"u'+	c #1B1514",
"v'+	c #0B0810",
"w'+	c #07050B",
"x'+	c #28262B",
"y'+	c #2B292E",
"z'+	c #2C2B30",
"A'+	c #18161D",
"B'+	c #0D0A06",
"C'+	c #5D5751",
"D'+	c #65645F",
"E'+	c #1B1C1A",
"F'+	c #4C4A4B",
"G'+	c #525048",
"H'+	c #696559",
"I'+	c #6E685A",
"J'+	c #696356",
"K'+	c #54463D",
"L'+	c #593B2D",
"M'+	c #5C3523",
"N'+	c #603622",
"O'+	c #633D29",
"P'+	c #5F4231",
"Q'+	c #554236",
"R'+	c #41362F",
"S'+	c #2A2421",
"T'+	c #201A1B",
"U'+	c #211D1C",
"V'+	c #25211F",
"W'+	c #281B16",
"X'+	c #270C03",
"Y'+	c #2B0900",
"Z'+	c #2D0A00",
"`'+	c #280A00",
" )+	c #220B01",
".)+	c #210C04",
"+)+	c #200C05",
"@)+	c #1E0C05",
"#)+	c #1A0D04",
"$)+	c #140A03",
"%)+	c #0C0603",
"&)+	c #241306",
"*)+	c #2D1909",
"=)+	c #2D1809",
"-)+	c #2E180A",
";)+	c #321B0A",
">)+	c #321B09",
",)+	c #311A0A",
"')+	c #2D1707",
"))+	c #281606",
"!)+	c #22160D",
"~)+	c #1B1616",
"{)+	c #64635F",
"])+	c #28252A",
"^)+	c #2A282D",
"/)+	c #49433E",
"()+	c #17151C",
"_)+	c #625B54",
":)+	c #5E5751",
"<)+	c #0F0A08",
"[)+	c #6B665B",
"})+	c #53473D",
"|)+	c #5B493C",
"1)+	c #614D3E",
"2)+	c #655445",
"3)+	c #62554B",
"4)+	c #281C17",
"5)+	c #260D03",
"6)+	c #2D0B00",
"7)+	c #290D01",
"8)+	c #220E04",
"9)+	c #1B0C05",
"0)+	c #170A05",
"a)+	c #130803",
"b)+	c #100802",
"c)+	c #0C0602",
"d)+	c #120502",
"e)+	c #231207",
"f)+	c #2C180A",
"g)+	c #2B1709",
"h)+	c #2C170A",
"i)+	c #2F190A",
"j)+	c #2D190A",
"k)+	c #2A170B",
"l)+	c #251609",
"m)+	c #433F3F",
"n)+	c #282423",
"o)+	c #181411",
"p)+	c #17100A",
"q)+	c #241B15",
"r)+	c #393C3B",
"s)+	c #333134",
"t)+	c #676259",
"u)+	c #271105",
"v)+	c #2B0D00",
"w)+	c #2E0F01",
"x)+	c #2A1305",
"y)+	c #211409",
"z)+	c #0C0705",
"A)+	c #070300",
"B)+	c #060201",
"C)+	c #120602",
"D)+	c #231208",
"E)+	c #2B170B",
"F)+	c #271508",
"G)+	c #241207",
"H)+	c #26160A",
"I)+	c #24170F",
"J)+	c #22160F",
"K)+	c #22170F",
"L)+	c #21180F",
"M)+	c #101218",
"N)+	c #3F3A36",
"O)+	c #5D5650",
"P)+	c #3F3935",
"Q)+	c #302C2A",
"R)+	c #1E160E",
"S)+	c #291E14",
"T)+	c #35281D",
"U)+	c #3D3024",
"V)+	c #3F342A",
"W)+	c #393C3C",
"X)+	c #393C3D",
"Y)+	c #5C5C5B",
"Z)+	c #261E19",
"`)+	c #2B1404",
" !+	c #2D1506",
".!+	c #29180D",
"+!+	c #1F1810",
"@!+	c #0A0502",
"#!+	c #0C0402",
"$!+	c #160803",
"%!+	c #28150B",
"&!+	c #1F1209",
"*!+	c #23170F",
"=!+	c #251913",
"-!+	c #231B17",
";!+	c #101319",
">!+	c #1A1C1C",
",!+	c #322E29",
"'!+	c #1E1711",
")!+	c #2E2014",
"!!+	c #453526",
"~!+	c #473A2D",
"{!+	c #413831",
"]!+	c #393D3C",
"^!+	c #393D3E",
"/!+	c #393D3D",
"(!+	c #241F1C",
"_!+	c #291D13",
":!+	c #2B1B0F",
"<!+	c #2A1A0F",
"[!+	c #241B13",
"}!+	c #1B1B17",
"|!+	c #100A06",
"1!+	c #130C07",
"2!+	c #170E09",
"3!+	c #180F0A",
"4!+	c #1E0F08",
"5!+	c #251309",
"6!+	c #231710",
"7!+	c #281E17",
"8!+	c #29211D",
"9!+	c #12151A",
"0!+	c #13161C",
"a!+	c #211E1F",
"b!+	c #383433",
"c!+	c #312D29",
"d!+	c #1E1209",
"e!+	c #29190D",
"f!+	c #372514",
"g!+	c #3F2D1C",
"h!+	c #413224",
"i!+	c #3E342B",
"j!+	c #383D3C",
"k!+	c #373C3C",
"l!+	c #373C3D",
"m!+	c #383C3E",
"n!+	c #291E17",
"o!+	c #251C15",
"p!+	c #151919",
"q!+	c #101519",
"r!+	c #15100F",
"s!+	c #18100B",
"t!+	c #1B1109",
"u!+	c #1E130B",
"v!+	c #20130C",
"w!+	c #21140E",
"x!+	c #22140E",
"y!+	c #25140D",
"z!+	c #27140C",
"A!+	c #27150B",
"B!+	c #24140B",
"C!+	c #23160D",
"D!+	c #281C15",
"E!+	c #2D2724",
"F!+	c #151216",
"G!+	c #2C2219",
"H!+	c #2B1D12",
"I!+	c #2E1C0D",
"J!+	c #35200D",
"K!+	c #392412",
"L!+	c #3C2B1C",
"M!+	c #392E24",
"N!+	c #373B3B",
"O!+	c #363B3C",
"P!+	c #363A3C",
"Q!+	c #383B3A",
"R!+	c #393C3A",
"S!+	c #4B4D4C",
"T!+	c #535553",
"U!+	c #25201C",
"V!+	c #231D1A",
"W!+	c #13171B",
"X!+	c #161314",
"Y!+	c #1A110E",
"Z!+	c #1D1209",
"`!+	c #1F1208",
" ~+	c #211209",
".~+	c #24160E",
"+~+	c #24160F",
"@~+	c #25160F",
"#~+	c #26150E",
"$~+	c #27160E",
"%~+	c #24150D",
"&~+	c #281D17",
"*~+	c #2E2520",
"=~+	c #2D2826",
"-~+	c #28282E",
";~+	c #504943",
">~+	c #443C33",
",~+	c #4A3E31",
"'~+	c #4B3B2A",
")~+	c #47321D",
"!~+	c #432B14",
"~~+	c #3D2A1A",
"{~+	c #36291F",
"]~+	c #343737",
"^~+	c #34393A",
"/~+	c #33383A",
"(~+	c #353839",
"_~+	c #261F1C",
":~+	c #241E1C",
"<~+	c #22130B",
"[~+	c #241205",
"}~+	c #261305",
"|~+	c #281810",
"1~+	c #251914",
"2~+	c #241813",
"3~+	c #241511",
"4~+	c #241611",
"5~+	c #221610",
"6~+	c #221711",
"7~+	c #2B2626",
"8~+	c #27272E",
"9~+	c #1C1D1B",
"0~+	c #66543E",
"a~+	c #5E462D",
"b~+	c #50361C",
"c~+	c #442C16",
"d~+	c #3F2B1A",
"e~+	c #35271D",
"f~+	c #313637",
"g~+	c #313638",
"h~+	c #262220",
"i~+	c #28221F",
"j~+	c #27211F",
"k~+	c #251F1B",
"l~+	c #2A1D14",
"m~+	c #2E1A0A",
"n~+	c #301803",
"o~+	c #311703",
"p~+	c #331B0C",
"q~+	c #322118",
"r~+	c #2E231E",
"s~+	c #29211F",
"t~+	c #261D1C",
"u~+	c #221817",
"v~+	c #211815",
"w~+	c #201715",
"x~+	c #201816",
"y~+	c #292A30",
"z~+	c #4E4F4F",
"A~+	c #48484A",
"B~+	c #4D4640",
"C~+	c #504942",
"D~+	c #6C5B45",
"E~+	c #624B32",
"F~+	c #4F351D",
"G~+	c #3D2613",
"H~+	c #362517",
"I~+	c #2F241C",
"J~+	c #2D3234",
"K~+	c #2D3134",
"L~+	c #535353",
"M~+	c #282321",
"N~+	c #272321",
"O~+	c #27221F",
"P~+	c #2C2119",
"Q~+	c #342012",
"R~+	c #391E08",
"S~+	c #391C02",
"T~+	c #391A03",
"U~+	c #3A2010",
"V~+	c #2A2629",
"W~+	c #242025",
"X~+	c #1E1A1E",
"Y~+	c #1B171A",
"Z~+	c #1B1719",
"`~+	c #6C6B65",
" {+	c #525253",
".{+	c #322C29",
"+{+	c #211C1B",
"@{+	c #1E1A1A",
"#{+	c #665E4D",
"${+	c #6B5D48",
"%{+	c #614C36",
"&{+	c #4C3420",
"*{+	c #382314",
"={+	c #2B211C",
"-{+	c #26211F",
";{+	c #2A2E31",
">{+	c #2A2F31",
",{+	c #292D30",
"'{+	c #464748",
"){+	c #272322",
"!{+	c #352112",
"~{+	c #3B1F08",
"{{+	c #3B1C02",
"]{+	c #391B03",
"^{+	c #382112",
"/{+	c #362823",
"({+	c #2E2A2C",
"_{+	c #49423D",
":{+	c #352F2D",
"<{+	c #252020",
"[{+	c #242123",
"}{+	c #5E4A36",
"|{+	c #4C3725",
"1{+	c #3A281A",
"2{+	c #31251C",
"3{+	c #2C231F",
"4{+	c #262324",
"5{+	c #282425",
"6{+	c #311F11",
"7{+	c #371C07",
"8{+	c #371C06",
"9{+	c #352115",
"0{+	c #302625",
"a{+	c #23252D",
"b{+	c #1D1F29",
"c{+	c #191B23",
"d{+	c #161820",
"e{+	c #130E0D",
"f{+	c #313236",
"g{+	c #333438",
"h{+	c #5E5341",
"i{+	c #564735",
"j{+	c #473727",
"k{+	c #382B20",
"l{+	c #2D2522",
"m{+	c #2A1D12",
"n{+	c #301B0A",
"o{+	c #331B06",
"p{+	c #321C0A",
"q{+	c #302118",
"r{+	c #2A2424",
"s{+	c #20232A",
"t{+	c #1B1E26",
"u{+	c #181A23",
"v{+	c #171922",
"w{+	c #16181F",
"x{+	c #1A1C20",
"y{+	c #6B6962",
"z{+	c #474138",
"A{+	c #33291F",
"B{+	c #241D1B",
"C{+	c #1C1613",
"D{+	c #21160D",
"E{+	c #251608",
"F{+	c #26180D",
"G{+	c #191D26",
"H{+	c #171B24",
"I{+	c #68665E",
"J{+	c #0E0B0C",
"K{+	c #272019",
"L{+	c #1D1812",
"M{+	c #0E1115",
"N{+	c #14171D",
"O{+	c #13171C",
"P{+	c #0D1219",
"Q{+	c #0A0F16",
"R{+	c #161009",
"S{+	c #19120D",
"T{+	c #171A23",
"U{+	c #151822",
"V{+	c #1A1C21",
"W{+	c #0B0D13",
"X{+	c #0E1018",
"Y{+	c #0F1218",
"Z{+	c #0C0E10",
"`{+	c #121418",
" ]+	c #0C0E15",
".]+	c #0D1017",
"+]+	c #0E1117",
"@]+	c #070C15",
"#]+	c #060C15",
"$]+	c #090D13",
"%]+	c #13161F",
"&]+	c #12151E",
"*]+	c #343130",
"=]+	c #04060B",
"-]+	c #0A0604",
";]+	c #101317",
">]+	c #080506",
",]+	c #060910",
"']+	c #040911",
")]+	c #06090F",
"!]+	c #11131A",
"~]+	c #10111A",
"{]+	c #686761",
"]]+	c #221E1E",
"^]+	c #1A1916",
"/]+	c #0C0703",
"(]+	c #0B0502",
"_]+	c #130D0C",
":]+	c #1C1616",
"<]+	c #201B19",
"[]+	c #151215",
"}]+	c #120F12",
"|]+	c #262223",
"1]+	c #2C2829",
"2]+	c #1F1C1D",
"3]+	c #201D1D",
"4]+	c #201912",
"5]+	c #140F0D",
"6]+	c #171211",
"7]+	c #211C19",
"8]+	c #231D19",
"9]+	c #1A140F",
"0]+	c #26201D",
"a]+	c #252121",
"b]+	c #1A171B",
"c]+	c #0A0708",
"d]+	c #5A5755",
"e]+	c #221F1D",
"f]+	c #312C27",
"g]+	c #4B473F",
"h]+	c #534D45",
"i]+	c #4F4843",
"j]+	c #514A46",
"k]+	c #45413A",
"l]+	c #3D3225",
"m]+	c #3C2B19",
"n]+	c #3B2B18",
"o]+	c #392919",
"p]+	c #362618",
"q]+	c #36261A",
"r]+	c #39291D",
"s]+	c #38291D",
"t]+	c #443930",
"u]+	c #4A423B",
"v]+	c #4D4641",
"w]+	c #322924",
"x]+	c #2F2723",
"y]+	c #302723",
"z]+	c #352D28",
"A]+	c #453C37",
"B]+	c #534A43",
"C]+	c #584F48",
"D]+	c #514C4A",
"E]+	c #4F4A47",
"F]+	c #48403C",
"G]+	c #3D322E",
"H]+	c #382A25",
"I]+	c #392B26",
"J]+	c #3C302B",
"K]+	c #3E352F",
"L]+	c #4A443E",
"M]+	c #595146",
"N]+	c #241B11",
"O]+	c #372C22",
"P]+	c #3D3125",
"Q]+	c #4F443C",
"R]+	c #4F4741",
"S]+	c #4C4540",
"T]+	c #4F4842",
"U]+	c #48413A",
"V]+	c #4D4540",
"W]+	c #2F251D",
"X]+	c #352D27",
"Y]+	c #443E3A",
"Z]+	c #514B4A",
"`]+	c #55493D",
" ^+	c #5B4D40",
".^+	c #55483B",
"+^+	c #2E2825",
"@^+	c #564A3E",
"#^+	c #584E47",
"$^+	c #322C28",
"%^+	c #2E2C27",
"&^+	c #403A35",
"*^+	c #423D35",
"=^+	c #464137",
"-^+	c #51493F",
";^+	c #38302A",
">^+	c #362F28",
",^+	c #8B7F70",
"'^+	c #918575",
")^+	c #8A7E6F",
"!^+	c #837567",
"~^+	c #7D7062",
"{^+	c #7C6F61",
"]^+	c #7E7265",
"^^+	c #7A6F63",
"/^+	c #71675B",
"(^+	c #665D52",
"_^+	c #756B5F",
":^+	c #84786A",
"<^+	c #8C7D6E",
"[^+	c #6F6357",
"}^+	c #3D342D",
"|^+	c #716D65",
"1^+	c #777064",
"2^+	c #756D5E",
"3^+	c #756148",
"4^+	c #7A603F",
"5^+	c #7D5E37",
"6^+	c #7E5D35",
"7^+	c #745432",
"8^+	c #604427",
"9^+	c #50351D",
"0^+	c #4F331C",
"a^+	c #50351E",
"b^+	c #5A422C",
"c^+	c #6D5A48",
"d^+	c #776A5B",
"e^+	c #776D61",
"f^+	c #7B7367",
"g^+	c #787065",
"h^+	c #776E64",
"i^+	c #776D64",
"j^+	c #77695B",
"k^+	c #635547",
"l^+	c #4F3F33",
"m^+	c #4D3C31",
"n^+	c #504034",
"o^+	c #776858",
"p^+	c #887B6A",
"q^+	c #81776B",
"r^+	c #7E756B",
"s^+	c #7C746B",
"t^+	c #7D736A",
"u^+	c #72655B",
"v^+	c #5F4E43",
"w^+	c #594236",
"x^+	c #5F473B",
"y^+	c #685245",
"z^+	c #6E5D50",
"A^+	c #7B7063",
"B^+	c #7C7064",
"C^+	c #7B6F64",
"D^+	c #72685C",
"E^+	c #83796A",
"F^+	c #897E6E",
"G^+	c #908472",
"H^+	c #382C1D",
"I^+	c #2D2013",
"J^+	c #483828",
"K^+	c #5F4B35",
"L^+	c #6A5439",
"M^+	c #745E42",
"N^+	c #7F6A50",
"O^+	c #806E5A",
"P^+	c #7D7264",
"Q^+	c #83776B",
"R^+	c #83796C",
"S^+	c #837A6D",
"T^+	c #82786C",
"U^+	c #7C7265",
"V^+	c #7E7367",
"W^+	c #807569",
"X^+	c #83786C",
"Y^+	c #83786B",
"Z^+	c #827669",
"`^+	c #807467",
" /+	c #7F7366",
"./+	c #7E7267",
"+/+	c #85796E",
"@/+	c #867A70",
"#/+	c #786B5D",
"$/+	c #61503E",
"%/+	c #665749",
"&/+	c #776C61",
"*/+	c #857C73",
"=/+	c #888078",
"-/+	c #867C74",
";/+	c #80766C",
">/+	c #80756A",
",/+	c #807468",
"'/+	c #81776C",
")/+	c #7F756B",
"!/+	c #7B7369",
"~/+	c #2E2A28",
"{/+	c #3F362F",
"]/+	c #7A6854",
"^/+	c #836E58",
"//+	c #796652",
"(/+	c #594B3E",
"_/+	c #342E28",
":/+	c #403732",
"</+	c #504235",
"[/+	c #5C4A36",
"}/+	c #6C5943",
"|/+	c #7E6C58",
"1/+	c #827465",
"2/+	c #5E564E",
"3/+	c #4E443C",
"4/+	c #9D9589",
"5/+	c #A79E93",
"6/+	c #9B9388",
"7/+	c #443E37",
"8/+	c #2E2A27",
"9/+	c #2F2A28",
"0/+	c #35302E",
"a/+	c #2F2A29",
"b/+	c #292624",
"c/+	c #36322F",
"d/+	c #776D5F",
"e/+	c #887D6F",
"f/+	c #574E43",
"g/+	c #3A3127",
"h/+	c #A79783",
"i/+	c #9E8E7B",
"j/+	c #958471",
"k/+	c #8F7F6C",
"l/+	c #8E7E6C",
"m/+	c #928271",
"n/+	c #948575",
"o/+	c #938575",
"p/+	c #8C7E6E",
"q/+	c #837666",
"r/+	c #7B6E5F",
"s/+	c #7A6E5E",
"t/+	c #7F7262",
"u/+	c #8A7A6A",
"v/+	c #A08B75",
"w/+	c #9A846F",
"x/+	c #7C6959",
"y/+	c #46382D",
"z/+	c #2F251F",
"A/+	c #423B38",
"B/+	c #8A7F73",
"C/+	c #8C8275",
"D/+	c #897F72",
"E/+	c #887F71",
"F/+	c #847A6A",
"G/+	c #897154",
"H/+	c #8F6F47",
"I/+	c #946A3B",
"J/+	c #9B6E3B",
"K/+	c #8D6336",
"L/+	c #704B27",
"M/+	c #583619",
"N/+	c #553215",
"O/+	c #583818",
"P/+	c #674A2E",
"Q/+	c #7E6750",
"R/+	c #8B7A67",
"S/+	c #8D8070",
"T/+	c #908575",
"U/+	c #958A7A",
"V/+	c #978B7B",
"W/+	c #968A7B",
"X/+	c #948879",
"Y/+	c #908577",
"Z/+	c #918476",
"`/+	c #928575",
" (+	c #978877",
".(+	c #9A8B78",
"+(+	c #9B8B78",
"@(+	c #5D4B3C",
"#(+	c #554333",
"$(+	c #523E2F",
"%(+	c #584535",
"&(+	c #8B7761",
"*(+	c #9B8972",
"=(+	c #928676",
"-(+	c #8F8576",
";(+	c #908678",
">(+	c #8F8476",
",(+	c #827365",
"'(+	c #6C5749",
")(+	c #644939",
"!(+	c #6F5140",
"~(+	c #7D6150",
"{(+	c #887160",
"](+	c #90806E",
"^(+	c #978B79",
"/(+	c #978B7A",
"((+	c #958979",
"_(+	c #8B7F71",
":(+	c #928678",
"<(+	c #988D7D",
"[(+	c #9C917F",
"}(+	c #9D927F",
"|(+	c #746756",
"1(+	c #3B2F1F",
"2(+	c #312312",
"3(+	c #513D26",
"4(+	c #6C5333",
"5(+	c #7B6039",
"6(+	c #8A6F48",
"7(+	c #927958",
"8(+	c #937E64",
"9(+	c #90816F",
"0(+	c #928576",
"a(+	c #938778",
"b(+	c #938779",
"c(+	c #94897A",
"d(+	c #958A7B",
"e(+	c #95897A",
"f(+	c #928777",
"g(+	c #918675",
"h(+	c #948778",
"i(+	c #958879",
"j(+	c #998C7C",
"k(+	c #9A8C7C",
"l(+	c #968879",
"m(+	c #928374",
"n(+	c #908172",
"o(+	c #8D7D6F",
"p(+	c #8A7C6D",
"q(+	c #8D7F72",
"r(+	c #938578",
"s(+	c #948779",
"t(+	c #8C7C6C",
"u(+	c #826D59",
"v(+	c #745F48",
"w(+	c #8A7C6C",
"x(+	c #988C7E",
"y(+	c #9B8F83",
"z(+	c #9B9081",
"A(+	c #998C7D",
"B(+	c #988B7A",
"C(+	c #988A78",
"D(+	c #948676",
"E(+	c #938879",
"F(+	c #8D8274",
"G(+	c #8A7F72",
"H(+	c #857B6E",
"I(+	c #857D72",
"J(+	c #423932",
"K(+	c #685A4A",
"L(+	c #7F6C55",
"M(+	c #887157",
"N(+	c #5B4C3E",
"O(+	c #3D3531",
"P(+	c #4E3F33",
"Q(+	c #5C4834",
"R(+	c #705A43",
"S(+	c #846F5A",
"T(+	c #887768",
"U(+	c #7A7064",
"V(+	c #51473D",
"W(+	c #63584D",
"X(+	c #B2A798",
"Y(+	c #BBB0A1",
"Z(+	c #ADA294",
"`(+	c #7B7267",
" _+	c #6D685E",
"._+	c #48413B",
"+_+	c #49413D",
"@_+	c #4B433E",
"#_+	c #504843",
"$_+	c #524945",
"%_+	c #544C48",
"&_+	c #524A46",
"*_+	c #48413C",
"=_+	c #302A27",
"-_+	c #80756B",
";_+	c #80746B",
">_+	c #7C7167",
",_+	c #7E7469",
"'_+	c #80776E",
")_+	c #4E4B4B",
"!_+	c #5F5549",
"~_+	c #887B6C",
"{_+	c #8A7D6D",
"]_+	c #372E25",
"^_+	c #382E24",
"/_+	c #493D2E",
"(_+	c #7C6E5B",
"__+	c #A1907B",
":_+	c #A79781",
"<_+	c #9D8D78",
"[_+	c #938370",
"}_+	c #8E7E6B",
"|_+	c #928270",
"1_+	c #948675",
"2_+	c #7E6F60",
"3_+	c #847465",
"4_+	c #8E7D6B",
"5_+	c #94816D",
"6_+	c #9B846E",
"7_+	c #967E68",
"8_+	c #7C6654",
"9_+	c #46352A",
"0_+	c #2E211B",
"a_+	c #423833",
"b_+	c #847A71",
"c_+	c #90867A",
"d_+	c #918579",
"e_+	c #918879",
"f_+	c #8F8677",
"g_+	c #8E8576",
"h_+	c #897F70",
"i_+	c #8A7358",
"j_+	c #906F4A",
"k_+	c #986E40",
"l_+	c #9C6E3D",
"m_+	c #8F6237",
"n_+	c #714927",
"o_+	c #59361A",
"p_+	c #573419",
"q_+	c #5A3A1D",
"r_+	c #806952",
"s_+	c #8D7B67",
"t_+	c #8F8270",
"u_+	c #918473",
"v_+	c #978C7C",
"w_+	c #978B7C",
"x_+	c #978A7B",
"y_+	c #93887A",
"z_+	c #94887B",
"A_+	c #94887C",
"B_+	c #94887A",
"C_+	c #948878",
"D_+	c #978A79",
"E_+	c #998B79",
"F_+	c #8D7D6C",
"G_+	c #614E40",
"H_+	c #584537",
"I_+	c #554132",
"J_+	c #5A4736",
"K_+	c #6B5743",
"L_+	c #8C7660",
"M_+	c #9A8975",
"N_+	c #948777",
"O_+	c #928776",
"P_+	c #908677",
"Q_+	c #8F8375",
"R_+	c #817265",
"S_+	c #6C5649",
"T_+	c #654938",
"U_+	c #6E503F",
"V_+	c #7E6250",
"W_+	c #8A7562",
"X_+	c #938471",
"Y_+	c #968B79",
"Z_+	c #998F7C",
"`_+	c #978C7D",
" :+	c #8D8374",
".:+	c #8A8072",
"+:+	c #999081",
"@:+	c #8E8474",
"#:+	c #6D6152",
"$:+	c #3E3122",
"%:+	c #372917",
"&:+	c #523D24",
"*:+	c #6B4F2E",
"=:+	c #80623A",
"-:+	c #91774E",
";:+	c #947D5B",
">:+	c #917F65",
",:+	c #8F826B",
"':+	c #8D806E",
"):+	c #8F8273",
"!:+	c #918576",
"~:+	c #968B7D",
"{:+	c #968C7E",
"]:+	c #968C7D",
"^:+	c #978C7E",
"/:+	c #96897B",
"(:+	c #998D7E",
"_:+	c #9B8F80",
"::+	c #9A8D7E",
"<:+	c #938677",
"[:+	c #938577",
"}:+	c #908174",
"|:+	c #8E7F72",
"1:+	c #8B7D70",
"2:+	c #8B7E71",
"3:+	c #8E8276",
"4:+	c #8D7E6E",
"5:+	c #85705D",
"6:+	c #7E654E",
"7:+	c #776049",
"8:+	c #8A7A69",
"9:+	c #988A7B",
"0:+	c #9A8D7F",
"a:+	c #998B7A",
"b:+	c #968978",
"c:+	c #918779",
"d:+	c #8A8073",
"e:+	c #877D70",
"f:+	c #80766B",
"g:+	c #736C65",
"h:+	c #7C6954",
"i:+	c #836E55",
"j:+	c #786550",
"k:+	c #332D28",
"l:+	c #47392F",
"m:+	c #564232",
"n:+	c #6D5743",
"o:+	c #836E5B",
"p:+	c #857666",
"q:+	c #5A5048",
"r:+	c #4B4137",
"s:+	c #5D5248",
"t:+	c #AFA394",
"u:+	c #B5A999",
"v:+	c #A59A8B",
"w:+	c #72695D",
"x:+	c #726C63",
"y:+	c #887E71",
"z:+	c #897D72",
"A:+	c #8C8176",
"B:+	c #8F847A",
"C:+	c #958A7F",
"D:+	c #988C83",
"E:+	c #9C8F87",
"F:+	c #968B83",
"G:+	c #7C7269",
"H:+	c #4A413B",
"I:+	c #453D38",
"J:+	c #565456",
"K:+	c #766C62",
"L:+	c #C5B9A9",
"M:+	c #C5B8A7",
"N:+	c #C5B7A6",
"O:+	c #C1B4A3",
"P:+	c #C4B8A7",
"Q:+	c #C5B9AA",
"R:+	c #A49A8C",
"S:+	c #635A51",
"T:+	c #3B393B",
"U:+	c #4B453C",
"V:+	c #6A6053",
"W:+	c #786E60",
"X:+	c #7B7062",
"Y:+	c #2D261D",
"Z:+	c #908470",
"`:+	c #817665",
" <+	c #7D7162",
".<+	c #7E7263",
"+<+	c #867B6D",
"@<+	c #807567",
"#<+	c #72675A",
"$<+	c #72685A",
"%<+	c #807465",
"&<+	c #877867",
"*<+	c #8E7C6A",
"=<+	c #8C7966",
"-<+	c #45372B",
";<+	c #2E221B",
"><+	c #403832",
",<+	c #645C55",
"'<+	c #888176",
")<+	c #898376",
"!<+	c #878174",
"~<+	c #837A69",
"{<+	c #887253",
"]<+	c #8E714D",
"^<+	c #91714B",
"/<+	c #856441",
"(<+	c #6B4E32",
"_<+	c #5A3F2A",
":<+	c #5A402B",
"<<+	c #5D452F",
"[<+	c #65503B",
"}<+	c #74634F",
"|<+	c #827869",
"1<+	c #847A6C",
"2<+	c #877C6F",
"3<+	c #897F73",
"4<+	c #887F72",
"5<+	c #867D71",
"6<+	c #837B6F",
"7<+	c #817A6F",
"8<+	c #847C6F",
"9<+	c #847B6F",
"0<+	c #7B7064",
"a<+	c #5A4D41",
"b<+	c #56473C",
"c<+	c #55463A",
"d<+	c #58493B",
"e<+	c #7C6B58",
"f<+	c #8B7A65",
"g<+	c #8A7C6A",
"h<+	c #887D6C",
"i<+	c #81796D",
"j<+	c #80776B",
"k<+	c #766A5E",
"l<+	c #655548",
"m<+	c #604B3E",
"n<+	c #685042",
"o<+	c #735D4E",
"p<+	c #7B6A59",
"q<+	c #837A6A",
"r<+	c #847D6E",
"s<+	c #857E70",
"t<+	c #857D70",
"u<+	c #7A7468",
"v<+	c #7F786D",
"w<+	c #837C71",
"x<+	c #867F73",
"y<+	c #615848",
"z<+	c #493D2D",
"A<+	c #493C2A",
"B<+	c #57452D",
"C<+	c #654F30",
"D<+	c #765E3D",
"E<+	c #846E4D",
"F<+	c #857458",
"G<+	c #7F745E",
"H<+	c #7E7563",
"I<+	c #827B70",
"J<+	c #888175",
"K<+	c #878075",
"L<+	c #827A6F",
"M<+	c #8C8377",
"N<+	c #8F867A",
"O<+	c #8F877B",
"P<+	c #8C8378",
"Q<+	c #887F73",
"R<+	c #877E72",
"S<+	c #857B6F",
"T<+	c #82786D",
"U<+	c #80776D",
"V<+	c #7D6C5B",
"W<+	c #78634F",
"X<+	c #725D4A",
"Y<+	c #736251",
"Z<+	c #7D6F60",
"`<+	c #867B6E",
" [+	c #877E73",
".[+	c #877D72",
"+[+	c #887D71",
"@[+	c #837B6E",
"#[+	c #847E72",
"$[+	c #7F786E",
"%[+	c #7C766B",
"&[+	c #787268",
"*[+	c #787168",
"=[+	c #79736A",
"-[+	c #756552",
";[+	c #7A6853",
">[+	c #564C3F",
",[+	c #3B3631",
"'[+	c #433930",
")[+	c #534233",
"![+	c #7D6D5B",
"~[+	c #7F7363",
"{[+	c #A1998B",
"][+	c #A8A092",
"^[+	c #9A9284",
"/[+	c #6B6559",
"([+	c #B4A999",
"_[+	c #B5A998",
":[+	c #B5A897",
"<[+	c #B9AC9C",
"[[+	c #BBAF9F",
"}[+	c #C2B5A6",
"|[+	c #C5B8AA",
"1[+	c #CBBEB0",
"2[+	c #C7B9AC",
"3[+	c #A2958A",
"4[+	c #5D5249",
"5[+	c #7D7063",
"6[+	c #C2B3A1",
"7[+	c #D9CAB5",
"8[+	c #D8C9B3",
"9[+	c #D7C7B1",
"0[+	c #D2C2AD",
"a[+	c #D4C5B1",
"b[+	c #D3C4B2",
"c[+	c #AEA190",
"d[+	c #64594F",
"e[+	c #312B23",
"f[+	c #1C1711",
"g[+	c #28211A",
"h[+	c #5A554A",
"i[+	c #6A6156",
"j[+	c #695E52",
"k[+	c #5A5045",
"l[+	c #362D26",
"m[+	c #231C18",
"n[+	c #332D2A",
"o[+	c #68655D",
"p[+	c #67655C",
"q[+	c #646056",
"r[+	c #695B49",
"s[+	c #6C5C47",
"t[+	c #574939",
"u[+	c #564A3C",
"v[+	c #584C3F",
"w[+	c #5E564C",
"x[+	c #605A50",
"y[+	c #4B453D",
"z[+	c #413A34",
"A[+	c #403831",
"B[+	c #473D34",
"C[+	c #54493D",
"D[+	c #5D5143",
"E[+	c #605549",
"F[+	c #605B51",
"G[+	c #4F4239",
"H[+	c #53443B",
"I[+	c #5B5044",
"J[+	c #5F594E",
"K[+	c #5D5A51",
"L[+	c #5F5C53",
"M[+	c #5B564C",
"N[+	c #54483A",
"O[+	c #574937",
"P[+	c #574833",
"Q[+	c #5D4E39",
"R[+	c #5F594D",
"S[+	c #706D64",
"T[+	c #6C6961",
"U[+	c #6A675E",
"V[+	c #625547",
"W[+	c #5F5144",
"X[+	c #5D5045",
"Y[+	c #5B524A",
"Z[+	c #544C42",
"`[+	c #5F5447",
" }+	c #4E473E",
".}+	c #403833",
"+}+	c #453930",
"@}+	c #514338",
"#}+	c #544E45",
"$}+	c #3B342E",
"%}+	c #756E65",
"&}+	c #6F6960",
"*}+	c #91887B",
"=}+	c #B7AA98",
"-}+	c #BAAA98",
";}+	c #BDAF9C",
">}+	c #C0B19F",
",}+	c #C7B7A5",
"'}+	c #CBBCAA",
")}+	c #D1C3B3",
"!}+	c #CDBFB0",
"~}+	c #A7998B",
"{}+	c #5E5247",
"]}+	c #594F45",
"^}+	c #3B332C",
"/}+	c #C6B6A1",
"(}+	c #D9C8B2",
"_}+	c #D5C4AE",
":}+	c #D3C1AA",
"<}+	c #CFBDA6",
"[}+	c #D0BFA8",
"}}+	c #D0C0AB",
"|}+	c #AFA18D",
"1}+	c #7D7060",
"2}+	c #685B4D",
"3}+	c #433B32",
"4}+	c #1D1F1E",
"5}+	c #211F1B",
"6}+	c #37332F",
"7}+	c #49453E",
"8}+	c #352E29",
"9}+	c #3A332C",
"0}+	c #403933",
"a}+	c #413A33",
"b}+	c #47433A",
"c}+	c #4A4339",
"d}+	c #544B43",
"e}+	c #4C443E",
"f}+	c #49463E",
"g}+	c #3B3633",
"h}+	c #39312B",
"i}+	c #24211E",
"j}+	c #1B1C24",
"k}+	c #B3A591",
"l}+	c #B5A791",
"m}+	c #B5A590",
"n}+	c #BAAA95",
"o}+	c #BCAD98",
"p}+	c #C3B39F",
"q}+	c #C8B8A6",
"r}+	c #CFBFAD",
"s}+	c #CDBEAD",
"t}+	c #A69888",
"u}+	c #605447",
"v}+	c #5A5146",
"w}+	c #3C3630",
"x}+	c #C5B3A0",
"y}+	c #D6C5AF",
"z}+	c #D1C1AA",
"A}+	c #CDBCA5",
"B}+	c #D0BFAB",
"C}+	c #B1A28F",
"D}+	c #685A4C",
"E}+	c #65584B",
"F}+	c #121413",
"G}+	c #2B2726",
"H}+	c #46433B",
"I}+	c #4A453E",
"J}+	c #32312C",
"K}+	c #B5A893",
"L}+	c #BAAC95",
"M}+	c #BBAC95",
"N}+	c #BFAF9A",
"O}+	c #C7B7A3",
"P}+	c #CABAA7",
"Q}+	c #CFC0AE",
"R}+	c #CCBDAB",
"S}+	c #A39584",
"T}+	c #706355",
"U}+	c #5D5146",
"V}+	c #2D2A25",
"W}+	c #554A3B",
"X}+	c #857765",
"Y}+	c #C5B5A1",
"Z}+	c #D7C8B1",
"`}+	c #D5C6AF",
" |+	c #D3C4AD",
".|+	c #D1C1AC",
"+|+	c #D5C6B2",
"@|+	c #B7A897",
"#|+	c #857768",
"$|+	c #695D50",
"%|+	c #343029",
"&|+	c #191B1B",
"*|+	c #080909",
"=|+	c #10110F",
"-|+	c #242522",
";|+	c #46413E",
">|+	c #47453D",
",|+	c #45433C",
"'|+	c #494840",
")|+	c #34342E",
"!|+	c #5B574E",
"~|+	c #BEB19C",
"{|+	c #C6B9A2",
"]|+	c #C7B9A3",
"^|+	c #CBBCA8",
"/|+	c #CBBCA9",
"(|+	c #CEC0AD",
"_|+	c #CEC1AF",
":|+	c #D2C7B4",
"<|+	c #CFC2B1",
"[|+	c #A49888",
"}|+	c #706557",
"||+	c #5F5449",
"1|+	c #5C534A",
"2|+	c #BBAF9A",
"3|+	c #D1C3AE",
"4|+	c #D2C4B0",
"5|+	c #D3C6B1",
"6|+	c #D1C5B1",
"7|+	c #D3C7B4",
"8|+	c #D7CBB8",
"9|+	c #B9AD9C",
"0|+	c #1E1F1D",
"a|+	c #515049",
"b|+	c #585348",
"c|+	c #665F53",
"d|+	c #696156",
"e|+	c #635E54",
"f|+	c #686258",
"g|+	c #5E5E5A",
"h|+	c #958E7F",
"i|+	c #C3B8A3",
"j|+	c #CBC0AA",
"k|+	c #C8BCA8",
"l|+	c #C8BDAB",
"m|+	c #C7BDAC",
"n|+	c #CBC1B0",
"o|+	c #CBC2B3",
"p|+	c #D1C8B9",
"q|+	c #CDC2B4",
"r|+	c #A09689",
"s|+	c #6C6357",
"t|+	c #5E554A",
"u|+	c #4C483E",
"v|+	c #6E6354",
"w|+	c #918776",
"x|+	c #9E9383",
"y|+	c #A19586",
"z|+	c #A79C8C",
"A|+	c #A89D8E",
"B|+	c #ACA192",
"C|+	c #AEA495",
"D|+	c #999082",
"E|+	c #0B0C0C",
"F|+	c #5A5952",
"G|+	c #615F58",
"H|+	c #312B27",
"I|+	c #746D62",
"J|+	c #5F5B51",
"K|+	c #6F685C",
"L|+	c #69655B",
"M|+	c #656157",
"N|+	c #5D5A52",
"O|+	c #A69C8A",
"P|+	c #A29888",
"Q|+	c #9C9385",
"R|+	c #978E82",
"S|+	c #9C9487",
"T|+	c #9F988D",
"U|+	c #A7A096",
"V|+	c #A49D93",
"W|+	c #827B71",
"X|+	c #686058",
"Y|+	c #282723",
"Z|+	c #3B3531",
"`|+	c #332D29",
" 1+	c #4D4642",
".1+	c #726B5F",
"+1+	c #867D6D",
"@1+	c #373732",
"#1+	c #6C685E",
"$1+	c #656257",
"%1+	c #3F3B3A",
"&1+	c #7D7468",
"*1+	c #4C4642",
"=1+	c #363230",
"-1+	c #575043",
";1+	c #59514C",
">1+	c #413B36",
",1+	c #4D4643",
"'1+	c #43433C",
")1+	c #756F64",
"!1+	c #646159",
"~1+	c #6B685F",
"{1+	c #636057",
"]1+	c #5E5B53",
"^1+	c #4C4841",
"/1+	c #4E4844",
"(1+	c #4C4541",
"_1+	c #494340",
":1+	c #4A4442",
"<1+	c #494442",
"[1+	c #615950",
"}1+	c #70665A",
"|1+	c #282B2E",
"11+	c #1B1D21",
"21+	c #544E4C",
"31+	c #6C6156",
"41+	c #454845",
"51+	c #03040C",
"61+	c #191B1F",
"71+	c #524D4B",
"81+	c #55504E",
"91+	c #544D47",
"01+	c #685D51",
"a1+	c #6C6053",
"b1+	c #3C3C40",
"c1+	c #464549",
"d1+	c #4E504F",
"e1+	c #4F5050",
"f1+	c #47433C",
"g1+	c #544C47",
"h1+	c #60564C",
"i1+	c #6F6356",
"j1+	c #6E6358",
"k1+	c #695F56",
"l1+	c #5C554E",
"m1+	c #6A645E",
"n1+	c #403B39",
"o1+	c #4D4949",
"p1+	c #1A1B22",
"q1+	c #1A1D22",
"r1+	c #39383C",
"s1+	c #3D3838",
"t1+	c #3D3938",
"u1+	c #403C3C",
"v1+	c #494841",
"w1+	c #564D41",
"x1+	c #6C6255",
"y1+	c #726659",
"z1+	c #72675B",
"A1+	c #6E6762",
"B1+	c #706B66",
"C1+	c #574E44",
"D1+	c #574E46",
"E1+	c #554D46",
"F1+	c #544D44",
"G1+	c #433F37",
"H1+	c #47423B",
"I1+	c #6D665D",
"J1+	c #6A635A",
"K1+	c #706A5B",
"L1+	c #756E5F",
"M1+	c #766F61",
"N1+	c #777063",
"O1+	c #787164",
"P1+	c #726C5F",
"Q1+	c #4B443C",
"R1+	c #867A66",
"S1+	c #867966",
"T1+	c #736859",
"U1+	c #5D5244",
"V1+	c #51483A",
"W1+	c #534B3E",
"X1+	c #4D4840",
"Y1+	c #695E53",
"Z1+	c #6D6256",
"`1+	c #675F55",
" 2+	c #5D5246",
".2+	c #867968",
"+2+	c #867868",
"@2+	c #857868",
"#2+	c #887B6B",
"$2+	c #877C6B",
"%2+	c #7F7464",
"&2+	c #5E5547",
"*2+	c #787161",
"=2+	c #7F7766",
"-2+	c #766C5D",
";2+	c #706858",
">2+	c #9C9280",
",2+	c #9F9381",
"'2+	c #9B9082",
")2+	c #95897C",
"!2+	c #72665A",
"~2+	c #483B2E",
"{2+	c #3B2E20",
"]2+	c #3D3226",
"^2+	c #554D3F",
"/2+	c #786E5C",
"(2+	c #978C76",
"_2+	c #A39780",
":2+	c #A49881",
"<2+	c #A69B84",
"[2+	c #A89D86",
"}2+	c #9F937E",
"|2+	c #52463B",
"12+	c #52473E",
"22+	c #3F403B",
"32+	c #423C38",
"42+	c #51473E",
"52+	c #706451",
"62+	c #978A75",
"72+	c #AEA089",
"82+	c #B2A38C",
"92+	c #B0A38D",
"02+	c #AC9F8B",
"a2+	c #594D3B",
"b2+	c #63594F",
"c2+	c #655B4F",
"d2+	c #6C635A",
"e2+	c #666058",
"f2+	c #4C4942",
"g2+	c #534B45",
"h2+	c #615346",
"i2+	c #8A7968",
"j2+	c #AC9984",
"k2+	c #AF9C87",
"l2+	c #AE9A85",
"m2+	c #AD9C88",
"n2+	c #9F8F7C",
"o2+	c #81715E",
"p2+	c #615545",
"q2+	c #3E3A3B",
"r2+	c #A49880",
"s2+	c #9F917B",
"t2+	c #948771",
"u2+	c #968A77",
"v2+	c #888071",
"w2+	c #60594E",
"x2+	c #494B48",
"y2+	c #030103",
"z2+	c #3B3427",
"A2+	c #564C3C",
"B2+	c #B3A690",
"C2+	c #B5A690",
"D2+	c #B2A28C",
"E2+	c #B1A491",
"F2+	c #A99B8A",
"G2+	c #4E3E2E",
"H2+	c #3F2F1C",
"I2+	c #403322",
"J2+	c #564D3A",
"K2+	c #877B65",
"L2+	c #B0A289",
"M2+	c #BFB194",
"N2+	c #BEB193",
"O2+	c #BEB295",
"P2+	c #C0B498",
"Q2+	c #B4A58D",
"R2+	c #645444",
"S2+	c #5A4B3E",
"T2+	c #5C4F44",
"U2+	c #524940",
"V2+	c #433C37",
"W2+	c #4D433D",
"X2+	c #5A4E45",
"Y2+	c #746854",
"Z2+	c #BFB09A",
"`2+	c #C4B69F",
" 3+	c #C3B7A0",
".3+	c #C2B7A1",
"+3+	c #BEB19E",
"@3+	c #A09381",
"#3+	c #574B37",
"$3+	c #504637",
"%3+	c #625A4E",
"&3+	c #6D655B",
"*3+	c #564D47",
"=3+	c #52473D",
"-3+	c #978573",
";3+	c #BFAC96",
">3+	c #C2AD98",
",3+	c #C0AC95",
"'3+	c #BDAA93",
")3+	c #BEAD98",
"!3+	c #AD9B87",
"~3+	c #877560",
"{3+	c #70604A",
"]3+	c #655744",
"^3+	c #403D3E",
"/3+	c #AC9C82",
"(3+	c #9D8C75",
"_3+	c #9E8F7A",
":3+	c #383329",
"<3+	c #3D3627",
"[3+	c #ADA08A",
"}3+	c #AC9E87",
"|3+	c #AA9B85",
"13+	c #AA9C87",
"23+	c #A49886",
"33+	c #7E705F",
"43+	c #52422F",
"53+	c #45341F",
"63+	c #443523",
"73+	c #3E3427",
"83+	c #494232",
"93+	c #564D39",
"03+	c #AFA289",
"a3+	c #BDB093",
"b3+	c #BAAE92",
"c3+	c #B9AE94",
"d3+	c #BAB096",
"e3+	c #AEA28A",
"f3+	c #897B68",
"g3+	c #635544",
"h3+	c #5D4F42",
"i3+	c #5F5347",
"j3+	c #3E3F3A",
"k3+	c #5D5141",
"l3+	c #736956",
"m3+	c #9D937F",
"n3+	c #B7AC99",
"o3+	c #BAB09D",
"p3+	c #B8B09D",
"q3+	c #B7AF9E",
"r3+	c #B2A999",
"s3+	c #948A79",
"t3+	c #655A48",
"u3+	c #514634",
"v3+	c #514635",
"w3+	c #3B342A",
"x3+	c #6A6359",
"y3+	c #675A4C",
"z3+	c #968776",
"A3+	c #BBAB97",
"B3+	c #B9AA95",
"C3+	c #B7A894",
"D3+	c #BAAD99",
"E3+	c #BBAE9A",
"F3+	c #A89984",
"G3+	c #6D5E47",
"H3+	c #645842",
"I3+	c #574E3D",
"J3+	c #A79880",
"K3+	c #A4957E",
"L3+	c #9E907A",
"M3+	c #9C8D78",
"N3+	c #988A77",
"O3+	c #8B806E",
"P3+	c #453D30",
"Q3+	c #302B20",
"R3+	c #1E1B16",
"S3+	c #3C362F",
"T3+	c #4A4233",
"U3+	c #594F3F",
"V3+	c #7B715E",
"W3+	c #897E6C",
"X3+	c #8A8070",
"Y3+	c #8D8373",
"Z3+	c #6B6050",
"`3+	c #51432F",
" 4+	c #4B3A26",
".4+	c #453724",
"+4+	c #392F22",
"@4+	c #4C4439",
"#4+	c #5A4E3D",
"$4+	c #918571",
"%4+	c #968D77",
"&4+	c #928A76",
"*4+	c #938C7A",
"=4+	c #968F7D",
"-4+	c #8F8775",
";4+	c #5B4F44",
">4+	c #574D44",
",4+	c #453E37",
"'4+	c #2F2A25",
")4+	c #3C3E38",
"!4+	c #3E403A",
"~4+	c #484139",
"{4+	c #847D6D",
"]4+	c #8F8A7D",
"^4+	c #8D887C",
"/4+	c #8D877D",
"(4+	c #8B867B",
"_4+	c #5B5343",
":4+	c #51483F",
"<4+	c #85796B",
"[4+	c #998E7E",
"}4+	c #91887A",
"|4+	c #978E81",
"14+	c #615540",
"24+	c #5D523F",
"34+	c #524A3B",
"44+	c #302D2E",
"54+	c #8E8270",
"64+	c #8C8172",
"74+	c #897E6F",
"84+	c #877C6D",
"94+	c #776D5D",
"04+	c #242017",
"a4+	c #1C1A14",
"b4+	c #49433A",
"c4+	c #5C5448",
"d4+	c #4F4130",
"e4+	c #4D3F2B",
"f4+	c #443826",
"g4+	c #322B1E",
"h4+	c #29251E",
"i4+	c #6D6150",
"j4+	c #594F48",
"k4+	c #3D3F38",
"l4+	c #3D403A",
"m4+	c #60574C",
"n4+	c #4F4D45",
"o4+	c #4D4C45",
"p4+	c #5B554C",
"q4+	c #564E40",
"r4+	c #6F655D",
"s4+	c #5C564A",
"t4+	c #50493B",
"u4+	c #302D26",
"v4+	c #6D6456",
"w4+	c #4E4740",
"x4+	c #4C453B",
"y4+	c #453E32",
"z4+	c #352E23",
"A4+	c #241F17",
"B4+	c #665F52",
"C4+	c #605648",
"D4+	c #554C41",
"E4+	c #4A433D",
"F4+	c #4D463E",
"G4+	c #4D4235",
"H4+	c #4C4030",
"I4+	c #413728",
"J4+	c #2D271D",
"K4+	c #1E1A17",
"L4+	c #6F6659",
"M4+	c #6E6356",
"N4+	c #5E5752",
"O4+	c #3D3F3A",
"P4+	c #3D403B",
"Q4+	c #575048",
"R4+	c #5A5347",
"S4+	c #595346",
"T4+	c #5A574F",
"U4+	c #58564E",
"V4+	c #434039",
"W4+	c #4E493E",
"X4+	c #736C63",
"Y4+	c #6E675D",
"Z4+	c #312E30",
"`4+	c #302B2B",
" 5+	c #26211A",
".5+	c #191A17",
"+5+	c #605B4E",
"@5+	c #615A4D",
"#5+	c #443C31",
"$5+	c #6D665C",
"%5+	c #6A6358",
"&5+	c #2F3035",
"*5+	c #656158",
"=5+	c #726E64",
"-5+	c #565247",
";5+	c #4F4E47",
">5+	c #2D2F34",
",5+	c #2A2A30",
"'5+	c #2B282A",
")5+	c #080A0F",
"!5+	c #1B1C17",
"~5+	c #49453B",
"{5+	c #191915",
"]5+	c #65645C",
"^5+	c #595952",
"/5+	c #302D2D",
"(5+	c #2F2B2B",
"_5+	c #333034",
":5+	c #323036",
"<5+	c #2F2E34",
"[5+	c #2C2D32",
"}5+	c #29272C",
"|5+	c #26221F",
"15+	c #343633",
"25+	c #2E2C32",
"35+	c #2E2D33",
"45+	c #202227",
"55+	c #4B4949",
"65+	c #181514",
"75+	c #535152",
"85+	c #7C776F",
"95+	c #6C6660",
"05+	c #363439",
"a5+	c #302E33",
"b5+	c #636160",
"c5+	c #5F605B",
"d5+	c #2E2C30",
"e5+	c #565656",
"f5+	c #312E33",
"g5+	c #565657",
"h5+	c #2D2B30",
"i5+	c #373537",
"j5+	c #413833",
"k5+	c #39312A",
"l5+	c #3D3431",
"m5+	c #3E302A",
"n5+	c #3C2921",
"o5+	c #352116",
"p5+	c #28170A",
"q5+	c #1B0F08",
"r5+	c #1C130F",
"s5+	c #373539",
"t5+	c #383639",
"u5+	c #2D2B2F",
"v5+	c #3B322D",
"w5+	c #3A2A22",
"x5+	c #3A2217",
"y5+	c #391E0F",
"z5+	c #321607",
"A5+	c #2A1106",
"B5+	c #241109",
"C5+	c #221510",
"D5+	c #1B1313",
"E5+	c #110D10",
"F5+	c #372E2B",
"G5+	c #392820",
"H5+	c #3C2116",
"I5+	c #412112",
"J5+	c #401F10",
"K5+	c #3C1E11",
"L5+	c #331B12",
"M5+	c #2B1A15",
"N5+	c #1E1514",
"O5+	c #140F11",
"P5+	c #262622",
"Q5+	c #332B2A",
"R5+	c #3C2B26",
"S5+	c #44291F",
"T5+	c #4B2A1B",
"U5+	c #4C2B1B",
"V5+	c #482A1C",
"W5+	c #3C241A",
"X5+	c #2E1E17",
"Y5+	c #0E0C11",
"Z5+	c #7B7872",
"`5+	c #3C2F2C",
" 6+	c #442F28",
".6+	c #4B3125",
"+6+	c #4A2F22",
"@6+	c #462D22",
"#6+	c #3B261D",
"$6+	c #2C1E18",
"%6+	c #181110",
"&6+	c #2E2C26",
"*6+	c #7D7972",
"=6+	c #1A1D1F",
"-6+	c #1D2022",
";6+	c #3E3432",
">6+	c #463730",
",6+	c #4A392D",
"'6+	c #483429",
")6+	c #453228",
"!6+	c #3A2921",
"~6+	c #2B201A",
"{6+	c #171110",
"]6+	c #171415",
"^6+	c #393126",
"/6+	c #312A24",
"(6+	c #2E2A24",
"_6+	c #413B38",
":6+	c #5A524C",
"<6+	c #433D32",
"[6+	c #3D322D",
"}6+	c #41342C",
"|6+	c #40332A",
"16+	c #3E322A",
"26+	c #362C25",
"36+	c #383026",
"46+	c #352D24",
"56+	c #2C2724",
"66+	c #3D3632",
"76+	c #473F38",
"86+	c #4E463E",
"96+	c #474039",
"06+	c #7C6E56",
"a6+	c #796C56",
"b6+	c #756854",
"c6+	c #635A4B",
"d6+	c #756C5F",
"e6+	c #766E61",
"f6+	c #7A7060",
"g6+	c #887C6B",
"h6+	c #918471",
"i6+	c #988C76",
"j6+	c #8B816D",
"k6+	c #696252",
"l6+	c #7C7460",
"m6+	c #807562",
"n6+	c #7E7360",
"o6+	c #786E5D",
"p6+	c #776F60",
"q6+	c #141616",
"r6+	c #2A2420",
"s6+	c #2D2521",
"t6+	c #2C2520",
"u6+	c #27211D",
"v6+	c #7D776B",
"w6+	c #908879",
"x6+	c #8E8777",
"y6+	c #2D2827",
"z6+	c #685D4A",
"A6+	c #786951",
"B6+	c #7D6B51",
"C6+	c #7F6D52",
"D6+	c #79674E",
"E6+	c #6D5D48",
"F6+	c #625645",
"G6+	c #63574A",
"H6+	c #695F54",
"I6+	c #6A5F54",
"J6+	c #6A5F53",
"K6+	c #6B6054",
"L6+	c #766B60",
"M6+	c #7A6E61",
"N6+	c #938673",
"O6+	c #756F61",
"P6+	c #A6936F",
"Q6+	c #A5926D",
"R6+	c #A18C6A",
"S6+	c #9F8B6B",
"T6+	c #9B886A",
"U6+	c #968468",
"V6+	c #90846E",
"W6+	c #A0927E",
"X6+	c #9F917C",
"Y6+	c #988972",
"Z6+	c #B9A481",
"`6+	c #AE9D80",
" 7+	c #887E6A",
".7+	c #A2947C",
"+7+	c #948571",
"@7+	c #918574",
"#7+	c #131310",
"$7+	c #121311",
"%7+	c #0A0B09",
"&7+	c #7C7567",
"*7+	c #B9AE9A",
"=7+	c #D4C8B0",
"-7+	c #D5C8AE",
";7+	c #C7BAA3",
">7+	c #AB9E8C",
",7+	c #867B6F",
"'7+	c #433D3B",
")7+	c #372E2A",
"!7+	c #938162",
"~7+	c #AB946A",
"{7+	c #B1976A",
"]7+	c #B4986B",
"^7+	c #AA8F67",
"/7+	c #98805F",
"(7+	c #8B755A",
"_7+	c #8B775D",
":7+	c #8A7860",
"<7+	c #8B7962",
"[7+	c #8A7964",
"}7+	c #8A7966",
"|7+	c #8C7C69",
"17+	c #8C7D6A",
"27+	c #8F7F6E",
"37+	c #928170",
"47+	c #948372",
"57+	c #958372",
"67+	c #968572",
"77+	c #9A8877",
"87+	c #9C8B7A",
"97+	c #9E8E7D",
"07+	c #9E8D7A",
"a7+	c #C6B395",
"b7+	c #C7B497",
"c7+	c #998D79",
"d7+	c #161215",
"e7+	c #B2A28F",
"f7+	c #AE9970",
"g7+	c #AF986F",
"h7+	c #AA946C",
"i7+	c #A7926D",
"j7+	c #A08C6B",
"k7+	c #9E8A6A",
"l7+	c #9A8769",
"m7+	c #97856B",
"n7+	c #9D8F77",
"o7+	c #A5967E",
"p7+	c #A99A83",
"q7+	c #9F8F77",
"r7+	c #A29076",
"s7+	c #B49E7B",
"t7+	c #BDA57E",
"u7+	c #C3A980",
"v7+	c #C8AF86",
"w7+	c #BCA783",
"x7+	c #8E7E64",
"y7+	c #493E2C",
"z7+	c #2A2119",
"A7+	c #8C806D",
"B7+	c #A4947B",
"C7+	c #97856F",
"D7+	c #7B7165",
"E7+	c #3C3731",
"F7+	c #E2D2B6",
"G7+	c #D2C1A6",
"H7+	c #B3A38E",
"I7+	c #8B7E70",
"J7+	c #736960",
"K7+	c #3B312A",
"L7+	c #695944",
"M7+	c #A18A63",
"N7+	c #BB9F6B",
"O7+	c #C1A16B",
"P7+	c #C4A36E",
"Q7+	c #B69768",
"R7+	c #A2875F",
"S7+	c #957D5C",
"T7+	c #978062",
"U7+	c #988366",
"V7+	c #978368",
"W7+	c #948066",
"X7+	c #95826B",
"Y7+	c #97856E",
"Z7+	c #978570",
"`7+	c #9A8973",
" 8+	c #A08D79",
".8+	c #9F8C78",
"+8+	c #A18D78",
"@8+	c #A18E78",
"#8+	c #A4927D",
"$8+	c #A79582",
"%8+	c #A99684",
"&8+	c #A7947F",
"*8+	c #AB967E",
"=8+	c #CFB894",
"-8+	c #D1B995",
";8+	c #1E1B1B",
">8+	c #8A7D6F",
",8+	c #BDAA95",
"'8+	c #B09B72",
")8+	c #AF9A70",
"!8+	c #AB976F",
"~8+	c #A7956F",
"{8+	c #A08E6D",
"]8+	c #9C8B6B",
"^8+	c #97876C",
"/8+	c #8B7D67",
"(8+	c #9A8D76",
"_8+	c #A3967F",
":8+	c #A79A83",
"<8+	c #A69982",
"[8+	c #A69981",
"}8+	c #A3957E",
"|8+	c #9F9179",
"18+	c #9D8E76",
"28+	c #A59273",
"38+	c #B39D78",
"48+	c #BFA67C",
"58+	c #C6AC7E",
"68+	c #C9B082",
"78+	c #BEA77F",
"88+	c #493E2A",
"98+	c #271F16",
"08+	c #2F271F",
"a8+	c #9F927A",
"b8+	c #988771",
"c8+	c #998A77",
"d8+	c #2B2720",
"e8+	c #39342D",
"f8+	c #82786A",
"g8+	c #E2D3B6",
"h8+	c #DFCFB0",
"i8+	c #D0BFA3",
"j8+	c #B0A18B",
"k8+	c #897C6D",
"l8+	c #443D39",
"m8+	c #372D25",
"n8+	c #66563F",
"o8+	c #A0885F",
"p8+	c #BDA069",
"q8+	c #C4A269",
"r8+	c #C4A46B",
"s8+	c #B59665",
"t8+	c #A0845D",
"u8+	c #947B5B",
"v8+	c #968062",
"w8+	c #938067",
"x8+	c #93806A",
"y8+	c #988570",
"z8+	c #9C8A75",
"A8+	c #A08C78",
"B8+	c #A79581",
"C8+	c #AC977D",
"D8+	c #C0A987",
"E8+	c #D1B990",
"F8+	c #D2BA90",
"G8+	c #C6B08A",
"H8+	c #A08F72",
"I8+	c #5E5442",
"J8+	c #83776A",
"K8+	c #9A8864",
"L8+	c #968560",
"M8+	c #8F7F5D",
"N8+	c #8A7B5D",
"O8+	c #817359",
"P8+	c #7B6E56",
"Q8+	c #756A53",
"R8+	c #756B55",
"S8+	c #726855",
"T8+	c #6F6654",
"U8+	c #685F4E",
"V8+	c #7D7563",
"W8+	c #807765",
"X8+	c #807865",
"Y8+	c #817866",
"Z8+	c #7F7665",
"`8+	c #7D7462",
" 9+	c #85765C",
".9+	c #958362",
"+9+	c #A38C66",
"@9+	c #A88F64",
"#9+	c #A89065",
"$9+	c #9E8964",
"%9+	c #79694D",
"&9+	c #3A3021",
"*9+	c #18120D",
"=9+	c #8C7E6D",
"-9+	c #8A7F6F",
";9+	c #696257",
">9+	c #24221C",
",9+	c #ACA392",
"'9+	c #C7BDA6",
")9+	c #C4B9A0",
"!9+	c #B6AA93",
"~9+	c #9A8F7D",
"{9+	c #2C241D",
"]9+	c #554834",
"^9+	c #8A7754",
"/9+	c #A68D5F",
"(9+	c #AC905F",
"_9+	c #AB915F",
":9+	c #9B8359",
"<9+	c #856F51",
"[9+	c #78664E",
"}9+	c #766957",
"|9+	c #7A6C5B",
"19+	c #807262",
"29+	c #807161",
"39+	c #817262",
"49+	c #837565",
"59+	c #8B7C69",
"69+	c #A99473",
"79+	c #B7A079",
"89+	c #B69E75",
"99+	c #AA9570",
"09+	c #89785C",
"a9+	c #4E4535",
"b9+	c #605239",
"c9+	c #5C4F36",
"d9+	c #554B34",
"e9+	c #504634",
"f9+	c #403A2E",
"g9+	c #413B30",
"h9+	c #3E392F",
"i9+	c #38342C",
"j9+	c #4B4335",
"k9+	c #5F513E",
"l9+	c #6E5C43",
"m9+	c #715D3E",
"n9+	c #6B5839",
"o9+	c #615136",
"p9+	c #493D2A",
"q9+	c #524A3F",
"r9+	c #5B5249",
"s9+	c #645B51",
"t9+	c #625A51",
"u9+	c #7D7668",
"v9+	c #393432",
"w9+	c #2F281B",
"x9+	c #564932",
"y9+	c #6C5A3C",
"z9+	c #705C3C",
"A9+	c #6F5D3D",
"B9+	c #625339",
"C9+	c #4F4231",
"D9+	c #42382E",
"E9+	c #3F3930",
"F9+	c #413B33",
"G9+	c #494139",
"H9+	c #4A433B",
"I9+	c #4D443C",
"J9+	c #4F473F",
"K9+	c #554B41",
"L9+	c #5D4F3F",
"M9+	c #6F5E46",
"N9+	c #786547",
"O9+	c #735F40",
"P9+	c #69583C",
"Q9+	c #524531",
"R9+	c #2A2218",
"S9+	c #362C1C",
"T9+	c #342B1C",
"U9+	c #2E281D",
"V9+	c #3D352E",
"W9+	c #4E4236",
"X9+	c #514331",
"Y9+	c #483A27",
"Z9+	c #3C3021",
"`9+	c #292117",
" 0+	c #2A2526",
".0+	c #312C2A",
"+0+	c #0E0A0C",
"@0+	c #0E0909",
"#0+	c #010303",
"$0+	c #211D1E",
"%0+	c #2F291D",
"&0+	c #3F3626",
"*0+	c #423626",
"=0+	c #423828",
"-0+	c #302C2E",
";0+	c #312E31",
">0+	c #463A2C",
",0+	c #4C3D2A",
"'0+	c #42331E",
")0+	c #382A19",
"!0+	c #281E13",
"~0+	c #312D2C",
"{0+	c #332C21",
"]0+	c #221D16",
"^0+	c #120C0F",
"/0+	c #150B0C",
"(0+	c #180B09",
"_0+	c #170A08",
":0+	c #353026",
"<0+	c #191D22",
"[0+	c #181B1C",
"}0+	c #0F1316",
"|0+	c #3A3022",
"10+	c #2E251A",
"20+	c #201B15",
"30+	c #323027",
"40+	c #191C1E",
"50+	c #413B2E",
"60+	c #353025",
"70+	c #464949",
"80+	c #4A4C4D",
"90+	c #140D10",
"00+	c #190C0C",
"a0+	c #1B0B0A",
"b0+	c #1A0A08",
"c0+	c #130705",
"d0+	c #0D0E17",
"e0+	c #26251E",
"f0+	c #333128",
"g0+	c #191C21",
"h0+	c #181D21",
"i0+	c #393226",
"j0+	c #2B251C",
"k0+	c #1E1C16",
"   .  +  @  #  $  %  &  *  =  -  ;  >  ,  '  )  !  ~  {  ]  ^  /  (  _  :  <  [  }  |  1  2  3  4  5  6  7  8  9  0  a  b  c  d  e  f  g  h  i  j  k  l  m  n  o  p  q  r  s  t  u  v  w  x  y  z  A  B  C  D  E  F  G  H  I  J  K  L  M  N  O  P  Q  R  S  T  U  V  W  X  Y  Z  `   . .. .. +. @. #. $. %. &. *. =. -. ;. >. ,. '. ). ). !. ~. {. ]. ^. /. (. _. :. <. [. }. |. 1. 2. 3. 4. 5. 6. 7. 8. 9. 0. a. b. c. d. e. f. g. h. i. j. k. l. m. n. o. p. q. r. s. t. u. v. w. x. y. z. A. B. C. D. E. F. G. H. I. J. K. k. L. M. N. O. P. Q. R. S. T. U. V. W. X. Y. Y. Z. `.  +  + .+ ++ @+ #+ ~. $+ %+ &+ *+ =+ -+ ;+ >+ ,+ '+ )+ !+ ~+ {+ ]+ ^+ /+ (+ _+ :+ <+ [+ }+ |+ 1+ 2+ 3+ 4+ 5+ 6+ 7+ 8+ 9+ 0+ a+ b+ c+ F  d+ e+ f+ g+ g+ h+ i+ j+ k+ l+ m+ n+ o+ p+ K  q+ r+ s+ t+ u+ v+ w+ x+ y+ z+ A+ B+ C+ D+ D+ E+ F+ G+ H+ I+ J+ K+ L+ M+ N+ O+ P+ Q+ R+ S+ T+ U+ V+ W+ X+ Y+ Z+ `+  @ .@ +@ @@ #@ $@ %@ &@ *@ =@ -@ ;@ >@ ,@ '@ )@ !@ ~@ {@ ,  r+ ]@ ^@ /@ (@ (@ (@ y+ _@ :@ <@ [@ }@ |@ 1@ 2@ 3@ 4@ 5@ 6@ 7@ 8@ 9@ 0@ a@ b@ c@ d@ e@ f@ g@ h@ i@ ",
"j@ k@ l@ m@ n@ o@ p@ q@ r@ s@ t@ u@ v@ w@ x@ y@ z@ A@ B@ C@ D@ E@ F@ G@ H@ I@ J@ K@ L@ M@ N@ N@ .+ O@ P@ Q@ R@ 6. S@ T@ U@ V@ W@ X@ Y@ Z@ `@  # .# +# @# ## $# %# &# *# =# -# ;# ># ,# '# )# !# ~# {# ]# ^# /# (# 1  _# :# <# [# }# |# 1# 2# '. !+ 3# 4# 5# 6# 7# 8# 9# 0# a# b# c# d# e# f# g# h# i# j# k# l# m# n# o# p# q# r# s# t# u# v# w# x# y# z# A# B# C# D# E# F# G# H# J@ I# J# K# L# M# N# O# P# Q# R# S# T# U# V# W# X# Y# Z# `#  $ .$ +$ @$ #$ $$ %$ &$ *$ v+ =$ -$ ;$ >$ ,$ '$ )$ !$ ~$ {$ ]$ ^$ /$ ($ _$ :$ <$ [$ }$ |$ r+ 1$ 2$ 3$ 4$ 5$ 6$ 7$ 8$ 9$ 0$ a$ b$ c$ d$ e$ f$ M@ g$ h$ i$ j$ k$ l$ m$ !+ n$ c# o$ p$ q$ r$ 3# ~+ s$ t$ u$ v$ [+ w$ x$ y$ z$ A$ B$ C$ D$ D$ E$ F$ 5+ G$ H$ I$ J$ K$ 2@ L$ M$ N$ O$ P$ d$ Q$ R$ S$ T$ U$ V$ W$ X$ Y$ Z$ `$  % .% +% @% #% $% %% &% *% =% -% -% ;% >% ,% '% )% M@ !% ~% t. {% ]% ^% /% +$ (% _% A. :%  + <% [% }% |% 1% 2% 3% 4% 5% 6% 7% 8% 9% 0% a% b% F  c% d% e% f% g% h% i% -  v@ j% k% l% m% n% o% p% w+ q% r% s% t% u% v% v% 1# w% x% ). q# y% z% A% B% C% D% E% F% G% H% I% J% K% L% M% ",
"N% O% P% Q% R% S% T% U% V% W% X% Y% Z% `%  & .& +& @& #& $& %& && *& ^+ =& w@ o# -& ;& >& ,& '& )& !& ~& {& ]& I# ^& +$ /& (& _& :& <& [& }& |& 1& 2& 3& 4& 5& 6& 7& 8& 9& 0& a& b& c& d& e& f& g& @% h& i& j& x% l  k& l& V% m& n& o& p& q& r& s& t& u& I@ v& w& x& y& z& A& B& C& x@ D& E& F& _% G& H& I& J& K& L& M& N& O& P& k& Q& R& }# c& S& T& U& V& @  W& X& Y& F# Z& `&  * .* +* @* #* K@ B. $* %* &* ** =* -* ;* >* ,* '* )* !* <$ ~* {* ]* M+ ^* /* q+ (* _* :* <* [* }* |* r+ 1* +* J% 2* 3* 4* 5* 6* 7* 8* 9* 0* a* ]* b* c* d* e* f* g* h* i* j* k* E& l* m* n* o* p* ;$ q* r* s* t* u* v* w* x* h% y* F& z* A* B* C* D* F& E* F* G* b* H* I* J* K* L* M* N* O* P* Q* R* S* T* U* V* W* X* Y* Z* `*  = .= += @= #= t$ $= %= &= *= == -= ;= >= ,= '= )= != ~= {= {= ]= ^= /= (= !# _= r# := <= [= }= |= >. '. >. 1= -$ 2= 3= 4= 5= 6= 7= 8= 9= 0= a= b= c= d= e= f= g= h= i= j= k= l= m= n= N# o= p= e$ q= r= s= t= u= v= w= x= y= }. z= A= B= v* C= D= E= 6@ D= F= G= H= G= I= J= K= L= M= N= O= P= Q= R= S= T= U= V= W= X= Y= Z= `=  - .- ",
"+- @- #- $- %- x* &- *- V% =- =- -- ;- >- ,- '- )- !- ~- {- ]- ^- /- v& F* (- _- :- <- [- }- |- 1- 2- 3- 4- 5- p@ 6- 7- 8- 9- 0- c  a- b- c- t& d- e- f- g- h- i- j- k- l- m- n- o- p- q- R* R* r- s- t- u- v- w- x- y- z- A- B- C- D- E- F- G- H- I- J- K- L- M- N- M- L- O- P- Q- R- {* S- S- T- U- V- W- X- Y- Z- `-  ; }# .; r& 0* +; @; {* #; $; %; &; *; =; -; ;; >; ,; '; ); !; ~; {; ]; ^; C$ /; (; _; :; <; [; }; |; 1; 2; 3; 4; 5; 6; 7; 8; 9; 0; a; b; c; d; e; f; 3& g; ^= h; i; j; +* k; l; m; n; o; p; q; r; s; t; u; v; w; x; y; z; A; B; C; D; E; F; |$ G; ;$ w# H; I; J; /% ~= S* K; L; M; N; O; P; 2+ 1+ Q; R; S; T; U; V; W; W; X; Y; Z; `;  > .> +> @> #> $> %> S- D; &> *> => X& -> ;> >> ,> X* '> <$ )> /; !> ~> {> h* ]> ^> /> (> _> :> <> [> }> |> 1> 2> *> 3> 4> r& 5> 6> 7> 8> *= r# 9> q* 0> 0> a> b> c> d> e> f> g> h> i> 5= j> k> l> m> n> o> p> q> r> s> t> u> v> w> j> u$ x> y> z> A> B> C> t- D> 9- E> F> G> Z- H> K- I> J> K> L> M> N> q&  ; O> >- P> Q> R> S> T> U> V> W> X> Y> Z> `>  , ., +, @, #, $, %, &, *, =, H& ",
"-, ;, >, ,, ', ), }# !, ~, {, ], ^, v= /, (, _, :, <, [, }, |, 1, 2, 3, )@ @% 4, 5, 6, 7, 8, D- 9, 0, a, b, c, d, e, @; f, g, h, i, j, w= k, l, m, n, V- o, p, q, r, s, t, u, v, w, x, y, z, A, B, C, D, E, F, G, H, I, J, K, L, M, N, O, P, Q, R, S, T, U, V, U- W, U- X, Y, Z, `,  ' X, .' .' +' @' #' $' %' &' *' =' -' ;' >' ,' O; '' )' W, I> y, !' !' ~' {' ]' ^' /' Y; (' _' :' <' _& [' L& }' )= D; |' 1' 2' 3' 4' 5' 6' 7' 8' 9' 0' a' b' K- ~* O; c' d' e' f' g' h' i' j' k' 5> l' m' n' o' p' q' r' s' t' u' v' w' ## x' _& y' z' A' B' C' D' E' F' U- G' H' m' A% I' J' K' $# /; L' 4& @; M' f- N' O' V; P' Q' g, R' S' T' U' V' W' C- X' Y' Z' `'  ) S, V- .) +) @) N' #) $) %) &) *) =) -) ;) >) ,) ') *> )) B; !) ~) B; !) {) ]) ^) /) () _) :) <) [) }) |) 1) 2) 3) 4) 5) T% 6) M& 7) 8) 9) u% 0) 3@ a) 4@ a> @$ b) o@ c) d) e) f) g) h) i) j) k) l) m) 6= n) o) p) q) r) s) t) u) v) w) x) y) z) A) B) C) p@ D) E) F) G) H) .' X, X, I) 7; J) K) Z& L) M) N) O) P) Q) R) S) T) U) V) W) X) Y) Z) `)  ! .! +! @! #! $! %! &! *! =! -! Q* ",
";! >! ,! '! K  )! !! ~! {! T) ]! ^! /! (! _! :! <! [! }! |! 1! 2! 3! x& j; 4! 5! 6! 7! 8! 9! 0! a! b! c! d! e! f! g! h! i! j! k! l! Z& m! n! o! p! q! r! s! t! u! v! w! x! y! z! A! B! C! f, A, D! E! [# v= F! z= G! H! I! >; J! K! L! M! N! 3) O! 3) V, P! Q! F> '' =' R! H) S! P! P! T! T! R! V, U! V! W! X! Y! Z! $) `! M> 6)  ~ i, v) .~ +~ @~ #~ $~ $~ %~ &~ *~ =~ w> -~ %~ y, ;~ >~ D) D) ,~ T' `! g! '~ @; )~ !~ l. ~~ {~ ]~ ^~ /~ (~ _~ J- v) :~ <~ k! ;- s@ [~ Y% }~ R> j' |~ 1~ 2~ 3~ 4~ 5~ 6~ 7~ 8~ 9~ 0~ a~ b~ c~ d~ e~ d~ f~ q- y, g~ M' h~ i~ j~ k~ l~ m~ (* 0) n~ o~ )@ p~ p@ q~ r~ S- M' v) s~ %> e, f, :~ h, j! t~ u~ v~ V' w~ x~ w~ y~ z~ z~ A~ U, B~ C~ D~ E~ N' N' N' F~ +~ G~ H~ I~ J~ C; D; r~ 7- K~ |- L~ M~ +~ N~ O~ P~ Q~ R~ S~ :> T~ L, `' U~ V~ W~ X~ Y~ Z~ 5) `~ Z% d&  { .{ +{ @{ #{ ${ %{ m% &{ *{ ={ -{ ;{ >{ ,{ '{ ){ &~ E) 8- !{ ~{ 1' 0' {{  ' ]{ ^{ /{ C- ({ _{ :{ /, <{ [{ }{ |{ 1{ 2{ u- 3{ 3> X; Q! H) 4{ I) I) 5{ 6{ @) 7{ N) 8{ 8{ 9{ 0{ a{ -- b{ c{ d{ e{ f{ g{ h{ i{ j{ k{ l{ m{ n{ o{ p{ q{ r{ s{ t{ u{ v{ ~* ",
"w{ x{ y{ z{ A{ B{ C{ D{ *- E{ F{ G{ H{ I{ J{ K{ L{ M{ H{ N{ O{ P{ #  Q{ 2, R{ S{ T{ U{ V{ W{ X{ Y{ Z{ `{ Z{  ] .] +] f, @] #] ^! [# $] Y{ %] &] *] =] -] ;] >] ,] '] )] !] ~] {] ]] ^] /] (] _] e, :] 7- !{ w= <] [] 1- }] |] *' 1] 2] 3] 6; 2> 4] 5] 6] 7] _~ Z- 6{ 8] T! 9] 0] .' J- a] b] d, V; @) N! c] @' V, N' D! >- d] e] f] g] 4) U' b] S- K) h] i] R- j] W, F) k] S- l] q- m] h, W{ n] W{ o] p] 4) '~ P' ~{ O; k. q] r] s] t] u] v] K- I> !~ 0* w] x] v=  ; y] z] z] z] P> A] B] 4& T- C] D] E] F] G] H] I] J] K] L] s] M] N] O] P] Q] I> -> R] S] x= T] U] V] W] X] Y] Z] )@ `] /,  ^ .^ i] s~ #> )) $> +^ @^ #^ $^ %^ &^ *^ =^ P! -^ ;^ >^ z~ ,^ ,^ '^ S, )^ I) !^ @) 8] @) e, o] R] ~^ R] {^ ]^ )= ^^ /^ (^ _^ o+ :^ <^ O! R] [^ }^ |^ 1^ /' 2^ _> S~ [> 3^ 4^ 5^ 7] 6^ ,; `- 7^ e' 7, e; 8^ 9^ 0^ a^ b^ c^ c^ H{ d^ c* e^ f^ g^ h^ h^ i^ j^ k^ l^ m^ Z; .) S, G) n^ =] o^ p^ q^ r^ s^ R) >- t^ u^ R. q+ ={ v^ ), w^ j, x^ y^ z^ I) J- A^ (~ '' @~ :] N) s@ B^ C^ D^ E^ M) F^ G^ S> H^ I^ J^ K^ L^ Y% [- M^ N^ O^ P^ Q^ R^ S^ T^ U^ V^ W^ X^ ",
"Y^ Z^ `^ ^;  / ./ +/ 2~ h' u~ A, @/ #/ $/ %/ &/ */ =/ -/ ;/ >/ Q; ,/ c* 3! '/ )/ )- !/ b* u; ~/ d' !{ L; 4) {/ +] +] +^ ]/ ^/ x] [# -' b] // =^ (/ N' _/ :/ </ [/ }/ |/ 1/ 2/ 3/ 4/ 5/ 6/ 7/ b' J- 8/ 9/ W; '= ;> 0/ a/ b/ p) c/ d/ e/ f/ g/ 5; h/ i/ j/ a' <^ k/ 4{ T! l/ m/ n/ m/ o/ {/ D! p/ E! z, :] _] q/ r/ s/ 1~ t/ A{ u/ =& v/ E) (/ w/ k~ K) K) K) K) @; d, x/ 4) +] y/ z/ A/ B/ k~ %> b] U' C/ D/ E/ E) 7- O; T- F/ G/ H/ I/ J/ g~ /~ )) L> /& K/ L/ T; M/ N/ N/ k! k, O/ [# !) P/ Q/ R/ S/ T/ U/ V/ W/ X/ Y/ Z/ `/  ( .( +( M- J> Q- @( '= #( $( N> /^ V] v^ %( &( *( =( -( S% ;( V@ ]/ >( J> L- P] E; e~ ,( '( )( !( ~( R' _] N! S! S! +' @' {( {( W~ ]( ^( /( z/ (( /( (( _( :( <( r@ x= Z& 3> [( }( |( 1( 2( t/ 3( 4( S, n, 5( 6( 7( =) 8( 9( _> 0( a( b( c( *~ Q! h) 5; d( {* :] :] e( f( &^ ,- w] U] V@ J  -/ g( h( i( j( k( l( m( f> n( o( p( q( r( s( t( u( v( 1^ 8, w( x( y( z( A( B] r- B( C( D( E( C& )@ F( G( /( H( z^ J- U- (~ I( @) |' h! s/ 8! s@ S' `! a{ L) R> J( K( L( M( N( I  E, O( P( Q( R( S( T( U( V( W( X( Y( Z( `(  _ ",
"._ +_ @_ 3+ 6, #_ $_ %_ Z% >- &_ v& *_ =_ -_ ;_ >_ E( ,_ f( '_ 0- )_ C( !_ ~_ {_ ]_ )- ^_ /_ 6> (_ __ ]/ :_ +] <_ [_ }_ |_ L> l! d' 1_ k] %> // U' G> 2_ 3_ 4_ 5_ 6_ 7_ 8_ 9_ 0_ a_ b_ Z( c_ d_ Y, Z; M~ J~ e_ C; -> => f_ g_ h_ i_ j_ k_ 6] @( l_ m_ j/ n_ o_ p_ q_ T, r_ s_ t_ n/ u_ v_ l! t~ w_ k! q~ }_ h! x_ c; (_ y_ z_ K  )@ D> r~ W; (/ @; S- D; K) K) '~ 4) 4) 4) A_ A/ B_ C_ D_ E_ C_ @~ %> F_ G_ e- 9- |- V* 2> H_ I_ J_ K_ L_ g~ L- M_ g] `$ N_ w] L> ]/ c' j, x_ E! O_ P_ Q_ f/ R_ S_ T_ U_ V_ W_ X_ Y_ Z_ `_  : .: +: J) {* R- )) #) '~ @: #: $: %: &: *: =: -: K  ;: >: V] G* ,: D) K> '; ': O- ): !: %: ~: {: ]: ^: /: s~ J- N! N! k/ (: _: :: 5^ <: [: }: (( |: /( _] :{ N) p/ k, S* ~/ 6- s- S% 1: 2: 3: 4: 5: 6: O! n, 7: 8: h~ 9: 0: a: b: 0( c: d: e: f: 6^ 5] 5; #> 1' |' $> :] :~ f( g: `& h: i: K/ /! j: S% k: G/ k( l: l: g^ m: n: o: p: q: r: s: t: U, u: v~ o] v: R) [^ w: x: }_ y: f* 4~ 4~ z: A: B: @^ C: D: E: 5{ F: '' a] N' E_ r/ G: P> ^! f( g, e( [# H: I: J: K: L: M: N: *  G# O: P: Q: R: S: T: U: V: W: X: >{ Y: Z: ",
"`:  < +> N_ #_ .< #_ +< @< L^ #< $< %< =_ &< *< =< 2= A] -< f! n] (& *: ;< >< ,< ~_ '< )< !< ~< {< b^ h: <_ ]< [_ }_ ^< @^ q~ j! /< +; |' k~ ,; k] 6^ (< _< 6/ :< << [< }< |< 1< 2< 3< 4< 5< B~ C~ 6< 7< W; 8< 9< f- 6^ 0< W- a< b< c< f/ H> )) P] %~ d< e< f< f< <: U! m/ m/  ) 0] u: a{ l! g< O/ &^ d~ g, h< i< v/ ^= 4, F& z* F& S% R* @; w/ @; K) K) K) K) K) '~ {/ {/ e, j< A/ k< ]< 7{ {/ l< f, d' m< n< #] U; I> o< p< q< r< s< t< S- {* u< w_ d] w- V@ i< h, e( B, 3> O: r@ 8{ v< w< x< y< z< A< B< C< D< E< F< G< H< I<  _ _] h! :] i] |' )~ J< K< m< L< /! F( M< N< O< P< Q< L< w^ u- ,- ;~ '; ': O- K> x' &: R< S< T< U< q~ K) X; F> G> 7] V< W< X< Y< Z< `< B_ B_ |: x^ V;  [ ^, m! c' C, w_ ^% .[ +[ @[ 0) x  c& ): #[ $[ #( l= #( j~ G- %[  ' &[ 0( 1) m: *[ =[ 6^ Y; m_ -[ 1' |' ~* +] r/ W{ h, r- /: |_ D) V{ )_ i: ;[ >[ d) ,[ '[ )[ d: Z:  _ ![ _/ ![ ~[ {[ J- d, ][ E^ S] b{ [~ c{ M) ^[ /[ -( 4, 1{ H@ ([ S; _[ L- :[ U- W, j] @) <[ q/ =^ r/ [# [[ c; h: <' }[ |[ 1[ I: 2[ 3[ 4[ u- _& 5[ q@ z, 6[ 7[ 8[ 9[ 0[ a[ b[ c[ d[ 4< e[  _ ",
"f[ g[ 9' N> h[ R& 6, i[ j[ x  ;& ;. k[ l[ l[ m[ *{ n[ o[ a! p[ O' L> &: q[ r[ s[ t[ u[ v[ w[ x[ y[ 1{ z[ A[ B[ }_ '_ g, u< .^ h, :~ {* :^ X; C[ 5] X^ D[ E[ F[ G[ H[ I[ 5_ J[ K[ L[ M[ N[ O[ {{ P[ Q[ R[ -; 3] S[ -; T[ U[ V[ W[ X[ Y[ T[ g~ R- 5: Z[ G' O- @> `[ y^ D: o/  } .} 0! Y{ D! x_ E! *  a* _& a* 5[ }[ O* +} @} #} $} %} w* &} D; @; @; K) D; D; D; D; K) K) K) *} j< =} :] i! f( f( >~ 5[ -} ;} j* T* K. j/ Z< >} ,} 7/ &~ |' 7- i, L> D) '} )} ]* !} R' :~ ~} {} H! 2- -- (/ 3^ ]} ^} /} (} _} :} <} [} }} |} 1} 2} 3} =^ r/ Z~ r~ 4& ~{ 4} 7^ 5} s; s; 6} 7} /^ 7} [[  ~ 8} M> 9} d~ 0} #~ l] l] a} 5[ #] ,- h: e~ ^/ j! O; $[ V; k] Q! b} c} d} e} U[ f} _] @~ @) j] j~ l, g} {) 9- a; h} i} +% 4, j} k} l} m} E, k, O~ n} o} z( C/ Z; R, O! p} 8( q} r} s} t} u} v} w} 9' 5; i/ 4] U- x} o/ _~ o< f< <^ k/ Y; `[ y} z} A} B} C} D} 7/ E} F} G} 7] 6] H} I} j< J} k! t~ t~ s/ K} L) M) L} M} N} B= O} P} Q} W@ P* u< A/ j] !^ R} q/ q/ <[ E~ S} f! e- T} U} J  @/ t^ w- n< V} W} X} Y} d' .^ Z} i, `}  | 3< .| +| @| #| $| %| &| *| =| Z< ",
"^} -| /~ 7} R& f& ;| >| ,| '| )| !| ~| {| ]| ^| H# H! /| (| _| :| }_ L< -& <| [| O. }| A* j; || || g( c  1| '_ W{ i! '_ g, +^ g, }_ B_ 2| 3| 4| 5| 6| 7| 8| 9| 0| a| b| c| d| e| f| g| h| i| I- I) j| C} k| q< l| e: B} m| n| o| p| q| n_ S- r| s| t| u| l~ M_ R- J) j] O' q! %] v| :{ w| R' w| R' e~ @/ g& e] Q< x| y| z| c> A| B| g& C| D; @; e, K) K) K) i] i] {* {* +] D| *} E| g, &_ w] '} )_ a; 9* F| G| H| I| e< J| K| ~[ L| J/ M| t~ N/ T; d~ N| 3= O| C,  ^ f( x_ j, x= k, 7^ b] P| Q| R| S| T| U| V| W| X| Y| Z| `|  1 E} w/ O) i! q~ 3> 8- z, h, u< q~ @] .1 &_ +1 S' S' x_ f( i, R* +^ K> @1 e( h, u< @1 #1 E; N| L> #] 0* K~ L; $1 C/ G> P| %1 &1 *1 c( n_ _] @~ _] =1 X{ S] f' -1 D) `] ;1 >1 ,1 '1 )1 l} !1 ~1 {1 ]1 7% ^1 /1 (1 a{ I) -; N! w> _1 :1 >{ <1 [1 }1 q( |1 v{ k^ j/ &~ L| E} 11 21 31 41 51 61 C} 71 p< f/ T[ S[ h) 2> I} H> 81 I) J- K- 91 :_ 01 a1 b1 c1 x] .1 /< d1 e1 f1 ,~ g1 /, V@ h1 i1 j1 k1 i< <_ A/ C_ O' E_ O' =^ l1 m1 n1 7^ __ u& K' -: o1 ^= v/ m! p1 q1 a{ r/ =} =} Q' #> 8| r1 '[ s1 s1 b_ b_ t1 u1 v1 w1 .) ",
"'[ x1 y1 z1 A1 c& t/ O& B1 C1 D1 E1 F1 B$ G1 )} G, H1 I1 J1 K1 L1 B/ Z% @{ M1 N1 O1 {& b> ^+ P1 Q1 R1 N: &  i! S1 i! '_ [_ <_ h! h! J/ T1 U1 V1 W1 W1 X1 Y1 w} Z1 `1  2 .2 ,[ 6/ +2 V^ @2 q( 6] Z; i| #2 $2 J_ %2 &2 *2 *2 =2 W[ -2 ;2 >2 `} h] ,2 ;[ '2 h< A; {* T- #) b] v< 1_ -' 7- R* .^ .^ _[ %^ )2 !2 ~2 <* A: y| {2 A) ]2 ^2 /2 [$ ~* @; K) K) K) i] M_ ~* M_ (2 {* *} D| E| _2 d~ (, a; :2 b* <2 [2 }2 |2 12 w} q( 22 @' 32 t< ~/ 5- G{ (& &  42 52 0} &  D, 62 N/ S' `- 8- 8- 9/ c( >{ t1 72 82 92 02 a2 b2 c2 d2 4< e2  _ ,; -' D!  ^ ~/ *  P; K> E; +^ +^ g, g, '_ ~} ~} :~ f, h< f2 f2 K> r- K~ K~ i, h< M_ g2 >( c' T] d' }- 4} {^ $1 G> h2 i2 j2 k2 &2 q( '' N' <[ N' '~ m! R) r@ p@ 2{ ;1 l2 m2 8> 6@ n2 o2 4[ p2 +@ q2 r2 s2 t2 u2 Z; v2 w2 O! j^ Q/ x2 y2 z2 A2 B2 F/ 1> j/ C2 v} 9| f/ r: D2 E2 F2 Y[ G2 H2 I2 >} J2 [> 3) C[ K2 -[ i/ k^ L2 M2 6; u] h< x' N2 g& Q< )_ g: d~ ]/ j! *^ x_ x_ }[ r- N| N| [$ }[ ]/ O; K) w/ w/ V; @~ S} E~ u: b] 3> O2 .[ v^ P2 Q2 R2 T] p] w( S2 Z{ 7{ y/ B_ $> T2 X1 ^} '[ 1} U2 R| U2 >{ V2 W2 X2 f} ",
"Y2 Z2 $~ N2 #% `2  3 .3 +3 @3 #3 $3 %3 &3 p@ *3 =3 o! -3 ;3 >3 ,3 '3 )3 !3 ~3 {3 ]3 _# ^3 /3 3! (3 A& )_ e~ _3 :3 J} }_ <_ :_ }_ h! <3 T1 [3 }3 |3 13 K_ 23 33 L| 43 53 63 73 83 93 03 a3 j| b3 >2 c3 n( d3 e3 c( f3 h2 g3 h3 i3 j3 d: &~ D; h] q- #~ (2 f, h< :] @~ @~ @; 1_ E/ 8- K~ L> ]/ g: k3 i: P< l3 |( 7) #% ]% C& E& m3 n3 o3 p3 Z} r~  $ :_ {* ~* N- q3 r3 s3 t3 {* +] +] f2 ;~ u3 G1 v3 w3 p3 i( x3 y3 u] M2 q_ z3 u( B~ i/ ]/ G{ K/ K/ O* 3= O] r| r- #] M/ N/ A3 D! z, {} s~ 8| B3 C3 D3 E3 F3 U2 >{ *| G3 g) H3 I3 o( #> 7- j! D) D) D) J3 K> #1 +^ Q' f, f, h! f, :~ _( :~ f, +^ f2 A[ .^ M| i, R* !~  $ Q' :~ x_ k! d' K3 E/ {^ 1_ H> L3 M3 N3 J_ e3 q( j] e, {/ '~ v_ `- O3 P3 M> Q3 R3 S3 T3 U3 F= V3 W3 X3 Y3 Z3 `3  4 .4 !, p1 0' +4 Q[ v2 @4 #4 g^ <1 $4 @2 -| 13 %4 6; M2 u} j| U[ P| &4 *4 =4 -4 ;4 s: >4 ]' W~ %[ 3) 5] #[ 7= 7= )) 8; s| #~ u| O| ,4 '4 J' =( )4 J  !4 '} w_ S' z, n] '_ _[ /: i< ]/ >~ L> M| :~ :] @; {/ S- e, U' d, :] {} #] ~4 /_ %3 Q2 {4 l! v< ]4 ^4 /4 (4 A_ _4 (2 /~ :4 u1 <4 [4 W2 }4 }4 |4 14 24 V^ 34 ",
"-| 44 54 S. 64 >& p# 74 84 94 04 E= a4 /! __ b4 =3 c4 a! d4 e4 f4 g4 h4 i4 j4 !3 k4 Q2 3$ l4 m4 || n4 o4 p4 q4 r4 s4 +] :_ +] Q' h! d( t4 u4 d< T2 4] v4 Y1 n_  ' a: :: *' E} w2 h) C2 {' R[ Q[ j| 7/ C} q: w4 s( J2 >} x4 y4 z4 a< -4 *~ T2 /~ A4 x^ T2 q/ N' N' '' ,; Z~  [ 3> C, g] ]= B4 C4 D4 E4 %: F4 #_ G4 <- H4 I4 J4 K4 L4 M4 G& $# p@ i< f2 s~ P- N4 O4 P4 P4 ): t3 {* $> (2 N] Q4 z' R4 S4 T4 A' %~ m_ 5] 6] N! P! U4 _~ P- r- '} @/ }( N: u3 V4 N- h] /: c' j! x_  [  [ `- S- W4 X4 Y4 Z4 g| 1} m( h^ j2 W- 3] 3) `4  5 i] i, C,  ^ L> ]/ [$ @1 @1 '_ }_ [_ l< )~ )~ f, ~} B, ~{ :~ +^ f2 :_ :] K) {* `}  $ E) ~{ 3> E! `- L; E) .5 4) +5 @5 4( 32 w2 X^ 81 `! #5 $5 %5 &5 3- j' H^ ~1 *5 =5 -5 ;5 k& >5 |[ s@ %5 %5 ,5 -- '5 ^, E^ j] )5 !5 ~5 {5 M3 >{ e) W2 ]5 d) d) ^5 /5 g/ b3 =[ (5 _5 ,} k_ w< w< :5 b} <5 W- [5 }5 G) b/ g~ 7= |5 5[ M/ 15 __ ,: R; )_ 25 35 y  45 K% =( 55 w@ L< g] ~} l< l< !~ R* 6- ]/ L> j, 8- 7- :~ f, +; ~{ 8- m! l, }- T] M/ ;( u& (- .% d] j, Y{ w( ^4 v| 65 ]< j< *} <3 4( 75 85 95 05 H2 a5 b5 c5 )5 d5 M_ ",
"e5 f5 *; g5 h5 i5 j5 k5 l5 k' 7} 5> m5 F* n5 <# <( Z{ o5 p5 f4 q5 r5 s5 x: y] 4> u- t5 t+ o  u5 .* P{ _, _2 m] .] ]< *} E| :_ h! [_ [_ :] :~ R* z, O; 4] v5 &~ G> w5 x5 x5 F) $1 y5 {^ 9/ `4 +4 j^ q: B} q: ]' 1) 3} z5 05 A5 B5 y4 C5 D5 E5 4( Y1 o( E} T[ F5 +4 q_ %) C/ l, 8- C, G{ ^= G5 H5 u/ A{ ~: I5 6} J5 K5 L5 M5 N5 O5 ,$ K4 P5 .% N2 (& f, /( Q5 P- /: a* P* O| ): r| R5 (2 Q- S5 C: P- /~ m_ 9' 4] 6^ Y~ Q! Q! R! T5 Z- U5 /: !: c1 N_ V@ O| u| J> U5 A/ +] i, Z& V5 B] A3 :] f} W5 |3 Z4 X5 4< Y: Y5 Z5 <5 >; }] Q_ 4} q~  ^  ^ j! f( R' u< .$ R* `5  6 :~ h! +; h! f, :~ 7- h, h, u< @1 l] i/ 4] /~ :^ 1' .6 P' O; L; E) P' ;> '= @; T2 u4 91 -' +6 4) +; h' @6 #6 $6 %6 &6 *6 =6 -6 |# ;6 -5 @# *5 5[ %~ T2 I} %) H> 7] 4| >6 ,6 '6 )6 f> >{ Z( !6 ~6 V2 W2 {6 m( l: 4< ]6 ^6 /6 (6 _6 s( :6 <6 3] 0( [6 <> Y< 05 U~ }6 |6 C' 16 l~ 26 36 46 56 66 76 J; ,4 86 96 &% 06 ;. -$ L  x  a6 ,' f, :] l< f, e( i, C| c' j, }- 8- x_ f( x_ x= b6 Q> e{ <# T} T} c6 +} u& p~ E$ <~ o] d6 x( ~^ -< e6 [_ f, M_ C2 9| 2) S[ Z, U, f6 %] g6 u2 R* O2 ",
"5; h6 i6 ]+ j6 k6 l6 := v* E, t~ m6 n< n6 >' 8} E! 4) n^ o6 /{ p6 q6 r6 ]4 s6  6 d~ .[ t6 u6 {| v6 w6 x6 y6 z6 =1 C_ B_ _4 d( {* *} Q' +; 7- ~{ ~{ Q' t< 0' 6^ A6 B6 C6 C[ M' D6 E6 F6 $[ G6 H6 g- I6 q< 4^ g_ J6 3} J6 95 K6 L6 M6 M6 m: I3 N6 O6 t} b( P6 61 4^ ]' p} h~ -' M| Q6 t- )@ K  -: z_ c^ C4 R6 S6 N> n2 x  M5 j$ V. '$ l$ L4 ,  O} 3+ Q' T6 U6 @> i< ,- z[ V6 ): q3 y6 g2 s~ T2 7; 7; _~ Z; P[ 3) O! .' W6 b: ]{ T5 m^ @( Q* X6 ,: u- v/ P4 Y6 `[ Z6 81 I} )~ `6 5( G_ 7^ r~  7 .7 >[ +7 D3 @7 !6 ~6 j_ g_ *) r/ L; C| K~ L> i< i, ~{ :~ :_ h< R* q~ R' B, +; )~ Q' Q' r~ .^ R* /: r- #7 Q] t] 33 1> `4 `; 6^ 5] $7 .6 a/ a/ $[ @; V; C: %7 i]  [ m! p] ~} }~ &7 *7 =7 -7 p2 ;7 >7 ,7 '7 F= C= )7 v* |5 !7 n_ k/ _~ P[ +4 c( ~7 {7 ]7 ^7 k( k( k( k( U2 /7 (7 _7 l: l: ^} :7 <7 [7 =[ P/ }7 F5 |7 17 *) F' 3] >} c} 05 0< |6 -> 27 3' 9; 37 47 57 =5 l% n  (% ${ 67 77 87 v+ 97 07 a7 b7 |[ Q' i] 4& E) f, .^ R* i, <~ x_ }- x= ~/ L> D) 3{ /^ 6) m5 m} N2 /! B: }( v/ L& {} `{ /4 ~^ {} w|  6 u< h,  $ @> >2 `4 Q! N! Y~ d, g} h' c7 D, /& ",
"d7 e7 f7 g7 h7 i7 j7 k7 $_ P( 3- l7 m7 >5 B= n7 N/ 8- g! =^ o7 l1 g4 p7 q7 ][ D! 01 r7 s7 B> [  t7 u7 c~ K> N4 v7 I( w7 x7 |: z/ l] A/ |' S- $> ~* 91 #> y7 #) <[ F~ z7 '' v) A7 y5 8: -> h) 2) g- B7 61 C7 ,} g- D7 _6 E7 F7 G7 G7 H7 @2 I7 J7 13 K_ C} K7 Y[ -4 w< N! f- 1_ ~{ <$ t- #% K  z_ G5 L7 M7 N7 O7 P7 _^ Q7 m% R7 n3 S7 !$ #= T7 9= E, :] 6< U7 k^ h, &^ z[ V7 ): r3 R5 E| _4 j] A^ J- N! b' G} b' X~ G} Z, V, ]{ v( t< P] P; G{ N_ [[ w_ a} (' 6< .) 32 6] V; u2 e' W7 g1 R* X7 Y7 u{ Z7 7| `7 G[  8 61 T[ +~ g! &> .8 +8 Z} @1 h< ~* d( s~ ~* h< @] j! <~ :~ Q'  $ Q' :_ +^ .^ R* i< /: P] v{ 33 w} 33 32 .) &~ L_ 9/ C' M' '= C; K) P- d< Q- ~} W{ K) D; &5 @8 @6 p2 #8 $8 &- %8 &8 *8 57 57 <* =8 /: !7 v5 w2 J- 6; n_ -8 X5 ;8 ]7 t1 t1 t1 >8 t1 Y2 F3 1} g^ ,8 _7 '8 )8 v4 !8 ~8 Q[ {8 |> ]8 O! 9: &) -; |) ^8 85 /8 E# (8 K. U* l. /; ;} ^= _8 `2 &3 &3 :8 <8 [8 ${ }8 9> k5 |8 i[ 5} Q' K) 4& E) r~ +; ~{ B, `! D! 8- w= ^^ J3 5[ b; p~ B= /! A: -( K' E4 18 R6 &^ x_ ~^ a{ $] d1 .1 28 i< 0- a} 38 48 h= `4 &~ M2 k~ g} o& c7 D, /& ",
"58 68 +$ d* 78 88 @[ 7! k) M> 98 08 r& B= G* s& B= u- w_  6 A/ q/ b] %] ][ *^ a8 }( b8 c8 d8 [  [  e8 #< /, _4 f8 g8 6< Z6 h8 %7 %7 C: T2 J) P- J) J/ @( *> #) N' N' C[ K- -~ D; i8 j8 9/ g/ f: k8 B} *4 *4 h2 ,} g- o) (5 l8 m8 n8 44 o8 O6 13 p8 K_ B} F2 -2 h3 V~ S, m^ 8< P' U* w) 9= q8 G5 r8 c6 i: }_ y/ W{ m7 l5 s8 t8 u8 v8 w8 q8 V] 3+ x8 E> B~ y8 F} `} ^^ _& J3 z8 z; q3 =} A8 F: B8 T!  ' C8  )  ) <> u( =~ C8 S! w> 5] u] !~ w_ 5- b6 ~/ )) &~ +4 F5 F5 ]( H> p] l! q@ 01 0- K> A[ _[ t3 D8 E8 (< F8 >} F} -> j8 .8 h] G8 J> /~ .> M2 H8 P[ Y; d( q~ 01 c' :~ )~ K) S- {* >( >( .^ r- N| J> @> I8 C2 v} p( J8 Z1 32 17 b/ K8 -> C; ;> i/ v{ A4 s~ 1' I} i/ `- }~ !, L8 M8 O2 M/ E,  ; |[ ,: C4 &8 N8 h< O8 p( 32 I- 6^ P8 o: Q8 E3 R8 S8 T8  ( U8 V8 W8 Y2 X8 u1 Y8 Z8 `8  9 .9 v4 +9 @9 #9 !8 $9 ]8 %9 &9 *9 85 B5 =9 c: F' -> O; |5 .$ -9 ^^ ;9 __ }( R4 >9 ]* ;( N_ U} 9= ,9 '9 56 r& j, :] P' 4& Z~ 4& r~ f, ~} E/ {} 3> }- *  2+ 0; )9 !9 u& I  H@ ~9 f* H@ K/ ,- 0*  ^ <~ z, f(  ^ ~/ L> P* c  p3 J. 38 {9 .> C2 Z6 K) 8{ ]9 M8 8} q& ",
"~1 ^9 5, /9 (9 t& U} ;} 8} d; k) w^ m5 L< E4 t5 #% _9 F( :9 '_ E| {/ 9! F{ <9 /^ f] m. [9 }9 3! J@ |9 19 R< 29 39 49 59 69 79 89 89 Q5 (] 99 09 2| d< m_ a9 T2 4] K- Y; K- J/ ~*  $ L~ l^ `4 +4 k8 b9 *4 ^8 61 h2 c9 s< d9 K. d' `& R4 e9 m8 f9 O8 v} ,} Y[ y4 e/ |) 8( K- '~ D; A; g9 t& Q3 ,4 u& h9 @] {* x^ J) !~ v/ `] x* x* i9 t& ;( U] g: U; X; '^ j9 E} s~ C, a* J3 ): V4 J> k9 |: F: x} Y~ V, C8 '^ _1 l9 m9 m9 (: S, N! Y; I> !~ T] w_ [# x_ #> X^ Z1 j^ s( n9 y^ S- 3> x_ q~ /: P4 r- ]/ u< v7 o9 0| U~ p9 -; $[ `! .^ h< q9 K& 5= W4 i| T[ r9 Z; Q- f( 01 .1 u< )~ S- $> d( >( K> P; 0- s9 G8 /~ j/ 33 t9 i| s< u9 L| /6 `;  5 v9 B; 16 m_ w9 x9 .> L_ `; &~ <3 O; E/ L; :~ M_ N- q9 h] t3 .$ ^^ ;' P( i] {' +4 b3 b/ C[ H> H6 X1 y9 z9 G/ A9 B9 C9 D9 E9 F9 F9 G9 H9 I9 J9 K9 j| L9 M9 => N9 O9 P9 L9 >2 Q9 u9 C7 R9 =9 J6 p} 9/  $ 27 A; S9 16 27 7- .8 T9 U9 V9 W9 X9 l_ U* Y9 t; t; j, ~{ )~ Z9 4& Z~ )~ +; f, ~{ `! `- `- O: #] `& v3 `9  0 .0 +0 .0 ^_ @0 #0 $0 R; %0 h: &_ /[ &0 `& z[ ^: *0 u& H@ =0 5+ V4 P] m_ P- _( -0 V} $: m< ;0 ",
">0 n2 ,0 '0 )0 ## v/ P( o+ k) __ C4 U} u& S% U{ !0 ~0 v^ @/ }[ @1 :_ {0 G( <# g; 9= +0 ]0 ^0 /0 J@ (0 55 _0 :0 <0 [0 E8 }0 |0 09 Q5 Q5 10 89 !7 2| 2> m_ a9 ': 4] /~ t< <3 v] M_ `} E> O9 /6 f: 3} >4 P6 N3 ){ d: 20 Y1 12 t; v- 30 40 50 60 70 80 L_ (5 -4 90 ;4 00 {{ a0 D; `} b0 c0 H# s& /! p~ w] .^ l] 5{ E: P- !~ d0 M> e0 e0 D> T; L> B, :] &) 5^ f0 ]' I} 7- K~ Q* g0 s| Q] h0 P- /( 81 6^ H- X~ }6 _1 i0 p) i0 *~ L| P[ g/ h/  $ j0 G! e' u2 M~ 32 9| _/ s( E5 6; `} M| 9- !} .$ ): @1 Q* Q' K- _1 k0 k0 z5 q_ <[ E) l0 N; 16 #> C2 v5 i0 c: a( I- E> c' d' x_ Q' S- 91 R- R- Q' #7 !} J3 J3 k. -[ a9 I8 e5 n8 f9 33 C2 `; L_ => -> ;> 2' P] Q] J> h] ;> m0 G- I} X; -~ 5; u] l_ K& B' )) E> N; )= x= x= S- w2 n_ n0 F' -) K8 o0 p0 q0 r0 s0 W9 t0 u0 v0 w0 r0 x0 y0 J9 *9 (6 (6 z0 L9 A0 X& m0 => B0 B0 ^6 ^6 l8 I6 ;2 95 J6 &[ -> E/ i8 M; .6 C; E) C0 l0 h= t} D0 W5 i| `; E0 K; S* x8 3> L; .5 .5 Z9 Z~ Z~ Z~ E) j8 E/ `- T' s/ O/ `& 9* F0 ]0 z& |$ G0 H0 I0 `= J0 K0 L0 %^ %0 m~ !: ,- }[ M0 *0 t5 N0 68 O0 b0 #> P- <3 +; M) Q> Q>  ; f; ",
"1[ P0 Q0 R0 6) S0 s; 4> k) T} p~ T0 U0 H0 V0 W0 !_ X0 Y0 ^_ Z0 y' `0  a U< [[ g; E4 J  .a +a @a L+ U{ )2 ,( (2 #a $a f} C: h] #7 !~ >( R- #~ #~  $ M| 3> i, R* h, j, ~/ l! k, 62 P( x= E0 9/ a0 &) %a R, P/  _ n) 33 a9 2+ &a *a t8 =a (9 F$ m+ G, H! ;) S, <> S! K, R] p/ P_ v= M> -a ;a o1 >a ,a z1 d' D! v_ v_ 'a S' v= [[ 4> 3{ 3{ 5- |[ [# E^ )a T! u( N! w/ `- E! c' /: @1 K> /: 9- 9- e( 4& C' M~ m^ H> P[ 32 32 81 i/ g~ -[ A; j0 !a H^ ~a o& 8: v) -~ 6^ 6; T2 9-  ~ k' C4 N_ }( x' X6 O2 O: L~ m^ Y~ T5 G> <[ {a ]a &5 y- ^a l! 'a %> U- Y~ /a (a 8- b6 m6 q@ Q' @; L~ ~{ c' t~ O2 5- |[ ,:  ~ /& X6 w_ *  5[ 6- x8 S* O: O: H! G! ;- 5- 4> _a 1[ :a Z3 ;= <a z- '5 E^ i8 1- 8- j0 g1 62 ;- [a }a `~ e{ *3 D6 '~ >) e_ |a |a 1a L_ e5 2a 3a (; u; m+ 4a 5a 6a [] 7a i8 i8 M; a/  > 8a i8 2- 9a G# 0a 0a aa 4} C' 6] &~ Q! *) I! l= ba ]9 c7 S] G# ca ]9 [a j8 4] 7; 2| 6; '= G# da 3& !a [a k, -' Q_ C/ C/ Z~ Z~ +; ~} `! $] S' 7, s; m~ .a v6 ea fa ga ha ia ja ka la ma na oa ([ V] ,4 !: }[ pa (, 9= qa b; Z} -[ I} H} -~ {/ E^ B] 7^ l! b6 ",
"P3 ra sa }a b6 =  [- m5 v- !9 ta ua va wa xa ya %/ za Aa Ba Ca Da Ea Fa =0 )} X6 )_ N: F| g9 g9 b* Ga S; `& L' $> d( 7= 9- `% Ha Ha Ia _a N> 4> 3& &6 Ja Ka La Ma +< W3 Na Na Oa Pa Qa da G_ Ra Sa Ta Q_ C' #> i] U; p@ a4 Ua Va Wa Xa Ya Za `a  b &6 l= A- R~ `{ n& .b +b @b -6 #b 2& 8) T3 $b 84 %b e; }a s@ s@ 5) &b 1~ *b `% *b &- %_ %_ $8 =b K} a{ {a v: V5 E{ [# t~ #] ,~ v/ m7 @< ~1 &- m6 8- L; L; ~} L~ J> )) K. U; i, 9; [' -  -b ;b >b ,b 'b {)  [ 7- R* D) &8 84 k4 L5 )b !# !b @# n2 ~b k! 'a -' m! u~ 5) {b *6 ]b ^b /b &6 L8 P_ 1_ @; J~ (b [a 8^ La _b `} v) L~ T' P_ *b &- *b k' 3~ :b <b <b [b K5 u= @< &8 Ia Ma }b T> u@ |b 1b 2b 3b 4b 5b 6b ~a O( 7b s2 Z3 V} l& 8b 9b 0b  { Ia Ia ~! ab bb cb db L8 eb eb fb ra Ra M| '2 u| }( 7) P& gb |( 2& hb ib jb -b  b Ia 4> .$ <$ kb lb mb nb ob pb =7 X3 3- i! S- h! qb rb .4 sb cb tb t@ ub vb wb xb P> i, g, q3 #~ j, T> yb zb Ab 9b p& }- E) Z~ C/ Y{ Z~ E) ~} ][ E^ L) 3{ B4 ,/ Bb Cb Db Eb Fb Gb Hb Ib Jb Kb Lb Mb Nb ^_ m. Ob ;/ $^ s9 z[ Pb |. U] V4 2> H8 k/ I) N' n1 g! l< g, g1 ",
"Qb {^ +; <~ ,' D4 Rb Sb C( Tb Ub Vb Wb Xb Yb Zb `b  c .c +c @c #c $c t[ Tb %c S4 D$ `# &c ]* s- s- G1 P* a* p@ *   ^ >~ /^ *c =c -c ;c >c  b ,c 'c )c !c ~c {c ]c jb jb ^c /c (c _c :c :a n< K< <c O~ <a D; S9 h< ^^ t^ }* [c }c |c 1c 2c 1# 3c 4c 5c 6( 6c D' Y{ 5) 7c (c 8c 9c 9c 0c ac ac bc cc o2 *b &b s@ #5 -1 O/ <9 6} m7 n[ $_ ./ R& R& *b P> l! q@ G# ]a 7, 7, P_ t~ w_ 5- R& :b J= ;7 }# T] L' 3> 3>  $ ~* 2' P; K~ C, D$ ^% dc ec =c fc gc hc d0 S* }- ^^ ]= ic jc *% kc kc 3: lc 0c mc o2 5- ~/ e- ;= Y} $8 nc oc pc pc qc -b rc $: }- C; ,= sc M8 tc ~1 4> :] N' uc -' &5 vc wc xc N> .; P& |8 @{ yc zc 7) Ac 7! Bc >0 ~1 }# f& l5 94 Cc Dc Ec Fc Gc Hc Ic Jc Kc Lc 'c Mc n2 .3 Nc Oc Pc Ia {1 Qc ^b Rc wb Sc Tc Tc ]1 Ka $8 k) R; L0 Uc Vc Wc Xc Yc Zc `c  d .d +d @d #d t/ }$ G1 &8 (c $d %d &d *d =d -d 3& ,~ h< R* ;d Y3 >d ,d -d 5c &- Ka 4[ 'd u= __ s- &  )d z' a* *8 !d .{ ~d {d Ia j, P' 4) C/ p] Q_ j8 e( w| <( P> ]d ^d /d (d _d :d <d [d }d |d 1d 2d 3d 4d 5d 6d 7d 8d 9d L0 0d V6 ad m. /2 b; U* @> .) bd a' H} O' %> A/ (2 d' ",
"7- j8 )~ 7- cd `] b8 s7 dd ed fd gd hd id jd kd ld md nd od pd qd rd sd td ud vd l~ Q* D$ &  v; v; v; &  &  h: /; g: `& 5> Nc wd xd pc yd zd V3  b -6 oc Ad Bd ,7 Cd Dd /c ># Ed fc :c 4[ 6) Fd K< Gd 3> 2' s| Hd Id Jd Z] Kd Ld Md Nd Od q# Q2 Pd Qd x= H> L_ l< 3{ Rd Sd Td 0c >1 Ud 0c 8) Vd Wd ^9 5> Xd 62 [# 0* +1 Yd }( G* m} Zd Zd c& O< >5 |[  ^ j! k, [# >- >- |[ P( P( Xd t/ 9^ `d  b M& ^^ a} h< K. 2' 2' M_ /: &  6- v; C$ (- 2&  e .e +e k) /; @e [( z[ U} (= 1( #e $e %e jc &e yc *e i[ 3{ L& e- 3- `~ ~b ^b =e -e -e pc qc >7 l& k, 2' t< N; 7} H5 ;e >e h] K- W, 1_ 7, 3& N8 d] B4 ), @[ X] X] ,e y% Q= 'e _9 u/ a4 4: &: Q< e] Y) )e !e !e ~e {e wc b6 ]e >d Ab '7 Oc O& Dd ;1 .3 Mc V3 >0 Oa ^e Oa Pc &6 /e ,c Sc Sc ~b (e 3+ J0 ;: ;# 86 _e _e :e Td ac 0c <e <e 84 ^= [e [e Zd }e 8c |e 1e 2e 3e Oa $: 0* _2 r- s; 4e 5e 6e 7e 8e h[ 9e V3 K5 Bc B: Q} 0e ae be =0 >a ce de ee ec ~b r- R- P' $1 R] F_ L; n] <~ 9} B: fe ge he ie je ke le me ne oe pe qe re se te ue ve we xe %c H' P* '- y| 9= ;} K~ t< f< ye <^ E: a] _] z/ _4 S' ",
"l! $] ][ !{ g1 ,_ P} .* ze Ae Be Ce De Ee Fe Ge He Ie Je Ke Le Me Ne Oe Pe Qe Re J> l~ #7 0- d~ V7 V7 k1 &  >~ s- _& P* ;( Se 7! v* (_ 5> /^  ~ N> h[ 8b ~1 @< R& R& 6, G4 u= Te  b 5c f; 5} ~/ 8- -9 N- Ue _' Ve We Xe ~0 Ye [c Ze `e  f -5 i} .f N8 :~ +f [: d( V{ @f l3 #f -5 !2 R3 K5 :* $f ;e %: !: &^ j! j! i< 0- d~ U] V@ ,( h9 h9 '( %f i: }[ .$ @1 Q* i, i< i< &  &  }[ D) <9 >e &f [[ #] g2 *f 3a ': =f ~' G' q- u| r| 42 -f ;( (_ |b Ha [- 5[ '2 '2 +8 -f x' *5 @# ;f 5@ >f ,f 66 'f |b xc #] 9- C| 8- j0 P> $8 Pc  b nc >0 8^ f; P( h< @> Q5 3( ^/ E4 )f R6 N4 34 h8 d( 9- 5} L/ T< !f ~f {f 'e ]f ]f ^f N{ /f (f _f :f <f o4 o4 M7 [f }f |f 1f 2f :# s; D) m7 Ka /e 3~ @< 3~ 6, .; J5 n[ &- $8 ~! ~! ~! 3f D{ D{ }b %_ 4f f; [[ V{ 5f 6f P< 7f L7 _9 8f Y) 9f 0f 7) af ;| i: bf cf U] R& %b P= %b df d& 3{ |_ ef ff N] @^ Xd d& gf R& k' hf _0 if jf kf _, lf mf nf of x6 E4 G4 :# zd 8f R< k1 #7 M| !{ #( #( ~^ A, /< N} pf qf rf sf tf uf vf le wf xf yf zf Af Bf Cf Df Ef Ff Gf Hf If T< %0 S; +} N2 ;} Y9 T- C~ {[ Jf Kf O' j< _4 f2 q@ ",
"[# p/ `! M| *  _& Lf =. Mf Nf Of Pf Qf Rf Sf Tf Uf Vf Wf Xf Yf Zf `f  g .g +g h/ %~ P] k. P; 5[ P* v; @g N: U} U} D> H' be #g Q( $g %g &g Y7 u{ P: *g ': (' (' M] M] =g -g X7 ;g h0 %~ *g |0 6[ T1 >g ;{ ,g 'g )g !g ~g {g $  ([ ]g Fa ^g 5& /g (g Ue 6[ U1 _g :g &g <g [g }g 52 |g 52 >9 52 1g 2g 3g 4g 5g 6g 7g 8g 9g 0g ag bg cg dg eg eg fg gg hg ig jg kg lg mg ig ig mg 8g ng og pg qg rg sg tg ug vg vg wg xg yg zg Ag Bg Cg 9g Dg Eg *f ': Fg 9g Cg Gg jg Hg Ig Jg Kg Lg x3 t| y, vd ;g Mg *g z} V9 Ng V9 6[ Y7 %g 2g Ue Ue ~' Og &g sg Pg xg Qg Rg Sg Tg of Ug Vg Ag Wg Xg sg Yg eg cg Zg `g Tg  h .h +h @h #h of Tg $h %h &h *h =h -h ;h >h ,h 'h 5& y, Y7 )h !h *f *f $g Og %g M] %g ~h {h !h ]h ^h ^h /h ': C: C: %~ O- C: %7 (h _h :h <h 3g =g [h Ue }h z' O] 1g |h 2g 1h 2h 3h 3h 0g 4h Og *f 5h 6h 7h 8h Gg 9h 0h ah kg bh ch 5h 3g 4h Y7 rg rg &g gg dh 'g eh fh gh hh dg %g X7 q- O| !4 p~ ;} =  3- Sa ih aa D! i! d~ jh kh lh mh nh oh ph qh rh sh th uh vh wh xh yh zh Ah Bh Ch Dh L/ V{ ,_ u& G* D> -9 I} k/ g8 E: Eh Fh *} h] g, 5} ",
"Q> f' E^ B, i< Gh na Hh Ih Jh Kh Lh Mh Nh Oh Ph Qh Rh Sh Th Uh Vh Wh Xh Yh Zh h/ O- %~ l~ !} `& *0 H' `h )2 /= k} 4: m~ %h  i .i +i @i #i $i %i &i *i =i -i ;i e| >i -i ,i 'i )i S8 S8 ,i !i ~i &i %i 7[ 3< {i 7[ Q: @i ]i ^i /i (i _i :i <i [i }i |i -i ]7 t1 1i 2i .i .i 3i 3i +_ 4i >] 4i >] 5i 6i $i &i 7i 7i Q: Q: Q: Q: 8i 9i 0i #i ai ai ai y< bi ci 3< ;8 3< ;8 ;8 ;8 %i %i &i di 2i ei $i 7[ t1 >8 s1 R| >8 >8 ]7 ;8 ;8 3< 7i #i 6i 6i =i di fi 3< 7[ %i gi !i hi +_ ii 4i +_ hi hi ji hi ki !i $i &i &i 7i #i li mi ki ni @i li #i 9i oi 3< pi fi qi ri ri si ti ui #i vi 2i @i vi qi 0i qi li wi wi xi xi xi ti +i wi ti ti @i +i ki yi zi Ai Bi Ai +_ &| ~i +i +i +i vi vi qi vi ai vi qi 6i Ci yi yi Di yi Ei Ei V8 Ei Fi S8 Gi @i -i @i ,i Hi hi ji Di Ei Di yi hi @i ei 1i >8 >8 %i ei vi @i 6i Ii di $i 7[ Ji >8 ;8 7[ di -i ,i @i -i #i Ki $i #i fi {i b_ Li Mi Ni b_ fi Ki ,i |i Oi !f Pi K  ), q& O~ Q~ -- Qi }_ Ri Si Ti Ui Vi Wi Xi Yi Zi `i  j .j +j @j #j $j %j &j *j =j -j ;j 6f c1 R< f] m5 v/ M_ j/ &~ C~ U- E_ >j e6 }_ R' 5- ",
"$: A( N)  6 u< f~ ,j 'j )j !j ~j {j ]j ^j /j (j _j :j <j [j }j |j 1j 2j 3j 4j 9' m_ O- G8 J3 p@ V@ `h 5j 55 6j 86 `2 ~f 7j ei 8j 8j 8j 9j 9j l: l: l: 8j l: l: l: l: l: l: l: l: l: l: l: l: 8j 8j l: l: l: l: l: l: 8j 8j 8j l: 8j 8j 8j l: l: 8j 8j l: l: l: l: l: l: l: l: l: l: l: 8j 8j 0j 0j aj Ni x2 bj 0j 8j 0j 0j 8j 8j 8j 8j 8j 8j bj 8j 8j 8j l: l: l: l: l: l: l: l: l: l: l: l: l: l: l: l: l: l: l: l: l: l: l: l: l: l: l: l: l: l: l: l: l: l: l: l: l: l: l: l: l: l: l: 8j 8j 8j 8j 8j l: l: l: l: l: l: l: l: l: l: 8j 8j 8j 8j 9j 8j 8j l: 8j 8j 0j 0j 9j 8j 8j l: l: l: l: l: l: l: l: l: l: l: l: l: 8j 8j 8j 9j 9j 9j 9j 9j 9j 0j 0j Ni Ni Ni x2 0j 8j 8j l: 8j 8j 9j 8j 8j 8j 0j bj 8j 0j Ni Ni Ni x2 x2 9j 9j 8j 9j 8j 8j 8j 8j 8j 8j 8j l: l: 8j 8j l: l: l: l: l: l: l: l: l: l: l: l: l: l: l: l: l: l: l: l: l: l: l: l: 8j ,8 ,8 ,8 8j 0j 8j 8j cj ,8 cj _7 _7 _7 0j dj Q} (0 ej fj `$ gj hj o! ij _( jj kj <, lj mj nj oj pj qj rj sj tj uj vj wj xj yj zj Aj Bj Cj Dj x| E4 Se ,a -  v/ l] w} Ej o< A^ @~  ] 65 u< f( 3{ ",
"t@ $5 C^ D! R' Fj Gj X@ Hj Ij Jj Kj Lj Mj Nj Oj Pj Qj Rj Sj Tj Wi Uj Vj Wj Xj `[ @> /~ M- /: a* -} Yj Zj W] _= `j  k s  .k ui 8j 9j ,8 9j +k ,8 m( l: l: l: l: l: l: l: l: l: l: l: l: l: l: l: l: l: l: l: l: l: l: l: l: l: l: l: l: l: l: l: l: l: l: l: l: l: l: l: l: l: l: l: l: l: 8j 8j 0j aj 0j 9j 0j +k x2 8j 8j ,8 ,8 ,8 ,8 ,8 9j 8j l: l: l: l: l: l: l: l: l: l: l: l: l: l: l: l: l: l: l: l: l: l: l: l: l: l: l: l: l: l: l: l: l: l: l: l: l: l: l: l: l: l: l: l: l: l: 8j 0j 0j 8j 8j 8j l: l: 8j 9j 9j 8j 9j ,8 l: l: l: 9j 8j 8j l: l: l: 8j 8j 9j 9j 9j 9j 8j l: l: l: l: l: l: l: l: l: l: l: l: l: l: l: 8j 8j 8j 8j 8j 9j ,8 x2 x2 x2 x2 x2 0j +k x2 ,8 l: 8j l: l: 8j x2 8j 9j 0j x2 9j 9j 8j 8j 8j l: l: l: l: l: l: l: l: l: l: l: l: l: l: l: l: l: l: l: l: l: l: l: l: l: l: l: l: l: l: l: l: l: l: l: l: l: l: l: 8j l: cj cj cj cj cj 8j ,8 l: l: m( g^ U2 U2 ,8 @k #k $k %k &k ,4 sa hj *k =k S1 #1 -k ;k >k ,k 'k )k !k ~k {k ]k Kd ^k /k (k _k :k <k [k }k |k 0e '( c1 L< m5 [- L& #~ Z6 T6 7; (~ s~ {/ _( :~ q~ 5- ",
"[# 1k 2k 3k j, f~ 4k 5k 6k 7k 8k 9k 0k y[ ak bk bk ck dk ek fk gk hk ik jk X9 M2 D: kk P] $~ x3 =, K0 1{ <8 ${ J' lk )4 mk $i l: 8j l: l: cj nk m( ok _7 _7 _7 _7 _7 _7 _7 _7 _7 ok ok _7 _7 _7 _7 k( k( k( k( k( k( k( k( k( k( k( k( k( k( k( pk pk k( k( k( k( k( k( k( k( g^ g^ g^ qk rk sk s1 pi t1 Li 0j 8j cj 8j ,8 9j 9j 9j 9j 9j 9j ,8 k( '[ '[ tk tk _7 _7 _7 tk g^ g^ g^ g^ g^ k( k( pk '[ '[ '[ k( k( k( k( k( k( k( k( k( k( k( k( k( k( k( +k +k k( +k +k +k +k pk pk k( k( x2 ,8 8j 8j 8j 8j l: 8j l: 8j 8j 8j l: l: l: cj ,8 _7 pk '[ g^ qk '[ R| R| U2 U2 Z( U2 U2 U2 U2 R| ,[ pk pk k( k( k( k( pk '[ '[ sk R| U2 ^} ^} t1 ^} ^} U2 R| R| t1 t1 1} R| k( 8j l: l: l: l: ,8 l: l: l: l: 8j 8j 8j x2 +k +k pk pk k( k( _7 _7 _7 _7 _7 _7 _7 _7 x2 x2 x2 uk uk x2 x2 x2 x2 x2 ,8 cj ,8 x2 x2 _7 _7 _7 k( k( k( k( pk k( k( k( k( '[ '[ '[ U2 U2 1} U2 _7 l: l: l: l: m( tk vk U2 0j wk ^d xk yk zk Ak E, Bk Ck W% Dk [_ Ek z& Fk Gk E& Hk Ik p& ]a ]a *3 xc =8 (- Jk L% Kk Lk Mk Nk |g %^ k3 L> !} r- E; )) g~ E> |' (( (~ 6{ 6{ H} L- /: ",
"-< qb E^ <( ,~ `0 Ok Pk Qk )j Rk Sk 4~ Tk Uk Vk Wk Xk Yk L* Zk `k  l .l +l 48 &~ y^ A^ T2 ': Ig `g @l K  #l Wc 35 [8 $l %l di l: cj ,8 ok ok Y: &l V2 [4 *l [4 =l [4 h> h> -l -l -l [4 ;l ;l ;l *l *l >l ,l <1 ,l 'l 'l 'l ,l ,l 'l 'l 'l 'l )l )l N[ !l e2 X2 ~l ~l X2 X2 {l {l ]l ]l ^l /l (l I< _l :l <l ^} ,8 ,8 ,8 9j 9j 9j 9j 9j ,8 ,8 U2 [l r} }l |l 1l 2l 3l 4l 2l 2l 2l 2l }l 2l r} 5l 6l 7l 8l 7l X2 Y8 =| 9l [4 [4 =l =l h> h> [l f) f) *| 0l 0l al al u1 u1 bl cl y2 =| =| 9l 6/ k( ,8 ,8 9j 9j 9j 8j 8j 9j 9j ,8 cj nk !6 )[ dl ;l [4 el el 3l }l {l {l {l ]l ]l {l {l {l {l {l X2 'l 'l =| =| <1 <1 N[ fl 6l gl gl 8l I< ^5 hl hl hl il I< s} _l h| jl ^5 kl g^ l: ,8 9j 8j ,8 8j 9j l: 9j l: ,8 R| ll X5 ;] ml nl ml gl 7l 6l e2 fl )l ol ,l ,l <1 <1 ;l ;l ;l ;l ;l ;l ;l ;l cl h> h> h> cl ;l =| <1 ,l =| =| =| <1 =| =| =| =| =| =| ,l X2 {l pl X2 4< ,8 l: l: l: m( qk ql t1 rl sl tl ul vl wl xl )} yl zl Al Bl +^ S4 ([ Cl Dl _8 &8 Sa El Fl Gl u> Hl e_ P3 xc .f +} Il Jl Kl Ll r3 N] O- Ml (' Mg 7= A; R* 'a %> Nl Ol Pl Ql 6| !h ",
"n1 9! ][ Rl S' q3 Tg Sl =< Tl Ul i& _8 w= Vl Wl Xl Yl Zl &} `l  m .m +m -h Y1 v2 H8 0' j/ x9 6g @m #m $m %m &m *m =m o# -m $i l: l: m( h^ Y: ;m >m ,m 'm )m !m ~m K6 K6 K6 K6 {m {m K6 K6 K6 ]m ]m ]m ]m ^m ^m /m (m (m (m /m (m _m (m :m <m [m }m }m ;2 ;2 }m [m [m [m [m |m |m 1m 1m 1m 1m 2m 3m 4m 5m 6m bl ,8 cj ,8 9j 8j 8j 8j 8j 8j ,8 d) 2} =2 |m 1m 7m 8m 9m 0m 9m am am am am bm cm cm [m 3m 3m dm (m em o, M6 fm B5 B5 gm gm ^l ^l ^l ^l ^l 8l ml L6 hm M6 fm fm K6 ^m im im o, jm '{ cj cj 8j 8j 8j 8j 8j 9j 8j 8j m( g^ [4 km (m _m lm )m mm am )m _m )m )m )m )m )m )m )m )m )m 'm K6 K6 nm o, o, om G3 /m _m pm }m qm rm sm tm um vm vm sm d: B} ,} O[ wm J_ d) ,8 l: 8j 8j 8j 8j 9j l: l: l: ,8 #4 I_ xm q: I6 q} ym zm Am vm sm sm 3m 3m qm |m [m cm cm _m Bm )m )m cm _m )m )m )m ^m ^m ^m ^m _m /m /m ^m ^m im im im im im im K6 ~m ^m _m _m [m ^m [4 ok m( l: l: nk &l V2 4< Ni Cm Dm Em Fm Cf Gm F| Hm %] Im s4 f2 3= ~4 w@ 66 >0 Jm o[ Km Lm Mm Nm Om Pm Qm R) W} N/ 6g 7i fi ;{ ]h %7 e< z} w9 .> R- A; R* B, 91 <^ F8 Rm 41 Sm 6: ",
"l< 65 Tm Um e1 h0 Vm Wm s7 |9 Xm =& cd >) Ym Zm `m  n .n H- O; ## G{ +n Ag %2 p: <^ L2 99 x9 4g @n .h #n $n %n &n *n `j =n Ki l: l: ok h^ Y: -n ;n >n ,n 'n )n !n ~n {n ]n !m lm lm ^n ^n am am am am /n /n (n (n |m 1m 1m 1m 1m _n sm tm :n tm <n [n <n }n <n <n |n |n |n |n 1n 2n 2n 1n 3n 1n 4n 5n 6n 7n N[ k( ,8 ,8 8j 8j 8j 8j 8j 8j ,8 d) B5 2m }n 8n 9n 0n an bn an an an cn cn /n (n |m _n _n 3m <m :1 em dn en 'm 'm 'm ~m K6 K6 fn fn fn fm {m fn ~m lm )m )m am gn (n |m =9 _m w1 d) ok cj 8j 8j 8j 8j 8j 0j 8j 9j h^ ~6 ^l _n [n <n hn an bn in cn cn /n cn jn jn 9m 9m !n /n /n !n am am )m )m am cm cm cm /n (n 1m kn kn ln <n <n mn nn 4n on I2 pn 3} o) B} qn k( cj 8j 9j 9j 8j 9j l: 8j l: ,8 rn c( sn z5 00 tn un vn wn xn yn 4n on }n }n <n <n |n kn kn hn hn hn kn kn hn _n 2m 2m 1m 2m 2m _n 2m 3m |m |m (n =9 (n =2 gn gn !n !n !n zn (n 2m _m >l Y: h^ m( nk Y: >m An W2 sk Bn >k Cn Dn Cf En Fn '= Gn s4 (4 {* Og X7 #7 T] 2- J< Hn In Jn Kn Ln Mn Nn On G) (a C[ Pn k( ,8 y9 e< A4 y} u4 (' Q] h] h< .^ ~} v) d_ Qn Rn 41 $2 n_ ",
"A, ][ a{ N) :( `[ Sn Tn Un Vn Wn Xn Yn Zn `n  o .o +o @o #o ]' w2 j/  | $o V2 q< 9| X^ w} *g G' vd %o &o *o =o -o ;o !b Kg Ki l: l: m( m( h^ >o ,o 'o jn jn )o !o !o ~o ~o ~o ~o {o ]o ]o ^o ^o lm lm ]n am am gn !n /n /n (n 1m /o kn :n <n <n <n nn 4n nn nn (o (o (o 1n 1n 2n 2n _o :o <o <o 4n [o x0 }o =| _7 cj cj 8j 8j 8j 8j 8j 8j cj ~6 c< gn 3n 1n 1n 0n an |o |o jn jn jn jn 9m gn (n |m |m _m M6 L6 il km km 1o ^o ^o ^o lm 2o fn 3o 4o 5o 6o 2o lm ^n ^n ^n ^n ~o ^n ]n )m ~m {l e[ ok cj 8j 8j 8j 8j 8j 8j 8j 8j m( e) ^l _n <n 7o bn |o 8o |o |o cn jn 9m 9o 9o 0o ^n 9o 9m 9m 9o ]n ]n ]n ]n ]n am cm /n (n zn zn in in 7o 7o 7o 1n |n kn hn }n #o ao bo I2 co g^ ,8 ,8 l: 8j 8j 8j l: 9j l: ,8 u1 do U[ b} tn un eo fo go 4n }n }n :n :n kn kn hn hn hn 1m 1m zn zn 1m 1m zn 1m (n (n /n (n (n 1m zn 1m cm cm gn /n gn am ]n ]n ^n ]n ~o ho ~o ^o 3o io -n h^ h^ Y: -n jo ko =l rk lo mo no oo po qo ro '= %] so  ] v) U9  ( -| t} 3} to uo vo wo xo yo zo Ao Ao (o Bo Co Do ,8 ,8 Eo v{ U5 P] Q] N- >( U* .8 !~  $ X; <^ Fo Go Ho ^8 u} ",
"O/ 3k E^ 7^ l, 0' Io Jo G7 ){ !m 2m (o @o Ko Ko Lo wo Mo No Oo W- g_ C7 #4 !6 d: +4 M2 Z6 P] /: 5[ Po T0 >1 Qo Ro So _= =, To l: l: m( m( m( m( >o Uo Vo ~o Wo Xo Yo Yo Yo Zo Zo Zo Zo 4o 4o 4o ]o ]o ^o lm lm !m !m ]n ]n ]n gn /n zn 1m 1m hn hn |n mn mn mn 1n |n 1n 3n 7o 3n 3n `o _o `o 3n nn [n e:  p =| '[ ,8 ,8 8j 8j 8j 8j 8j 8j ,8 g^ k2 A5 !n zn in an cn jn jn 9m !n !n !n !n gn cm (n cm ~m 2} co pl M6 B5 .p ^o ^o !m !m .p .p 3o 3o 3o 2o 2o lm ~o ~o {o {o +p +p 5o fn B5 }l e[ tk ok 8j 8j l: l: 8j 8j l: cj h^ >m @p gn (n !n 0o #p $p %p &p 9m 9o ]n ~o ~o {o ~o ]n ~n 9o 9o ]n ]n ]n ]n {n gn 9m gn !n /n !n !n /n zn zn zn /n !n (n zn hn go 00 *p >4 E2 ~6 k( +k 9j 0j 8j 9j l: ,8 8j cj *| r< q: 3^ =p xn go 4n }n g3 =9 =9 =2 =2 /n /n /n /n !n !n gn gn !n !n gn gn gn gn gn gn !n gn (n (n (n !m Bm )m gn !m !m Zo Zo 4o Zo +p Yo -p ;p >p ,p ]} 'p -n -n ]} )p !p ~p /7 {p ]p ^p /p (p _p :p Z~ /4 ], c, X; <p _7 g^ [p .p :n }p |p 1p 2p 3p 4p 5p 6p 7p 2p 4n k2 ,8 8j Q8 kk Q' h< a} &  g: V6 5+ 5+ h< 91 H8 b5 H2 d} ^8 u} ",
"=  -1 :( ^, -- 0' J_ (m *2 *2 ,n 4n 8p 9p 0p  o ap bp cp dp V[ ep q: r< fp 6/ <p X^ x} -~ r~ w_ ## Fn M. gp hp -o ip jp #; W8 l: l: nk ok >o h^ >o kp in 8n 1n 'n ,n zn )n !n zn jn !n gn am am am /n lp lp |m |m |m 1m 2m 2m _n kn :n |n <n <n }n nn 4n mp np np np np np np np np op 8n 2n pp qp rp sp  9 tp U2 cj cj 8j 8j 8j 8j 8j 8j 8j ,[ o, I2 >4 g_ up [n 2m 1m hn 2m hn kn kn tm um tm vm vm sm (m im (m <m =9 g3 2m :n 2m (n lm ~m .p .p 2o lm ^n 9m jn Ao &p {o ]o hn pp vp vp wp 'l g^ cj 8j l: l: l: l: 8j l: m( h^ xp km on [n }n 1m jn #p &p &p ]n ^o ]n ]o Zo +p Zo ^o ho ho ]n ^n ^o ^o !m !m am gn cm cm =2 =2 [m [m |m |m |m [m [m vm zm ym k8 yp zp 3} K7 e[ _7 x2 0j 0j bj 0j l: l: 8j cj ~l _5 r9 F5 Ap vp ym xn m| on Bp P6 P6 sm :n g3 g3 x4 Bp tm Bp tm tm g3 g3 g3 sm tm tm tm }n [n Cp 4n tm =9 =9 _n 2m |m =2 ]n ]n ^n ]n ~o ~o Vo Zo Dp Ep Fp Gp >m Hp )p kp >p Ip Jp Kp R{ Lp Mp Np Op If {^ v| /4 c, W, Pp g^ Qp Rp :n Sp Tp Up Vp Wp Xp Ln Yp Zp Xp `p fo  q ok 8j .q v] i, P; +q g9 b; B( @q k: |5 ~* D: r( h2 `1 31 L2 ",
"q& 5) -- M) g} J- Sm km Bm =2 #q $q %q Mn &q *q =q *q -q ;q Sp m| B} %2 >q e| X1 h8 s~ :] d' N> w^ -} ^; ,q U$ 'q )q 8> !q &| l: cj qk Qp ~q )p Z5 ]n {q ]q q) ^q /q W< (q _q _q vn :q =p ym ym =p =p <q [q }q up up |q |q 1q 1q 2q 2q 2q 2q 3q 4q 2q bo 5q 3q bo 5q *p *p 6q 7q 8q 9q bo |q 0q aq K8 bq B; cq W8 8j 8j 8j 8j 8j 8j 8j 8j 8j r1 dq %) i~ eq fq gq g_ pn 2q Ap tn hq Ap 2q pn pn O[ qp qp iq iq jq O[ qp kq kq lq *p up [n |m |m 1m cn cn <n mq nq @o oq 7o <n 6q pq p} 8/ >2 qq U2 8j 8j l: l: l: l: 8j l: m( ,8 h> C} a( a( c: bo rq mn sq 3n |n kn kn ^n tq Dp tq am 1m cn /n /n }n zm ym ym zm zm b9 E7 ,} uq vq p: p: wq xq o: k8 yq u9 j| F' zq Aq Hm  _ ~l pk pk Ni Bq aj 0j 8j 8j 8j x2 Cq 81 d, uc 0: J6 qp O[ U[ g_ uq >4 ,} 3^ un un un tn tn tn tn |q |q un un un iq iq |q |q 4q Dq Bo 2q up xn wn <q :q =p xn dp Eq mq Fq Gq Hq Iq Jq Iq :n Kq Lq Mq ,m Nq Oq +p Pq Qq Rq ta Kb Sq Tq Uq V7 +6 Vq =- %] H> r< g^ xp Ip =9 x4 :n go Wq bp Ln Xq Yq Xq Zq `p mp `q ok _7  r t3 0* z[ .r +r h; :& @r #r $r U; X; a' %r V! &r j~ ",
"k) ]a ,5 *r =r R!  1 V2 An -r ;r >r ,r 'r |p )r !r 2p ~r {r a< F2  1 >q c| {7 ]r d< i] `- &b T> %8 T; b; @d ^r /r )q v% [2 &| l: cj e[ 3l ]l (r _r :r <r  n [r }r 0< |r _: p) lq 1r J2 g_ Ap Ap Ap 2q Dq bo *p 1r 6q 7q 8q 8q 2r 2r 2r 2r 2r 2r 2r 3r 4r 5r 5r 0q 0q 6r 6r 7r 8r 9r 0r ar 8q P, br {^ H! 2- I8 cr l: l: l: l: l: l: l: 8j l: d| f9  [ <c dr er fr 0: 0: gr 0< /8 hr hr ir |r jr ir ir ir kr kr jr gr 9( P, lr _> mr nr 2q =p =p fo mq or pr {q qr qr Ko rr mn 0q sr M~ -> l^ p< ]7 8j 8j l: l: l: l: l: l: ,8 ,8 ~l dq 6] 9: /' 7r uo tr ur @o -q 3q _q vr 4o _r tq kn go 4n :n yn kr zp 3] yp yq o: c9 o) u9 T[ u9 T[ *9 <6 <6 0< 0: /' wr H6 xr yr zr t2 N' %2 1} ^7 Ni aj 0j 8j 8j ,8 8j k( `7 _] 7: C/ 0( l9 c: 5^ i0 :6 J6 g- J2 J2 J2 1r 1r /q lq lq lq 6q 6q Ar Ar Ar Ar lq Br Br 2r 2r 4r Cr W< un Ap 00 bo 4q 4q -q +o Dr 0p Er Fr Gr Hr Ir Dr 9o Jr Kr _r +p Lr Xo Mr (r A2 Nr Or Pr Qr Rr L> +6 Sr Tr w( &) d: ok ok e[ 3l Ur 3l Vr lm (o 8p !r Wr )r Xr Yr !m An ok _7 Zr .^ X6 Ga .a h; %} u+ `r .a c  C, :] $)  s 9] .s J< ",
"v= 7^ S] *r +s R! @s m( m( #s Y5 $s %s &s *s =s *s -s ;s Q| >s ,{ g^ `( l( ]7 U1 Z6 P' H! `~ ,s H^ #] 's )s !s ~s {s ]s j1 &| l: m( g> 3l ^s 5o 4o :r /s (s _) }r }6 |r kr J6 z5 1r 1r 00 Ap iq |q |q 1q 4q Dq Bo /q 6q 7q 8q 8q _s _s 2r &q :s <s <s <s <s <s <s 3r 0q ar nr nr [s }s 4r uo 2^ |s 1s 2s w= 5= 3s l: l: l: l: l: l: l: 8j l: R| 6: H! ub `3 4s n^ /' /' 3] 0: }6 /8 /8 /8 /8 ir ir ir }s 4r 4r ir 5s P, _> _> 0( 6s 5s ao vn _q _q rq 1q Jq Fr 7s 8s Ko 8n 3n 6q 3) K- g~ 2> X1 9s l: 8j l: l: l: l: l: l: ,8 ,8 rn 6| H8 7] {{ /8 5q Eq 0s Mn as ]q ^q bs -p Nq cs :n Tp go x4 ds 2^ es fr fs 3] 22 >} J6 yq yq yq yq yq |r ir }r gs hs }r 2) <a is js ks 4) '6 Z( g^ 9j 9j 8j 8j 8j x2 9j k( W1 F: R] (/ /' c: 5^ 5^ i0 g- [5 g_ g_ g_ 00 00 Dq Dq Bo Bo Bo 1r 1r 1r 1r 1r Ar ^q ls ls q) q) q) ls ms ns 4q (q Dq %q Iq Vp 9p Wp  o os ps qs rs ss 8s ts us vs ws ;p Lr Wo )o Dp xs $  ys zs zs As 01 F_ Bs Cs w( C6 q< ,8 l: m( Y: Y: nk &l (7 io }l (r Ds Es _r Es f) qk m( cj Fs L' ;} $# F0 ={ Gs Hs ', <2 y' !~ K) <[ .} p5 Is ,5 ",
"5} E! m! R) *r Z- M3 ok cj m( m( h^ h^ Y5 h^ h^ h^ m( l: l: l: l: l: k( #4 Js @5 :[ :] m, gj da t@ k! v/ Ks Ls Ms Ns 8> R4 +2 l: h^ ;n !p _r Dp Dp an Os 5r ar 4r l9 _: kr z5 Y< Y< 1r bo |q rq <q <q vn Ps |q 00 ao *p kq 6q 6q Br 7q Br 7q Qs :s :s :s Rs Qs Br 7q 8q 8q Ss Ss Zn Cr lq Dq nr => 16 |5 X* e5 g| l: l: l: l: l: l: l: 8j l: k( z} F, Ts Us Vs m^ 8( Ws R, f: <6 T[ c: c: T[ Zn |r ir ir kr 2r kr 7r gq zp 0: 3] 2^ ir |q #o fo fo #o pp eo `n Xs Ys Vp (o (o 3} L_ T- R- +5 Zs ^7 l: l: l: l: l: l: l: l: l: l: `s X4 (] b3 S[ |r 4q dp  t .t +t @t &q $q Dp #t $t gn 4n 4n :n %t 5s &t |6 *t b: p) ,} f/ i0 D7 D7 _6 i0 3} Zn }r .n =t yp -t Y9 ;t >t -= K. ,t k( ok 9j 8j 8j 8j 8j 8j 0j Ni 't Q] j8 V; S[ 3} F5 F5 g- A} I6 D5 I2 vp :q up un un un |q ns tn Ap Ap g_ g_ b} W< )t /q Br Ar Br /q !t _q ns ~t ns ;q dp Eq {t xo ]t ]t ^t /t qs (t  o _t :t <t ;p Lr [t }t |t ]o sp }( 1t 2t 3t Pi d' R] 4t x( w( .} 5t ok l: l: m( m( l: cj cj tk k( tk tk tk g^ U2 '[ R| ,8 _7 6t !} =  ^; 7t 8t A| n. %- 9t 0t a} `} k] B6 at bt g} ",
"e0 g] l! &5 ct %> |3 C3 dt $o 6/ g^ l( l( m( m( m( l: l: l: l: l: k( Fi et x9 ft $> h! `! S] Vs -0 g1 E, !d gt ht it jt +8 kt m( Y: ,p >p ^o 4o lt zn ns 1r lq qp 22 t( p) Y< z5 {( {( /q 1r ao qp kq Ss hr 0< 0< 0< H6 H6 wr wr 0< 7r 7r nr mt 0r 0r 9r nt 8r }r 0< ]8 -; P8 ot pt /' F} r9 I- ^^ t^ t& M: z; qt l: l: l: l: l: l: l: 8j l: Li ': h[ 5e  b m7 h] t< -~ l^ 81 `; Z; P[ {{ P[ P[ 3) 9: rt /' 0: wr 0: yp {{ /' 9: 3) R, qp tn 00 00 wn Bp :n eo !t Br Bo fo :q S[ :] <~ j, g2 st Li 8j l: l: l: l: l: l: l: l: l: ~i tt ut t< 5] 32 p) _q {q vt wt xt 4r Dq yt zt h3 c} %t wn ep :q }r &[ a0 a0 %a a( i0 +4 32 >2 v} F} L| |7 3] V, p} A6 K2 *, r; =$ At Bt Ct Dt Ni ,8 9j 9j 8j 9j l: 8j 9j Et Ft z[ m7 >- R- 1> w} w} W4 Gt E5 E5 i0 c: l9 |r jr Zn Zn Zn c: c: F5 F5 F5 F5 5^ c: c: c: |r |r /8 /8 c: J6 J6 J2 J2 yt vr 3n Ht It Jt Ht Kt Lt Ko Mt Mo &p Zo Zo ]n 9o Nt _t No lm (6 g; 0) p* Ot m' q@ Z{ `{ Tr b, E' _5 0l R| t1 U2 8j l: cj cj _7 ,8 cj cj cj l: _7 r1 R8 R8 Q8 Pt D) T} p~ P} S& Qt t$ Rt St :2 ## N/ -' j~ Tt (/ Vs ",
"w- /& |[ [[ 1~ h, og Ut Vt Wt Xt 4_ l( l( m( m( m( m( m( l: l: ,8 ]7 Sn {h #1 r- M| `! -' E^ -- %5 ;d o+ b7 Yt Zt `t  u .u e2 ok xp >p ~o 'n ,n (n =9 I2 wm uq +u @u A} p: >4 #u ^' Ar )t kr hr ]8 P8 8/ y7 #) -~ $u 4] L_ L_ L_ p} %a %a 0( %u () &[ &u <. &u Z- 5] t< @( ~* `} p] C/ @; 7< C| <* *u =u -u 8t ;u 8j l: l: l: l: l: l: l: l: >8 >u )1 ,1 ,u 'u }( L> E! 3> .^ h< {* ~* T- T- C' $[ C; (a k] )u g/ {{ {{ 9: *t h~ h~ *) gr c: to |r 00 zm =2 =9 go ao /q 4q g_ h) E! 3{ !u ~u {u ]u 8j 8j l: l: l: l: l: l: 8j l: @i V9 t3 O; `} C[ B~ 1r ^u Mn W< (q {( /u mt {( <5 W- Y< 1) (u Cr ot *) )u 9/ 7< g/ b3 +5 #) 91 s~ v] :^ X; f- // b] Z~ (; _u :u <u [u }u |u 1u rl _7 9j 8j 8j 8j l: 9j 8j 2u lo v^ ;5 l} T; $~ 5: '; *f (h u4 D: I- sr T5 &t &t &t &[ rt 9: 3) Z; 0' k^ 81 81 `; _~ H8 Z; 0' I- I- Z; .) F} 8( 0: Y< =9 ]n 3n ~r <o 'n an Ao 'n hn vr hn bs bs bs ~r Ao |o <o ~n Yn Ik 3u !k 4u 66 k, j~ x/ 5u `{ (/ bd k| h| 6u _l pk l: l: cj x2 ,8 cj cj l: l: ,8 7u 8u Qg  | Q] 9u !!  & j: z: 0u au (3 fj .% l5 %8 ;d E) G~ n1 5) ",
"L< &: u- 5> C4 1| bu Sg cu sg du d| l: m( m( m( m( m( m( m( l: ,8 r1 eu ': i< ,~ d' }-  [ m! -- *r P3 4-  b ,| fu 9) ,f -! ml 'p gu hu `o 1n bs 2m Bm :1 im iu ju ku ug lu @4 22 mu #u ms nu Q, g/ 5] V; l0 O; `} 1' #> #> T- *> 7< m^ b/ b/ fs fs a0 *) C[ C[ $) g~ R- h] .^ 9- q@ r@ m! Q' ## ou pu qu ru su tu 9j l: l: l: l: l: l: l: l: uu vu ~| wu xu yu v^ x' |[ w_  ^ @] r- .^ A; h] 4& L; 8: v: -' 4) 5] w2 q_ pt D' zu yl R~ b: 0< <> 5s kr iq [m 1o gn <q Dq _q U[ K- [# &- M& w] Au >8 8j 8j l: l: l: l: l: l: 8j l: 'i 4g R' x_ )= @; &[ Cr Bu (o c} 90 xn /q as nu {( z5 %r 0< 7r gr *) k] W; @; -> l^ +5 s~ )~ e( h, :~ )~ )~ Z~ p] C/ M| Fn Cu Du Eu Fu Gu Hu Iu rl _7 8j 8j 8j l: l: x2 8j Ju Ku ej =m Lu G* P4 42 /g Q4 Mu G' L- X; M~ uc uc -) -) Y& F' m^ 6^ 2> /~ P] J> J> @( J/ /( (~ J/ X; y7 K- g/ M2 6] rt _: q| B5 'm ~m 'm .p 'm A5 C5 'm q| Sp wn ep }p $q 'n No 8n in %9 Nu 9) 67 4u 7) O: M~ Ou v~ n, b] 0' n) 9| n_ t} 4< l: l: l: 8j l: l: l: l: l: cj @7 8u #2 Y1 <3 _b n[ ~: K' ~0 Pu W0 Qu _- t* Ru &8 O2 j8 V; '~ ;- ",
"N2 c& N2 Zd u& f~ %h Su Jg X7 ig Fi Z( ,[ Tu !6 !6 !6 !6 1} 4< u1 Uu et Q] j, t~ G: p/ `6 N) ^, 5) 5) =  :# ,| ac Vu G= q9 o, jo Wu Xu _o 1n vr g3 fm )[ ,[ Yu Zu `u  v .v +v Y1 i0 22 [) A~ V, 6] 5] S- U; U;  $ )) -[ #> T- :^ t< K- 5] 4] H> 6^ L_ L_ 5] i/ t< /~ P] N- .$ 9- e- ;d Z& r~ ;} @v #v $v %v =< &v x2 l: l: l: l: l: l: 8j l: {i *v 4# =v -v ;v i; ~4 ## w_ L> ]/ &  /: .8 `} )~ E/ <a aa  [ $1 )u a' _1 %[ K, >v ,v 'v T~ )v 4r }s xt ao :n .p .p :n #o yn >} %) &5 R& @< ## Yg uu 8j 8j l: l: l: l: l: l: l: l: 'i |0 9- x_ j8 8< &[ Bo ,n !v ~v {v F2 (n _q Os Ar (u ir 7r |r -; A6 Hm .5 Z~ @; :^ m_ R- ~{ <~ <~ M| 'a ~} 1_ 1_ R] 3> ]v ^v /v (v _v Mj :v <v Ni nk 8j 8j 8j l: l: ,8 0j 2u Ku 4! [v J^ ,4 y' z; }v Q4 ;g %~ L- <3 N' f- f- E' E' |v %) H> Z6 Z6 ': P] q- q- P] @( P- /~ J/ X; X; K- g/ g/ 6] rt 3} q| pl ml ml il ;] 1v s! E2 E2 *4 h2 V~ I2 %t V[ 'n <o 2v 7o 3v Nu 2( 67 4v o2 T' m^ Y~ u_ G> -~ Y; Y; l^ 9/ 10 5v d| %i 6v %i ]7 Ji ,[ pk x2 t1 7v 8v ]r  | A4 N/ 7} B: )4 H{ ~0 9v 0v h% u* _^ &- D, O; S- :] ;d ",
"B: c& k* )@ (! av ae x6 H' Dh G' Pg 't bv Io Io B3 Io Cq Qg et V9 89 ^h h< x= >- cv r@ p/ u~ 5( Vs 7, [[ G= 9c dv Td $f V4 G3 ev fv gv _o |n zt Bp hv g^ 8j iv jv kv lv mv nv ov p8 2_ pv S! rt Z; 2> ~* R* 7- h] -[ I> :^ J/ T2 K- 4] i/ t< -~ F: /~ T2 i/ m_ m_ O- O- ,2 @1 M| x= k, 3> E; w' qv rv sv tv uv vv x2 l: l: l: l: l: l: 8j l: wv xv yv zv q$ Av Bv ~4 !: w_ L> ]/ d~ r- @1 Q' )~ L; D6 +6 R] }] %) N! S, Cv Dv Ev Fv Gv ]q %q fo ms Ar W< Tp (n 3o .p gn 90 V~ M~ Hv }b 9e hf _h 7[ 8j 8j l: l: l: l: l: l: l: l: E3 u{ i, x_ E) V; /' #o Pq -s #t ko Iv !v x4 vn lq mu }6 [> 5^ 2) F' '= M; E0 S- @( /~ ~* B, x_ x_ c' z, B, 'a D/ D/ 3> c~ Jv Kv Lv Mv Nv &k Ov x2 nk 8j 8j l: l: l: ,8 0j Pv Qv u[ u. 87 ^| [2 :' +n Q4 ;g G' %~ <3 @) #) f- f- f- #) X; K- 2| v{ (' '; M- q3 N- )) Q] L- P- j] -~ Y; P[ Z; O!  ' J6 :1 e2 Rv Sv Tv Tv Tv Uv Q/ Vv Wv ~5 P| I2 xn Xv ~r Yv Zv mn `v  w .w +w J^ V3 T' C[ 6^ x} 6^ I} @) @; C; 4& /~  | yg yg xg xg @w #w $w %w &w yg (' h] g2 g2 u< s; u- p~ (! z_ y_ /_ *w U@ =w -  m< L& .^ K) Q' ^a ",
")_ ;: -w ;w d^ >w `= ,w 'w )( @1 *g Ng @5 6| [0 )w )w W5 !w %~ g, q~ x_ j! l! >- A] P_ G: V5 r@ O3 g< >e >| *o ~w {w :* z; m: ]w ^w Xu _o |n g3 Bp M6 g^ 8j /w (w _w :w <w [w }w |w Sm 4^ [> G} X^ 0' E> ~{ R* i] /~ `[ 81 81 `[ 2> 4] #> i] r~ f, +^ $> #> m_ ': ': +( h0 h] R* x_ <~ u< q3 $0 1w 2w 3w 4w 5w 6w x2 l: l: l: l: l: l: l: l: 7w 8w 9w 0w aw bw cw 7t V{ N} @] &  }[ 0d J3 r- :~ )~ L~ v) %) y7 X; <[ F) .~ X' dw ew gs -q $q #q 4n #o tn fo zt 3o a< fw Y[ D5 +~ ct ~! gw S0 <h oi 8j 8j l: l: l: l: l: l: 8j l: ;i Pt R* <~ j8 #) 0< zt $t ~v hw @p y4 {r x4 wn 1r l9 S, S, m9 z3 5] C' M' E> ~* U5 L- h] 9- ~/ 01 x_ <~ {} D/ D/ D/ K~ iw jw kw lw mw nw ow pw x2 ok l: 8j l: l: l: cj 0j qw rw sw tw J+ uw vw 0e ww /g vd +( S5 L- <3 v] #) #) s~ s~ #> J/ .> ]h G' q3 _2 /: .$ r| P] L- P- J) I} 6] L| L| f: 9| xw yw zw Aw Bw Cw Dw X: Ew d| Fw :/ do -8 I6 4^ Xv $q Gw Yr mp Hw Iw .w Ud S3 Jw x= V; // // #) ,; 4) D/ 4} A, d( ]h Kw Y7 u{ u{ !w !w T1 :g >g ]h 5- .; h[ 5> d] P< Q< u& K' :8 =5 g& V@ &  ^^ ;9 58 j0 9- !~ :~ E, ",
"R; v^ q+ Lw Mw Nw {2 /f 'w T< #1 Ow 79 Pw Gt @5 Qw W5 @5 (] h] k! N/ d' q~ q~ O/  ;  ; P( q@ 7^ e- t~ Rw O& Sw Tw Uw /= q3 m: ]w ^w Vw ts (o Bp Bp M6 tk 8j Ww Xw Yw Zw `w  x .x +x ^7 @x 4^ _/ n) &~ 91 |- ~{ |' j/ v5 v5 X^ ^( 99 4] i] R' ~/ D) j! .^ G8 Mg #x Ow G' ft #~ h< B, :~ Q' N] R; $x %x &x o. *x =x 9j l: l: l: l: l: l: l: l: -x ;x >x po ,x &/ 'x o@ w_ 0* i< v; z[ m~ )x ,- R' L~ 1> i| >6 |1 g~ ~} {^ i~ /a 0: 2r Os }p h3 (r Es .p [n }n c} 3o Es >n !m q: X; -0 ~! 9e a1 &g oi 8j 8j l: l: l: l: l: l: 8j l: !i 6[ u< 3> ~{ 7< i0 Y[ !p >n a< h3 ;4 Bp V[ on <5 l9 a: S, _1 L| 17 i/ K- <3 )) P] J> h< c' ~/ 01 E! `- 4} D/ 'a ][ C, !x ~x {x ]x ^x /x e* X: x2 nk l: l: l: l: l: cj 8j (x _x :x <x [x }x |x 1x !4 If Q4 C: P- ft L- <3 <3 #> l] M_ (2 k9 G' -g 1g s9 h: ,-  ^ N| ,2 +( +( %~ kk v} j^ 2x 3x b( jl 5i 4x 5x 6x 7x 8x 9x li x2 l: 3_ C7 -8 C} 4^ m| go eo !r eo <. +@ 0x &e 6j La S' )~ Z~ r/ 4) p] L; {} B, u< d( O- !h x9 Kw !7 89 89 69 }0 !w #~ }b 7e Rd ax a4 bx j: +} /! .f cx N8 j, )) @( i] dx ex x8 i, r- ## ",
".r C& fx gx c> Jk ^| -/ !4 0d k9 u4 U6 d5 hx @5 U9 ix jx T9 #~ 9- C, R*  $ !~ T] <# M8 b6 -1 l! e- >- d] O& Sw kx *m lx N- <m ]w mx gv nx (o Bp g3 2} ok cj ox px qx rx sx tx ux vx l: ,8 N3 A} 4( 33 #> O; L; |' L2 n9 K_ 5| t9 O8 .> >( j, &^ 0* +1 /: G8 +( ^h ^h ft %~ J> g2 f, g, Q' d( Gh @0 wx xx yx zx 5_ 8j l: l: l: l: l: l: l: l: Ax Bx Cx Dx Ex Du Y0 .a T; 0* 0- v; '- Fx T0 t^ *  R- 23 @2 Io Gx :^ M| 8: Hx &u 3} =p fo }n Ix Jx kp Ep Vr !m gn 'm 1o !m g3 uq i/ 62 Kx +< hf bu Lx 8j 8j l: l: l: l: l: l: l: l: -i sg e( `- O; t< j^ Y[ @p -2 C5 e} xn xn on ;4 W- mu gr gr r9 F} 6^ 5] 2> m_ @( #> R- :~ j, E! E! x_ 3> `! `! `! -' C, c~ Mx hk Nx Ox Px Qx Rx cj cj l: l: l: l: l: cj 8j Sx _x :x Tx Ux Vx Wx (% ~9 !f Xx C: /~ J/ L- J/ P- Q] M- @1 1| r| G' Yx >h Gh ,- x' ,- _[ Zx Mg C: %~ @> 6: 71 e3 d3 tp !l `x  y .y +y @y 8x #y {i 8j l: @x {5 P| D5 4^ h2 yn eo Vp Iq $y +@ %y <e E= $_ j, r~ +; ~} j8 L; ~{ M| R* !~ N- s| Re M] &y u{ !w W4 }0 U6 *y l] =y !d Pd -y w8 (0 A: )_ U] |[ 3{ 7, -' 1a K- K- .6 1- 2s M| i, M> ",
"-{  k ;y >y q[ 0v F0 J0 Fn -f #~ y} ,y 6[ 'y )y !y Ue }h /g Ek 5[ /; g: h,  6 01 v=  ; *3 q@ <( q@ 62 /^ :* ~y {y ]y G= J> :1 ^y /y (y nx $q g3 e/ _y Y: cj f[ :y <y [y }y |y 1y 2y l: ok ^8 w4 n) 33 <3 O; )= K) Y; 3y 4| R[ n_ 10 .> K>  ^ p@ h: h: 4y q3 '; h0 ;g h0 Q] #~ d( [_ h, ~{ R- M_ 5y w; 6y 7y 8y ;8 l: l: l: l: l: l: l: l: l: 9y 0y ay by cy dy ey =0 T; ,- V6 %  Jd v& v& I  37 q9 fy #2 Pn 23 I> :~ Z~ 9< o0 wq g3 Cp |m !p gy ;n Hp !p R9 c} |m on wn :q c9 M2 E! *b La 5} @n 7[ 8j 8j l: l: l: l: l: l: l: l: ,i Pt e( `- P' Y; )5 61 hy y4 -4 h2 :q ~t wn 05 W- J2 3} i0 (5 F} m^ t< 9' .> #[ P] k9 +^ 9- <~ D! w| `! `! `! {} 4} !} iy jy ky ly cw au my To m( m( l: l: l: l: l: l: 8j Ju ny oy py qy @$ ry w' sy 0d ty C: /~ J/ J/ P- ^h +( q3 d~ h: u3 52 Q4 }v N| 5[ `& g: A[ '; O- C: I> 2> 4| 3x xm -8 i> Uv uy vy wy xy 7x yy zy b_ l: l: i2 {5 B7 D5 4^ h2 V[ 1p Xr @o <. Ay By Cy /= L< #] d' e- l! M| O; r~ O; R* i< c' v/ '} P* Q4 !h x9 T6 C2 `< u4 $> $: zd Dy y[ {+ }{ Ey Fy t| )) K) :{ R] x/ F~ I} s~ h! 7- O; .^ ,' ",
"J0 !< 06 Gy As <  w; [e Ek [$ Z} h] N4 *f Hy Iy j1 J  u& pf x| .[ p~ u- 5- l! x_ M} T] T] x= p/ 7^ e- z1 25 Jy Ky Ly [* Y6 o, My Ny (y _o 4n P6 e/ Iv Y: l: sk Oy Py Qy Ry Sy Ty Li l: {6 Uy E} .) 99 U5 r~ 7- ~} 4) V; s~ <3 /~ O- P] .$  ^ 0* h: %^ 4y ;~ q3 G8 M- y6 g2 h] >( B, c' B, d( P] G8 z' Vy Wy &w ok l: l: l: l: l: l: l: l: x2 4x Xy Yy Zy `y  z ^d '- '} /, ]* H' o@ U{ B& I  ]* k. .z {' {' +> K& $> 1' #) +z ,} [m sm ^m ~q ]} ,o ;n @z 1o zt 4n W< ar _: J2 X^ :~ A] b6 Z} !g uu 9j 8j 8j l: l: l: l: l: l: 9j )i Pt ~{ {} @; 6; V- >} #z e/ m| U~ Y< ao b} tn 00 b} w< 3^ U[ F} C[ :^ @> k^ T2 L- N4 (2 :~ 7- B, W{ W{ `! {} qb 4} B, @g $z %z &z *z =z -z R| m( m( l: l: l: l: l: ,8 0j ;z >z ,z 'z 1= )z W& -f v; K> #> /~ J/ J/ L- P- C: ft K> ^/ h9 )_ m~ m~ z[ 4y 0} @1 @1 :_ Q- L- L- Q- kk R[ Z: j^ !z D0 H7 H< ~z {z ]z ^z /z (z R| l: m( _< {5 B7 4^ 5t Uy ;4 %t Yr dp Hw ~a _z :z :* c& N8 |b <z 1[ [# :~ t3 r~ R* +1  ~ Q& G= Ac m~ z; #~ {* S- e, S- [z >e N& R3 A. k[ }z |z <2 _' v{ K- n, Z{ Z{ n, b] k~ {/ )~ :_ h< 62 ",
"-{ Qt 1z r+ h( 2z 52 V4 z; 3z !} L& C, 0} 4z 5z Z0 z| '@ (0 h; v& +[ h} A1 N/ 'a +^ [z c' }- `6 p/ x= ## y_ Wc 6z 7z /= vd il 8z Ny 9z 3n 4n ;4 -4 0z Y: l: l: l: az bz cz dz rl 8j #s W2 f3 *~ &~ 0' <3 P' :~ `! 8- T' 3> :~ >( >( Z} J3 ]/  ^ >~ }[ r- .$ E; t3 K> .$ @1 !~ /: }- }- ~} _] J) M_ i, U* !y 8u k( l: l: l: l: l: l: l: pk ez fz gz hz iz jz kz C( J  ,: N_ 3+ =0 F0 ^| ^| *w &  lz 8; -[ I> Q] h/ G' mz k^ H6 E7 im ^m 2} ~6 h^ Y5 ;n (r B5 h3 x4 /q nz 5s i0 L| 1' |- ~* oz pz qz Ni 8j 8j l: l: l: 8j ,8 ^7 6v rz sz ~* )~ v] C2 32 E} 3^ ;4 D5 ]' 1) lq p) qp ao tn tz h2 xw -; a0 7< 9' j/ A4 /~ Q] J> ~* A; r~ ~{ 'a `! -' u2 {} B, O| uz vz wz i6 xz yz 9s m( m( l: l: l: l: 8j pk #i zz Az Bz Cz F& +$ k: -! A; Dz 1' g~ v] U5 U5 U5 U5 q- N| ,- B: F( l' {4 d] L> G8 s| N- $> l] l] Q- Q- C: v5  _ p( v5 j| }o U2 l: 8j x2 s1 72 `| tk m( m( _< 61 B7 5t do C7 85 4n dp <n Ws Ez xd Fz Gz 7! n2 Hz -e *c N> u< r| K> Q* p@ u- a6 Q7 }* B4 P4 h< e( 'a ][ 1_ B, 9} m} y* 8$ k[ }z &* Iz Vy =f t< W; x/ Jz x/ n, w/ e, e, k~ {* q@ ",
"Z0 #% j} v^ Kz :' q- M_ t3 u< 9- ^a t; J3 |g Lz Mz )4 T7 w8 Nz q8 I; N0 9= g] f, :_ u< <~ }- }- Z& O: !: H5 #l Oz At >f y, s} jo Pz 9z 3n yn m| P6 Ix Hp ,{ ok cj l: l: l: l: ,8 ok Q| _< 5t Z1 32 0' :^ $> f2 _( 3> w= }- R' /: i< 5[ C, ]/ k3 }[ L> ]/ r- .$ .$ [$ i< ]/ ]/ i< ~/ j, +; s~ @) +] }- 6- J> fy Qz Rz Ki 3< .| >8 .| wv Sz ); 7t Tz Uz Vz }x Wz !0 /_ g& e] #< &3 M. Rt /0 d> J3 a} q9 ~* :^ h/  7 Xz 09 >2 Yz f3 en o, jm e[ .2 g> ~q (r a< y4 h3 wn Zn 5s T[ v2 h) t< 1> tt Zz `z V8 %i +k 8j 8j 8j +k {7  A .A U1 +A +5 J/ kk C2 P[ z3 w4 4^ >4 3} 5^ mu lq pn 00 g_ w< c9 :6 32 m^ i/ C2 e< C: J> M- k9 k9 #~ i] f, 'a a{ a{ p1  [ {} r- k1 @A 9t #A $A %A &A vi $i *A {i 2u uu 9i %w =A :h -A jk Mz ;A p3 $~ >A 27 N; `} i] :_ `} {* $> {* a} ,A U< 'A k' (_ .; [[ w| l] Q- 91 S- $> S- A/ A/ x^ w2 +4 u} &~ v5 J7 4< ,8 l: l: l: l: tk Y: Y: >s Do d: 5t 5t ~5 do m| Sp }p :n %9 vc cc )A !A N& `d ~A {e {A m} w] ]* a; 's }( U} g& .% ]A ~4 3z #7 e( ^A :{ 1_ 'a j! s; v- /A (A _A :A <A [A 3z #7 r~ X{ n, n, j~ w/ e, e, %> j< l! ",
"e^ b* x' H' u| }A ~*  $ r~ :~ e( }- /; 0; 0; !4 B$ |A A& T7 I4 o~ 1A @% v- C, >( .^ }' O: }- x_ }- d' |[ H5 Ua 2A 3A _= t| il 4A 5A 6A No 4n m| 85 g3 .p hw @z 7A !6 g^ U2 t1 6/ W2 :/ F[ 8A L| L2 `4 4] )) N- ~* r~ 9- j, ~/ D) u; g: L> ^^  ^ L> L> ]/ i< !} r- J3 L> `&  ^ ]/ C, 9- :~ S- k~ K) +; )~ :~ 26 9A 0A aA bA cA dA eA fA gA z& j} D& d* W0 As C& hA iA [* ax _- c- jA kA lA Lf S4 k. $7 T- 7< C2 c3 q0 @5 Z: 4m (m {l w1 co mA `q Ip hw hw >n Ix Ix 90 _q 2r 1r z5 m9 -; Q[ v5 &~ f} hx 8u nA ^7 pk ,8 Z( oA pA 4| Z1 ye [: 0' 0' L2 Z; q_ ]' r: >} p) 1) g_ yt yn yn g_ }5 a:  ' 3) I- `4 n) n) u] ~{ e( :_ l] I} /( l] +; -' ~^ ~^ qA ~^ }_ (2 u| J3 rA sA ~; tA uA vA wA xA yA zA AA BA CA Gh Id 42 O4 z8 $~ i/ :^ E0 j8 7- 9- j, j, 9- .^ .$ P; i< i< R' c' *  d' w| {/ v) @~ ,; S- :] ~} n] v_ b] 6^ +z P8 P[ n_ 71 F9 X8 0l '{ g^ Y: e) )p -r {v j3 61 B} B} c( c( 95 4n 4n _n %9 Ez Cy Wc 6j N& Rw A] [[ 7f .% C= DA ;6 )1 t8 EA (% FA I@ GA N: L& 8- 1_ 65 v_ n] B, f( D) K/ L+ HA |x IA b8 i9 /% 26 K) @; w/ w/ w/ JA w/ O' C_ <( ",
"L. /g ,2 ;g O- I> |' :] )~ _( )~ :~ [$ b; 4: R3 K  `= KA As }8 o% L= LA U{ k1 #7 c' G: g1 S' T' O: T] 5-  3 MA &n NA k7 Lg il 4A OA 6A No yn Uy 95 xn yn V[ sm Bm PA 3_ jm QA RA oA ~5 !z 0' K- Y; 2| +5 s~ $> M- g2 K> i< 0* v/ v/ ^/  ^ ^^ ~/ x8 C, ]/ C, K~ ]/ ]/ D) U] `& ^^ L> i< i< ~{ ~} :] S- j< g1 *8 4, cw SA TA UA VA WA XA YA ZA LA P2 K  ~9 g( K' _- z% @d x  ,& -w z$ `A  B .B z8 M_ t< :^ I} b3 p< J_ E[ ;] *| e[ e[ @z hv C5 'm Bm Y[ Es Ip >n Ix {r bs Ps Dq W< b} z5 m9 6] k] @; 6; p< +B @B #B #4 Vv $B bd _~ w2 >2 7; 7; D: M2 6] B~ c5 Fo >} b} W- g3 1o hw A5 Dq %B &B K, &t 9: Q[ 6| W5 9/ }- ,~ R' j< Z6 #a t4 K) E/ ~^ *B *B {a g! j< d( 8- ;0 *5 y| =B -B ed ;B >B ,B 'B )B !B ~B {B 0- E; k9 l] @( l^ y7 &> 3> >- 4> [[ |[ D) @^ 4y ]/ c' P; h< N- #> T- 1' ,; // b] k~ l< ][ e1 K} B] Tm F~ I) 6] I- L2 ]B ^B  p /B o, (B Hp !p 4o 90 ,n V[ 05 f3 b( _B C} I2 4n (o _n :B <B [B }B |B <* Fj 1B 2B U@ 3B 4B 5B 6B 7B 8B 9B (3 0B ]0 aB 9= bB g1 :~ h! v_ n] n] B, @^ $^ Fy .a cB aB '& l  4, F| k. {* e, e, e, w/ B/ dB C_ A3 ",
"T4 Ue *g 34 34 4] -~ 91 S- i] q9 q3 3= +} 5@ 3: P2 H0 eB fB A% gB hB &= z{ Q} 3z a* M/ d0 ~/ }- S' x= s; Bc Ua iB jB kB 0t s} $s OA lB 'n yn m| B} xn wn %t mB vm km nB  q 1v E[ F[ A} n_ I} g~ kk 99 *g )) i] k9 ;g '; 0} >~ T; T; p@ *  x8 x8 }- }' K~ c' 6- c' g: a* z[ z[ `& h: 5[ 5[ M| 7- +; +] l< P( bk J' oB pB qB rB sB tB uB vB wB xB 5@ <- w- ;( c6 a6 @d 2( ]s yB C& zB AB 6y BB Lg CB 9' @> Y; 0' K_ DB h> >{ m( m( nk ~q 2} EB 'm Bm 'm B5 >n Ix Ix Ix ^o np *p 8q ao b} mu ot C' 1a H8 pA 3x @u n( k| FB @4 v5 _~ P[ 0' -~ 7< H} Z; P[ 32 -] _5 U[ >4 m| B5 !p ko hw Up %B GB K, &t H- Q[ 6| HB K- K3 l! i, N4 Kw 6[ *g d( +; R] N~ `{ R] p] 4) '~ K3 [a IB t- JB %z KB LB MB NB OB PB QB RB jj M- (( j] v] g~ y7 I> SB ^^ T} A1 R< h9 %^ s9 u3 0- !} M| ~{ i] I> kk -~ v) v) 91 |' l< {} -1 W7 W7 m! w/ J- D: 6; M2 p0 a3 _B TB }m Jx 8z <t jn mp fo vn up 3^ xm _B n( f3 yn |n |m <7 UB lc VB WB >f j1 XB &y v@ YB ZB `B  C .C +C @C #C  B $C I@ %C &a D, f, :] r/ v_ ~}  6 _( &C pa `h !4 ), u# *C 1A w3 T4 A; :_ +] e, A_ Fh dB Fh S' ",
"=C y, O- O- m_ I> U5 l] S9 N- $~ l~ l. V] (= &e yB Q{ 0B n4 LA s% -C 1= ;C h( ~; '- )x *  j, <~ ~/ 0* ;( y_ >C ,C Wa L  =, s} $s 'C )C )n yn 95 95 yn go Sp mB [n 1o `q im &2 d3 c( dq n_ Y; i/ .> e< ]h M_ g, (2 '; Q4 0} P* (& V{ v/ D, j0 {) aa <] 8- c' x_ j, *  `& h: U] p@ L& L> 9- ~{ ~{ +; +; _( }- 15 pf ha !C ~C {C ]C ^C /C (C w[ _C 19 :C u- G{ w- Q& 2& U3 )b o# c- vz <C [C 9t F; z8 Y6 I> <3 L- sz C3 ci U2 k( k( '[ =| ml N3 K7 q| Bm 1o Es Es >n >n fw zn bo }C 6r mu 3} 8( 8/ 17 u} i| t9 X^ n_ 9| !z 5| L| X^ X^ L2 Y; Y; 81 M2 Z; P[ w2 L| R[ g- |C B5 @p !p >n fo :> X' /a rt h) 6= 1C 6[ %7 A; i, @1 }g 2C 52 lz K> :_ Z~ o] v< `{ 1_ v_ v< N~ !{ j0 $r <2 3C 4C 5C 6C 7C 8C 9C 0C @l Mg aC kk (~ X; #) -[ I> 8; l. )} 3+ o4 5f `h N: N: P* 3z >( D; v) `[ 1> 4] @~ |' j< S- )~ 'a T' p/ Z& :{ // Y~ I) I) I) t9 20 b9 zm )m kp bC cC |o mp #o rq up 3^ xm _B C} I6 mB <n |m :B UB 1( dC eC 1f 4y fC !7 gC 3A hC 6B iC jC kC u+ kA lC f7 y|  / (e L& O; h! _( W{ 'a W{ mC nC @] }( &: 0^ oC pC z_ ~; qC 5+ !~ h! 7{ .] .] A_ A_ <( ",
"rC k: !~ R* R* i, i, h, h< >( f2 Q* D$ b; F( Ac )@ ~9 sC m  )@ _- y[ tC m$ Vx ^* 9v 1x p3 -f `& N_ c1 w' =( uC vC wC i& >u Uv xC yC zC #q Sp m| m| on on }n on Bp K7 :m >} i0 n) 4| n_ 99 +5 m_ m_ (' K& K. i< @1 z; 42 [$ T; ,: __  ; 3- G# 5( AC S] l, p/ S' ,~ d' ,~ 0* 0* d' ~/ c' B, !~ r~ Q' E) +; E) K. P4 0B BC CC DC EC FC GC /* m  }( ,_ hf ## X6 /& n5 :C R2 h} HC sC St +a {; IC ^; N: [$ Z} .8 >( P: JC ci KC y9 G/ @w @w I7 d: l| I6 m| Bm gm Ip (r $t LC >p vn MC NC mt /8 yp 3) Z; .) 32 6^ %) X; -~ H> 6] H8 w2 .) Z< Z< q( q( q( 32 J- M~ M~ %) -; I2 'm Bm !m =2 Tp :: 5s P, 0: i/ a} <$ A; $~ s| }A /g OC +} /_ >: %^ q3 S- 8< x/ &] %] Z{ x/ h~ W; L~ -! PC b8 QC RC SC TC UC VC Nr h0 %7 6; Y; Y; I} 7< :^ 5; l_ WC T4 j1 ro Yj XC Pi EA B4 P4 @> M2 w2 q( s< C2 ,; l< g! :] )~ h! _( v_ r/ e, // '' '' '' $) H8 }7 tn ns }p YC Xo $p |t :r (o dp fo Co ZC x0 C} I2 np |n (n `C  D .D +D @D #D *} $D _5 x8 I= oC ,e s# xB yB $m &3 Fn w3 S% 47 %D L> r~ :~ ~} W{ e( e( '_ mC j! d; &- &8 0^  3 pf Fn PC 26 R* :~ h! s4 s4 .] .] &D ",
"=C &  g] x] >- 5- |[ O/ ]/ .$ .$ ]/ 2+ g: _& a; Ga ;( p~ +} *D =0 x& }= =D /x -D ;D >D ,D 'D Se )D z% 8t Mw !D ~D {D q# ]D 3s xC ^D /D #q yn m| m| Bp }n V[ Sp m| 61 I2 S, H> -~ -~ X; @( z/ R- M_ `} ~{ ~/ #] &_ k1 H' S; E4 Zd 3~ %8 3& h' 4s O~ *r M) ;- ;- >- w_ O/ O/ g1 d' D) <~ z, :~ f, h! +; Z~ Z~ K) q3 #;  * ey ia (D d8 `9 a; 6- #7 .$ L> D, _D _D 3+ }( t^ 68 r7 r7 r7 ~9 h; ~0 #% r8 /% 's V@ D) (' I[ oi :D $g ;[ Z[ !h <D D0 4( 4| j^ q< L6 ]l @z {v ev [D ;q +t t> hs _> 3) 9: I- 81 %) 8< R] ~^ D/ C/ k] M~ m^ N! +4 >6 C} e3 -8 L| 1a v: AC @: z7 U[ g3 mB wn :q ~t }D Br _: v2 E> 58 L< D4 36 P4 Jg |D 1D %{ 9> 2D P} '2 91 @; Gn c, c, x/ h~ 3D F) %) :^ I| j> &c Q} 4D Mz av %c Q4 @> +5 81 Y; 4] i/ 5] t< i/ I> Z[ x3 'h iy +0 %( 5D 04 *5 d~  7 4| q( 7/ _5 0' )~ z, z, B, e( h! h! l< s4 )~ p] v< :{ D/ D/ // G} [> 6D /u bp 2p Jt 7D 2v mp ;q vn hq Ap 8D xw tz Sp bs 2m s> n+ Q3 z{ 9D *  Ol 0D Iv aD v0 bD I* .r [' x'  ~ ^= 6> :C Se [- w_ ]/ :~ '_ 'a W{ e( W{ n] 65 A, l! w_ T; p@ i: U] $A `# ^^ c' `! n] 9! r/ f! cD A3 ",
"dD 5[ D, ## s; N_ !u /, L> .$ @1 P; &  !} 26 &  &  `& D, V@ G1 Po |$ kC eD fD gD hD iD jD 1x 5@ k+ kD G; lD mD nD oD &= pD e2 qD rD sD #q yn l| m| on yn yn go 95 q< wm pt ;) @; ;> B; D; :] Q' ~{ 9- ~/ D, /, V@ )x Ga +} 6> >a ^9 tD uD L8 vD wD eb c7 c7 v= v= P( 5} D, #] ,~ ~/ c' z, ~{ ~{ +; )~ +; r/ K) R- q- lz If Dj @g -f 9; Q* K. h] Dz U; j, `& xD t; v/ 36 E$ yD 3+ {= 9= /9 iA 5, /9 |. v- U} D> Mg zD 3< @k >9 1+ I* WC n8 lg AD 1> p( i> 7l ~p =l BD $s Uo #o [r CD rt rt p} Y~ 6^ t< L~ D6 S] 5( {) `- p] '~ #) m^ &~ }1 e3 '6 N6 b3 D6 DD ED w: 6c J6 mB up 00 00 Bo {( 00 [5 +4 M; FD R2 GD bB D$ HD |D =( ID 77 3@ f* =C J> k~ d, d, b] W; k] E' *) m^ 4] K2 V* E> l_ h/ =f 3a d< d< 0' 6; `; 81 k^ 2> 5] i/ /~ K& s| Hd =C JD T0 KD LD )A N& g: 4= i|  _ 7/ MD k^ j8 }- j! f( z, ~} )~ :] f, 'a  [ :( B] r@ 5( o] H> 3) () ND wt cp dp :r mp #o _q 2q OD pn O[ uq yt $q ~r hn PD QD RD SD TD UD oA VD qD hm WD XD YD  7 t] <3 E! ZD J= n2 `D 4> j! R* O; n] ~} e( n] e( v_ v_ _( J} }_ g, @1 !} x8 T* L& ~/ 8- `! ~} 9! r/ s4 s4  E ",
"}A ]/ p@ O>  ~ z1 hf 5} C, /: .^ i, !} &  i< J3 4y }[ h: ^/ V6 Po P} +w .E +E @E #E $E %E &E (= *E =E -E ;E >E ,E Nd 'E )E Uv !E ~E ;r =2 Am l| m| m| 95 xn wn vp m| ,} O! |v V; L~ L~ V* V* ~* `} r~ R* K~ 5[ V6 V6 P* )_ &: =8 l5 ~1 wc T% v= ;- ;- P( P( 5} O/ d' ~/ c' 9- B, e( f, Q' :] :_ K) +] e, @; %> Q- ft h0 N4 ,2 ,2 J> k9 M- q9 J> P] N- >( !~ .$ #7 -9 Q* R* !} C, g] h* |. h} sA ^= 2{ I  ;( )} Eg zD {i {E Iy Ek #; e9 fy U9 sz O8 c3 '6 v1 *| V2 e[ R_ -r xn 0< ]E V, O! P[ `4 j/ 4] s~ E) {} `- 7- r~ ,; <3 +5 99 4| p< H3 Q8 Qg O8 E/ }~ V} wD F~ 1) 2q 1r W< )t /q lq <5 <5 p( l0 T} 6, t/ /& +8 ^E /E 2= (E _E 35 &o Lg Q] s~ 91 91 s~ #) -~ K- L_ 81 6; 2> I} I} 6; L2 10 f} v4 48 33 b3 1> M2 M2 g/ g/ d9 d< mz h/ :E 4z <E ;j Uc !b z% ;| g, |1 _5 7/ -8 p< 99 :] `- x_ D! 'a K) $> j< :_ +; z, `- A3 S' p/ r/ Y; 6] rt P, kr yt V[ g3 Bp m| Co hq wq [5 O[ uq W- %t :r |n [E }E |E x, 1E 2E cr x< )p Ip 3E 4E m8 48 X^ 5E O) X3 Oa :# }# O2 <~ :~ O; ~} :~ :~ n] n] _( :~ }_ J} J} '_ n] <~ ex j0 d' 8- ~} '~ K) s4 r4 mC (4 '_ ",
"3a R' L& w_ !:  ~ s; 0* !} .^ .^ r- r- 9- i< r- 0- i< ]/ >~ J3 S4 Ga gb 6E 7E 8E *$ @C C& &3 2{ *5 `2 9E #/ 0E aE bE 8B ~; :l cE dE -r  q hv  1 1v 1v o, 1v o, im M6 :1 7/ p0 6: 6: }0 U6 d5 T1 V9 V9 eE )h )h Hg 9g ag =h 2g z; Id Id E; ,2 G' *f G' Mu Mu *f 6h 4h fE bh 79 69 gE W4 gE W4 69 z} 79 3| f} 3| 3y W4 8h !w 6[ hE hE U6 *y 6[ V9 8g Z7 V9 iE 6[ V9 V9 Ng jE jE kE e5 +> lE >9 x3 u| mE mE +g X7 ig Hi pk >] mg 2B Ll 6g >[ nE ]r 13 nE oE 1} U2 qk U2 ,{ pE N3 P| U[ f/ _5 D0 D0 8| ix Ng z} !7 !7 z} *y c3 8| lu U1 +7 C3 qE 7u g| 03 33 2' K. 2' v} >4 [5 Cr W< ao _q #o :n *2 xm k^ Z} @e -f s| )h rE sE Yj H{  k -( ww =h V9 U6 U6 *y U6 d5 d5 5| Y1 Y1 s< p0 o( o( c3 ]B tE 8| Gx 8| 8| pA H_ H_ K_ K_ Gx t} n: uE uE .7 Ag vE wE L. b; $# 3z |0 #2 m: J_ N3 J_ D0 w} +5 /( +5 T6 ,y xE *y 79 Kw yE zE aC aC #x 89 hx Z: g- ,} h2 EB hv w1 1v Z8 :1 AE 75 F7 d: P6 Xv %t BE |n CE DE EE FE GE HE +_ cE ;n ,p IE JE $9 g/ H( B8 f! KE T> f; >- f( O; O; r~ r~ f, :~ f, !~ f, [_ '_ *^ <( A3 W{ )~ K) e, |' T- K- 0' 81 %> v_ n] h! !~ ",
"sz R* j, q~ &_ (& w] D) r- R* /: R' i< 9- i< 6- i< i< ]/ L> &  [$ >~ z1 `l LE Uc ME NE o# sy }h %g OE ,w PE QE RE SE TE ]% z9 Qp =l |4 ~6 !6 ,[ U2 U2 U2 '[ '[ pk _7 '[ X8 Y8 ~l #B UE qE </ e| -i -i f| e| Ki y< fi fi ai hi }i VE WE %w }i XE Di XE |i |i Di YE Ii ui *i *i *i ll ZE </ UE oE S8 $o KC Fi KC $o $o `E  F ;i ll ll .F ;i ;i -i #i Ki !i -i .F 7u `s F3 %i r1 r1 F3 W8 Ci >] +F &w @F #F #F $F 6i ^7 8j t1 &w %F /] Js Y8 F3 7u ;i &i R| x2 k( _7 k( x2 _7 '{ u1 =| Y8 .F </ </ !i ;i 'i S8 yi &F 'i >i &i %i ;8 >8 pk +k ,8 ,8 ,8 t1 'i *F G/ >[ 83 AE wq c: lq 00 Bp 0z x< !6 d) =F  r -F ug ;F Ci .| >F ,F 'F Tg )F !F Bi e| *i ~i e| ~i *i ll ll ll rn rn ~F UE UE .F .F .F .F +2 W8 +2 Y8 Y8 Y8 .F +2 u1 0l r1 F3 r1 d| ]7 >8 li gh Ft Cg f^ Ei t1 '[ !6 g^ !6 @7 dt {F ]F ^F /F Fi  F )i Fi Ei H[ rz (F /F /F Fi UE ~F Y8 [l f> U2 qk g^ !6 R| U2 ^} 1} 1} d) [l !m Tp ;q xn _F :F <F [F }F |F 1F Qp g> e) e) dm t9 k^ 2F H} @~ 7- 8- q~ g, h<  $ f, h< +^ h< f, !~ g, h< [_ e( S' cv r@ +; 81 Z1 8A j^ (5 _5 A} n) X; 'a <~ e( i, ",
">6 P' `} h0 N] .$ @^ r- .$ .^ i, 9- i, i, i< !} i< ]/ 6- ]/ i< Q* i, d'  ^ d~ &_ 3F !2 4F F$ 5F 8u lg V] {3 6F 7F 8F 9F 0^ vg ql f) 0F ,8 l: 8j ,8 8j 8j 8j 8j l: l: l: l: cj ,8 ,8 ,8 ,8 9j 9j 9j 9j 9j 8j 8j 8j 8j 8j 8j 9j ,8 x2 x2 x2 ,8 ,8 ,8 ,8 ,8 ,8 ,8 9j 9j l: l: l: l: l: aF 9j ,8 ,8 ,8 ,8 ,8 ,8 ,8 ,8 ,8 ,8 ,8 9j l: l: 8j 9j 9j 9j 8j 8j 8j 9j 8j l: l: l: l: l: l: l: l: 8j 9j ,8 ,8 ,8 ,8 ,8 ,8 9j l: l: ,8 ;8 e| f| ]5 k( m( ,8 ,8 8j l: l: l: l: l: l: l: l: cj ,8 ,8 ,8 ,8 ,8 ,8 ,8 ,8 ,8 ,8 ,8 ,8 9j l: l: l: l: l: l: l: l: l: l: ,8 x2 Li >8 t1 7l wm 3} p) [5 Bm ~6 l: l: l: ,8 x2 Li pk x2 ,8 l: Li li bF cF dF 7[ x2 8j l: l: l: l: l: l: 8j 8j 9j ,8 ,8 ,8 ,8 ,8 ,8 ,8 ,8 ,8 ,8 ,8 ,8 ,8 ,8 ,8 cj l: l: l: l: l: l: l: l: 8j +k Li >8 pk ,8 l: l: l: l: l: l: ,8 ,8 _7 ,8 ,8 ,8 ,8 ,8 x2 ,8 ,8 +k +k +k +k ,8 ,8 ,8 ,8 m( l: l: l: l: l: l: l: l: l: l: l: _7 Es }p 1p mB eF fF gF hF iF jF kF rk ,{ Y: ok ^5 Yz g/ _~ A^ I} s~ l] l] )) d( $> :_ `} f2 >( +^ h< +^ K> #1 +^ d1 G: p/ @; bd d3 dn :m d: &2 I_ D0 J/ <~ S' <~ >~ ",
"j^ T- C: 8h rg ff y6 K> @1 R* R' q~ i, !} !} r- r- i< i< i< /: .$ h, ~/ ~/ R' G( n[ E=  u {= sg /F lF f] mF nF oF pF qF rF >[ ql f> Fw l: l: 8j 9j 8j 9j l: l: l: 8j l: l: l: l: l: l: l: l: l: 8j 8j 9j 8j 8j 8j 8j ,8 ,8 ,8 _7 '[ g^ '[ k( ok ,8 +k 9j l: l: l: l: l: l: l: l: l: l: l: l: l: l: l: l: l: l: l: l: l: l: l: l: l: l: l: l: l: l: l: l: l: l: l: l: l: l: l: l: l: l: l: l: l: l: l: l: l: l: l: l: l: l: Z( @7 Y8 ]5 g^ m( l: l: l: l: l: l: l: l: l: l: l: l: l: l: l: l: l: l: 8j l: l: l: l: l: l: l: l: l: l: l: l: l: l: l: l: l: l: 8j 9j k( e2 uq <6 c: kq ){ ,[ l: l: l: l: l: l: l: l: l: 8j +k Li b_ b_ Li 0j 9j l: l: l: l: l: l: l: l: l: l: l: l: l: l: l: l: l: l: l: l: l: l: l: l: l: l: l: l: l: l: l: l: l: l: l: l: l: l: l: l: l: l: l: l: l: l: l: l: l: l: m( m( m( l: l: l: l: l: l: 9j x2 l: l: l: l: l: l: l: l: l: l: l: l: l: l: l: l: ok Es }p 1p xn sF tF uF vF wF xF yF pk _7 ok nk ^5 i| D: 2F 5E (~ J) L- h0 U5 l] N- (2 {* f2 >( +^ +^ A[ K> #1 B[ f( N/ x= |' 4| d: hv dn &2 r< Pp pA t< 3> O: 6- )} ",
" _ Z6 fE :h Og N] r| @1 Q* i< i, i< i, h, /: r- /: /: .$ .^ @1 K> +^ c' d' j! j! [[ >a cx %0 4g yg jg V7 z% ~w zF AF BF h:  A '[ U2 ,8 l: l: l: l: l: l: l: l: l: l: l: l: l: l: l: l: l: l: l: l: l: l: l: l: l: l: l: cj _7 qk '{ cE qk tk nk x2 _7 Ni Ni x2 ,8 8j ,8 ,8 ,8 ,8 cj l: l: l: l: l: l: ,8 ,8 ,8 ,8 ,8 ,8 ,8 ,8 ,8 8j l: l: l: l: l: l: l: l: l: l: l: l: l: l: l: l: +k >8 ;8 >8 Li +k x2 x2 ,8 ,8 ,8 m( k( =|  1 Z8 L6 pE g^ ok nk cj l: l: l: l: l: l: l: l: cj ,8 ,8 ,8 ,8 ,8 ,8 x2 ,8 ,8 cj m( l: l: l: l: l: l: l: 8j ,8 ,8 ,8 ,8 _7 R| s1 >8 4_ ^5 xq <6 yq kq &2 V2 k( ,8 ,8 ,8 x2 x2 x2 x2 x2 x2 x2 Li b_ CF Mi Ni x2 ,8 ,8 ,8 9j 8j l: l: l: l: 9j 9j ,8 ,8 ,8 9j l: l: l: l: l: l: l: l: l: l: l: l: l: l: l: l: l: l: l: l: cj x2 x2 ,8 ,8 ,8 ,8 ,8 m( l: m( m( ,8 g^ g^ Y: m( l: l: l: l: l: l: l: l: l: l: l: ,8 ,8 ,8 m( l: l: l: l: l: l: l: l: l: l: ,8 @p BE 1p Am DF EF FF GF HF IF Jl #F @B h> qk JF s< y^ 2F 5E F: v] L- U5 U5 #~ h] +^ +^ >( h] E; _2 4y 4y 4y @^ 01 N/ ~/ |' n_ 71 l| I6 r( E} i0 4( L2 X; s~ l] g] ",
"5| KF LF r| ,- V{ &^ k3 9- c' q~ q~ r- h, .^ R* /: g, h< h< f2 h< !~ R* B, u< +^ .$ 1+ G1 i1 (g MF NF OF PF Lz Lg z8 }h kg &i k( k( ,8 l: l: l: l: l: l: l: l: l: 9j ,8 x2 9j 9j l: l: l: 8j l: l: l: 8j 8j cj 8j cj '[ QF ;l |l RF SF TF UF VF ql Jp al f| W8 7u M[ qE g| Uu WF u1 ,[ k( l: l: l: R| ~l XF YF il WF #B #B #B g| 7u pk l: l: l: l: ,8 9j ,8 ,8 9j 9j l: l: l: ,8 f> Js ZF Pg ZF `F %w  G }i |i S8 nA d) qn .G 95 I2 85 hv =l An <4 '{ '[ k( g^ _7 '[ Z( d) f> 0l ]5 u1 u1 @7 @7 @7 u1 u1 ]5 0l )[ ql >{ ,[ k( _7 _7 '[ +G ~l 3s gl X5 3s V^ V^ dt @G I7 (5 R, 2) F5 F8 H3 tp Q8 5v #G &F 4i 4i 4i Ci E3 E3 'i S8 R8 R8 S8 S8 'i $G >i *i &i {7 1i {7 {7 nA nA 7u 7u ll nA {7 4_ 4_ Z( Z( R| R| ^7 ^7 ,[ ,[ ,[ ,[ R| s1 U2 U2 U2 U2 pi bl %G &G *G *G =G N[ h> )[ e[ g> An -G @p @p Qq >m nk m( l: l: l: l: 8j l: ,8 x2 1} h> 'l h> f> e[ ~6 !6 U2 '{ 1} 1} '{ ,{ g^ ~6 Es ;G >G on ,G 'G )G !G ~G {G ]G 0} <3 5| im %2 n) D: A^ x^ j] s~ Q- k9 k9 t3 R' 01 j! u< t3 #1 d~ V{ 18 18 a1 c; O> B] )~ 81 R[ Q[ 81 j~ R] @; L2 6| c_ D[ Z7 Y9 ",
"5| ^G 34 ~/ $_ f& 6} N}  ^ L> j, q~ U; O; .^ .$ !~ h< M_ M_ >( .^ i, 9- i, R*  $ Y6 $g /G J. $r Q6 Wn (G &A _G ez :G f^  < R| l: l: 9j l: l: l: l: l: l: l: l: l: ,[ 4< 4< Z( ,[ k( ,8 l: l: l: l: l: l: l: cj cj tk ql <G }m [G }G |G 6o 1G 2G 3G 4G 6l 5G 6u 6m 03 c3 {' h= u} 3x 3s ,[ ,8 l: +k ;] g_ /8 ir ^' Y< J2 p) |r r9 8D 3s k( 8j ,8 ,8 ,8 +k k( pk +k k( ,8 k( U2 =| l| f} g2 6G Zx ~h bh 7G sg 6g 8G '6  1 K7 95 tn Dq eo am (r 3l 24 7A Qp '{ '{ ql y2 il ){ %2 FB FB *[ *[ k| I_ AE E[ em o, o, o, hm L6 {l {l r} r} 8l }o 8D o: 8D 20 C} -8 _B 8v n( 3x P/ 2) wr H6 9| t9 |1 W4 Ng jx 9G A9 s0 8G ]r j( y9 ^B -| -|  r 0G aG 8G 6| bG Zs }3 nE 't .A `7 .A Pp Pn Pn <p Pn H3 +B jl jl Cq Q8 Q8 7v Q8 +B +B +B tp 83 6u 5G cG Z8 XF jl }o dG I9 vq xq eG ZC fG [m ~m .p gn 2m }n kn lm io ;m m( m( l: l: l: l: l: l: _7 ]5 1v .G [m K7 hv 2} ^l hv M6 km fm fm ^l Ip Es ,n Gw ;G =9 f5 s[ gG hG iG mo gb jG kG n, tz l| +4 81 /( J) <3 s~ s~ Q- d( :~ q@ b6 ^! 9- g2 s3 p@ jf Ac @f ./ `% Xd 7^ E) :^ 2> -> 5( o} lG mG y7 r< f> u1 6t nG ",
"Z1 oG pG j! `% *b qG O/  ^ 01 D) @] .^  $ h< :~ !~ >( N- $~ k. i, E! ,~ ~/  ^ i, N- 6h Y7 3( dx m) .z HB @2 +7 ^B eu ]r $F ^7 l: l: ,8 l: l: l: l: l: cj cj x2 R| =| ml ml 7l jm =| 0l ,[ 9j 8j 8j ,8 U2 0l f) f) Qq /l _n rq 5q {q Hq 7m rG sG tG uG gm AE vG A2 o( :^ `! V5 -' 0' I3 *| '[ pk r1 m: )t as wG xG yG )v <) A~ Cv 1) YF '[ ,8 +k k( k( ^7 R| t1 4_ c| #4 ~F YF c( ]( %> d1 &_ +^ J> O- %~ (' ]h t9 -8 q| 85 00 Br &q -q hn cs zG Ur 3l Qq (B =l 9l ml AE f3 -8 (< Ql 2_ c9 ,} q: f3 l| 75 q| q| [m <m :m K7 K7 K6 en ;2 uq u9 <6 (5 g- sn sn AG dq dq K_ u9 wr ]8 ]8 F} o0 g/ 0' L2 %4 jE fy BG <D 8| a3 #2 CG DG eu O6 H_ p0 t9 f< bd Z< j^ p< @4 xw -8 -8 -8 F8 F8 c9 xw c( d3 i> N6 EG EG @u n: t} D0 dq pA >6 >6 Z: xw 4m g) l| b9 20 Ap qp FG GG 8q HG Ps nn 2m 2m }n mp IG op cn JG >m &l cE &l nk l: 8j l: l: ok *| 2} :m :m q| :m :m Bm Bm 90 =2 =9 =9 =9 c} c} $q 'r KG #q e9 RC LG MG NG OG PG QG RG v~ f3 I6 S[ F: j] v] |: s~ Q- Q- d( :~ k, }a [# h, Q- g2 5} #_ SG Bc t/ 1~ A] s/ e( |' 91 `- TG zr UG VG M' %2 >{ 9l WG }' ",
"4| f} 34 >( ,~ g< 01 z, R' j, *  z, $> @( #~ h] {* l] C: ': %~ {* :~ B, :~ +^ h< S- `[ U6 {' `; g/ !z 4m q< 5t L3 A} X1 C3 ,8 l: l: l: m( g^ ,{ cE e) 7A (B io XG ^s 2o .p .p ^m /m o, h> _7 l: l: pk nl sm Bp =9 cm YG op ZG `G  H .H sq +H @H Oq Oq Kq ]l #H sn `; Z9 $H $( %H 7< _B X2 )[ ]5 'l :m ~t ap &H *H ls =H nu 5s a: g- M6 k( ,8 ok k( -H Tu ,[ 1} 0l kl ;H r< p: +4 17 p] [# O2 j, K. q9 ~* R- v] P8 >4 3m zm 1r :s :s Mt 1n ]n ]n !n /n |m =9 tm tm P6 d3 I6 ,} U[ _5 7/ c9 wm wm tz |C 3m cm )m )m )m _m Bm _m Bm Bm 3m 3^ P/ D7 }7 f/ }7 u9 *9 p( j| >H {8 wr |7 Q9 H- 5] l^ y7 5] 33 BG ,H cq j| t} I3 cG :1 J_ AE *[ c9 }> H6 z3 2) /8 J6 >} q: wm Co tz 95 95 I2 q: tz 95 q< l| N6 xw p: dq Z: E5 j^ !z F5 r9 a( T[ wq 95 vm Am Cp mB }G Hq 'H Jq )H !H oq 1m am !n in 2n 2n bn {o Jr Jx ~H 3l XG {H nk l: l: l: cj >{ 24 2} B5 _m on xn on g3 c} 2m (n =9 =9 2m 2m ~r BE :r .p ]H n' ^H /H (H _H #_ e; u~ U- MD q( `; -~ <3 v] |: <3 <3 L- @( |' +; `! ~} l] C: #~ T; ./ G4 L^ 3{ t~ d' }- L; {/ |' E) :H <H ED :H I- Pp Wv g) i| 8- ",
"X^ kk m_ '; N- {* (2 t3  $ M| }' :~ A4 89 v{ @> @> 2| 3y [H |0 .> t< <3 P- A4 P- g~ L_ H6 f/ g_ un 05 ;4 e} H2 }H 11 Ql B3 ,8 l: l: m( Y: j2 |H 'o <t ]o ^n 9o Zo Zo 1H 9o an #o up vp em R| l: l: U2 ;2 2q Dq |p Tp #o pr 0p .t 2H 3H 4H #p Xu [t ;p 'o [p fm (6 e_ H! =3 5H 6H (8 aD Sm ;] s! 1v .G Sp 7H 8H &H q) <) }r gr S, g- s! '[ k( ,8 ,8 k( k( ,[ >{ ]5 ;] $B  _ .) 6^ 1a {) 2~ Ia _a t~ c' c' B, r/ Z- r( 05 tn }s 0r 9H 0H Xr 2v 8n Eq rq Dq q) <) 7r p) 5< A} Z:  _ 4( 4( }1 Z: k8 pn vp =9 ~m fn .p .p 'm :m wp zm ym q} f/ r9 H6 }> 9| |7 `; l^ 7< K- 5] L_ 8/ l^ M' C; -'  [ {) 4} )) 89 6: aH v4 i| e3 ;] qn qn ~p km g_ z3 q_ (: }5 l9 Y< U~ U~ 00 tn W- ;4 bH Xv I2 3^ q: I6 20 A} K_ }1 i| 5| R[ bd a' b' 7] P[ 8( p) tz xn :q =p Cp <n mn IG ZG cH Hq mn ]o 2o 9m 8m 0o 9m 9m jn ~o ]n 1m <n /n Ip qk l: l: ,8 cj 1} ]5 jm pl vm Ss 9( hr J6 wn }n 1m (n =2 =9 (n hn dH eH 1o  7 fH gH hH iH 86 m~ !~ ~{ +; @; D; s~ T2 kk T2 x^ x^ T2 J/ T2 J/ <3 <3 J/ A4 A4 N- #] k' L< jH |_ /: i, }- T' `! |' k^ &~ H- G- P8 )5 p< j^ 9| &~ 3> ",
"M2 )) B' ': ': %~ %~ l] i] 7- 8- O; k^ 6: 6: 10 33 {' p0 Y1 6: e< kH 4] +5 Z6 A4 <3 8/ a( un lH eH mH nH hy c/ H2 w< (< oH ,8 l: l: m( ,{ {v $t pH qH 8o 0n No }t Wo hu )o 8n -q /q g_ E[ R| l: l: '[ *2 W< )t Up eo eo !t &q rH sH Fr tH %p uH vH Wu wH )p 2l xH yH %5 K< W} eb '= !z r< jl jl :1 :m vr >G cp ls as <> 0: S[ P[ !z oA '[ ,8 8j l: l: l: ,8 g^ f> s! -8 ]( P[ x} #) E! D{ Ja 1[ }a 01 &D `- :{ '' E} >} 3} NC gs zH wt Dr Gq IG Gq Iq 2r _) hs =t 0< y8 7/ E5 4| v5 v2 Z1 ![ c: Ss AH bs ^o BH 4o lt 'm =9 ds 00 1r g- E} F} G} L| L| 6] 1a X{ Z~ }] 8< k] k] $[ {^ :H ~, i' *- h' !{ Y; W4 {' v} 9| B7 _y e) e) e) XG I2 T[ f: CH mu J6 b} <5 tn 00 tn V~ e} e/ e/ 85 I6 ,} ,} o: dq n9 +: c3 p0 n_ 6< 7; 81 x} _~ B~ F5 pn bo Br 1r vn mn in 2v cH cH oq /n DH Ix !m /n 9m ]n zn mp dp dp dp eo 4n B5 cE l: l: l: cj Z( 4< h> qn 95 %a (> Y& EH lq on (n gn Bm (n (n vr ~r FH a< kE $m GH HH IH Dd h: t3 T' 5) %5 2- K) +5 Z6 +5 kk K- kk kk i/ K- kk kk +5 m_ T2 i] 0* __ /& %^ K> h< M| p/ r@ p/ @; t9 I7 oA :1 F7 P| F5 32 32 G} ~} ",
"6; i] #~ %~ ^h %~ Q] R- :] {} O: D/ i/ Q[ o( |1 {' {' p( o( W4 1> 2> t< T2 C: L- s~ H> a( <5 Tp eH {r a< E2 JH C} 4( KH LH ,8 l: l: l: ,{ -G Nq us MH NH 8o `o _t |o &p `o 9n Wq 3q 3^ h| R| 8j l: '[ <m tn Dq vn or rq 3q _s OH PH rH Xr |o +H Jr Jr LC Ep ^l wr (b 'b vD QH 9a v) }1 I3 :1 jl h| ){ -4 Sp ~t lq Zn 0< Q[ v} `4 }> :1 _7 9j l: l: l: l: ,8 k( f> il 8D >2 6^ K- v] x_ RH SH D{ P_ 01 ~/ {} _( F: *~ g- yq }r 9( }r ar -q Gq IG Gq Iq 5r TH UH hs 0< z5 s( ![ ]( L| H6 !z r( p) Cr 4q |n ~o BH qH BH {r ,n xn ns Y< ]' E} q_ B~ v2 v2 N! F~ n, X{ j~ W; f- M~ 9/ .5 u~ ~, VH *- e{ S' @) f} n_ F} r9 q: 2} V2 >{ e[ *l TB $9 b3 32 H6 }> sp i0 _6 D7 o) >4 P6 :m K7 P6 q: U[ o: }1 s< 5| hx WH U6 w} `[ K- K- K- I) k/ r9 kq kq 3} p) |q 4n mn Hq 0p Jq mp ]n Ix ~m _n tm gn lm /n op dp Bu dp rq mB 'm e[ l: l: l: ,8 F3 </ #B 3s xm fs i~ XH YH Zn xn (n gn gn (n (n zn 'n mH a< ZH A1 `H  I .I +I i< s~ :{ ^, O3 H! '~ Y; Z6 A^ kk I} T2 T2 T2 I} I} J/ /~ I> U5 h] D) s; h9 i: @] 9- j, ;d &5 e' '~ 9| ^8 Do Do @I I6 V- 7] b' k/ L; ",
"L2 g~ U5 O- ': %~ I> P] g~ ,; E> -~ F} dq A} dq j^ 4( 4( 4( p0 v5 b3 2> t< <3 T- #) p} c: un #o mp #I 5t @u $I x^ :_ h0 %I k( l: l: l: ,{ [p >p &I ws &p 3n eo Iq !t Iq Bu 8n pp =p 95 s! R| l: l: ,[ F7 J6 l9 Cr *I c: gr 6s /a GB =I ir fo !n 4o !m |m yn :q S[ F_ P3 }. I, C; i/ 4| j^ n: @u A} :6 r9 Q, /' p} 8/ y7 g~ >A &> -[ I/ -I ^B =F Y8 Z( Z( 6/ v1 3s I_ 4| k~ D! z, z, #] 4> M8 m6 N/ d0 62 e- S' )~ J/ h) Y; 6] g/ O! zp {q Bu Eq @o Dr OH zH ND mr /8 J6 ]' !z 9| v2 t9 !z g- ]' ao rq <n zn ;I ~r vr V[ xn U~ b} 22 _/ -] F} F} R[ bd H8 %) // @~ %) U- 6] 6] H- X; Z~ :( S] V5 $] '_ j< 1' T- X; J- 4| xw }3 U1 -I :4 I8 .^ d' }- 7- r~ V* E> L~ '= :^ F} p: f3 l| -8  _ bd L| u} X^ 2| h8 h8 h8 C: v] S- S- *} %> v] 9: gr |r gr 0< Ss ao 5q Qs Qs Iq (o {n 3o Bm Am =p =p #o dp or op |n 7o >I Cp 'm e) l: l: l: ;8 Js ]r lu EG  _ %a F' es pq lq xn 2m c} c} (n (n zn )n ,I (r :7 ;9 O& 'I )I La #> O8 Y; ,; '~ Z~ E> t< K- J/ J/ F: /~ J/ T2 t< t< J/ J/ :^ <3 N- .^  ^ ,- w] ~/ M| R* Z& 2- 8: m^ _5 K7 hv hv K7 tz /8 O! {{ 7] V5 ",
"3| u4 v{ u4 2| `[ 34 v{ Q[ j| K_ 20 %2 w1 jm ;] YF 83 '6 '6 H3 Pn 3x Q[ i/ |' S- // w> c: ~t ds 00 .) y/ &D Z% df /b 18 !I d| l: l: m( ,{ j_ (r ;p +p |n Ps Zn ~I Hw .n ^' 3^ wn =p B} @G 9s l: l: !6 e: 0< 3] -; -; {{ m^ W; $1 {I fq 6s z5 xn on wn p) 8( Z; %) 4) E/ E) '~ :^ i/ Y; Y; M2 L2 99 -~ Y{ ~^  [ m! {) N/ X6  ~ [- ]I 58 M/ cd {} Z6 Pp @B G[ '6 r< n( `; e' ^I 2~ d; 3{ |[ /I O/ N/ b6 RH D{ d& T% P_ q@ M} Q' i] ~* *) ir Up 8p !t Fr (I =t CD b: -; F5 1) E} 4| $a v5 v2 r9 5^ J6 tn un ao )v to c: 1) _/ E} 9| bd bd Ej &~ (] n_ Ej 2| '' X; j] 81 y^ 8( -; F} `; @~ {/ V; #) v] E| z, l! S' `! S- J) A4 L- M_ k. @1 O2 Q& I= Ru _I M& q& q& $: :I F, @; X^ o( n9 9| b3 Y; 81 2| `[ d( h< :~ Q' &C u< <~ <~ *^ *^ qb '~ C[ sr v( G> p} ]E Cv gs 4r Bu 2m (n C5 q| tz 3} 0< <> 7r 4r Ps 4n <n #o xn h3 e[ l: l: ,8 ki kg (' +( y} 0' |7 f: |r kr 00 =p Bp :n 2m =9 =2 ,n #q lt 0z rm 27 w^ ~b T> k, e< H_ d5 Ej 0' -~ #) #> @) (( v] <3 <3 <3 J/ J/ J/ J/ t< <3 <3 #> #~ r| lz ): V4 U5 P- l] 1' 81 4( q< K7 K7 ^8 <I Qn *~ 7] H8 Q! A( ",
"Ng T1 d5 AD e< 99 1> O8 s< 7n Jo )l ql Y: ok tk !6 f> 0l 6/ 4_ d) i^ p: L_ {* D; C' p} jr :q %t z5 J/ w] ;| 0f [I }I F( |I &i l: l: m( ~6 j_ !p 'o ^s kn 1I wr O! 2I F- wr wm 3I Am *[ ~7 4I l: l: !6 B} gq pq R, gr O! Wk e_ 5I +6 (a &[ mu tz 95 pn f: 3) m^ )u 7< :^ 2> .> j/ 4] l^ I} 81 M2 k^ E> !{ O3 }. F, 5} ## w- m5 6I 7I g; u@ #8 V} p] >6 J_ FB c( B} C} 81 gj X3 Ka *b 6} 62 k! O: g1  ; 8I SH xb 1[ 8I e; ^! h, h< Q' K8 ir Up eo ^u Gr UH 9I &) p} {{ f: ![ ![ n) ]( v5 L| R, a( i0 f/ :6 0: rt sr 3) <^ 0I +4 v5 X^ 3| Q5 !7 Q5 3| 33 2| +5 (~ +5 C2 &~ =[ !z J8 o0 M' |' I} _~ `[ )~ l! >- q@ {} *} (( M_ ]/ w_ 36 x' :C ;1 8> L5 Pd C= <- *5 j% tD aI -9 C2 %4 kE %4 I8 m_ .> 09 `[  $ j, ~/ j! k3 q~ /< E! ^, ^, l, $1 1a %) <[ 1a ;) A6 =) rt *I 2m am =2 C5 :m 3^ 0< 0( &[ CD nz Dq nn :n #o xn 'm g> l: l: ,8 Di bI h] h< D; I} =[ g_ g_ ao vn xn [n :n g3 zt ,n zn ho Pq |H B5 O9 cI ;d {) $[ p0 dI n: K_ q( M2 :^ 1' s~ s~ v] v] J/ J/ J/ t< t< t< t< J/ I> I> @( P] P] ;g (' 2| 1> j/ b3 }1 k| km km im ){ q| 4^ ![ .) a' 6] A( ",
"+A .( >g U6 !7 99 (] X^ s< g) <G [l ~6 g^ ok ok ok Z( #4 #4 !6 ok d) I6 81 :] {/ 1a Z- /8 un %t ]' T2 T; b^ eI fI 'u Ob |I &i l: l: m( e) -G Ep !p >n tm bo Yn `4 gI gI +z wq hI I7 @2 &F Li 9j l: U2 4m 2) iI -; L| Z; f- .5 D6 -' }] =) f: [5 ,} ]' r9 3) sr &) g/ 2| !7 99 M2 Y; Y; K- 6; 1> `[ L~ cI &5 ;' 8} X6 Ct +} 9= F* 7I -  jI Ha ~a K3 n) d3 B} -8 I6 xw 81 5) kI lI 2~ l7 [# ,~ E! T] &b H: SH xb mI ~! RH nI :~ i] L~ a0 |r %q %q oI wt T~ 6s ]{ b: %[ m9 _/ pI J8 9| v2 2) wr /8 D7 g- c: 3] sr T5 7] z3 J8 J8 +4 v5 L| X^ 3| 3| 3| w} (] y^ 2| 34 (] v} }> _/ E5 P[ C' -> (~ T6 H} ~} O_ g< M} '_ _4 N4 K> v/ N_ ;( t^ <- x  v% k7 (= =5 76 o1 >a l5 ]> Q* Ml T9 e5 e< X9 3a Og *g C: f,  ^ ,~ 01 01 q~ R' {} Z& Z& u2 X{ f- %) f- ;) |s F~ G~ >; 3} 'm 1o =2 K7 .G ,} gr rt &t () qI *p dp (o go yn _m V2 l: l: ,8 >] Y7 f2 !~ r~ 7< q( 3^ un tn fo go on g3 g3 x4 zt (n {r fw kp B5 h) !{ {) {} ,; I/ :4 t} dq n9 o< X; 91 91 l] #> v] I> J/ J/ :^ J/ I> J/ I> /~ @( @( P] Q] ft @> `[ j/ Z6 3| 7/ ){ hv gm o, km K6 C7 8A ]( v2 M2 A( ",
"6= !7 hE Ng z} w} 33 n_ J9 AE Qq V2 ~6 !6 tk ok _7 y2 @2 Pp em 9l [l |C P[ 91 V; <[ sr /8 Ap 95 c9 v{ !} C4 A{ Pi L7 rI :h 6/ l: l: ,8 g> ,m (r Ix .p nn 2q }> u} o0 Q9 .9 +: tE 8| sI tI 3< 8j l: Z( e: r9 -; f: ]8 P[ a0 >) Z9 Z~ -> a0 w2 H6 }> +4 2) {{ /6 w2 L| 3| u4 @> 4] kk I} :^ kk +5 K- K) O: F, 15 uI F$ t^ w' S% s& vI gC `D mI L8 `! R[ -8 A} _5 A} 7/ 6] I, ba 2~ Z% m6 G: S' j, d' *3 wI 4f H: RH _a e; [# ~* m_ 4] o0 _: AH ms ^q &q ^q Ar {( p) t( :5 w< xI K| 22 1) W~ 3} (u J2 U[ kq hr a: Q, 0< 3} J2 J2 22 3} c: T[ <6 +4 +4 H6 R[ f< R[ |1 o( p( }> T[ F5 F} I- L_ 0' y^ :[ K) w| /< }_ _4 }: Q] a} )} N_ ;( ^; )@ ;6 7@ {< _C m' u/ u/ *5 v* 3+ R4 y, ;g X7 %~ Re y, y, 5: #~ h< [$ i< r- r- .^ f, K) 4) Z~ j~ z7 sr p} sr &) C[ +~ U' A6 P/ gm Vr q| P6 l| c9 |r Q, pq nz }C 2q #o $q go xn cm Qp l: l: ,8 +_ oz r| K> `} Y; :6 vp ~t yt #o yn Bp Bp g3 g3 2m ,n {r Pq !p _m *> }. *3 7^ M; h= s< }1 K_ i| L2 N' |' 91 )) Q- #> @( <3 J/ I> t< I> t< t< J/ <3 @( #> @( L- m_ k^ M2 M2 ^( ![ h2 1o Ds ]l ]l *1 B7 bd Z; L2 +5 Y} ",
"e( M_ d< 69 R[ u} n_ R[ p: G3 f) V2 d) f> 1} !6 Z( h| o( L2 n) C} J_ 95 9| 6; I} %) H> 8( D7 f/ n9 .z f~ yI s  P} 7t zI 0g 4_ l: l: ok pE Ix ^o !n 1m or |q Z: }1 }> 6: z} v{ I> q9 N- og bF 8j l: t1 i> u9 +4 9| ]8 b3 6; H> N9 y7 y7 y7 y7 M' -> 1a 5] o0 32 L| 4| 10 kk )) @( m_ m_ :^ :^ :^ <3  $ O: O2 ## /% /% I  r7 w' u- g; AI BI hc }a 'a M2 q( 4| +4 F5 q( 6; L; [# }a b6 v= O/ ,~ S' T] w_ ;- ;d [# <9 >e M8 N/ I> 10 O8 v5 _: {( {( kr ao Sp d} d} zt ;4 CI DI lH EI FI GI GI GI yt yt :q :q tn Dq W< 4q Up ;q ;q ds 8p vn _q tn 00 tn >4 3^ -8 e3 i> #2 8| ]8 3] 0: 2) v2 2) v2 L| w2 Y; |: l] N4 N4 P] J> z; V7 -} z[ 0; !4 2{ HC A: A: t5 K' /_ HC U@ HI S4 O| &  O| u3 f~ 5y u3 u3 5+ ): z; q3 G8 r| h] ~* -~ t< -~ m^ 3) Cv 3] S[ w2 Y; v) }] I~ =[ :1 (m B} A} U[ f/ D7 jr ir II JI bo 2q 4q 5q ao on W2 l: l: ,8 Hi r] g2 :_ S- 6; O[ ym :q #o yn on Bp Bp g3 e} x4 bs :n vr Bm vq K; /e tc wc E, S9 j/ X^ p( t9 81 k~ +] d( z/ l] i] {* $> s~ @( I> @( I> I> I> @( v] s~ #> v] 6^ 2)  _ p( O! O! 5^ 4^ km `q `q <I 8( v< Z& i! z, ,s ",
"k! K; R- (] n) R[ +4 q( P| il V2 e[ f> ]5 ]5 f> d) H3 Z; #) Y; r9 q: I2 wq 4| w2 6^ H> %a {{ -; n_ y} KI Xe LI MI NI %o OI Z( l: l: ok Z5 3o ]n cn 7o fo Co 20 -8 A} H_ !7 #~ j, /, M/ Mu  i 8j l: t1 ^B }1 5| !z =[ v} >2 F} F} b3 h) 9/ .5 I, G_ aa ,; M2 |1 4| 5| z} A4 >A I> d< d< m_ I> I> <3  $ x8 E, D> PI ]; !9 r7 p~ {= k) QI RI j0 }- r~ kk &~ &~ 32 n_ F} 6; |' +; B, j, T] k, q@ q@ k, O: 7- :_ :_ x_ z] e{ 7^ 2> Y1 j^ F5 kr SI :: ^' ns c/ -r Z5 ;r TI UI VI WI XI $' YI YI YI YI ,r ~r eH bs :r 8n Yv ZI dH Yv `I `I nx `I <o <o `o )o lt  J 24 *| Y8 N6 gq mr :> }r c: %r c: /8 0< q_ 32 L2 d< #> A; k. u| lz 26 v; (; 5+ k: .J R4 B( H@ m  H@ ^; .r L. y' a; x' V@ *0 `& U] z[ a* !} +8 vd *f (' %~ K& T2 6] o0 Z; O! 8( 0< _1 *~ v2 J- |' 1_ 4) &~ e3 r< ,} g- o) o) :6 J2 Y< 00 qp Br Zn 7r nz 7r un =l m( l: 9j 6i 6g N4 d( 91 M2 ,} Am #o yn ;4 V[ Bp Bp g3 Bp ;4 go yt Up wn +J m< 2& jt 4c ,a x8 @J t< w} u} kk :] h! d( x7 #J h,  ^ <~ h< #~ Q] L- I> I> I> @( #> v] s~ s~ 6] w< $J 8D /6 b/ Z; :6 d:  1  1 TB 9/ -0 2~ e; p& %J ",
"G: k, +; `[ R[ ]( 9| ![ 5t &J g> V2 ]5 v1 =| kl kl qq 9: E' H> 2) [5 tz 3^ Z: z3 Z- .~ /a rt O! `4 ]h }g |D *J =J 2z #g Ft R| l: l: >s {v 4o ]n zn 7o <q Co xm c( n( p< e< !~ P( 4> /& }h -J 8j 8j >8 nE n9 5| n9 i| Q[ Q[ p( j| v5 `; v9 <a ;J =3 V5 ,; X^ o( f9 o( z} .z a9 .> 99 j/ i/ I> :^ <3  $ }' M/ 's *D )9 `9 >J H# ,J A= ^a )= .8 ~{ r~ T- 2> 2| 1> (] L2 Z6 J) (( A8 <_ q~ l! e' ;d e' T' :_ U5 1' !{ }~ R> N) P[ c9 q: [5 Br 'J :: )J Y! i3 R_ !J ~J {J ]J ^J /J (J _J :J :J <J [J }J |J |J 1H 1J }t &p _t 2J }t 3J 4J 5J 5J [t (y ws us |H ,p Qp U2 )[ wp ^' 6J wG =H ^' SI nu 2] }6 }6 gr q_ M2 )) -9 #7 G8 q3 Q* j> &} .8 )) 3a Re V7 =w h% ,4 ~4 }$ x3 l. X6 N_ }( G{ D> x' v/ v/ ^^ k. ~' 7J !y mz m_ j/ 32 +z /6 /6 -; r9 F5 -] v5 4] K) D/ Z~ 6; o: xm p: }7 (5 o) o) [5 g_ g_ J6 Zn 5s zp _> 2^ Dq k2 m( l: 9j -i 8g ;g M- l] k/ I6 sm yn on ;4 V[ Bp Bp Bp Bp on ;q W< {( kq 8J bk dv 7z 9J D= -a d0 ;> 5= .9 /~ ~{ B, 0J aJ 0J f( 0* L> @1 N- P] U5 L- Q] I> @( #> s~ )) 1' 6; 7/ 83 EG Q[ L_ h) u} dq 8v @w bJ E> &b D{ %_ db cJ ",
"T' E! _( J/ L2 L2 32 bd @u YF W2 f> rn XF 83 83 Cq 3x S[ G- 8( 3} >4 :q 3^ MD v2 Y~ v( 3) dJ yq >H w9 eJ av fJ `= 1x zI gJ %i l: l: >s @z ^o ^o ]n kn hJ iJ o: 3x @4 8| e< !~ E,  ~ ## |h %w 8j l: >8 DG +4 Q[ j^ 7/ }7 u9 o( R[ w2 17 M' {^ z- AC <a #) b3 P9 `; j/ d< v{ d< 5= C2 2> -~ 7< I> U5 `} K~ /, r7 u& b8 g( >J jJ kJ d- ^a -9 k. Q* P; .^ .8 h] )) (' e< C2 T2 U5 Q- g2 u< j, k, e- r@ `- l< B_ :] Z& A( f' o] V- lJ 61 xn Y< E} 1) mJ a5 nJ }4 oJ pJ 41 2x _/ xI V~ xn vp I9 I9 I9 x0 :7 qJ :7 :7 rJ :7 qJ sJ tJ uJ vJ wJ xJ yJ zJ AJ BJ CJ DJ EJ s1 Y2 1v Sp FJ GJ HJ IJ 1] 6J (s T~ JJ Cv /' N! J/ 2' 2' P] k9 Q' )= ~{  $ T- .> Ow 9- 7I cx *: ~f @g KJ S4 v/ /& /& ## X6 !: /, v/ ^^ LJ :E 3a =; l_ /~ k^ v} +z Q9 o0 w2 32 F} .) b3 2> g~ -> #) P[ o) ,} ,} c9 U[ O[ sn f/ J2 J6 3} Zn MJ gq 0: /8 00 `q ,8 l: ,8 ,i 6g ;g )) s~ L2 I6 *2 Bp Bp Bp V[ Bp V[ Bp Bp Bp fo Bo 4r *I NJ  u OJ OJ PJ ]s *8 cd C' R[ }1 4] {} 01 h, _2 _[ |_ R' A[ g2 N- )) #> <3 I> <3 v] Q- l] #~ R- j] 0' L| Z1  _ 9| .9 w} 1> 4= QJ %4 8; g1 `~ $: ,s RJ ",
"@~ :] K) |' v) %> @~ F: W4 U1 Uu 'i $F Ng %~ l] /~ Z6 b3 L| !z f/ g_ b} U[ 4( n_ w2 r9 q: bH .G i> Y7 ad SJ TJ UJ VJ WJ XJ )i l: ,8 !6 @p ^o ]o ^o zn fo J6 u9 s< n9 <D x9 h< w_ /& |[ Jg YJ 8j l: r1 WG g/ g/ E5 k| k| 8D ]8 H> K8 y7 X; f- 9< 8< 4) 1' X; y7 L~ i] i] )) L- j/ d9 l^ s~ g~ @( U5 Dz ]/ ,: g& i} +% /A v& &3 ;( 15 T* Q* 0} Gh %^ V@ G{ }( w_ A[ Og .z Q] h] h< _2 u< u< R* e( 'a E) `} |' L~ a/ _] Y; bd C7 &J _< F2 5t [0 ZJ )w _g `J  K  i .K _u +K wu m* @K #K $K %K &K 6k *K =K -K Pr ;K >K ,K 'K )K gk !K ~K {K ]K ^K /K (K _K :K <K [K qw pk 4< =l hw z4 d} }K yG _) JJ %B |K dw &t 17 2> @> @> ]h ': I> #) T- <3 i/ 0' Z6 >( N_ g& -( J  N* 1K T4 g: p@ T; T; T; /, /, w_ L> .8 dD $~ 2' A; q9 @( k^ 0' g/ h) 7< @; Z~ @; 5] v} t9 R[ t9 u9 k8 g_ 3^ I2 I6 ,} }7 r9 -; 8( P8 |7 z3 f: R, a( J6 E2 ,8 l: ,8 S8 Pt Q- R- k~ 6; c9 P6 on on on on vm g3 zt g3 e} yt /q ar Ss >A Za TE 2K 3K Ua 6I K. Q[ B7 c( 81 p/ nI g< N} +1 &_ _[ 4K M- N- N- #~ U5 @( <3 #> )) A/ 91 j< k~ '~ -> 6^ )5 <p 71 j/ 7a 5K 1- 7= l] z, k, ;d &5 }~ ",
"y^ <3 |' g! r/ W{ v_ e, 2| W5 Js Ei %F %~ 62 T% ;- ~} kk $a  _ j^ g- :6  _ 5| {' 6: <p *| e) <4 e2 rg c& Ly 6K 7K Xa 4@ .B @F ,8 _7 V2 ]l .p 4o 4o !n vn Cr 9| p( t9 sz x9 `} #] ,' 5} Ue <i 8j l: %i K_ L_ 6^ :6 1v v1 d: -; ,) Hm 1a 17 F} v} 6] 9/ V; 9< @; )~ L; 8- e( 1' j/ 5= t< V; 1' v) U5 M_ 0- u- 76 ;f _= }* h; 1x c  8K )> L. 'h ww 9K ]g &o #< Q< ,- '; *g J> u< q~ i< .$ (2 k9 g~ T- 9/ C' y7 $u l8 *[ 7l h> !6 ok m( ,[ R8 VE Dt 1u 0K << aK bK cK dK @j eK fK gK hK iK jK kK lK mK nK oK pK qK rK sK tK uK vK wK xK yK zK AK BK CK DK EK FK GK HK 8j x2 x2 qk '{ qn 75 p) zp Cv 6s |K IK *t A0 kk Z6  7  7 I8 C2 Z; Z; Z; Z; b3 L2 %~ D$ ]= U} $# H& (g >9 ): 3z [$ !} 5[ T; /, 5} c' .8 Dz U* K. Q* .8 Dz g~ kk Z6 2> 27 JK QH Gd a/ 5| qq g) b( uq iJ iq vp m| 85 f3 !z P[ K- -~ :^ K- 6; >2 b3 v} 9| E[ ok l: ,8 Ei 5F R- $> e, H> k8 m| xn ym Am Bp 3m q| :m q| e} wn )t 4r *I KK Za LK MK NK 3u kJ OK }o M3 ;2 6] u~ PK =b QK c; x] q~ +^ h] h] M_ N- #> U5 <3 #> )) |' 91 S- '~ .5 Z9 %) Z1 '6 6u  5 RK SK Ts cI Q- Q- 91 91 |' _( ",
"L2 I} @~ g! _( W{ :{ {/ 7; @5 't Xt TK #> &b $8 <# c' J/ X^ n) i| !z }> 4| 4| |1 p0 Pp d) cE Qp cl Kw t/ UK VK WK ]k %3 XK zD k( *| 7l gm 2o 5o Dp !n vn 3} 9| n) t9 6: e< g2 L> g] p@ -g YK 8j l: ci dq H- 3) f/ w1 ZK N3 r9 E' `K |s Z; (5 K_ ]8 C[ '= Hm D; :] ~{ O: 4} C' a' F} b/ j~ @; S- d( #1 0- }( (- /= R3 +% c- *D 1+ v;  L y' NI Kz Ea .L +L &o N2 x' q3 (' l] :~ i, .$ #1 k9 ft kk K- L_ 8/ H- v} J7 QF cj l: l: l: l: l: bj @L #L $L %L &L *L =L -L ;L >L ,L 'L )L !L ~L {L ]L ^L /L /L (L _L :L <L [L }L |L 1L 2L 3L 4L 5L 6L 7L 8L 9L 0L aL bL cL l: l: l: dL cL eL fL gL h/ u} i0 7r 0: P8 L2 L2 3| AD 10 v{ 0' P[ P[ /6 w2 >2 &~ 34 #~ P* '} w) l. WC }A q3 r| E; @1 r- v/ /& ## j, r~ 16 hL 4& e( P; K~ &} -9 2' V4 }' hc iL jL &> i| I7 ;2 |C wm uq iq :q zm P6 h2 Z< (~ 91 i] -9 z,  6 h] $> v] .> kL k( l: ,8 5v w9 M_ {* r~ 9/ =[ wq kq qp Co 95 P6 &2 &2 P6 h2 V~ tn Os bo a9 6@ lL mL U$ nL _D YD oL r} ){ 8( :{ L) nI pL Xd Xd 9} j! u< h< M_ ~* )) P] P] )) #~ M_ M_ P' P' '= E> b/ p( Pp 6u i/ qL rL K( G_ J/ [: f} v5 R[ 2| ",
"7; j] v] V; e, )~ g! k~ H} 89 [H [H e<  $ ;- <# P( 9- T- 2> g/ g/ g/ P[ v} [H [H p0 c( 9l !E ;n f)  | a* SG X> eI sL +} tL Ei kl (m P6 qm am 5o tq 1m 1q Cr !z j^ >6 +: z} U5 h< 6- 5[ $g zD 8j l: pi 03 p( r9 -8 w1 [l en J2 9: uc K8 I- v2 +4 w2 )u @; 4) D; S- S- r~ E> Q! E} E} %a j~ )~ :~ :~ @^ i< a* Ga U} H@ J; U@ D> ]* a* N: P} @0 ^d >w U0 ,/ $0 t^ ,- M_ i/ )) K) |' h0 Zx N4 U5 I} `; ]8 T[ :6 5< il k( l: ,8 ni uL vL wL xL yL zL AL BL CL DL EL FL GL HL IL JL KL LL ML NL OL PL QL RL SL TL UL VL WL XL YL ZL `L  M .M +M @M @M #M 6L $M %M &M *M =M -M ;M >M ,M 'M )M !M ~M {M ^5 im d: 4m 8v @4 @4 X1 p0 2| x} Y~ N! /6 P8 32 a' (] C: s3 /: 3z l~ '; $~ >( h< h< u< L> !: C4 4> d' E) g~ y7 X; h! S* m< g; 6I n5 ]I 15 x- o+ S* T- Y1 d3 wp q} >4 >4 iq un xn ;4 D5 <^ |: B_ N- ~/ m7 *b 4> s; 5} R* et ^7 l: ,8 5v 34 h< f, 7- '= o0 H6 yp ]M f: i0 ,} B} e3 q} tz W- ;q 8p Bu P9 l5 ^M /M ^M (M C, 6[ Z8 co N3 r( J- %> f, 01 <9 >e 3{ t~ ]/ !~ ~* R- R- M_ >( @1 Z} /: !} 3> 4& g~ 2> h= i| qq tp _M E0 :M <M L~ M2 Ej <^ 9| Z< +5 ",
"(~ j] F: -~ @) v) @~ [M @) s~ R- :] :~ E! t~ 7, e- }- ~{ E) L; 8- !{ E) C: u{ 6[ U6 A} hv Hp ~E ~q +B 6g <g }M Ek l. e9 ZF Uu wp kq p) |q np /n 9m nn Bo 3} :6 (< L3 8v BG A4 $> !~ Q* !y @F 8j 8j sk XF _B ,} l| E2 &J :m b9 g- -; p} C[ m^ Y; 81 i/ -~ T- v] g~ K- +5 a' ~[ U~ 43 S, 8< M| 01 k! g1 ]/ 0} }A u| P4 ]* v/ /, D, X6 N2 |M 1M 2M 3M 4M 5M O* z[ c' i] t< $7 T- 6; 89 y} (( ,; A6 S[ tz :m R9 co '{ m( l: oi 6M 7M 8M 9M 0M aM bM cM dM eM fM gM hM iM jM kM lM mM nM oM pM qM rM sM tM tM uM vM wM xM yM zM AM BM CM DM EM FM GM HM IM JM KM LM MM NM OM PM QM RM SM TM UM VM 6w x2 tk U2 `| Y2 7u .F V8 et Z6 M~ F) H> Z; P8 X^ X^ o< Z6 C: @( U5 I> Q] t3 7- z, i, c' #] __ 5> [- k, E0 G- 32 &~ |' v= (^ 5e WM XM `a vI @e dD -[ kH i| 4m YM E7 g_ >4 Co wn yn 85 ,} b3 s~ k9 k9 V{ Mc <b ZM n2  { f; Pt U2 l: ,8 5v *g ~{ M| !{ 1_ C[ H- fs Vk F' 9: f: f/ ,} c9 w< U~ %t KG :r *I b6 /c `M  N }b /~ WG dn @I .G I6 MD ye 09 =} .N +N N> 5- ~/ !~ R- J> $> i, ~/ #] #] /, ## b6 'a j/ o( Y1 _5 B} :1 :1 `8 @N AG 4( <^ H8 H8 .) .) k~ ",
"F: F: H} H} (~ F: j] _] @~ +] :~ /< A3 q@ G: G: q@ l! S' N/  ; 3& T> [a +^ 7h 5g hE MD JH {v #N Z5 'l +7 $N @n $g Re 5F nE :1 qp ~I 2^ 4r Jq op mn Bu /q 3} j^ !5 %N H3 ]B d< #~ h] A; Xz &N 8j 8j pk 3s r< f3 Uy N3 @I .G &2 $J -8 L| C[ #) $) 81 C2 v{ d< k^ +5 d< 1> 5| 0| FI W! _1 Y{ l! >- Xd 5- L> ,2 4h !h 5: U; *  g1 N/ 8} v* *N =N -N ;N >N !f &  6- B, $[ a0 K8 7< n_ WH Q5 <3 F~ F' /8 N3 e[ qk ,{ m( m( l: ,N 'N )N !N ~N {N ]N ^N /N (N _N :N <N [N }N |N 1N 2N 3N 4N 5N 6N 7N 8N 9N 0N aN bN cN dN eN fN gN hN iN jN jN kN kN lN mN nN oN pN qN OM rN sN tN uN vN wN xN yN zN AN 0j ,8 ,8 x2 x2 pk R| W8 lu 0' 1a k] %) Q! &~ X^ X^ &~ M2 6; +5 +5 C: v] :~ x_ E! j! 01 O/ >e $_ k' T] D; +z o) F5 X;  ; Mc 94 +{ BF 8% bk 9; X9 t] h= 23 hI wp E7 00 U~ 95 P6 q| &2 q: (] l] q- y6 qG BN CN DN EN FN Qc 09 t1 l: ,8 V8 *g U; 3> {) 8: |v b/ (> `K (a f- O! q( f/ f/ f/ <5 #o GN :r 1r 7- $8 8b ~b <~ B2 J_ 1v q| |C q: -8 HN hE P- S6 7} [- /& `& .^ $~ s| h] ~/ ,' {= ,: c6 L< 3& `- n_ xw 3x xw B} :m {l IN dl nl ,} q_ H) 4{ )^ d_ d, ",
"t< T2 +5 :[ (~ j] @) 91 %> +] +; {} Z& k, q@ q@ k, q@ g1 P( T% T> Ka 6) i< =g @n hE >6 q< hw %s j2 jm }3 5g *g l_ )) 09 }3 ){ pn [s [s JN )H tr IG eo Bo JI sn KN Pp kL LN v{ P] 2' 2' 5F T8 8j l: _7 WF I3 q: D5 &2 E[ F7 I7 tp Pp Y1 2> g~ :^ .> v{ v{ k^ 2> /~ T2 .> 4| >} W- MN _1 `{ 7, 4> +N Xd @] ;g {h *g #> E) E/ 8- x= F! -  'u NN ON PN >N _& P; L' L; W; a0 )u b/ t9 ]B AD J- T5 _> o) M6 '{ _7 m( l: l: l: QN RN SN TN UN VN WN XN YN XN ZN `N  O .O +O @O #O $O %O &O *O =O -O ;O >O >O >O >O ,O 'O )O !O ~O {O ]O ^O /O (O 4L _O :O :O <O [O }O |O 1O 2O 3O 4O 5O 6O 7O 8O Zf 9O l: l: l: 8j 0j k( ,[ ]5 #2 &~ M~ |s A6 I- k/ 32 &~ &~ M2 6; 81 81 kk #) ~} x_ T' x_ j! k! 6} n[ m7 x= V; v2 wm f/ H> 3- nc 0O DN ,| Cy j% (;  7 4= v4 J9 aO /B vp pn iq l| .G :1 AE 71 f} U5 J> r| b1 )I bO cO dO (c p2 89 Z( l: ,8 eO v{ O; 7- T' {^ )u G6 )u k] k] 7< >2 !z Z: r( r( b} fo Zv GN W< W; ;d c7 [# Q- qq w1 km zm }7 5| c3 Z7 u{ ;g  ^ ;} w- ## `& 26 g0 Hd U* *  X6 p~ w' V] &: }# m! L| C} 5< w4 ,} P6 gm 24 el (m J2 u( fO .' z3 Z< w/ ",
"kk I} T2 J) j] s~ s~ ,; |' +] )~ A, T' 7^ Z$ e- e- G: e- N/ >- b6  ; 62 Q* Jg PF 7h U6 q: -4 hy gO EB 13 x9 +( #> $> 2| n( 1v g3 vn -q cH cH oq IG mq 4q Ap p: @4 6|  | W4 v{ Q] ~* )) [H Ei 8j l: x2 WF e3 A} 5< e3 $B 2x 5| n) 4| w} J/ E> L~ )) @( @( #~ ~* `} `} s~ Ej 2_ V~ H2 0< +6 &b [[ f; 6} |_ ff u4 2> g~ D; C; E) D/ cI =  G5 %( Lw hO T0 1+ 26 dx L; -> b/ l^ 8/ ]8 B2 c3 Z1 SI Y< -8 6u iO /z jO kO lO mO nO oO pO qO rO sO tO uO vO wO xO yO zO AO BO CO DO EO FO GO HO IO JO KO LO >O >O >O MO NO 7N OO PO QO RO SO SO TO UO 3L 4L 4L 4L VO WO XO YO ZO `O  P .P +P @P #P $P %P &P *P =P -P ;P y< ~i g| ^B d5 Z; p} 9: M2 H8 L2 L2 (] 1> M2 0' `; 81 I} V; Q' E) Q' :~ ]/ !: 7} 4> T] V; f: 3^ w< I- G: ,c 7e WM ;5 k& C4 d7 t] h= u} o: ;2 <m b9 O[ :6 j^ >6 c3 o( 10 %7 P- J/ d( }a t  >P ,P 0b 5c }a .( ^7 l: 9j Ci !7 r~ ~{ M| C; G6 |7 /6 o0 b3 n_ s< D0 t} _/ 1) [5 eo yo KG 'P F) {} T' `! 6; d:  q K7 y8 P8 `; 6= ': 3( E; a* 3+ t- x' [' `# v; D$ D$ h: ,- x' )_ <f B: kb E^ G} )P E} [> W~ ep R9 k2 @z q| 22 u( Z, !P -] J8 e, ",
"&~ K- #) %> %> k~ j< k~ S- :_ +; A, Um 7^ r@ ;d [# W7 W7 e' Z& <~ z, h, Z} 3= 3= q3 A4 z3 W~ pv *' 0| 4( +> Q] R- :_ 2> 71 co !p >n ^n ~P tr IG op <n go q} t} Gt D: kk A4 34 /~ T- J/ p0 cr l: l: ,8 WF c( _5 MD A} 8A 0' ,; K) S- |' :] ~} B, R* ~{ !~ R* 9- 3> M| P' o< 2_ D5 h2 2)  [ d; 7} N8 T} r- #x AD f} _~ U- m^ C[ %) K) 6- ;( (! ]% &o Jd V7 Q6 K; E/ M' 8/ 8/ 8/ /6 i| EG 51 i3 -2 jl {P ]P ^P /P (P _P :P <P [P }P |P 1P 2P 3P 4P 5P 6P 6P 6P 7P 8P 9P 0P aP bP cP dP eP fP gP hP iP 0N jP jP jP kP lP mP nP oP pP qP rP sP tP uP vP wP jN xP yP zP AP BP CP DP EP FP GP HP IP JP KP LP MP NP OP PP QP RP SP Qg C} -8 A} 9| g/ `[ 0' L2 f} X^ 32 >2 b3 `4 6; 81 Y; @> I> $~ 0- h: `& i, l^ }7 yn I2 n_ )~ /& L< 6> r8 p~ l. Ml .9 .9 j| xm im Z8 e: (5 v} `[ /~ J> h] >( i] kk (] M2 L~ l! p/ ~} r~ h] .> '6 ,8 l: ,8 g| !7 r~ ~} ~{ ,; >2 i0 P/ u9 }7 8| @u ,6 2x  _ i0 b} fo yo Jt oI T5 k] v) X; .) d: 2} TP m9 >; k] r~ i, !} a* U] V@ -} )x p@ 's v/ E$ L& h: d~ }[ 0d _& U] P( E^ z7 H) T5 .s Cv xI R9 -r Ep !m [5 r! !P r! c5 pI 4) ",
"4( I) // e, {/ g! +] +] S- :_ +; O) *^ ^, M) 5) #5 UP y] 7, q~ f2 0J #1 N| P* ^/ j! l< U- fO >^ U, *~ |1 @> l] {* ~} :^ n: `q dE ev Oq 7o VP WP XP 1m Bp q} q( 6; {/ f, l] ]h (' t< +5 c3 g| l: l: k( @B EG j^ n9 >6 v5 V; m! l! }- 7- B, <~ x_ C, c' 3> c' c' j, }' Z~ P[ w4 W- 05 dJ l, m7 k' jf [- r- .z  | n9 YP *~ =[ H6 +z h) S9 v; ZP )9 Jd 0; )> nG `P 8: M' 17 &u fs F- =[ .A ~6 #s Y: 3s  Q .Q +Q @Q #Q $Q %Q &Q *Q =Q -Q ;Q >Q ,Q 'Q )Q !Q ~Q ~Q {Q ]Q ^Q /Q (Q _Q :Q <Q [Q fP }Q |Q 1Q 2Q 3Q 4Q 5Q 6Q 7Q 8Q 9Q 0Q aQ bQ cQ dQ eQ fQ gQ hQ iQ jQ kQ lQ mQ nQ oQ oQ pQ qQ rQ sQ tQ uQ vQ wQ xQ yQ zQ AQ BQ CQ DQ Ew 1} !6 y2 8|  > t< 81 L2 v} v5 L| ]8 u} u} n_ aH X^ 33 v{ ~' r3 lz N| M_ b3 b9 _m g3 Z: v{ a} V7 c0 $A l. Re )y 23 /5 t} d3 M6 ml g) s< v{ B' r| N| d~ ]/ !~ .> d5 n9 {' 6; `; L9 ]8 j| dq ~7 ,8 l: ,8 S8 e< r~ ~} 1_ T- Q[ o: 7/ _5 n: p< 6| Qw E5 q( F5 b} Bu 0s 0s q) T5 W, M2 M2 ]( *[  J ;4 S, |s {^ e- ,' X6 G{ 's 5M Fn Q; !f C$ Ga b; ]* v; 3= 5& :' )d 3z S' EQ b, 8, q! p^ E- }D 1o dE ,p 3o U~ l9 [> FQ r( _/ 1_ ",
"n9 _~ <[ e, g! r/ :] +] (2 r| E; 1| }[ ,- (& s; ,_ GQ @/ HQ IQ +n CA KI [e Q; %0 j! :] U- .' U, ;; E} o( @> N- i] E) X; A} >l gy JQ Kr 0n VP op KQ 3m 95 o: M2 |' qb <~ S- d< 34 @> `[ +: UE l: l: R| LQ 8| p0 Ng U6 u4 :] T' T' M| O; R* c' ~/ }' K~ c' j, K~ }' }' )~ P[ y8 W- yn gr aa f; L< m} [- C, *f Ng 5| Z1 E} :6 P/ v2 0' T- 9; $A N: 9* p3 <$ MQ NQ i8 #) H- 9: &[ 0( }> +7 cj l: cj OQ PQ QQ RQ SQ qO TQ UQ VQ WQ XQ VO -Q uP YQ 'Q ML ZQ `Q  R .R +R @R #R $R %R <Q &R *R =R -R ;R >R ,R 'R )R !R ~R {R ]R ^R 0Q /R (R _R  R :R @O <R [R }R |R 1R 2R 3R 4R 5R 6R 7R 8R 9R 0R aR bR cR dR eR fR gR hR iR jR kR  : l: l: ci tE 2> t< 81 L2 F} Q[ ]8 ]8 -; ]8 ~8 |7 v} n_ L2 =; q3 r| lz q9 w} f3 _m 85 U[ O8 N- 26 u; &c PC Ue 5F lR s< t} i> YF w1 I3 Y1 X9 mR :' i1 M0 d~ @1 .> p0 n9 v2 O! H- +z ]8 q( dq ;] ,8 l: ,8 KC 09 r~ O; ~} X; 4| xw -8 -8 @4 6| >6 n) 9| 9| E} xI Tp 0s 0s 5r &) K- X^ &~ +4 e: E2 ep Cv |s {^ 62 ;} r7 P} o@ nR *v oR pR qR qR rR sR tR Ch uR vR wR 'h x_ xR Cs yR b, zR p5 }D B5 {H AR 1o U~ t: m9 5^ s( j^ p] ",
"4| 6] v] e, g! :~ u< 0- ww BR CR DR ER FR GR HR IR JR KR LR MR NR OR PR x6 QR ~u .$ 91 I- %[ }5 _: w4 4( 34 #> L~ C; Z- P| (B Fp JQ Kr 0n mq IG <n vm :6 w2 M' ~} Z& {} S- Z6 v{ 4] @>  | 'i l: l: %i c) =f Y6 G' G' q- Q' r~ R- @( #> O; }- O: j, 6- 6- }' x8 x8 8- r~ H8 ]' }) MN /8 8: T} B= N2 /! )} ): P] g~ C[ b' E} E} w2 W, L~ !} ]* N: z[ !} N; RR M; L~ $u P8 |7 0< m9 _5 {E SR TR UR VR WR XR YR ZR `R  S .S +S @S #S HM $S 3L %S &S *S =S -S ;S >S ,S 'S )S !S /R (R ~S {S ]S ^S /S (S _S :S <S [S }S |S 1S 2S 3S (R 4S bQ 5S qP 6S 7S 8S 3P 4P {Q 9S 0S aS 8R bS cS dS qQ eS fS gS hS iS jS kS lS mS nS oS pS qS Mi rS sS s0 33 `, a' F} F} -; q_ -; -; ]8 u} L| F} L| X^ v{ %~ h0 J> <3 ]8 g) K6 2m -8 R[ z/ /: D) `& V7 r| %~ .> 34 {' H_ #2 @2 uE x9 }A i1 Dj Q} $  R; 0- ;g !7 X^ L2 P8 F} +4 }> j^ xw QA ok l: ,8 V^ .z O; O; ~} X; 4| 3x -8 c_ ,6 p< +: o( R[ V- T[ <5 tS Jt Jt ir '~ 7- S- K) s~ O8 _5 F5 T5 E' P'  ^ D> St Qx uS fk vS wS xS yS a& zS ay AS BS CS DS ES PR k3 D^ so FS FS GS ;^ k0 R9 =l 2} Xv (u FQ r! -] s( Z: 1a ",
"u} h) #) e, '~ e( >/ $0 HS IS JS KS LS MS NS OS PS QS RS SS TS BS US VS PR 'h O4 $> I} 3) %[ CH k0 c9 K_ {' 2> 9/ |s {{ e} jo WS XS Kr YS IG np go tn ot >) -' 4} {} ~} s~ Z6 h8 :^ J/ <D ;i l: l: 6i Eg )x @/ b; V@ ,- R' P] z} hE v{ 27 ~/ O: C, 6- C| }' x8 x8 c' r~ &~ k_ ep x4 _6 E0 ZS /% U@ v- {= 's d0 Z$ `S A6 bd ]( Q! f- $[ h< (; [$ #7 q9 5;  > d9 g/ v}  9 20 75 ^8 =F  T .T +T @T #T $T %T &T *T =T -T ;T >T ,T 'T )T $M _O !T ~T {T ]T ^T /T (T _T :T <T [T }T }T |T 1T 2T 3T 4T 5T 6T 7T 8T 9T 0T aT bT cT dT eT fT gT hT iT jT kT lT mT nT oT pT lQ lQ qT rT sT tT 4R uT vT wT xT yT zT AT BT CT DT ET nh FT GT HT IT JT c( D5 k_ J2 /8 S, 8( R, wr wr 2) f: =[ 9| 9| 6: f} (] Z6 b3 U[ gm ,p 'o 1o ,} 6< Q] Dz K> a} P4 @^ R' :~ )) I8 +A c) KT 3z $# f* B& LT MT /f )_ R4 Y6 :^ 81 P/ f3 g) g) F7 :1 [l ok ,8 ,8 5v +> .^ ~{ +; <3 4| @u -8 xw (< [0 NT n) R[ 2) m9 (q 2v OT PT 6r r@ ~b _a _a Q> `! m^ sr 3D K8 t< +8 K0 <C QT RT ST TT UT VT WT XT YT Bf ZT `T  U .U +U @U Dj  6 E_ #U v( x5 Y' #u C5  q 75 qp 0< q_ c] Z1 _5 q: +4 ",
"u} Y; v) g! )~ @^ (, $U %U &U *U =U -U ;U >U ,U 'U 'U me ]C )U !U ~U {U ]U +n k9 (( K- O! dJ %r k0 2_ K_ |1 C2 5] %) S, c/ VD ,o ^U Kr YS Fq dp wn c: A6 F_ N) {} 'a {* s~ :[ /( R- )) d5 ;i l: l: /U 42 L^ (U `2 l' ~: w] U5 LN lu 3y 27 j0 T] ~/ }' q~ j, j, ~/ ~/  $ v5 q< =2 e/ k8 0/ 8K D> _U v- G* rA :U 'b 9a 1a v2 v2 17 f- M' )) J> #~ 8; 9' 48 .9 $9 Q[ o( x0 XF @x Fw .| <U [U }U |U 1U 2U 3U 4U 5U 6U 7U 8U 9U 0U aU bU cU lN dU eU {T fU gT gU hU iU jU OO kU lU mU nU oU pU qU rU sU tU uU vU wU xU yU zU AU BU CU DU EU EU PO PO FU GU HU IU JU KU LU MU NU OU PU QU RU SU NU TU UU VU 0R sQ WU XU YU ZU `U  V .V +V @V #V 4_ }4 Do bH 1) 0: Q, 0: R, f: f: a( T[ _6 !z j| v5 {' L2 F} q: }l ;n )p Iv 85 n) 4= ]h #x G' #7 O2 m6 ^! R' P] w9 bI >9 p~ m' $V 9B 9B 9B J' #< P* 5+ .8 t< p: 7l h> =| *| 0l !6 k( pk x2 $F .> .^ 'a ~} #) R[ A} xw A} @u D0 NT n) R[ z3 _1 b} mp 7D %V ir M8 Cd Rd :b Pc ca j~ A6 G~ a0 2> ;[ &V *V =V -V ;V >V ,V 'V )V !V ~V {V ]V ^V /V (V _V :V <V +^ @) E: P! S! C8 }D -4 1o 95 p) gr q_ bd ]( Z: do !5 ",
"v5 Y; k] o] r/ '_ d~ [V }V |V 1V 2V 3V 4V 5V 6V 7V 8V 9V 0V aV bV cV dV eV ,2 %~ x^ I- Q, 0< l9 ]' o: +: 6: 4= j/ i/ -; 'm -n fV ,o gV 0n or mB wn c: |6 }] p] K) 91 J/ <3 P- v] `} 91 d5 .F l: l: ni z; c& hV 55 G5 c& O2 )) ]B iV R[ &> cI j0 w= }' 9- f( }' x8 }-  $ }0 .G Y[ h3 wq *> jV kV lV mV nV -a oV $( Aq uc f: V- 17 f- M' E> 1' R- )) 4] 33 aH v} $9 P/ vG Y8 '[ ,8 (x pV qV rV sV tV uV vV wV xV yV zV 8U AV BV CV DV 6L jN dU EV {T FV <T GV HV IV JV KV LV MV NV OV PV QV RV SV TV UV VV WV XV YV ZV `V  W .W +W FU PO @W EU EU #W  W $W %W &W *W =W -W ;W >W ,W 'W )W !W ~W {W ]W ^W ^W /W (W _W :W <W [W }W |W 1W 2W 3W 0j _7 f> .G ]' r9 wr 0< 2) r9 r9 <6 yq i0 T[ Q[ 32 v} &~ 2) q: w1 ~q ~q Do q< 5| t] %7 (h Ow !~ b6 kb 3{ q~ '; Ig 4W Lg G* W] 5W ;. ;. 6W LA ;: 0; 3z |- u] t} gl 7W h> QF 1} _7 pk pk +k 8W (' ~{ L; E/ v) v2 A} xw @u p< HN NT n) ]( 2) _1 W< mp 9W 0W jr aW bW .3 'd %6 =3 G~ w> >; &) d9 WC .B *V cW dW eW fW gW hW iW jW kW lW mW nW oW pW qW rW sW 0} (( I) `, X~ ;; mu 05 -4 tz p) r9 f: v2 v2 g- do !5 ",
"33 -~ 8< ~^ :{ <_ N| .L jw tW uW vW wW xW yW zW AW BW CW DW EW FW GW HW eV '; P- kk H8 z3 _1 m9 i0 n9 fy IW JW l_ S9 `4 AE -n >o -n ~H in pp pp KW kq {{ I- J- L2 (] w} kk #> |' 4& |' J| 7u l: l: LW Mg x' G* B: B: _0 V{ S- Gt Y4 n) g~ l0 |- l0 U; C| }' }' x8 2s r~ &~ -8 bH g3 O[ #[ j> E$ _D 15 o+ v= G# Sa R] H> ]( bd I- y7 C' E> E> ~* R- K- b3 F} |7 9| ,} DB !i &w Dt MW NW OW PW 2U QW RW SW TW xV UW VW WW XW YW )T ZW `W .M  X .X ~T +X @X #X $X %X &X 7N *X =X -X ;X >X ,X 'X )X !X ~X {X ~X ]X ^X /X 2S [T +W +W }T }T (X FU _X #W  W lT :X <X [X }X oM |X 1X 2X 3X 4X 5X 6X mQ |N 7R )L 7X 8X 9X 0X aX bX cX dX eX fX gX hX [i +7 #2 3x U[ g- _6 }> 9| +4 u9 P/ !z =[ >2 M2 w} w} v5 Qw $B d: %2 83 <p 4| T2 l] U5 iX &C P( k) >- u< ty X7 jX #; sy K  LA kX kX a) H; m  -f U* -9 -[ lR J7 lX vG tp Uu t1 pk Li Ni mX ': i, B, `! v) v5 p< @4 @u p< HN NT J8 9| f: m9 ao Gq yo KG gr :I nX ^c :b tb G_ +~ V, w> sr  > ;[ 9t oX pX qX rX sX tX uX vX wX xX yX zX AX BX CX DX EX FX i1 k9 B8 X, X~ C8 0< i0 p) [> 8( q_ V- +4 t9 j^ !5 4( ",
"j/ V; $1 `S o] 91 KI GX HX IX JX KX LX MX NX OX PX QX RX SX TX UX VX mh CR G' kk A^ o< ]( FQ _1 r9 o( W9 WX mR 3z C, -[ N6 ,{ >o -n Jx !n nn Cp XX iq ![ u9 E} _5 D0 ]B w} g~ ))  $ R- Y1 u1 l: l: Ki hg vd t| }A q3 }[ T] '~ bd p< pA o( |1 3y 2| )) )= j, 8- }' x_ 'a j] .) 22 un g- kH .8 K~ ^^ ~{ S9 9/ C[ >; R! q_ -] bd P[ Q! p} H> m^ C[ m^ 6] L| i0 [5 D5 51 d) /] =g ,j YX ZX `X  Y .Y sV +Y @Y #Y $Y %Y &Y *Y =Y -Y )T ;Y mN  M >Y dQ /Q ,Y 'Y )Y !Y ~Y {Y ]Y ^Y /Y (Y _Y :Y <Y 8T [Y }Y ~X |Y 1Y 2Y ^X 3Y ^R 4Y  W fT fT eT 5Y 5Y +W CU AU 5N 6Y 7Y 8Y 5S 9Y 0Y kT aY mT ,Q bY cY dY eY fY gY hY iY jY kY lY mY nY oY pY qY rY sY tY Su jg z2 @I :m B} sn P/ q(  _ }7 :6 f: w2 L2 {' |1 U6 }0 W4 n_ n) uY tt KF U5 E| :_ j< $> u< R' _[ vY P* )x )x R; rI >N (0 G; wY wY  k d> x3 xY 3' J> Ml I8 kH 4] 1>  | V8 Li Ni Ni 8u C: 3> {} 'a @~ v5 p< -8 @u p< HN Qw E5 !z q( F5 1r Mt Wp Dr /6 T} ic N& (_ /^ K3 >; V, w> es yY ;[ vw zY jw AY BY CY DY EY FY GY HY IY JY KY LY |W MY NY OY PY O] :[ H8 B~ b' N! C[ f- n, W; Z- _1 f/ 7/ -8 L3 6; ",
"u] Q_  [ J< 9! <3 O] QY RY SY TY UY VY WY XY YY ZY `Y `Y  Z .Z +Z @Z #Z $Z 3a .> A^ C~ d_ !P S, F} %Z Ve )E .a J; t/ ^^ +: g> fV ,o Jx cm }n }n Am E7 r( g- _5 F8 L3 EG R[ C: )) )~ |' Y1 u1 l: l: &i ZF hg )h hg w9 h< l! p] L2 j^ 3x #2 `7 U1 p0 #[ L; O: O: }- x_ <~ )~ $) S, 1) i0 C2 -! -9 Z} a9 4( q: |) &Z *Z pv m9 q_ 32 32 8( S[ {{ O! 3) 8( :6 f3 *4 _y 0F k( =Z Yj qf -Z ;Z >Z ,Z 'Z )Z !Z sV ~Z {Z ]Z DK ^Z /Z (Z _Z :Z <Z [Z }Z |Z 1Z 2Z 3Z 4Z 5Z 6Z _T 7Z iP 8Z 9Z 0Z aZ bZ cZ dZ eZ 1Y 1Y fZ gZ hZ /X ^R <T iZ iZ AU gT jZ 5Y kZ lZ IO mZ /X 3S /X nZ oZ pZ qZ rZ sZ IU 'Q )Q tZ uZ vZ wZ xZ yZ zZ AZ BZ CZ DZ EZ FZ GZ HZ IZ JZ KZ `^ R8 ,{ }4 Z8 20 i0 !z :6 g- :6 f: {{ w2 9| 4( U6 d< s~ |' J/ LF LZ yE z/ }_ n] +] J) MZ NZ ff ~u _0 ./ O< B: OZ 'w |u lk *( PZ -: Jd 4z t0 s| l~ A; L' S* ;d }- @( @w .| Ni +k 8u /~ 8- 2s qb %> <^ 2x xw p< p< D0 W5 8A j^ i0 W~ lq bp QZ RZ sr ,: `2 J; D> p@ e( +~ F> A6 F' /~ SZ :  TZ UZ VZ WZ XZ YZ ZZ `Z  ` .` +` @` #` $` %` &` *` =` -` ,h ft Z6 H8 9: =^ u2 2- %5 -- I~ [> 5t F[ Sm c( $[ ",
"a/ 4} m, l,  ] 5E ;` >` ,` '` )` !` ~` {` ]` ^` /` TT (` _` :` <` [` }` |` !y h8 H} Q! G} b' 7] &~ Iy 1` ^d G; F1 >& 2{ 2` dl h^ -n Jx am tm _n sm tz g- g- U[ -8 ~5 <p 4( %7 @(  $ ~* Y1 `s l: l: 6/ #2 ix <D +A t] O; B] p] L2 n9 3x H3 tp <p f9 T- L; 8- 8- }- 3> z, 4& uc %[ c: !z w} )) 27 L~ `4 F8 TP 3` 4` 5` k0 r! k/ Z; O! S[ {{ O! V, V, -; sn 4m oA d) ok 8j 6` 7` 8` 9` 0` a` b` c` d` e` f` g` h` i` j` aX k` l` m` FM 4L n` o` ]T aP p` q` r` s` t` u` (X lP v` 0Z w` x` y` z` A` eZ 1Y 1Y fZ B` hZ /R ~S ^R C` D` E` fP gT gT IO IO F` G` H` I` J` K` L` M` N` K` O` P` Q` 5P R` S` T` T` U` vK V` W` X` Y` Z` ``   .. .+ .@ .# .$ .% .%i l: ok r} |C sn  _ g- :6 :6 a( P8 >2 n) hx o( i/ `} f2 M- aC Q5 yE |: +] :] 91 y} & .* .LF N| S0 3F R< h9 >/ N: 9= :8 !2 = .hV )x Wn Fg Mg M_ )= d0 v= `~  ; 4& 6t >8 0j x2 U8 mz K; w= T' k~ n_ D0 @u p< p< 6| D0 Z: g- 1) 1) Ar  o - .RZ sr ;( |u T0 U] L> ~{ h~ 1^ ; .f- i/ =! Iz > ., .' .) .! .~ .{ .] .^ ./ .( ._ .: .< .[ .} .| .1 .2 .3 .ty P- T2 C' F_ gj Y} KE O3 8< Ws ,} $B d3 AG ]^ ",
"Dz !{ `6 T' cD 4 .5 .6 .7 .8 .AL !j 9 .0 .a .b .c .d .e .f .g .Vi h .i .j .|0 2| '' k .Q! p} x} .> >u ^d +K l .m .n .x@ /G W8 m( Y: (B ~m =9 _m ;2 zm f/ :6 f/ q: -8 EG hE Ow Q- :~ :_ d5 `s l: l: 4_ V1 6| @5 n) Z6 v_ 2k Y{ k/ n9 @u o .I7 _B 4| J/ Q' `! `- {) Z& `- K) $) G} *~ 9| &~ /~ s~ -~ .) Qn p .X! 5` q .Z! )^ 7; m^ H> ]{ V, V, V,  ' v2 sn _B @2 ,i Q: r .s .t .u .v .w .x .y .z .A .B .C .D .E .F .G .H .RM I ._Z GM :O J .o` fU K .p` L .M .N .O .P .Q .>O R .S .T .U .V .W .5N !S X .X .Y .gZ Z .` . .....+..@..#..@X $..%..&..%..E` *..J` =..-..;..>..,..'..)..FV 3P !..~..DV {..]..]..^../..(.._..:..<..[..}..|..1..2..3..4..# .5..;8 l: ok ]5 F7 c9 }7 g-  _  _ +4 L9 >2 v5 }0 {' 4] R- g2 L- %7 09 yE /( U5 L- S5 t4 LF KF u4 t3 R6 !u !u #] s9 3z w_ /^ f& ;| /^ d~ Og u4 A4 l] r~ }- k, 3- 7, L~ }3 R| ,8 ,8 5v e< ~} 1- K3 V; n_ Qw pA n9 >6 pA _5 r( 1) _: mu ms Wr 6..7..H- r7 hO 8..([ V@ 8- $1 b, o] W; /~ Eg 9..}9 Ca 0..a..b..c..d..35 !b )b '1 *N WJ e..Or Lb f..g..h..;~ 1| R' c' q@ Y} }b %_ kb 7, ][ 9/ 6; 6; k^ @> Z& ",
"g0 !} 1- z, S- 09 Yx /f ,k ;K i..j..w[ k..A& #  `= jD 3! l..m..n..n..o..p..'y M2 '' 8] I- sr W, m_ w; Gk q..r..s..m .v[ t{ t..l: m( ~6 @p gm gm fm [m >} f/ c9 -8 C} @u 3| I> f2 h, :_ Ng `s l: l: ,[ @G $B F8 2x Z< W, w/ W, Z< Qw X4 .A @2 [1 K_ &~ T2 S- 4) Z~ 4& K) H} a' ]( -] -] bd X^ o< .) t( u..v..w..x..%r )^ _~ K- g~ a0 H- {{ yp Q, gr U[ r< tp  r y..z..5..)B Be A..B..C..OW D..E..F..G..H..I..J..DK G .K..K..L..M..N..nN O..P..Q..Q..R..S..T..U..V..W..X..>O Y..Z..Z..`.. +..+.9Y oZ K` K` ++.Y .@+._R #+.$+.$+.$+.%+.oP %+.-..&+.*+.=+.'W -+.;+.>+.,+.'+.)+.!+.hT ~+.{+.]+.^+./+.(+._+._+.:+.<+.[+.}+.|+.1+.2+.3+.4+.5+.6+.7+.8+.9+.0+.3< l: m( ~6 7l &2 c( 20 Z: Z:  _ T[ L| 32 v} t9 33 C2 2| 99 Q5 33 v{ y} t4 D8 aC P- J) A4 ^h A[ R6 z1 [[ g1 M_ 34 99 Z6 k^ 7; 2| ]h P- L- C: P- J/ B_ L~ 1_ p] 0'  A ,8 l: ,8 cr sz v] d( P' J/ v5 n9 5| R[ 4|  _ g- i0 kr 6r q) eo hu a+.lB b+.c+.+* Mw d^ Ob D, 1_ Z{ o] 8< K2 d+.5z KA #  `A `A !9 H# ~/ t< O! p} &[ C[ f- 8- u; +g 8y d[ 9g s9 x' /^ n[ ~1 e+.f+.j% bB N/ }- `- 7^ 5) ;d 3> S* ",
"R4 D$ !} c' >( Su g+.]% h+.i+.j+.k+.l+.37 m+.n+.5; )) g0 o+.p+.0B n@ $C h..Y1 P[ q+.F> p} Z- '' I> @A r+.H+ s+.t+.u+.v+.w+.M[ l: m( tk <4 el Qq el 1o I2 g_ w< k_ F8 Z: v{ i] &_ ,~ +; U6 M[ l: l: g^ Vv x+.51 `1 h2 MD Z1 J8 E5 4( >6 EG H3 #2 n: p( L2 I) _~ 0' `4 &~ $a Z1 Z1 y+.-] Z< J8 z+.11 Qn A+.A+.Y! B+.C8 G> _] k~ L~ m0 3) Yn C+.-; yq 85 @x Z( D+.E+.F+.G+.H+.I+.J+.K+.L+.M+.N+.O+.P+.Q+.R+.S+.T+.U+.V+.W+.X+.Y+.Z+.`+. @._O .@.+@.@@.#@.$@.%@.&@.*@.=@.-@.;@.>@.,@.,@.'@.rM )@.!@.-S ~@.{@.K` nZ eZ ]@.oP ^@.^@./@.(@._@.:@..X &S .X <@.[@.}@.|@.1@.2@.3@.4@.5@.6@.7@.8@.9@.0@.a@.b@.xZ _+.c@.[+.d@.[+.e@.f@.g@.h@.i@.j@.k@.l@.m@.n@.o@.0i l: m( m( g^ V2 7l d: U[ k8 f/ s( r9 yp 0: }> +4 v5 n_ n_ ^( X^ C2 Z6 Z6 h8 ut l] M- ft ;` 1| c; n[ _a O2 )) K_ AE RA co Vv ;H E8 @) j< <3 kk T6 y^ M2 -~ @) $a ~7 ,8 l: ,8 qE hx `[ T2 T2 Z6 W4 n) n_ M2 32 9| 1) 3} ar }s JN mp p@.q@.>o r@.s@.t@.NP =/ >` '} j8 v< Tm v_ -[ W9 u@.K0 *D Fn y' <$ K; E' q) Yr )r v@.w@.x@.y@.Jz k/ z@.'i lF |_ b1 tc Te |# 2& )b :8 F( !: g1 P_ 3& mI vc F, A@.",
"): 6- L> D) @1 ch Q( ,4 Gy #K ^* B@.,J 2s uc 9I &t B6 >) |- 6- -} ~4 Dj !y }1 w2 C[ k .N! Y~ z7 :^ j1 Pu C@.] .D@.E@.F@.G@.H@.l: l: cj Qp el io Qq B5 yn [5 Y< >} w< >6 !7 (2 ,~ g1 r~ +A &i l: l: _7 _<  J nJ hy e/ C7 !5 (< E5 R[ 6: D0 Pp ^B n: t9 k/ H8 )^ <^ 4| 5| U7 Z1 Z1 y+.Z< Z1 )5 8A 0| r: Rn I@.FI CH R! -> 4& ~} 27 => ot a( s> J@._6 d: >{ l: zy K@.L@.M@.N@.O@.P@.Q@.R@.S@.T@.U@.V@.W@.Q+.R+.X@.Y@.Z@.`@.W+. #..#.+#.+#.@#.tP ##.sP $#.%#.&#.*#.=#.-#.;#.;@.>#.,#.>@.R .'#.)#.!#.-S oZ oZ K` ~#.{#.]#.^#.(@.(@./#.(#._#.:#.<#.<#.[#.}#.|#.1#.X` 2#.3#.J` 4#.5#.6#.7#.8#.9#.0#.a#.U` ZU b#.c#.d#.e#.f#.g#.h#.i#.j#.k#.l#.m#.n#.rd sd o#.p#.l: l: l: l: ,8 )[ F7 }7 D7 O[ w< 3} gq }6 /8 -; b' Z; P[ H8 Z; 0' `[ %7 D8 C: l] l] /h +( r- 6} }# _a E, -[ @N &J |4 e) q#.@x HN F: A/ P- %7 Z6 `< 3| 6; Y; J| #B ,8 l: ,8 </ +: Z6 kk Z6 99 3y W4 L2 6; {{ r9 p) 2r ]q rH `n :r Uo ,o h^ r#.s#.t#.u#.v#.w#.5M Dz '~ ][ v_ -[ @_ /G x#._D g] }' i8 4} y#.z#.4p A#.B#.C#.D#.E#.F#.G#.G2 #B @5 h, 7} 9e :# |# _= ${ -: j: )_ #] v= vc &6 ZD n6 b4 ",
"'2 6-  ^ ,~ '_ H#.qg v/ H5 :8 6> f; 9a `{ Hl I#.ew W' J#.K#.>= |- &  V4 kE D0 32 F> k .4{ Y~ z7 y7 r3 L#.G; mD M#.N#.Pu O#.t1 l: l: cj xp 3l el -G 1o wn (u _: (u 3} i0 ^( P- .^ c' D; Y1 bi l: l: nk 24 @I *4 TP P#.lJ P| Q#.)5 L| v2 Z: Pp Pp n: 4| &~ b' )^ U! ]( J| )5 Z< ]( Z< Z1 ye J8 )5 w4 Qn h2 Uy s: @' Z- j~ .5 1_ P' 7< S[ hr 3} Ss o) vG W8 Mi R#.S#.#c T#.U#.V#.W#.X#.Y#.Z#.`#. $..$.)N +$.@$.X@.#$.wK $$.%$.&$.HM *$. @.=$.uP -$.-$.;$.>$.,$.'$.)$.!$.~$.{$.]$.^$./$.($.qM _$.,S :$.oZ oZ oZ 9Y {#.<$.(@.[$.}$./#.|$.1$.2$.3$.4$.5$.6$.7$.8$.9$.1#.]W 0$.CU a$.b$.lT c$.d$.7X e$.f$.ZU b#.c#.e@.g$.d#.h$.i$.j$.j#.k$.l$.m#.m$.n$.o$.0y qS .| ;8 >8 pk m( >{ *[ F5 r9 J6 w< J6 Zn SI Zn gs () sr 9: 3) M2 6; `[ `[ Z6 m_ l] A8 p$.ft h, =  ;0 ;0 62 @( D0 1v q$.@x ZK i^ KH w7 r$.ut A4 P- :[ +f 2| `[ 5| s$.,8 l: ,8 ll et 99 `[ 99 u4 (] +f 99 6; &~ F5 J2 lq 5r Fr 0p mp 5o 3l dl t$.6& u$.)j v$.w$.G0 l~ V; 1_ +; #> w0 x$.':  $ 4& 8< F~ n^ %B ls )r y$.z$.A$.B$.C$.Fl SI G2 QA H_ f2 >- 1~ $_ 0^ 'u lk I; D$.P} )_ |[ M8 $8 D{ $: hc ",
"lz /: R* <~ f, !w _g }0 a9 1' 9/ E' IK %B `m PH ]q E$.ls q) II f: u} +: I_ q| |r sr Z- I) R! F$.m^ i/ G$.f7 `= c* w& !x H$.pk l: l: m( >m I$.3l -G fn _q 4r xt |r 7r _1 Ej w} I> R- :^ ]B F3 l: l: cj qn =4 -4 CI FI j9 |) Fo Pl Z1 !z c_ %2 %2 !5 E5 9| *~ [> z3 -] )5 )5 q( 4| Z< Z1 Z1 J8 E5 8A r( s( r( 1) (: {{ p} sr m^ 17 iI jr lq Dq iq uq tE Kp J$.9O K$.L$.M$.N$.O$.P$.Q$.R$.Z#.`#. $..$.S$.+$.T$.U$.V$.W$.X$.<W Y$.Z$.@M  @.(O `$.eQ  %.;$..%.+%.@%.#%.#%.$%.%%.&%.&%.*%.=%.-%.;%.$R >%.,%.,%.>%.,S '%.)%.!%.~%.{%.]%.^%./%.(%._%.:%.<%.[%.HL }%.|%.1%.1R 2%.3%.cT J` 4%.5%.]N 7X ]..W` ZU ZU 6%.d#.7%.8%.9%.f@.0%.a%.b%.c%.d%.e%.f%.g%.h%.i%.j%.fz 9g k%.qk !6 K7 J2 1) Y< un ns AH Up Iq q) (s :> 0: S, z3 a' y^ 6< (] `[ v] d( x7 N4 f2 j! P( P( c' m_ >6 e3 FB G[ RA F[ Pw |: l%./( A4 v] J/ KF f} y^ E8 >q ,8 l: l: F3 Y4 4| f< gE [: D: Z6 y^ M2 n_ i0 (q 4q uo `n m%.Ps up n%.x1 o%.p%.q%.r%.s%.t%.Dl k. s~ '~ C; $u 71 hl F7 q: U[ ]' w< <5 ~t Tp ;G yo 7p u%.v%.w%.x%.ep w1 y%.93 4h t| +^ /: C$ (% au [  P1 z%.;( L& z, e( .^ ~{ k, ",
"/: .$ +^ R' h! )5 )6 co :1 l| tz ao ^u &q &q &q 0p A%.|p dp go un g_ g) =| co o) 9: Z- Y~ G) w> G> j/ YD B%.C%.D%.0A E%.F%.9j l: l: m( ]} Jx XG G%.lm Dq mt P, :> ]E V, Z; &~ u4 `[ 6; t} 6/ l: l: nk pl ;4 H%.%t yt <5 *Z K| )P I%.w4 5t JH d: P| s( _/ o9 *~ dJ Z< Z1 z+.Z1 Z1 4| Z< Z< J8 )5 ![ F} 6^ F' *) p} R, :6 c9 U[ o: J%.4q _q fo 4n 8D Vn wz K%.L%.M%.N%.O%.P%.Q%.R%.S%.T%.R$.TX U%.V%.W%.S$.X%.Y%.Z%.`%. &..&.+&.AP kN @M <Z @&.sP ##.-$.#&.$&.%&.&&.*&.=&.-&.;&.>&.bY ;&.,&.'&.>$.>$.$&.)&.>..'S .R !&.~&.{&.]&.^&./&.(&._&.:&.<&.DV [&.}&.|&.1&.2&.'W 3&.oP &+.4&.&S 5&.6&.fY vZ 7&.8&.9&.0&.d@.a&.b&.9%.f@.c&.d&.e&.f&.g&.h&.i&.j&.k&.l&.m&.n&.Q{ *h 6/ g^ 1v >} Y< U~ yt _q eo ;G GN !r o&.ls Br W~ -] .) o< ^( f< 99 (( l< Q' Q' $> l] s~ >A I> C2 t9 i| >6 @u EG HN D8 [_ p&.=} q&.*} v] KF ^( y^ E8 >q ,8 l: l: 6/ Pp D0 pA E8 99 -~ j] A^ z^ .) F5 00 %q -q +o cp Bo Zn r&.s&.t&.u&./C v&.w&.x&.${ 5+ s~ K) '~ 6; .G `( g^ W2 w1 en 'm gn h3 )n ,n 'n 'n hn 'n $q zt F2 >{ g^ 'l 8G )h Kw !y y&.F0 0C z&.ey w& u& ]/ ft f} 6: z} `} ",
"P; h< (2 :~ @; E5 nB j2 @z en tm _q -q ^u /q /q uo Os vn Sp yn Ap o) 4m u1 ]5 8D {{ p} G) G) G) p} `; A&.B&.C&.D&.E&.F&.G&.8j l: l: l: -n ko Jx LC ]o Jq H&.I&.I&.Pm X' &[ +z 4| v5 v} -8 d) l: l: nk L6 m| ds yt W< Ar 22 z5 K| b5 D5 &4 51 ;4 g_ W~ %r Y- 22 W~ i0 !z )5 Z1 q( 9| -] T[  _ E5 E} p} [. J&.K&.L&.9( un e} e} on =p eo Eq 1n gn dG M&.N&.O&.P&.Q&.R&.S&.T&.U&.V&.W&.X&.Y&.Z&.`&. *..*.+*.@*.#*.$*.%*.&*.**.+&.=*.FM -*.;*.>*.,*. %.'*.)*.&O !*.~*.{*.]*.^*./*.qP Q..Q..(*.aP %#..%._*.:*.$&.<*.[*.}*.|*.1*.2*.3*.4*.5*.6*.EV 7*.8*.9*.0*.a*.b*.c*.d*.!S e*.f*.g*.3P vO h*.i*.eY j*.tK 9&.k*.b&.l*.m*.n*.o*.p*.q*.h@.r*.s*.t*.u*.v*.w*.x*.y*.z*.ek A*.;8 ok 2} W- 00 tn fo 8p @o ;G Zv Wr 9p Mn ^q _: [> P[ Z; .) ye ^( #) p] 'a L; -> 2> 33 v} v} L9 ~8 $9 o( +: sI WH C: B, /< '_ <_ K) F: $a v5 L2 E5 >q ,8 l: l: d) I_ @u )w D0 L2 ,; @; N' W, O! f: )t pr Hq Vp Hq *p B*.C*.D*.E*.F*.G*.H*.I*.vC )1 U* v] |' M' b3 W^ l: m( ~6 jm E2 en Bm Bm 2m 2m :n 2m vr (n :n Bm ~p g^ cj *| U1 <D Ng 6: ~' ~; J*.3! Y0 %E @/ >( 3y (< q< _B #[ ",
"r- !~ {* f, k~ z+.K*.-r c< 3o gn V[ go #o <q vn un yt V[ =2 *4 I2 sn _B ~l v1 t} Z; *) C6 F> G> C[ :^ t| L. Dj 4D o@ XK L*.x2 l: l: m( cE io !p 'o ^o Iq sH M*.M*.N*.M, ]E _1  _ 5| +4 <p 4_ l: l: cj km 3^ Y< X< pv _: mu t: pv K| P| C7 bH W- %r +' O*.s_ xI 5< p< ]B Gt 9| 9| *~ E} Z1  _ _/ -] &u i~ 4t P*.fr /8 W- DI V[ go fo or Eq |n !m qq i( Q*.R*.S*.T*.U*.V*.W*.X*.Y*.Z*.`*. =..=.+=.@=.#=.$=.%=.&=.*=.==.-=.;=.>=.)T Z$.,=.'=.)=. %.!=.~=. %.:R RO {=.]=.^=./=.(=._=.:=.1Z aP aP aP aP _*.:*.<=.'&.[=.}=.|=.CZ 1=.2=.3=.4=.8@.5=.:&.oN 6=.9#.7=.8=.0Q )..9=.0=.}L .X a=.b=.c=.d=.e=.f=.g=.^..h=.i=.j=.k=.l=.m=.n=.n=.o=.p=.q=.r=.s=.t=. g dK u=.v=.w=.x=.oi g^ @I U~ ns vn yt Up 7H u%.2p vo =q y=.z#.nu S[ I- Y; L2 z=.L2 // o] N~ 1_ W; U- k/ X^ v} +z Yn {8 i| H_ et T1 C: B, *^ B, n] {/ H} Z< f< &~ >6 >q ,8 l: l: d) r< _5 pA >6 w2 C' @; ,; M~ I- 0: Br 1q pr A=.|q qp B=.C=.D=.E=.F=.G=.H=.I=.J=.;: K> R- {* |' C2 J_ ,8 ,8 '{ ~p  q 2} B5 R9 'm Bm gn 90 =2 =2 =9 im i^ !6 k( y2 @u }0 |1 R[ @> 0; g( /0 Q{ >N i: h0 >6 K=.x+.%2 2> ",
"R* f, S- '~ L=.~[ K*.M=.(r zG LC !p ,m (r Rp Es Es Es -G {H g> @z im Z8 ~l I7 ~8 7< E' E' 1a |v 9/ 7= P* K' 55 55 iA *w N=.O=.l: l: cj xp el XG Kq DH (o Iq ^q &q =H *H }D 0| xw _5 }1 I7 U2 l: l: 8j nl 3^ y8 <5 <5 <5 xI k0 ~[ _: Y< |) h2 xI 'J +' <> pv 4^ g) [1 aG o8 !z i0 W~ ![ q( u9 r9 ]8 aq br P=.-) /' J6 wn yn %t %t go BE :r ~n >n h| Q=.R=.S=.GW T=.U=.MG V=.W=.X=.Y=.Z=.zj %j `=.+=. -..-.+-.@-.#-.$-.%-.&-.*-.=-.YW --.;-.>-.,-.HM '-.)-.!-.xP  @.#M kN [R ~-.{-.|L dQ Q..]-.aP aP .%.:*.:*.^-./-.(-.a&._-.:-.<-.[-.&$.}-.|-._#.1-.2-.3-.-+.4-.,&.5-.6-.7-.8-.9-.0-.a-./+.'T U` b-.c-.d-.e-.f-.g-.h-.i-.j-.k-.l-.m-.1j Q%.u*.n-.o-.p-.q-.r-.s-.t-.u-.v-.`s w1 c} #q {r #q Tp !r Wr Wr bp Xs /s )v 7r S, Z; `[ 6< Ej H8 C[ F~ Ou +~ %) *) Z- p} O! %9 (6 i0 _5 p< D0 n9 o< j] %> v) 91 X; H8 )5 *~ q_ w4 fp l( l: l: 0F bH :6 F5 (5 }> P[ I- 9: 9: {{ 0< Br Dq A=.Mt 4q ZC w-.I< x-.y-.z-.1` Q} c  c  V6 ): .8 O; :] J/ @u ]5 f> jm jm V2 x< pE 7A =l [p -G [p -G -G ~p co oA DB @G k| ![ .) F} v2 L_ U; =0 .r Z0 !f .$ 2| B7 F2 k2 1v 0' ",
" 6 [_ k~ X{ w/ V- G2 j3 h3 Es x< Y: Y: &l &l ,{ &l Y: ok m( m( Y: !6 4< E[ v2 ,; ~} r/ 8< 8< $[ E> a} `] 04 A-.B-.C-.P< &g F3 cj x2 _7 dl Ur Ur Rp cs !m (n 4n mp eo Wq ~t B7 !5 p< 8| 6u R| l: l: 8j 8l B} |) 05 bH P#.05 (u X~ M! C8 :: U~ W- p9 #u )t b} xm Fs D-.E-.F-.71 5t D5 y8 v2 iI F- 17 *t I~ G-.Vl 0: 00 fo yt ~t fo go vr ^o Nq dE ql H-.hR I-.J-.K-.L-.M-.N-.O-.P-.Q-.R-.YA S-.T-.m; U-.V-.W-.X-.Y-.Z-.`-. ;..;.+;.@;.#;.$;.%;.&;.*;.X+.=;.-;.;;.>;.,;.';.L..);.!;.ZL ~;.Q..Q..aP aP >$.:*.K .sZ KU {;.];.^;./;.(;._;.:;.<;.[;.{O <$.}X };.|;.c$.1;.2;.+#.3;.4;.5;.6;.7;.BZ 8;.9;.0;.a;.b;.c;.d;.e;.f;.g;.h;.i;.j;.k;.l;.m;.n;.o;.p;.p-.q;.r;.Y&.s;.t;.u;.v;.`| e[ ]} ]} #t mp !r wo wo `n Fr <r )v l9 v2 o< 0' D: 0' 6; N! U, +' %[ X~ 3) rt %a Q, c: J2 [5 f/ o) D7 E} Z< V- z3 2) S[ S[ V- 1) m9 _1 F8 [l l: l: l: 0F q< 3} |r o) k8 :6 i0 _6 yq c: kr Br ^q ^u )H bo 95 `q &l (7 JC w;.rE yg Ag NF s| !} j, E! <~ +; &~ c( x;.e3 dn Fw l( Y: Y: &l &l Y: Y: Y: ok tk cl _B dq @5 n) H( I) P[ B~ H> N; Q* T4 T4 (; `} 99 5t c< y;.73 C2 ",
"f, *} @~ .] JA Y, a5 *4 K7 co g^ m( m( nk nk cj m( m( m( cj m( m( ,8 4_ c( L_ 1_ `- `! .5 C; $[ L~ @1 #< <e So z;.yc 3f h8 `q &l tk vk (B Ur Ds A;.^s Ix 2o gn zn |n |n yn 4m n( EG 3x h| pk l: l: l: y2 .G P6 &2 <I <I Uy _: X' Hl E- a: W< %t V[ ;4 V[ xn :7 B;.C;.D;.E;.$4 w1 km V~ -; &u A6 A6 E' ;) D' &[ ir :q go yt vn ;q go hn Dp kp ]} cj F;.G;.H;.I;.r*.J;.K;.L;.M;.N;.O;.P;.Q;.R;.S;.T;.U-.U;.V;.W;.X;.Y;.Z;.`;. >..>.+>.@>.#>.AK $>.%>.$;.&>.*>.=>.->.;>.>>.~N zP ,>.&S |L dQ ,Y Q..K .K .K .]T '>.)>.!>.~>.{>.]>.d-.^>.)T />.0Y &+.)..(>._>.:>.<>.[>.}>.|>.1>.2>.3>.4>.W` b@.5>.6>.7>.8>.9>.pY 0>.8M a>.b>.c>.d>.e>.w*.f>.HW g>.h>.i>.j>.k>.l>.`#.m>.n>.o>.p>.pk m( l: ok kp (o 2p 2p Wr .o Ys ]q q) ^' T[ X^ L2 6] `; 6] S[ '^ SI ir mt 2^ P, q>.r>.ao un 4q Cr 7r 2^ [r nu ^q s>.s>.yG ^' =H JN @t to FI pE l: l: m( g> Bp lq Cr ao tn Ap Ap iq Ap bo lq /q 7q {q `G Dq b9 ]l -n -n d) gi Ki .F g| 8G B' 6- ^^ 01 T' 'a Y; r( 5< xw E[ g^ m( Y: ok ,{ Y: Y: ;m ;m m( cj bl 71 p0 6: &~ kk H> 6] b' sr -> >( $~ t>..8 ~* &~ do K*.|4 w1 99 ",
":_ A8 J) r$.(( Jf C} tp ){ i^ '[ l: l: l: l: l: l: l: l: l: l: ,8 '[ Y8 dq #) {} T' {} Q_ Z9 P' r~ J3 #< oC u>.A-.v>.w>.J- .p ,p dE ~q ko zG zG cs ^s 3o 2o !m zn vr x>.lH 95 B7 -8 @4 yw k( l: l: l: `s y>.z>.*4 JH 31 H2 %r ;^ o5 A>.JJ }D ds zt d} c} Xv 20 B>.C>.D>. < e2 =l  J ds a: YH A6 Y& -) Y& K, _> Cr yt go ;q E>.;q 1p hn BH Ep ~6 fi F>.G>.H>.I>.f&.J>.K>.L>.M>.ik N>.O>.P>.Q>.i..R>.S>.T>.U>.V>.Y-.W>.X>.mY mY mY Y>.Z>.`>. ,..,.+,.@,.j` 0U 3>.#,.$,.j` %,.d$.|;.&,.&S ~;.*,.~;. R =,.^-.`Q -,.;,.>,.,,.',.]>.),.!,.zP ~,.{,.],.*+.^,.'>.<X /,.(,._,.6;.:,.<,.4>.e$.[,.tK },.|,.1,.2,.3,.4,.5,.6,.7,.8,.9,.~K hk 0,.l{ a,.#Z mh b,.e>.c,.d,.e,.f,.g,.h,.i,.j,.m( m( ok kp :r >G Gw 2p .o Ys ]q q) kr |r 32 _~ Y~ I- _~ u( On z#.k,.l,._) :) wt _s !t -q 9p E$.6J s) m,.Xq n,.o,.p,.q,.q,.y=.<r r,.s,.FJ ;s l: l: m( ;n :n Dq Dq _q tn Dq |q fo eo Iq 9q {q {q )H -q 4q xn 2} ]} Y5 0l zD gh {E f^ hg s| !} 9- B, `! p] 6^ :6 w4 2_ E[ g^ ok ,{ qk qk tk tk nk _7 ok _7 bl 8v c3 i| `4 #) f- '' x} *) k] i] q9 N- Dz )) &~ -8 N3 i^ h| d< ",
"l] L- x^ z/ l%.t4 J| dq H_ @4 yw 4_ x2 k( _7 _7 _7 '[ ,[ !6 '{ u1 3s }o F/ Q- e( M| )= t,.l0 ~{ L' 5[ U} :* k4 ># Bd u,.]{ !n <t kp LC Mq Jx Jx Kq (r 3o lt !m ^o {n v,.Oo -4 Rm $B d3 X5 k( l: l: l: 4_ Vv w,.E2 Y[ ^8 x,.}) y,.u) z,.y,.43 #I e/ EB E2 @I <m sJ A,.|w Eo 1v a< Oo 7H xt :> Y' Y' ]E T~ B,.)v ns DI eH C,.dH D,.'n ]n Pq @p F9 E,.F,.G,.H,.I,.f&.J,.K,.L,.a,.M,.N,.O,.P,.Q,.R,.S,.T,.U,.7& V,.W,.d#.X,.Y,.Z,.`,. '..'.+'.@'.GL #'.$'.%'.0U &'.*'.='.-'.;'.+&.>'.<%.,'.c$.8-.8@./,.''.)'.!'.~'.{'.]'.X@.^'./'.<..('.[&._'.:'.<'.['.}'.|'.1'.2'.3'.iY 4'.5'.6'.7'.8'./..(..<+.k=.`,.9'.0'.a'.b'.c'.d'.e'.f'.g'.}V h'.i'.j'.k'.l'.m'.n'.o'.p'..-.q'.r'.s'.t'.LW m( m( h^ Uo #q C,.u'.v'.v%.n,.w'.w%.yG mu _1 S, U, X~ S, }5 x'.y'.z'.A'.y'.B'.ap +o C'.D'.E'.F'.G'.A$.Xp H'.I'.J'.K'.L'.B#.M'.w'.vt y=.tS ;s m( l: m( qD Vo }p ;G :r 1p Iq eo :r No 2v N'.cH Vp tH yo 1p hn 'o -n h^ D3 O'.wR Gj /E P'.L. S4 P4 f, )~ :] h) u9 ![ E} <p Q/ ]5 h> h> h> u1 ]5 *| *| *| =| cG dq Y1 hx M2 E> '= V; N' #) 91 d( #~ )) >A m_ 10 Ng hx s0 e> $~ ",
"J) x^ B_  E 2k S1 y/ B_ {/ K) &~ H3 Y8 y2 kl kl =| v1 Q/ QA dn c( }1 {' (' z; [$ 26 m) m) 9- x= g1 p@ K/ A{ >| Q'.zb R'.S'.Ao -p Nq >p [D ,p ;n T'.ko ,m (r >n 4o ho }J U'.b< V'.Vv qn Z( ,8 l: l: l: k( ,[ d) qn W'.51 N3 E2 X'.41 G2 G2 Y'.nJ *1 jm e[ .2 >{ +2 Z'.`'.Cq h2 7H  )..).+).AH (q @).p9 E>.#).}p Oo $).>r %).UI &).!v !v 1o m: *).=).Hj -).;).>).l#.,).').L,.)).fd Lb !).~).{).]).^).S;./).()._).[..:).<).[).}).|).1).d%.2).K-.p*.W,.3).4).5).6).7).8).9).0).a).b).c).(Z d).e).|>.f).g).h).i).j).k).l).m).G..n).o).p).q).;'.r).GP ;'.s).t).u).v).w).x).y).8>.z).&=.A).B).C).D).E).F).G).H).P&.I).J).`> K).L).M).N).O).P).Q).R).US S).T).U).V).b;.g-.W).X).Y).+_ m( m( h^ ev Z).`).`).2J ZI 0s )r  !.7H 8p ns g_ )t J2 ]' Os .!.F'.+!.@!.#!.$!.%!.&!.*!.=!.-!.;!.K'.K'.>!.,!.'!.7p )!.4p !!.!!.~!.u%.Gw 1J $s m( m( m( ,o -s BH Vo Yo No ur 1n 1H Lr {!.]!.]!.nx ^!.]!.&p Yo /!.(!.>o nE zI 2! e..Bv jD _!.L. )d @1 f, 4) I} k/ _~ 6] n) KN FB FB I_ %2 %2 %2 %2 '6 k| c( }1 C2 2| f} T2 )~ j8 Z~ @; V; |' |' d( )) @( A4 %7 8; U* 5+ u3 ~4 ",
"t4 2F B_ -1 :!.<!./< B, T' T' -~ @4 s! ;] ;] ;]  1 x+.@I $2 P| v5 Y; l] lz V6 O* G1 3z Q* *  v= 15 's Ga #< ^9 zd cJ [!.B,.Ao qH ws =s LC Z5 ;n {H {H ko -G (r hw =s lB }!.R_ ,{ ok g^ ok ,8 8j 9j 8j x2 x2 k( >{ Vv s! w1 V2 `( ok .2 0F W2 kl 0l QF g^ ok m( k( Li g| ~5 [) w@.|!.1!.u'.,n Oo mH mH nH h3 A5 lt h_ 2!.3!.4!.5!.{v 0z .p 75 6!.7!.q. 8!.9!.0!.T=.a!.U).iG K).b!.c!.&, d!.e!.uL s#.f!.g!.h!.i!.j!.k!.l!.m!.n!.o!.s*.p!.q!.k@.r!..-.s!.t!.u!.v!.w!.x!.8).&*.y!.@,.z!.A!.DK -'.B!.C!.D!.E!.!N F!.$>.G!.H!.m).I!.g-.J!.K!.L!.M!.N!.O!.O!.O!.P!.Q!.Q!.R!.H!.S!.9>.T!.1+.U!.V!.D).W!.X!.Y!.Z!.`!. ~.b!..~.+~.@~.#~.$~.QP %~.&~.*~.=~.-~.;~.>~.,~.'~.J!.0>.>K -j Sv cj m( h^ qD &s &I -p )~.9o No 8n 1n ~r (n =2 cm c} =9 P6 !~.~~.{~.]~.^~./~.1J Vo ~o Ao (~.*!.~~.yo 1p GN dH D,.<o ~r :r BE :r )n ]n Dp -s ,o m( l: h^ >o !E ^y _~.:~.ws hu Lr <~.[~.}~.a+.|~.[t 1~.gv 9z 6A 2~.3~.>o 6t 4~.5~.6~.NP QY iw =, q3 f2 )~ '~ -~ 6^ '' %) L2 )5 2x Ql A} A} A} A} A} _5 _5 !z `; D; L~ |: R- +; j8 E) P' D; L~ |' d( l] U5 +( P] C, %D D4 2{ K' ",
"7~.8~.[M L) t@ U) M} n] :{ p] k^ N6 73 ;] ;] ;]  1 1v 1v 9~.xw P[ 1' +^ M0 ZP 7t B( y' 3z L& ;' b6 D, )x Q< 8e +e 0~.a~.6J 0W Yo ;p 3o @z ~q e) cE qk '{ ql =| jm ~v |H ~E Y: m( l: l: 8j 8j 8j 8j 8j 8j 8j ,8 R| cr '6 Io b~.l: l: x2 >8 c~.Ax d~.e~.Ni ,8 8j 8j rl vi I6 as f~.g~.h~.DI =4 $2 $2 JH 83 %2 %2 AE jl Io W^ C3 @G s! 2} 1o q| i~.j~.k~.l~.m~.n~.o~.p~.q~.r~.s~.t~.u~.v~.8y +i w~.x~.y~.S;.z~.A~.g;.B~.C~.D~.E~.F~.G~.H~.I~.J~.K~.L~.Z>.M~.N~.W` 8;.O~.7).W$.CZ zK P~.X$.Q~.R~.R~.U+.U+.S~.zK AK T~.G!.<..b;.b;.V!.U~.*=.V~.*=.*=.W~.X~.X~.X~.$=.$=.Y~.Z~.i$.`~.F~.h#. {..{.+{.@{.GL #{.${.%{.&{.*{.={.[` {K -{.'F ;{.ri >{.{_ ,{.'{.){.U).!{.f-.o*.~{.{{.]{.+F cj h^ m( ,{ 24 }l pl L6 ^{.vJ |C /{.g) 6u ({.il il il G3 Bp _{.:{.<{.X! EB ml [{.}{.H9 |C Co b} g_ c9 wm q} l| aO /B g) vG [1 6m 6u G9 F9 /7 cj l: l: m( _7 qk VF VF TF AR dE ;n g> ,p gV <t Lr |{.Zo Zo <J Pz 1{.,o *).2{.3{.4{.5{.W0 @A z' N- Q' )~ V; W, U- F) %) w2 )5 2x 7/ 2_ 7/ 7/ 7/ 7/ _5 sn q( Y; j8 j8 :_ `} f, +; f,  $ K) S- S- |' d( k9 N4 r| T* `$ i% s& /! ",
"t4 2F J) $] }a P_ {} D; ,; #) X^ N6 E[ E[ oA Io E[ E[ Wv  8 -8 b3 T- (2 `0 L0 6{.L0 3= E; 9- e- k, c' C, T} /b 7{.8{.*k wG _t Xo pH B5 o, ^5 N[ 9{.0{.a{.b{.D>.c{.tE @u %N ~F 7[ d{.;z e{.f{.g{.h{.i{.j{.R( k{.l{.!; m{.n{.o{.{7 oi p{.q{.r{.s{.t{.u{.v{.w{.x{.y{.z{.A{.B{.2+ K; 'a h] x3 C{.D{.E{.F{.vu G{.G{.sR H{.I{.J{.K{.L{.M{.:G }l @z N{._u O{.P{.Q{.R{.b'.S{.T{.U{.V{.W{.X{.Y{.:i ci Z{.`{. ]..].+].@].EW #].$].%].&].*].=].-].;].>].0!.,].I!.'].)].!].~].{].]].D).<..0;.l*.^]./].|,.|,.6>.6>./]./].(].D).W~.#'._].1+._].:].<].[].&=.}].|].1].2].2].3].3].4].4].5].6].6].7].8].9].k=.m*.Z>.0].2).a].b].c].i;.<` 4..K@.d].1i 7i Qv e].R).f].}` g].h].i].o=.j].$c P,.Ei m( m( _7 yw OF k].l].m].n].o].p].q].r].*. s].t].u].v].w].t0 E> x].SB y].z].A].B].C].sx D].E].[e iy N* F].]D Zh G].t{ $~.H].I].J].&; K].L].M].9[ N].O].P].Q].R].S].T].U].V].2E W].X].Y].Z].ZH u9 D7 `].o) #o  ^.bC !E +v Sl .^.+^.ey Ea >u Y6 <3 ,; V; _] U- U- '' m^ 32 4( pA Z: f/ Z: sn sn Z: }1  _ +4 K- )~ E) :] K) :_ :] :] `} `} i] S- $> $> d( #~ i] 9- D, 62 ^a D, ",
"B_ B_ A/ @^.&D l! 'a d, f- z7 _~ ]( E} q( q( Z1 -] -] _/ #^.$^.I) :^ Q] Mu |g )E )d q- J> i] M; Z~ `} Q* %^.0b +e 8{.&^.*^.}t |{.>p 75 +: =^.-^.6w ;^.=V >^.,^.'^.)^.ow +m !^.~^.{^.]^.^^./^.(^._^.:^.<^.[^.}^.|^.1^.2^.3^.4^.5^.6^.7^.8^.9^.0^.a^.b^.c^.d^.e^.f^.g^.h^.e,.i^.d# d# j^.k^.Kj wl 0w l^.m^.n^.o^.p^.Ex q^.S{.gR r^.@  % .bi qk LW s^.&/ t^.u^.KS d'.v^.w^.x^.y^.z^.A^.B^.>] R| C^.D^.X@ E^.F^.7+.G^.H^.I^.J^.K^.L^.h-.M^.9M N^.O^.P^.Q^.R^.S^.n=.T^.T^.T^.U^.V^.^;.W^./'.X^.Y^.Z^.`^.`^. /. /. /../.Y%.`U +/.@/.#/.g@.2+.$/. $.`&.%/.&/.*/.=/.-/.VA ;/.>/.,/.'/.)/.!/.#/.~/.{/.m*.C).]/.^/.i;.//.(/._/.:/.</.[/.}/.,8 uu |/.1/.2/.3/.x^.4/.m@.H).5/.6/.7/.8/.S8 ok ok Ci 9/.0/.a/.b/.c/.d/.e/.f/.g/.h/.i/.j/.~- k/.l/.m/.n/.o/.p/.q/.r/.s/.t/.u/.v/.w/.x/.y/.z/.UC A/.B/.C/.D/.E/.w=.F/.G/.H/.I/.J/.K/.L/.M/.N/.O/.P/.Q/.R/.S/.T/.U/.V/.W/.X/. ! HX Y/.Z/.`/.JD }2 K. >A H6 vr  (.M=.aG .(.+(.ze @(.2z 2g @> Y; U- W, R} '' E~ E~ -~ 7; 6< 6< y^ _~ I) I) J- 6; Y; kk J/ A/ l< :] :_ S- K) {* +] :_ :] K) *} $> $> j< j< |' K) Q' :] L~ L~ ",
"S- *} =} +^ e( i! +; V; f- F) G> Q! _~ 4{ N! T! o/ R! 4{ fO E: F: j] C: Ow 2g Q4 s| #> *> 9/ |v 9/ 9/ `} RI #(.^e ks $(.ar ~o ;p sG Fs Un %(.&(.*(.=(.-(.l>.;(.>(.,(.'(.)(.!(.~(.{(.](.^(./(.((._(.:(.<(.[(.}(.|(.1(.2(.3(.4(.5(.6(.7(.8(.9(.0(.a(.b(.c(.d(.e(.f(.g(.h(.i(.j(.k(.l(.m(.n(.o(.p(.q(.r(.s(.t(.u(.v(.w(.x(.y(.z(.A(.B(.C(.Pv ,8 D(.E(.F(.G(.H(.I(.8+.J(.K(.L(.M(.N(.O(.P(.,i '[ RP Q(.R(.E^.S(.S*.T(.>V U(.V(.W(.X` X(.Y(.Z(.k-.`(.`(. _.`(.`(.._.._.n#.${.n#.+_.@_.#_.$_.%_.V^.&_.*_.g@.c&.=_.=_.,].-_.;_.2+.>_.,_.'_.>].h;.`f )_.!_.~_.{_.!_.zL zL ]_.^_./_.c].v .(_.__.:_.{/./].k=.<_.[_.}_.|_.1_.2_.3_.i>.4_.5_.,8 >8 6_.7_.8_.9_.0_.a_.b_.c_.d_.e_.f_.g_.,i ok tk h_.i_.j_.k_.->.&>.l_.m_.n_.o_.p_.q_.r_.s_.t_.u_.v_.w_.x_.y_.z_.A_.B_.C_.D_.E_.F_.G_.H_.I_.J_.K_.L_.P{.M_.po N_.O_.P_.Q_.R_.S_.T_.U_.V_.W_.X_.Y_.Z_.`_. :..:.+:.@:.#:.$:.%:.&:.*:.0,.}V =:.0B b* P; `4 go |J *s DG -:.x~.;:.>:.,:.{h (] a' )^ )^ T! $) // O' @) F: j] <3 (( _] @~ @~ @~ 91 d( d( {* {* E| {* {* {* :_ {* +] +] +] :_ {* $> $> j< j< d( @~ j] x} b' B~ ",
"R- {* >( .^ R* r- +; V; f- +~ F> o/ I) I) 6] Q! o/ u_ u_ u_ k .a] (( J) +( L- Q- R- M' X& 9/ K8 A6 y7 E> L& R0 ':.):.#( jr 4o _r 2l !:.~:.{:.]:.^:./:.(:._:.::.<:.[:.}:.|:.1:.2:.3:.4:.5:.6:.7:.8:.9:.0:.a:.b:.c:.d:.e:.f:.g:.h:.i:.j:.k:.l:.m:.n:.o:.p:.q:.r:.s:.t:.u:.v:.w:.x:.y:.n(.z:.p(.A:.B:.v(.C:.D:.E:.F:.G:.H:.I:.J:.K:.L:.M:.N:.cj ;z O:.Cx P:.Q:.R:.S:.T:.N(.U:.V:.W:.X:.Y:.=i k( Dt *! Q*.Z:.`:. <..<.+<.@<.,L 8R #<.$<.%<.&<.O^.*<.c_.P&.=<.=<.-<.nh nh ;<.Ne ><.,<.'<.)<.!<.~<.{<.n=.]<.^<.j$./<.,].,].j$.3+.f;.V^.(<.!<.;<.s~._<.:<.<<.[<.zj }<.zh |<.X/.1<.j>.2<.bV 3<.2,.+{.`%.L^. /.4<.5<.6<.7<.2_.8<.9<.Q).e!.,8 R| 0<.7_.2/.a<.x^.b<.c<.d<.c>.e<.f<.g<.@i k( U2 R#.h<.1].i<.j<.k<.l<.m<.n<.o<.p<.q<.r<.s<.t<.u<.v<.w<.x<.y<.z<.A<.B<.C<.D<.E<.F<.G<.J..H<.I<.J<.K<.pd L<.AX M<.N<.3,.O<.P<.Q<.v(.R<.S<.T<.U<.V<.W<.X<.Y<.Z<.`<. [.QW .[.T@.+[.@[.l&.Mb y{ c+.^; 6- #[.or No ho I3 $[.Q,.%[.=z &[..z o< ]( 0I FQ 7] M~ b] O' a] j] <3 v] l] l] A/ @~ 91 l] d( d( $> $> {* {* E| {* :_ :_ :_ :_ :_ :_ {* {* {* $> j< d( s~ F: D: y+.c5 ",
" $ h,  ^ w_ #]  ^ O; E> M~ M~ F' &) J- 7; 6; 81 Y~ u_ Z- k .'' N' q/ v] <3 U5 l] 91 1' C' M~ K8 K8 $7 M_ >~ M& *[.'c <] yq cs Nq =[.qJ -[.;[.C(.>[.,[.'[.)[.![.~[.{[.][.^[./[.([._[.:[.<[.[[.}[.|[.1[.2[.3[.4[.5[.6[.7[.8[.9[.0[.a[.b[.c[.d[.e[.f[.g[.h[.i[.j[.k[.l[.m[.n[.o[.p[.q[.r[.s[.t[.u[.v[.w[.x[.y[.z[.A[.B[.C[.D[.E[.F[.U  C(.8j l: 2u G[.yS se H[.o'.S:.I[.J[.K[.L[.W:.M[.N[.e| k( Dt O[.s[ e<.P[.__.Q[.R[.S[.T[.cS aU U[.V[.:_.O+.W[.W[.`(.X[.Y[.Z[.`[.`[. }.}U }U .Z .}.+}.%_.@}.3+.0%.#}.#}.,].$}.$}.#{.4+.0%.%}.&}.*}.=}.Uj -}.;}.0..>}.,}.'}.)}.!}.~}.{}.]}.^}./}.(}._}.:}.^]./].^].g-.<}.[}.}}.7<.|}.1}.J(.Q).2}.ok Li 3}.Lk 8_.4}.5}.b<.6}.9` 7}.8}.f_.9}.li k( ,[ h_.i_.0}.a}.F .b}.c}.d}.e}.f}.g}.h}.i}.j}.k}.l}.m}.n}.o}.p}.q}.r}.s}.t}.u}.v}.w}.x}.y}.z}.A}.B}.C}.D}.E}.0w F}.G}.H}.I}.Q_.J}.K}.L}.M}.N}.O}.P}.Q}.R}.S}.U$..-.T}.r;.;<.Uj U}.V}.W}.X}.'D Jd v/ R* o0 Bu `I jn F7 ;u Y}.p- *! Kg vd +5 X^ bd y+.b' z7 v) @) R} (~ (~ T2 v] Q- {* Q' Q' :_ f2 t3 #1 h] h] :_ :_ {* :_ :_ :_ :_ :] :_ :_ {* {* $> d( A/ B_ |: B8 d_ FQ ",
"N} 6} n[ ;| >5 ,_ q~ ~* N' N' M~ #) B_ S- :_  $ S- s~ F: '' a] _] [M [M Q- Q- )) 1' T- T- C' ,; @; r~ i, ,- L^ Z}.`}.x= <6 >n p@.,p g) e5 I& C%. |..|.+|.l&.@|.#|.$|.R= %|.&|.*|.=|.-|.;|.>|.,|.'|.)|.!|.~|.{|.]|.^|./|.(|._|.:|.<|.[|.}|.||.1|.2|.3|.4|.5|.6|.7|.8|.9|.0|.a|.b|.c|.c|.d|.e|.f|.g|.h|.i|.j|.k|.l|.m|.n|.o|.p|.q|.r|.s|.l: l: Et t|.u|.v|.w|.x|.[U y|.z|.A|.B|.C|.M[.D|.ll `( E|.F|.G|.e'.6<.H|.I|.J|.K|.L|.M|.N|.O|.P|.Q|.|].R|.S|.T|.U|.V|.W|.p*.X|.Y|.Z|.`|. 1..1.+1.c&.W).4+.@1.@1.4+.4+.$}.#1.$1.%1.&1.*1.&}.*}.=1.-1._p ;1.f_.>1.,1.'1.)1.!1.~1.{1.]1.^1./1.(1._1.:1.<1.[1.6>.}1.|1.(}.11.21.31.41.51.61.zz ,8 ^7 71.Lk 8_.81.91.01.gk J).V&.8}.a1.b1.vi ,8 ok dF c1.d1.pB e1.f1.g1.Xi WZ a'.>~.h1.i1.j1.k1.l1.m1.Lw (c n1.o1.p1.q1.r1.s1.t1.u1.8& v1.w1.x1.y1.z1.A1.B1.C1.D1.E1.F1.G1.H1.j^.I1.: .J1.K1.L1.M1.N1.O1.nh P1.Q1.En R1.S1.T1.e8 >w =0 lz h< R* ~{ 1a }r BE |t ~n N6 U1.OP oX V1.ro 3= N- J/ A^ H8 Q! '' N' j] '' U- H} H} J) l] R' 9} >- (& (& ,- &_ u< >( f2 Q' :_ :_ :_ :_ l< l< :] :] +] *} j< |' A/ A/ [M j] o/ u_ ",
"k' cx )7 /= H5 ,4 h: {* g~ #) N' $> r- X6 C4 L< 3{ c' d( J) j] v) // <[ (( #> #> g~ g~ 9/ V; 4) j8 3> p@ ,: 0^ Fz |# cd H6 ,m 4A R_ K7 _6 >H _M W1.X1._' (g I* F| Y1.9* R4 7J r] Oi Z1.`1. 2..2.+2.@2.#2.0v ]% x@ $2.G/.%2.&2.*2.g@ n/.=2.-2.;2.>2.,2.'2.)2.!2.~2.{2.]2.^2.fe ;: `l )2 1D {f {f MT >` %E /2.Cl (2.d^ T1._2.Tb v6 I{.:2.l: l: Ni <2.}` 6/. _.[2.}2.|2.12.*(.22.32.M[.D|.7u `( E|.BR 42.dK 52.62.72.82.92.02.|&.a2.b2.c2.d2.e2.f2.g2.h2.i2.I:.j2.k2.l2.m2.n2.'*.{+.o2.p2.<..=_.q2.@=.@=.#{.#{.4+.$}.$}.%1.#}.q*.~<.r2.s2.t2.ER u2.v2.%{.w2.x2.y2.z2.A2.#S B2.=;.=;.=>.C2.D2.E2.CK F2.Z%.G2.T@.JX BX H2.I2.F^.J2.K2.L2.^7 CQ M2.8_.4}.N2.Y/.O2.P2.Q2.`> R=.R2.7i l: l: >8 Ft S2.M^ -{.P>.la T2.ey 3! d8 U2.Qx :  <  V2.W& O2 W2.X2.t2 ,4 Y2.Z2.`2. 3..3.+3.jD @3.3F F( Q< kf '( L/ *0 ]: o4 <f pf (! #3.pf iw $3.%3.&3.*3.-B =3.6{.-3.Dh ;3.K> A[ u< !~ v) B0 H> m^ &) _> 9q |o 3J qH p0 ^_ >3.,3.m4 !/ [A a} S- @) K- (~ W, '' W, U- x} 5E 5E /( Q- d' m7 n[ n[ n[ /^ 5- f( t3 :_ Q' :] l< {/ l< l< Q' l< :] +] *} S- k~ %> 91 B_ B_ @) V; ",
":C |( 7@ K^ =5 9D m~ K> g~ @( @( r| s- Q< u/ s8 6, X6 Q' J) F: <[ // ,; s~ Q- |: <3 v] ,; 4& `! 3> j, S; )2 '3.)3.k4 b6 +z @z -n ,{ km J6 D7 i0 F5 D7 T[ 2) 3) *t f- 5] Z; V- U7 pA Qw NT 59 z=.!3.q/ E^ s@ ~3.Q> [[ E4 LT {3.r+ 9B 3$ l..]3.^3./3.(3._3.:3.<3.[3.}3.|3.13.*0 `& `& &_ h: >/ !f !f 23.R; ]: HQ '} _& KI ff ;g |h @n XE l: l: Ni yA -~.33.cV 43.53.63.73.A|.*(.83.93.03.7u `( a3.b3.c3.d3.e3.f3.g3.h3.i3.j3.k3.l3.m3.n3.o3.p3.q3.}%.r3.s3.t3.-'.u3.v3.^-.w3.x3.y3.z3.A3.B3.C3.e;.R|.|..0>.D3.%1.%1.%1.%1.c&.q*.E3.F3.G3.H3.Lb I3.e_.:` J3.K3.L3.M3.dT =S N3.O3.O3.P3.Q3.R3.C!.S3.T3.i=.X|.U3.V3.W3.X3.i!.Y3.Z3.`3.k( ,[ 71.Lk 2/.[k  4..4.+4.J).[` @4.R=.#4.3< l: l: k( bv 79 7J 3g 3g ,2 Id %  F; If [e Id P4 Id N| 3z ~} Cs $4.%4.&4.1| *4.=4.-4.;4.%^ .1 >4.e1 &D d1 _3 J} h! :_ +] :_ l< l< _( n] :{ =} zE ,4.Q5 y} /( /( v7 5E H} H} F: '' $) '' Q! 3] Cv 3] 3] 5s -q !o '4.)4.w} !4.~4.{4.d|.Jk 0e l~ $> 91 @) j] W, 6{ U- 5{ x} H} x} +5 Q- l! 3& ~b f& R& }# e; 01 t3 :_ )~ :] l< :] l< l< g! )~ )~ :_ {* *} A_ Fh A/ A/ |' 91 f, ",
"v* D= }8 r* '& hA J  v; l~ V4 q9 ): G1 T0 t5 N0 r8 v/ >( J/ K- '' +~ 1a v) v] <3 L- #> D; |- 3> <~ d~ ]: 9D J^ ]k ]4.T} 5= r} ok Y: hv 1r yq F5 u9 yq r9 f: P8 I} v) :^ Y; &~ Pw hx KH U7 ye ^4.Jf F: -< L) s@ A] 5- c1 K' 4$ /4.n' (4.!_ tR _4.:4.<4.[4.}4.|4.14.24.M).r  Y1.*0 *0 z[ z[ z[ (, (, R; *0 S; )_ ,( >~ y6 S5 |: <3 !w Ei l: l: Bq 34.44.p-.54.64.74.I[.84.32.94.83.04.a4.7u +k b4.c4.d4.e4.f4.g4.h4.i4.4R j4.K3.k4.l4.m4.n4.cS cS o4.p4.q4.t).r4.s4.t4.u4.v4.w4.x4.y4.|-.BV @-.@$.+1.z4.S|.A4./'./'.#/.-_.3+.n=.B4.C4.D4.E4.F4.G4.H4.I4.J4.K4.L4.M4.BU =,.N4.<>.O4.!-.@S k` $$.Z@.P4.e#.Q4.R4.|_.S4.T4./:.U4.V4.W4.,{ R| 71.M2.)B 8_.X4.;B ~K t-.Y4.5d Z4.`4..| l: l: k( Io U6 !7 fE 09 ;g A[ Gh Fj 5y Id Gh 4y 0- s9 3z -9 a{ xR  5.C^ 28 .5.+5.@5.%0 O/ -1 K} #5.f1 M} F{ A, n] (4 h! h! (4 h! _( _( 65 +] J) NZ A^ J/ F: H} 5{ 5{ (~ F: j] $) X; J/ x} 7] 7] O! b: 2^ -q Vo )~.pH >2 r* $5.%5.&5.5! #; l_ v] @~ X; j] 6{ 6{ u_ 6{ 5{ (~ Y; H} @) T' $: 1[ 8I %_ &- l7 .1 E| :_ )~ :] {/ {/ l< l< )~ g! g! +] *} j< j< j< |' A/ B_ s~ .^ ",
"m5 [* %3 *5.Qt H{ v& o4 z[ _& 1+ Q; 'D cB {; B$ .a @g V4 J/ 81 B8 Z- C[ X; U5 U5 @( )) `} ~{ i, i, r- 5f /2.=5.Ze -5.5> h) r} h^ ok 2} O[ yq u9 *9 }> r9 +4 32 4] :^ %~ Q] @( G' !h pg rg 4h 4h =f ,2 R' N} <9 !: ,_ c6 !0 4! ;5.o  K+ fB E=.>5.;^.,5.'5.)5.!5.~5.{5.]5.fB ,w Y1.'- R; R; R; R; R; R; ad ~f K/ h9 >~ }v }: _] @~ #a ^5.l: l: aj /5.(5._5.43.:5.*` =(.:V <5.[5.}5.|5.15.~i 25.35.45.gG r!.55.&Y 65.)L 75.0S 85.95.05.a5.b5.c5.c5.d5.fY XU e5.f5.g5.h5.i5.j5.k5.l5.m5.~#.}=.O~.Y@.W!.z).@$.n5.+/.o5.@/.p5.q5.G2.r5.>_.|1.s5.t5.u5.v5.{W w5.x5.y5.z5.A5.B5.C5.D5._,.f).A!.E5.F5.U~.E).z).G5.U,.H5.I5.J5.K5.L5.M5.N5.!6 Z( d].M2.2/.4}.O5.P5.Q5.R5.S5.T5.U5.uL b_ l: l: ,8 @B >6 }0 !w ,y *f q3 `0 `0 Id If 0d P* g: d~ 4y /: q~ M} s/ ,~ %^ V5.W5.X5.Y5.'A O/ K} K} f1 M} F{  E W{ n] '_ mC _( n] J} n] i! e( (2 :0 z/ k9 x7 /( H} T2 J/ <3 U5 U5 v] @( K- J- 6; 9: F- pq Dq lt =s pH =[ #% Z5.`5.J+ U{ Iy Kw +5 F: K- U- (~ _] %> %> #) j] I} (~ -~ :{ P_ Q> z] e; T% Xd &_ +^ Q' +; 4) +] .] l< g! )~ g! l< {/ K) S- |' ~* $> j< j< (2 a* ",
"T; b^ 6! q+ D( (2.MT Ob pf +} t^ ^; @r _!.9t &V 2z 42 5: m_ 0' .)  6.P[ Y; I> @( -[ )) ~* >( -9 Q* 4y *0 /2..6.+6.@6.Se 9' r} m( ok pl o: yq u9 *9 <6 r9 H6 32 6= 70 =f B' U* R4 z' #6.cf G$.mE z' lz &  )x ,( h9 p~ G* qa H{ hO $6.(% P} @r %6.&6.*6.=6.-6.;6.>6.,6.'6.dd G0 Y1.=0 R; !f !f !f (, R; i: ,( ,_ !: R' N4 x^ N' <[ f< )6.l: l: 0j !6.~6.{6.]6.^6./6.(6._6.:6.<6.YX [6.}6.@7 k( |6.16.26.X%.SN 36.46.56.66.76.86.96.aR 06.a6.b6.c6.56.d6.e6.f6.g6.h6.i6.j6.k6.l6.m6.n6.5Y o6.p6.q6.r6.f3.s6.oY t6.&=.u6.v6.w6.x6.y6.z6.A6.B6.C6.D6.E6.F6.G6.H6.I6.J6.>W K6.K..L6.M6.F .N6.O6.P6.r!.e,.Q6.Zf R6.S6.T6.U6.V6.|2.W6.N5.!6 Z( wk X6.{_ [k .g Y6.|3.Z6.`6.G>. 7..7.Mi l: l: ,8 #B 8v WG 6| ]B 79 *f |h 2C u| N| k1 P* >~ k1 0- 1| @^ q~ f( ]/ h1 +7.'e -5 @f O> @7.#7.$7.3k d1 F{  E W{ n] '_ '_ n] n] n] W{ R' R' 1| A[ #1 (2 N4 ut A4 T2 <3 @( U5 U5 v] @( J/ +5 6; 6] rt pq bo 3o !v %7.20 #; &7.ey R% Lg *7.WG U6 3| n_ .) (~ 'a S' E! e( S- :^ T2 m^ ,; :] +; :~ q@ v= 3{ w_ c' e( !~ :] {/ +] :_ K) :] r~ ~{ M| 9- M| -9 M_ #~ f2 }[ Ga /_ ",
">( D4 =7.x@ 0u I; !0 t5 A: A: n  y| ~; $; -7.;7.>7.mR Mg .> w} 9| )5 9| 99 m_ I> #> )) 7= q9 `} !~ d~ ;/ Uc ,u dC Zc t/ 9' r} m( ,8 {l wq yq F5 yq <6 a( H6 +z ,7.Ml (' dD Q6 2+ l. j1 L. L. j1 l. l. J3 g: )x '} }( u- G* /! /! `] t^ Ct $# .[ !9 >J /0 {| '7.)7.!7.~7.Qu sC Jd R; !f !f !f !f !f %0 i: ,( S0 O>  6 x^ U- F) +~ f< D3 l: l: 0j {7.]7.^7./7.(7._7.:7.<7.[7.}7.MR |7.17.d| +k gJ 42.Yi b&.j` 27.37.47.57.67.77.87.e6.97.1@.07.}=.1'.1'.m2.a7.b7.c7.d7.e7.f7.g7.h7.i7.j7.k7.l7.m7.n7.HP o7.yN p7.q7.$'.r7.s7.t7.u7.SM >-.v7.w7.x7.y7.z7.A7.B7.C7.D7.E7.F7.b}.@,.a).$'.G7.21.H7.I7.J7.W/.K7.[|.L7.S6.M7.N7.O7.P7.p>.,8 R| Q7.R7.c4.S7.c4.2/.T7.U7.V7.W7.X7.Y7.Ni l: l: ,8 kl '6 Pn Pp #2 ix u{ fE 2B _' r3 4y d~ ]/ 0- @^ i< `5 e( i! ~u %^ Z7.eI Lu `7. 8.{0 .8.-< F{ F{ #7.A, W{ n] n] n] J} n] J} W{ A, q~ q~ R' h, A[ z/ C: m_ J/ <3 @( U5 U5 v] v] I> Y; 6; g/ 3) 3] g_ a< 2!.2!.K7 +8.N=.@8.OF ug cr il L3 HN @u Qw Y; Ra Y}  ; d' f, :^ I} m^ K- 6] 0' J/ 3> P( 6} |[ #] 9- !~ )~ )~ :] :_ {* t3 Q* ^^ g] M/ M/ C, t>.Vy u3 I  )@ !< ",
"~* ]I #8.Xm 0u Jk z: fj U{ /2 m  sC ]v ;7.$8.%8.xz mR lE =; v{ |1 5| 4| (] (' %~ #> S9 q9 R- R- h< C, x' 9D &8.|B *8.w^ ,7.qn l: ,8 `q Ap Ss F5 }> <6 =[ H6 +z d9 5; @( Dz !} 5[ J3 -f [$ J3 J3 P; #7 g, e( z, L> #] ## /& 8} /& M> X6 V{ X6 p~ w- `] t& v^ #} ;5.=8.-w &o $# 5M !f >/ !f >/ !f !f R; L/ ,_ -8.A] '_ /( o/ .} +~ <: D3 l: l: 9j ;8.>8.,8.'8.)8.!8.~8.4}.{8.*v eB E+.]8.+k l: ^8.AS /8.(..:W (8._8.:8.<8.[8.}8.d7.|8.18.28.d6.38.6&.48.58.s4.B2.68.78.88.98.08._T a8.b8.c8.gP d8.{'.e8.E .f8.g8.h8.i8.j8.#P k8.l8.m8.n8.>..o8.,$.p8.q8.r8.s8.t8.fN u8.fY ^Z v8.[-.w8.x8.y8.J7.T6.z8.A8.L7.B8.C8.D8.E8.F8.G8.H8.I8.rS ai h- J8.K8.L8.M8.N8.83.^:.O8.P8.Q8.R8.Ni l: l: ,8 #4 E[ %2 J_ F[ X4 7g sg sg 7h |h 0} /: /: _[ r- j, f( h, S8.^: i: ~: lx X> T8.U8.k< V8.Im D! #7. E S1 s6 n] n] n] n] e( e(  6 A, <~ d1 d1 k3 1| #J ut /( <3 <3 U5 U5 U5 v] v] :^ Y; 6; H8 3) Q, >4  J ,m 3!. J Q8 W8.Sz #F .F g^ f> k| 6| [0 HN 6; H! !a k) j0 !~ J/ Y; H> p} 8( .) m^ u2 [# P> O2 0* i< g, )~ +; )~ :_ E| h< 6- D, 36 E$ E, &  jX f5 F; J; `2 yB ",
"R- /& +[ d* %- C( C( U{ Qu A: G& .[ JD %8.E&.%8.]D y' l. lz '; .> 99 1> d< @> C: /~ u] u] t< T2 g~ X8.m) S; _9 19 m' E$ aH [4 l: ,8 }l Ap Ss D7 yq *9 =[ H6 +z $u 2' k. K. R* r- .^ /: R* z, z, B, f, :] '~ r~  6 j! w_ ,' P( >- 62 M/ 5} X6  ~ D4 B= N2 c^ 1A R7 Y8.N0 B4 U] Q; z[ z[ (, !f !f (, N: x' _0 b1 P> :~ /( x} z7 E~ v5 D3 l: l: l: wv Z8.`8. 9..9.+9.84.@9.#9.$9.-:.%9.&9.*9.=9.-9.;9.Z>.>9.,9.'9.)9.!9.~9.{9.]9.^9./9.(9._9.:9.:9.<9.[9.a7.p<.b7.}9.|9.19.29.CO 39.{Y 49.59.aY ML 69.79.89.99.09.wV a9.b9.c9.d9.e9.f9.g9.h9.i9.j9.k9.l9.m9.n9.o9.p9.q9.r9.s9.zV 9).(1..[.t9.u9.v9.w9.x9.A8.y9.z9.A9.B9.C9.D9.oS E9.i6 F9.G9.H9.I9.I9.J9.=4.z|.K9.L9.M9.N9.O9.Ni l: l: ,8 f> oA %2 J_ %2 p< !w Pt 6[ Kw P9.}v K> ;~ K> r- D) 01 `5 @] :9 GQ  & A{ Ac if j! 7{ >j 65  E  E A, W{ J} n] n] n] e( e( e(  6 i! _3 Q9.S6 +1 @] #1 R9.P- <3 U5 U5 v] |: v] v] :^ Y; 6] `,  ' 0: k_  q -G {v &J `7 S9.@k $w rn #s {6 H3 |1 +5 D8 x^ c' 8} 8} T9.h< T2 6] 9: 3) gr }6 sr ][ *^ S'  ^ }[ r- u< f, +; l< {* :_ .^ *  M/ D, D, N/ R* Hy Wy A' O* sy u/ ",
"5; 5[ uz lA $z zB ^0 h( >J I@ S% *D !; U9.V9.W9.N* b; X6 0* @1 J> O- @> Ml .z  7 e< w} >2 v} ~8 ]8 >H QJ y, 's mV U@ 5+ s< W2 l: ,8 }l hq D7 D7 K9 yq a( H6 P8 K2 27 |5 P; Q* P4 h] h< :~ z, `! 'a )~ e, V; '~  6 .1 T] g1 k! ,~ d' 0* w_ |[  ~ T} n5 m} a4 )1 {< )1 c^ x' J3 J3 `& )x i: U] R; (, a; K/ Q< $_ N> B, T2 K- F) f- f< @B l: l: l: {i $| X9.Y9.Z9.`9. 0.h'..0.+0.@0.}k #0._K ]}.$0.%0.BK &0.*0.=0.-0.;0.>0.,0.'0.)0.!0.>0.~0.{0.]0.^0./0./0.(0._0.:0.]0.<0.[0.}0.:$.|0.]#.+R 10.20.30.40.<0.50.60.70.80.90.00.a0.b0.c0.d0.e0.f0.EO p` &S 6$.g0.h0.vZ i0.j0.k0.l0.m0.f8.U>.S4.H5.n0.o0.T-.p0.v9.q0.(K r0.s0.t0.u0.v0.w0.c* x0.|6.y0.z0.A0.B0.C0.K1.D0.E0.F0.BQ Ni l: l: ,8 4< h| k| %2 k| >6 !7 Q5 79 Fg O- $~ r| a} a} /: ,~ s/ /< 0* Rw B{ )f @/ Ct w] M} qb G0.O)  E  E S1  6 e( n]  6  6 [z u< [z h, R' @] H0.Yd R6 %0 I0.r3 Q- U5 Q- U5 U5 |: v] g~ -~ L_ 0' k/ W6 0: 3^ X2 =l y;.w1 ZJ hg OF +8.Uu #s g^ z>.0' `! z, +^ /: *  g] 6- A; +5 w2 S, <> ^' (u S[ V; f, :~ !~ /: /: h, f, h! :] S- {* e( T] E, /, M/ D, .^ 10 G/ *7.&y $g 1+ ",
"+> T4 $; G{.J0.%6.K0.{; !9 n# r7 v3 Lg V9.L0.Zh I* ]= N_ /, P; #~ Y6 l_ I8 n8 p0 lR p0 u9 sp M0.wq aO ^B T9 n+ ~= N0.t0 3x V2 l: ,8 5l hq *I _6 sp yq a( wr /6 g~ .8 m) j> (; 42 A' }A z; 3z -9 K.  $ K) D; )~ x_ w_ T] x_ f( L> j! ~/ #] ^!  ; __ [- m5 *8 /= (= R3 :C ,- K> @1 *  /, V{ T; ,- ^/ V@ 18 %: R& f; 9- P- T2 M~ <[ n_ dt l: l: l: ]7 O0.$| P0.Q0.R0.S0.T0.U0.V0.W0.X0.Y0. -.H..Z0.bX j` 1@.28.`0. a..a.+a.+a.@a.+a.{0.#a.$a.%a.&a.*a.=a.-a.;a.>a.,a.'a.]0.)a.!a.~a.'S {a.]a.WN ^a./a.(a._a.:a.<a.[a.}a.|a.1a.2a.3a.4a.cP 5a.6a.7a.rP 8a.9a.0a.aa.[-.ba.j8.ca.k0.da.ea.fa.ga.ha.ia.ja.t0.ka.la.ma.@4.na.oa.pa.qa.q$ ra.t$ >u sa.#w ta.Vm ua.va.)M wa.i- xa.O).O=.l: l: ,8 4< :1 r< $J r< }1 w} 09 Kw .z P- q- N- E; k. .^ ,~ l! <~ N} m} b^ _0 _& [$ L> l! u~ Q) D^ O) S1 J} J} n] e(  6 h, 1| s9 f~ |D i1 %c ya.za.Aa.:, .0 U] K> Q- Q- U5 <3 X; @) X; 7< h) Z; G} {{ 0: q: jm W2 pE dn T9 g0 /g %g >[ .2 h^ :/ f} 8- F, d' r- P; 2+ 26 N- C2 L| c: mu ns ~t T[ m^ S- {* (2 h< .^ i, +; :] K) |' j< :~ L& X6 _D 62 ^a .^ [H ;] 3s Js Ba.mz ",
"v{ x3 i( Ca.i6 Da.o+.4D Jd ~4 )} 5[ y, Ea.Fa.Iy +8 #] X6 L& >( P] $~ q9 mz [H +A 6: Q[ yq k8 iq 95 em 7v {' l0 !} t>.Ga.Pn V2 m( ,8 {l jq _6 o) o) u9 a( Ha.5= >A @1 (; V7 iy &V Ia.Ja.Ka.La.{| ^+ jA #A =0 Ct  ~ 5- k! /< L> 01 D) D) #] E, b6 !u __ T} Zd 76 R3 ax ,a 0* E; K>  ^ M/ w_ D) k3 f( ^/ !: f; &- N> 9- L- J/ #) @~ KF I[ l: l: l: >{ ;i +i Ma.P0.Na.N8.c4.Oa.Pa.ii Qa.Ra. -.Sa.Ta.Ua.Va.I4.Wa.Xa.Ya.Za.`a. b..b.+b.@b.@b.#b.$b.%b.~[.%b.&b.*b.vV =b.-b.;b.>b.LL }L ,b.'b.,=.)b.)b.!b.e).~b.2U {b.D .]b.^b./b.(b._b.:b.<b.[b.}b..@.hQ |b.1b.2b.v6.#>.3b.4b.Z|.];.H|.5b.6b.7b.VM 8b.>}.9b.L).0b.ab.c!.bb.Q% cb.db.H1.%< 0u eb.sg W5 fb.gb.B0.hb.K5.ib.jb.kb.Qv b_ l: l: m( d) h| *[ &2 %2 3x o( [H kE (] A4 k9 N- (2 M_ !~ 01 U8.w| &^ %: (_ 18 Gh K> c' B] u~ xR m& -< J} 65 65 mC }_ ^< @^ h: `h 8d lb.mb.nb.ob.pb.qb.01.tl XC $^ A/ Q- <3 <3 -~ $) -~ K- Z; b' S[ {{ dJ |) qn V2 g> &2 i] w- V] 1+ z} )6 Y5 W2 >6 r~ 8} A= ;9 /; ]* 26 2' k^ w2 gr }5 {( 3} 8( %) D; h] (2 >( /: i, :~ +] A/ B_ B_ <_ 9- S* T9.S* x= r~ n) 9l d) Q/ +B d< ",
"e< y3 8' rb.O'.sb.C&.Iy t| '2 V4 Q] Kw fy lg 6[ X9 *} :~ i] O- O- K. L' R- h8 M2 K- m^ R, ym K7 km i^ s} 8| 34 JW NF 8G k| ZK m( ,8 {l jq _6 o) k8 D7 wr Yn `; 8; u| (g >u tb.ub.9+.Kh vb.wb.DY xb.n^.yb.%|.zb.U{ v/ k3 +1 5} O2 5} #] #] M/ ## s; }( }( `] h} _8 o1 6I g] !~ !~ 8- 8- .^ M_ (2 {* g, ]/ g1 N/ 0* @1 ft <3 #) ,; f} Eo l: l: m( .2 W2 f> %i Ab.Bb.Cb.oX Db.)g Eb.Fb.Gb.Hb.U%.(_.Ib.Jb.Kb.R>.zj 4..Lb.Mb.Nb.Ob.Pb.Qb.Rb.Sb.o-.Sb.Rb.Tb.}}.Ub.Vb.Wb.Xb.Yb.Zb.`b. c.5&..c.+c.g5.*;.&;.@c.#c.$c.%c.VX &c.*c.=c.-c.;c.>c.,c.'c.)c.!c.F .~c..1.x6.`^.m*.B).{c.<}.S^.]c.-V i_.E9.^c.s^./c.%[.(c._c.:c.*3.<c.[c.}c.|c.1c.{| 2c.KJ Hy }0 3c.xE 4c.5c.6c.RN 7c.8c.9c..| l: l: m( >{ il J_ ){ Z8 AE #2 n( D} H_ z} C: Q] I> /~ l] 3> &D  E j! !u d] '} s9 .$ j, u~ Q) 0c.], 65 65 65 (4 .8.{0 [_ J3 V@ G0 |c.ac.bc.cc.dc.ec.fc.gc.hc.GX M0 |' <[ -~ -~ C[ C[ Z- N! 8( -; dJ 0: r9 f3 9l e[ x< Xv `6 V3 66 m5 2' xw %1 y;._5 )~ $: _I jI B= ;} !> a} J> 9/ uc n^ &B .~ E' Z~ |- .^ E; E; .$ R* !~ S- @) |: |: @~ 91 )) g~ R- E) 1' n9 @x ~6 i2 E[ H} ",
"1> MF 1C ic.&F qE 3s jc.uE c3 +: pA n( r< tp %2 i> 5| &~ (] 3| m_ M| d' !~ Q- 91 8< I~ nz ~m e) }4 V2 *| .: jc.y9 kc.Ba.I_ W2 m( ok  q hq _6 o) k8 u9 -; +z h) B' lc.sE mc.h'.nc.oc.U~.pc.qc.rc.sc.tc.uc.vc.r|.Tz 0} f2 w_ [[ u- ,: V{ w_ /, |[ ## ## X6 }( J; e] b^ k' ^a K3 `- m! {/ 7; 3| C2 m_ @( J> N- q3 r| G8 %~ P] s~ 91 w} Q8 cj l: m( q#.BD V2 6/ !i =x wc.@2.Db.JT  < >{.a_.e1.xc.^K yc.P7.HT Qv zc.TR Ac.Bc.Cc.Dc.Ec.Fc.Gc.TR Hc.Ic.Jc.Kc.z~.Lc.Mc.Nc.Oc.Pc.Qc.Rc.Sc.Tc.Uc.Vc.Wc.WW ~b.Xc.Yc.Zc.`c. d.*(..d.+d.@d.#d.$d.%d.&d.*d.=d.-d.;d.>d.$b.DZ ,d.'d.)d.!d.~d.HW {d.]d.^d.RP /d.-J (d.`3._d.e!.5_.Z^ :d.<d.[d.}d.|d.1d.2d.3d.6[ 4d.5d.e].6d.7d.K5.8d.9d.0d.3< l: l: m( '{ ~l ;] L6 }l r} cl cl h> XF X4 }0 z} [H +A 10 .8 M} w| @^ a* )x _& V6 h: w_ s/ Um G0.ad.r4 r4 (4 {0 cD ]< E| (2 5y bd.,K cd.dd.ed.fd.gd.hd.id.jd.kd.S4 @; v) -~ I} m^ m^ p} G} r9 T[ T[ m9 i0 d3 u1 ql ~6 ep G# !d .3 _I ld.X^ md.:m Z< `- 5c #b |# C= h% kV 26 A; j8 R] R] nd.{I F_ `- 3> C| !~ @1 @1 #7 `} R- j] -~ j] '' 6; Ej }0 1> T- 7< Z: @x Q| x< PA 6] ",
"g/ yY u} Pp [l g> dE F2 85 4^ h2 Uy ^8 hv ,m {v V'.{5 7/ n9 hx Z6 ~} 8- Q' $> .5 {I 1^ }r |l h^ Y: ,{ qk r1 LW >] Dt j( V1 f> m( ok Ip hq _6 k8 k8 u9 8( P8 h) 3( od.pd.qd.@9.rd.sd.td.ud.vd.wd.xd.]N yd.zd.Ad.PR .z 91 ;- m7 7}  ~ X6 v/ 5} X6 ## ## V{ G{ u- F( 5> P> Z& `S q1 o[ )a Bd.)P [> 6] 4] +5 A4 A4 U5 #~ L- @( )) R- 33 Q8 cj l: m( Y: Cd.pE f> W8 Dd.*! !).Oa.Ed.&A Fd.Gd.(p Hd.Id.U0.Jd.qt 'i R| aF l: l: l: l: l: l: aF ,8 `( ,8 +k Kd.Ld.Md.Nd.Od.Pd.Qd.Rd.Sd.Td.Ud.Vd.Wd.Vc.;>.Xd.Yd.U6.Zd.`d. e..e.+e.@e.#e.$e.%e.&e.*e.=e.-e.Rd.;e.>e.^1.h-.,e.'e.i!.)e.!e.~e.P).8i pk pk k( k( k( Ni Ni x2 x2 Li {e.]e.^e./e.P(.(e._e.:e.<e.st bg [e.}e.|e.1e.2e.3e.s|.fi l: l: nk qk 0l [l =l (B <4 >m &l tk *| I_ 13 q0 03 83 X1 P] L> ]/ P4 3= Id u3 s- ]= z1 <9 M}  E s6 4e.5e.6e.D| 7e.7{ j< %7 C! 8e.9e.4].0e.ae.be.ce.de.ee.fe.ge. L '~ f- C[ m^ 8/ b/ G- Q, T[ 3} F5 T[ :6 r< 0l U2 qk f3 }. !d  u he.d0 k^ sn q: X^ ~/ V3 ># )D ie.H4 ;} J3 `} L; D6 F_ -' `S u2 `- c' C| U; Q* !~ @1 2' @~ j] C[ '' C[ 81 L2 L2 5] ,= F> w4 V2 Y: -n je.w2 ",
"6] L_ Q[ e3 _y ko |H 'm ep tz D5 05 :m 1o hw Iv k2 $J p< Gt W4 %7 t3 f, ~* L~ 1_ *B o^ to @p h^ Y5 g^ g^ ;8 hi 5_ 8y ke.-| f> m( ok Ip hq _6 k8 k8 u9 Ws {{ 6^ %~ Ve le.me.ne.oe.{<.;=.pe.qe.re.se.AZ te.ue.c!.ve.R[ N' M) e{ [[ /& E, 5} 62 ,' ## ## X6 }( C4 F( k' t~ n] 4) `{ $(.; .r! we.to .' I) D: 7; +5 X; |' L- U5 #~ q9 33 h| cj l: m( Y: Cd.}4 1} xe.ye.vR CR Oa.ze.WE Ae.Be.Ce.O{.e..<E OI De.Ee.{6 l( l( l( l( l( ,8 ,8 L2.k( k( `( x2 Fe.Ge.He.Ie.6c.Je.Ke.Le.Me.='.Ne.f6.9).9).Oe.Pe.0|.Qe.Re.Se.Te.0d.Ue.Ve.We.Xe.Ye.Ze.`e. f.Qc..f.>d.+f.@f.#f.$f.%f.&f.*f.*(.Xy =f.3< ok ok ,8 ,8 ,8 x2 x2 x2 +k +k e!.-f.;f.0d.O).uL >f.Ku w~.,f.'f.=` J5.)f.!f.~f.3e.j%.Q: l: m( nk U2 f> d) W2 pE Hp e) ]} ;m )[ tp a3 8v I_ ;] .A ~' L> }[ Id )d `0 Gh )x [- f& *b _b {f.@7.]f.^f./f./f.cD f! B/ o< s] (f._f.:f.<f.[f.}f.|f.1f.2f.3f.^c.!} }] F~ F' m^ 8/ &t %a Q, T[ F5 |r r9 :6 g) u1 U2 '[ 4m H, +e `}.-  O: K- H6 F5 0' 8- /e Nc 2& D= ck kJ P; E> C; $1 R] {^ +6 4} {} z, 3> L' L' i, P; >( @~ j] I} U- W, C[ X; #) V; '= I} MD y%.,{ ,{ y%.99 ",
"g/ `; H6 f3 a< (r Es P6 g_ g- y8 2_ I6 B} q< d: r< hx zE :0 E; /: 0- K> #> T- .5 {I B6 )v !v >o >o m( x2 mi <v h- BA N=.%F d) m( ok  q |q p) k8 k8 u9 iI O! H> m_ 4h Bn Ku 4f.5f.6f.7f.8f.9f.0f.af.bf.VX cf.df.HD 4( -~ 7^  ;  ~ ,' v/ w_ O2 |[ ## s; !: ,_ ,4 )@ x* ;( ]/ .^ {} :H ef.N! m9 =~ .' X, 0' 81 81 <3 |' <3 v] #~ 7= e5 jl ,[ k( g^ ,{ Q| ~6 '[ j,.ff.gf.hf.if.jf.RP BA kf.lf.mf.^_ PF yg W1 nf.of.l: l: l: l: l: 9j 8j x2 ,8 ,8 ,8 ,8 xi pf.Bz qf.rf.K).sf.W|.tf.uf.vf.#-.w6.wf.-_.Hb.xf.C0.yf.zf.CQ Af.;^.Bf.Cf.Df..$.Ef.+-.Ff.Gf.Hf.If.TY Jf.Kf.Lf.kw z^.Mf.Nf.Of.:2.uu ,8 ok ,8 ,8 k( x2 Ni +k +k +k ji y..Pf.Qf.Rf.Sf.6w _4.Tf.Uf.Vf.73.Wf.Xf.Yf.Zf.`f.j%.$i l: h^ ok ql y2 *| An dE pE cE 'p &l [l d: A} 3x EG $B ZJ G' @] >~ V6 O| V6 P* )x !u 46 La d&  g..g.+g.@g.#g.k< $g.9! JA )^ n9 jX Hh n|.%g.&g.*g.=g.-g.;g.91.i( P' >g.o5 E- X' CD UH gs <) Cr Cr c: c: g- d: *| qk Y: 75 j8 vc ;0 y- E/ %) p} 9: %) u2 $8 ]b zb V3 ,g.T* Dz t< 9/ -> 8< j~ 8< Z9 p] )~ Q' `} r~ ~{ |- 16 j] T! H8 G} Z; G> k] @; D; V; K- 4( %N Io Io <p @( ",
"G6 h) ]8 >} CI zt on f/ R[ X^ n_ n_ Q[ v2 ]( U6 }0 iX U< 'g.jf t/ if  ^ Q- u] C; v< .} _: )g.R_ Y: ,8 Li !g.b1.*3.~g.{g.vg d) m( ok c< iq p) J2 k8 `].iI 6s *) L_ KH ]g.]i 9}.T1.^g.hk /g.c<.(g._g.:g.<g.[g.}g.pg 8A m^ Z& v= M> E, T; D, 62 v= M> }( ;( Fx w& ys &k J@ c- t5 Se h[ 3- '~ G> >; C6 k .Y~ m^ H> <3 R- @( 91 ~* E> 1> N6 YF ;] i^ [l ~6 >s g^ s1 |g.1g.2g.3g.Q7.4g.5g.6g.7g.8d 8g.9g.Ci ll 0g.k( l: l: l: l: l: 9j 9j 9j ,8 +k ,8 9j ]u YJ <v i,.ag.|5.W{.bg.cg.dg.eg.dg.fg.:/.gg.hg.ig.;^.jg.kg.w~.`4.lg.;f.mg.ng.og.Jf.U,.pg.qg._K (K rg.sg.@9.tg.ug.vg.wg.xg.yg.zg.^7 ,8 ,8 ,8 ,8 ,8 ,8 x2 +k k( k( ]7 bF Ag.Bg.Cg.2E vv Dg.Eg.Fg.Gg.Hg.Ig.Jg.Kg.Lg.;x O#.Ki l: m( ok 0l 3s w1 `q Ur }l 4G xp ;n X2 c(  _ +4 32 a' Z6 t3 ,- ;/ x' x' G{ 3+ '} i: s; f; `% Mg.Ng.Og.Pg.Qg.l< Tm 0{ f! B~ s( JW Rg.Sg.Tg.Ug.Vg.Wg.Xg.Yg.d  O- p} N*.Zg.`g.B,.:) :) E$.Os ns (q (q b} W- ^8 W2 ,{ >o en H> <a K3 p] W; M~ F) .~ F~ w(  h.z( o& ;= H! P' i/ Z; p} &) C[ F> %) 7< %) l^ K- Y; I} K2 K2  > P[ m9 ]' >} 22 P8 K8 k] E> v) T2 (] $a U6 U6 2| ~/ ",
"`; /6 <6 b} }K wn pn L| 2| `[ y} .> .> 4] kk .> (' r- R< }f .h.!A N& X6 P] @> T- F~ Q! W~ e} j2 -n ok +h.U^ Q,.@h.#h.$h.%h.V2 m( ok c< |q p) J2 J2 F5 3] 0( =) 17 MD &h.oE *h.5j ^_ 13.*4.=h.<E ); $g d+.-h.Ga.>6 y8 sr v: *3 F, M/ g] D, D, E, X6 G{ ([ ^_ ;h.>h.,h.'h.)h.~| l* %3 m5 i, w/ n, G~ F) Y~ 6^ x} F: A/ g~ E> 16 i] 2> s< 3x c( $J w1 ~6 m( 9j dz !h.~h.{h.]h.ze.dj ^h./h.(h._h.OF hi Ni +k ,8 ,8 l: l: l: l: l: l: 8j 9j 9j 9j ,8 l: 9j Ni Ni Ni b_ :h.<h.R0.[h.}h.b].|h.1h.2h.3h.eA 4h.5h.U^  Q 6h.7h.15.8h.9h.0h.ah.bh.P8.ch.dh.eh..2.fA fh.gh.hh.ih.jh.kh.Lx 7[ lh.9j ,8 8j ,8 ,8 ,8 9j 0j x2 k( ,8 ,8 x2 0j +k vi mh.nh.oh.ph.D|.Na.qh.rh.Jg.sh.th.uh.O#.e| l: m( ok h> E[ <m en Vr Vr }l io dE L6 I6 r9 Z- w/ '~ r~ L> vh._0 &: 5> 5> /! ## a* }[ 0* O2 ^! /I wh.xh.'_ n] Um xR c, dJ c9 33 m) yh.zh.Ah.Bh.Ch.Dh.Eh.Pg q} Yr Fh.Gh.Hh.)r u%.2p Jt BE 'n Oo vr x4 e/ c< x< Y5 h^ j_ o) 6] 9: 3) rt &[ E- E- B- /{ Ih.Jh.Kh.Lh.Mh.]E %[ dJ a: 0: %[ %[ X~ Q, %[ =~ 2) _1 [> 2) C+.Nh.D7 tn V[ 90 zt p) p} uc C' :^ 5; m_ kk %7 (' N- __ ",
"P[ <6 k8 U~ xn un JI &~ y} y} y} (' 9' T2 :^ 4] @> r- %: Oh.eI ~2 $f /& 8; kH l^ H> 8( 22 V[ -r ,{ _7 Ph.Qh.Rh.Pe Pe Sh.Th.#4 m( ok  q |q p) J2 J2 c: iI 0( /a I- HN Uh.$o 5g Vh.+7.Wh.We Xh.Yh.^h y} 10 Zh.WG xw z5 v( `h.P3 P( M/ t; xD `& L& [' b; +} C(  i..i.,! +i.&K @i.#i.$i.n  P; .] Y{ G~ =' T! 6^ Y; (( K) s~ R- i] |' j/  9 WG 71 C7 *1 ~6 m( 9j Mi !h.(h.%i.]h.&i.-F *i.=i.E&.Zh d+.$F x2 ,8 l: ,8 l: l: l: 8j l: 8j 8j 9j 9j 9j 9j ,8 9j ,8 9j ,8 x2 oi -i.]P cA ;i.>i.,i.'i.)i.]P !i.~i.{i. v ]i.^i.^i./i.(i.Li rS 0h._i.:i.<i.[i.9c.}i.CQ |i.Li O=.rl Ni 0j 0j 9j 9j 9j ,8 ,8 ,8 ,8 ,8 9j 0j 0j +k ,8 x2 x2 +k ^7 vi ye.nh.1E 1i.2i.3i.4i.5i.6i.7i.8i.9i.sE ;i m( h^ ok >l d3 |C =9 .p Vr Ur XG 24 o, ,} 2) F~ qA 4} e( }[ s; if c& ^= ^= &: %D xD 5[ g: #] 5} jH 0i.Z) ^[ _3 2k Q) c, !P w4 L2 L' 9* ai.K].bi.9/.Q7.ci.I[  q Vo _t 9W 3n ~r Ao an )o ,I Pq Pq a< R9  J y;.,{ nk m( ZK hI c3 i| u9 2) X~ 6s O, di.ei.fi.Jn gi.Jn (s [r a: dJ gr 7r [> 0< 0< to m9 _: )v Cr ^' Br II GG *I <5 4n o| gO >4 3) f- ,; 9/ #[ I> P- ': (' u| B= ",
"g/ Q[ P/  _ J6 F5 H6 2| y} Ml .z 34 +> 4] i/ d9 v{ '2 B: hi.ii.Oh.tc M/ #> kH i/ 5] iI c: 3^ EB Do 0l kc.U9.ji.R=.ki.Mb li.@7 m( ok co iq JI 1r J2 c: iI 6s &[ Z; p< @B oE 8g Gh H' i1 cf -g -g Ue ': P: c) -I 8D ir =) qA ;- E, 36 Tk C$ C$ a; '- `9 +[ ow  i.mi.ni.e@ oi.pi.qi.ri.>J v; f, O; '~ N' x} (~ T2 |' )~ )) @( E> 1' 1> Gx 71 -I I3 M3 {6 m( l: aj si.ti.ui.vi.wi.xi.,F yi.zi.Ai.%Z  ( x2 ,8 l: 8j l: l: l: l: l: l: l: l: l: l: l: 8j 9j x2 x2 +k 0j d{.Bi.Ci.mg.#h.<g..2.mg.Di.Ei..y Fi.Gi.Hi.Ii.Ji.^e.Ki.{i.Li.7w Mi.>f.Ni.Oi.uL 15.,F (G +i Li Li Ni ^7 +k +k 9j 9j 8j 8j 8j 8j 8j 8j 8j 8j 9j 9j ,8 x2 x2 ^7 9s y< |g.Pi.Qi.P7.Ri.Si.{G s{ `!.Ti.Ui. B Vi.'i m( m( ok `q b( E7 Bp =2 Bm Vr ^l `q dn ,} ]8 >) l, `- &C s9 '} c6 &: N2 /! D4 ]= [' @e u; T; w] 9} V{ H0.`5 /< <( 9{ x/ z3 dq -t |- c0 9* Wi.]v W9.Xi.qt Yi.6u e3 E7 O[ k8 J9 wq hq =p Am }m (m im o, ml y2 r1 ^} U2 Y8 :G 9G Zi.,H `i.yY => |6 fr  j.|K Xl I&.%B CD 0( %a o0 .j.[7 +j.+j.`i.e5 v4 aH L9 @j.@j.#j.`C $j.@j.Ha.*9 o: xw P/ 9: A6 f- 7< i/ K& P] Q] %~ r| [- ",
"#> I> i/ I} F> C[ I} P- Mg Yh.!h ch u4 6; 0' n_ sz P9.0d M7 E4 Q< c1  ^ ~* :^ g~ -~ J- G} _1 y8 B7 Pn hg NI %j.Q*.s[ Nb *h ~F m( ok {l un JI k8 J6 c: 3] 6s p} S[ @u @G `E &j.ft ,2 -g &g Xz Fg X9 Fg V9 yg 't n: -; F' {a ;d E, 's ^; +[ -w Jk Pu j; Gk *j.1c.|c.=j.t#.-j.;j.>j.~7.H0 $  (, U] d~ A[ k9 q3 f2 B, 9- N- I> R- )) (] WG dI dI I3 3s !6 m( l: 0j ,j.vi.'j.)j.!j.~j.{j.G].]j.6+ F/ V8 x2 ,8 cj ,8 l: l: l: l: l: l: l: l: l: 8j 8j 9j 9j ,8 9j 9j 9j 4I si ^j./j.6w &3.(j.;f._j.:j.eA <j.[j.9d.}j.h<.>i.|j.1j.2j.$| 3j.E,.d!.b4.1u {E `F ]i fi Ni Ni Ni +k 9j 9j 9j 9j 8j 8j 8j 8j 8j 8j 8j 8j 8j 9j ,8 ,8 x2 pk 9s %i QP 4j.G[.<j.5j.6j.7j.8j.9j.0j.aj.bj.UD KC m( m( ok w1 c9 O[ I2 xn wn xn zm P6 l| 7/ L| '~ G_ k! d~ 0d )_ B4 G* V] `] @/ b; p@ a* p@ /, (& (& V{ +1 q~ d1 ^, u~ }] L| dq cj.#[ >A s| 4; SZ Ll dj.DQ ej.wR zI K0 .a fj.*D w) F| I* j1 *, >7.Zh xz gj.hj.ij.M{.wE L0.L{.RD jj.kj.j. g* h} 57 lj.mj.nj.oj.pj.qj.]I g* n# rj.sj.~M Ka.Ka.tj.uj.vj.vj.^0 wj.xj.yj.zj.zj.Aj.Aj.GA Bj.s- 3' yY 3) 3) P[ C2 @( a} P4 ): J3 r& ",
"3> }' }- p/ l, T' .^ R5 ;g Mg Wn *g Q5 f: W~ w< -8 ,y O] u3 O| O| u3 a} S9 u] i/ 81 6; N! Cv }5 :6 Z:  7 H* W0 +(.Cj.2{.=h ~F m( ok @p Co J6 J2 J6 c: Q, _> 0( V- c( $o @7 C3 Y4 |3 Y4 Pn }3 n( @4 EG H3 s} WF B} _: I#.Dj.5( N/ T; sC Ej.Fj.G=.Gj.Hj.Ij.Jj.Kj.Lj.Mj.Nj.Oj.Pj.Qj.Rj.Sj.ta $U @0 [V Tj.Uj.h1 h: (& ^/ q3 O- P] @( 33 WG a3 8v ^B ~7 !6 l: l: 8j ih.W].Vj.]h.Wj.Xj.}+ vw y].B&.uE .F ,8 ,8 cj l: l: l: l: l: l: l: l: l: l: l: 8j l: l: l: 8j 0j 9j +k ]7 ~i )i ]i (d.qt /i Yj.Zj.cA N9.`j.9e.!_. k..k.+k.@k._i.#k.$k.Ov zD ~i %i r1 ]7 R| x2 ,8 x2 9j 9j 9j 9j l: l: 8j l: l: l: 8j 8j 8j 8j 9j 9j ,8 ,8 x2 k( ^7 t1 5_ z..%k.[/.&k.tu *k.D;.=k.D>.-k.;k.>k.V^ cj m( ok  1 f/ :6 w< 1r Zn jr c: J6 s( >6 |1 $[ G! 5- s; !: @/ M7 t^ ;( Ct Ga p@ `& L& v/ D> '} (& (& +1 w| $] B] N) b] !z g) I_ F7 5G :1 Jo G7 $4 O0.,k.'k.)k.!k.~k.{4.{k.]k.^k.a$ /k.Tl MP (k.Gj._k.Hj.Ij.wB >j.r+.v+.:k.0/.Lj.<k.'$ E+ [k.}k.|k.1k.2k.3k.4k.5k.6k.7k.8k.9k.0k.ak.bk.ck.dk.ek.fk.gk.hk.ik.B(.jk.kk.lk.mk.nk.ok.pk.qk.w8 rk.J9 JI p) H6 #> j, g] `& 0* `$ ",
"w_ O2 P( wD wD &5 S' +^ ;` -g 3a (' f} 22 05 -4 C7 sk.+( +n O] t| s| #> 7< i/ Y; 81 Y~ G) Cv l9 ]' w4 O8 z8 F0 fB ey tk.Y7 </ l( `( `q tz o) J6 o) c: 0: P, ;; T[ d3 WF )[ e[ |4 V2 }4 e[ g> Qp W2 *| f> '{ ql EB xI ]E F# :H D, U] |$ uk.vk.wk.xk.yk.wa zk.oB ,, Ak.1, @  Bk.%z Ck.Dk.^+ R{ Ek.;k Fk.Gk.Hk.%0 Ik.N} M_ h/ B' @( >2 t} a3 8v I3 @B !6 l: l: 8j j,.{e.Jk.Kk.Lk.Mk.]+ Nk.Ok.B9 n( 7u ,8 ok cj ,8 l: l: l: l: l: l: l: l: l: l: l: l: 8j l: 8j 9j 9j +k x2 k( k( ^7 ,[ pk 7i :2.Pk.Di.Qk.+3.]_.Rk.Kb.Sk. k.Tk.Uk.Dw Vk.}/.7[ 8j l: l: l: l: ,8 ,8 x2 ,8 ,8 9j 9j l: l: l: l: 8j l: l: 8j 8j 8j 9j 9j ,8 x2 x2 k( ^7 t1 -J Wk.B0.Xk.M2.Yk.jg F9 Y2 Zk.`k.;k. l.XF ok h^ ok  1 g- F5 J6 Cr 0< 0< 0< 5^ F5 (5 R[ #) r@ <# d] d] E4 GQ h9 b; V@ -} [' u; t; X6  ~ ## /, v/ +1 f( d1 u~ xR E' s( K7  q 7A tk Y: ok ,{ U2 wi .l.&x +l.@l.#l.$l.%l.&l.*l.=l.-l.;l.>l.,l.FY 'l.)l.!l.~l.{l.G*.]l.^l.nk.Kj /l.(l._l.:l.<l.[l.}l.|l.1l.2l.3l.4l.5l.6l.7l.&0.8l.9l.0l.s4.<9.al.bl.G:.cl.Ya.dl.el.fl.gl.hl.il.jl.kl.[x -7.:7 Ap [5 =[ 1' T] O2 M/ #] {= ",
"R' 0* E,  ; wD c7 k, +^ P9.(h *g %7 32 f/ Oo )g.61 Pw Ow Mg *f ~' =; 9' 2> +5 T2 I} G> rt A~ :: >} q: j| =! M* c+.z%.Z0 sg ll l( g^ `q tz J6 k8 :6 c: gq zp 9( P/ 8v Cq ~l '{ Y: nk h^ h^ h^ h^ Y: tk U2 U2 u1 J_ r( 3) i~ x= xD W& #2.$2.Aa m|.cy ll.xa zQ ml.nl.ol.a# pl.ql.rl.sl.tl.ul.'k.X0 vl.wl.$  L0 Dh Yd ,~ N- ': I> I> v} t} a3 EG Pp s! >{ l: l: l: +k xl.8h.yl.zl._. Al.Bl.Ok.Zh.Pp #4 ,8 _7 l: cj l: l: l: l: l: l: l: l: l: l: l: l: l: 8j l: 8j 9j x2 x2 0j x2 ,[ 9s ^7 ;P 'f._c.Q8.K[.Cl.Dl.El.M<.Fl.Gl.@4.Hl.Il./3.Jl.li x2 9j l: l: 8j ,8 8j 9j 9j 9j l: 8j l: l: l: l: l: l: 8j 8j 8j 8j 8j 9j ,8 x2 x2 k( ^7 pi Kl.Ll.Cb.Ml.ua.Nl.*7.~l X8 Ol.Pl.y&.KT yw cj m( ok  1 :6 r9 p) p) <6 yq i0 g- (5 }7 5| Y; T' P( 7} /! /! B: }( '} )} )} -} [' -} 15 `$  ~ G{ !: &^ j, Z& p/ ~^ f- ![ bH K7 r} &l Y: h^ -n qk W0.#9.Ql.Rl.Sl.Tl.Ul.Vl.Wl.Xl.LX Yl.Zl.`l. m..m.+m.@m.#m.$m.%m.&m.*m.=m.-m.;m.Q:.>m.,m.'m.)m.!m.~m.{m.]m.^m./m.(m._m.:m.<m.[m.}m.|m.1m.2m.3m.4m.5m.e7.6m.7m.8m.9m.0m.37.am.bm.p3.cm.dm.%[.5m J2 J6 v2 )) 01 M/ g] ^^ xD ",
"Mg .$ T] A] s@ -0 G: u< ff #x ]h x^ I) _: MN 3` H2 3| +( Mg *g x9 X9 mz m_ /~ /~ t< m^ G) Z, %r xI Qn 4( _' o+.{; +0 Q} Z7 @7 l( k( `q tz J6 J6 JI c: gq 9( 0: T[ ix 6| V1 0l Y: nk nk m( m( m( ok g^ 1} M[ &w HB 3| I} Z~ x8 s- M* em.fm.gm.hm.im.jm.,` km.lf.lm.va +i.'h.fm.N&.d8 Q1 }9 mm.X0 ;< 4M nm.Dj <' &^ +1 d( 4] t< t< O8 t} 71 71 Pn s! >{ m( l: l: ,8 {i Iu 6y om.pm.qm.rm.Ok. | Pp y2 k( k( cj ,8 l: l: l: l: l: l: l: l: l: l: l: l: l: 8j l: 9j 9j +k ^7 +k 6v sm.XB tm.um.vm.u#.wm.xm.:f.ym.zm.DW ym.Am.Bm.T5.2h.Cm.1j.xg.3i 7[ pk Dm.0j x2 9j x2 9j 9j 8j 8j l: l: l: l: 8j 8j 8j 8j 8j 8j 8j 9j ,8 x2 x2 pk R| ;8 =k.Em.Fm.Gm.Bz x0.lF cr Hm.Im.Jm.Km.`k.V^ m( m( ,8 ml  _ f: !z i0 r9 p( j| }1 }1 H_ Y1 d< R* O/ 6} Lm.R< E4 u- ,: }( G{ x' '} /, __ -a `$ u- if c; k! q@ L) 7: b] bd 5< bH 73 ~6 h^ m( h^ ~6 ;P Mm.Nm.Om.Pm.Qm.Rm.Sm.Tm.Um.Vm.Wm.Xm.Ym.Zm.`m. n..n.+n.@n.#n.$n.%n.&n.*n.=n.-n.;n.>n.,n.'n.)n.!n.~n.{n.]n.^n./n.(n._n.FP .c.:n.<n.WO WO [n.[n.}n.|n.1n.w).2n.uf.3n.4n.}=.bm.q3.5n.CC J8.@N J6 1) v2 Q- j! M/ g1 i< 6- ",
".z k. i< ,~ B] e' S' u< M- J> J> d( #) 3] 'P W! s: &~ U5 ,2 Mg M] Ml 9' 5; K2 i/ Y; 6^ P! a: %r b} F8 5| ~' H& ^; I  1+ +A #4 l( k( `q vp J6 J6 J6 D7 wr gq gr }> p0 p0 03 u1 ,8 l: l: l: l: l: l: m( U2 W8 Js U9 b3 K2  $ 26 PC 6n.tb.mi.O{.7n.wl 8n.9n.lf.0n.3{.6~.an.v$.bn.cn.dn.v' en.v6 &k fn.9E `h k1 p@ V{ S' v) 81 K- T2 n_ gn.71 @4 d3 s! {6 l: l: l: 8j Mi !h. B hn.in.jn.kn.ln.c) Pp y2 _7 ok ,8 ,8 l: l: l: l: l: l: l: l: l: l: l: l: l: l: l: 9j 8j +k +k 0j mn.nn.nf on.S#.pn.qn.rn.oc.sn.tn.un.vn.wn.xn.yn.Tg.+V zn.An.E+.d].;{.2i Bn.0j 8j 9j 0j 8j 9j 8j 8j l: 8j l: 8j 8j 8j 8j 8j 8j 8j 8j ,8 ,8 x2 rl Li >8 ;8 N5.Cn.Dn.En.Cb.Fn.B9 Gn.Hn.In.~:.Jn.Dg g| l: l: ,8 co s< Q[ u9 !z X^ k^ kH T9 5F 6[ u{ Wn M_ 9- V{ ;} E4 /! /! s& B= w- w- N_ ]= %D bB C4 N2 6, k' t~ e' ]a J< (/ q_ 5< *2 mA >s m( m( #s ~6 Hi Kn.Ln.Mn.Nn.On.Pn.Qn.Rn.wb.Sn.Tn.Un.Vn.%1.Wn.Le Xn.pd Yn.Zn.G*.]l.`n. o..o.+o.@o.#o.$o.%o.&o.*o.=o.-o.;o.>o.,o.'o.)o.!o.~o.{o.B:.]o.Ym.^o./o.(o.D[.P_._o.KY |^.:o.<o.[o.}o.|o.1o.2o.%8.fG yt tn u9 I> ]/ D, d' .$ !~ ",
"P- h< i, B, 'a `! 7- e( :~ R' z, z, o] A6 [r :: V< H} :_ Q* @1 K> .8 `} ') t< @> `[ D: 7] %[ '^ t: ![ 6< h] xD S% Q3 a* d5 #4 l( k( X2 vp J6 J6 JI D7 0< R, 0: =[ p( o( 3o.;l Y: ok ok ,8 ,8 m( m( ,{ h> Uv k%.q0 v} K2 27 R* (; i( *z ze 4o.5o.db.6o.lf.3{.Ij.'k 7o.8o.9o.0o.ao.dn.> .ea GX lD bo.co.$U pf F( jf a8 91 `[ K- K- O8 t} 71 @4 Pn  1 !6 l: l: l: l: 0j do.x~.eo.fo.go.,6.H].A9 I3 y2 _7 _7 ok ok m( l: l: l: l: l: l: l: l: l: l: l: l: l: l: 9j 8j x2 lh.lh.`3.ho.B{.io.X{.jo.ko.lo.mo.no.oo.po.qo.oo.ro.so.Z[.to.5c.BS <g.uo.vo. i wo.]u 9j 0j 0j 9j 9j 8j 8j 8j 9j 8j 8j l: 8j 8j 8j 8j 8j 8j ,8 9j x2 rl t1 %i %i DQ U0.xo.yo.zo.Ao.Bo.Co.Do.gL Eo.C{.Fo.qE l: l: ,8 i^ !z X^ p( n) +5 .^ ]/ 3z 3= /g KI t| '2 ;~ !f J  #< g& c^ .f j% 56 u= j% B= 3+ /& w- Zd 8e Go.P_ G# Vs J< J~ {{ z5 Bp F2 dE g> e) Ho.|H s! fg Io.Jo.Ko.Lo.Mo.No.Oo.Po.Qo.Ro.So.To.Uo.} .'K Vo.Wo.Xo.,3.Yo.Yo.kz >j.*j.Zo.9B }= `o. p..p.MK LK +p.@p.#p.$p.%p.&p.*p.=p.5o.7# 8# -p.8# ;p.zk.oB >p.,p.eB s@.'p.7 .)p.!p.~p.=p.{p.]p.A5 ^p.zt U[ P- c' D, d' u< !~ ",
"i] ~{ O; {* l] l] |' f, w| <( S] l! a{ h~ /a dw &t (( `} ^^ P( Y} [a H! '~ +5 99 6< k/ k/ b' B~ dJ k/ ,; g1 q& 46 Zd 0* o( ]5 l( k( r} q} o) k8 JI D7 a( R, yp a( }> p( 7/ 'm !p XG XG io ~q dE T'.Ur g) A2 ]B U6 6; 1' 27 l0 Z} #; JD #  /p./* ys (p.p  w$._p.:p.}  )h.I# <p.[p.}p.cw 2, W0 Ak (4.4! Cl 2= o1 56 M> 1' j/ Y; K- O8 Gx a3 a3 i> ;] !6 l: l: l: l: l: |p.#~.1p.2p.3p.4p.lC 5p.I7 y2 _7 ok ok cj m( l: l: l: l: l: l: l: l: l: l: l: l: l: l: l: 9j 9j pk >8 6p.7p.8p.9p.0p.Bm.ap.bp.cp.dp.ep.fp.gp.hp.ip.jp.kp.lp.mp.D9.np.op.pp.qp.wk +i x2 9j x2 9j 8j 8j 8j 8j 8j 8j 8j 8j 8j 8j 8j 8j 8j 8j 9j ,8 x2 pk pi %i %i b4.Hf En.rp.|j.sp.tp.up.k].Ok.vp.wp.xp.ll l: l: l( mA T[ P[ v2 6: #> E, T} N_ t^ $# x' V7 =C (g )E @r h; z_ '4 :8 /= z% *e !d A1 a; V@ }( 7I 9^ Go.W7 l, S] g6 v< z7  ' %r y8 W- yt $q X! 'n *4 LN S; &( Ot $E #/ :A [9 =. yp.ia.zp.Ap.Bp.Cp.Dp.Ep.Fp.s@.w3 g9 37 Gp.v3 =0 u; Hp.G! Fd Ip.=y Jp.Kp.aW Fd ## Fx j: y_ <* Lp.m5 a* 6- *   ^ >~ 6- L' 7= &~ ![ S[ n] B4 z| K% Mp. k 3z c( 5A Np.4!.4^ +5 9- j0 S* 7- A; ",
":] W{ )~ B_ T2 T2 @( Q' /< -1 r@ e' Z& R] (a Op.$1 }_ B[ @] 5- 3& L8 *3 h! `[ f} &~ k/ b' b' %[ %[ H- 4& c7 M& (_ e] t~ R[ 3_ #s g^ r} vp o) J6 J6 3} a( gq yp wr R[ .) m9 yt |n kn tm kn 1m ]n {r 4n H6 k^ A4 x^ d( r~ O; f, +^ @1 3z H' 5M J0 ,D z& 4$ Gy Pp.>y u+ |9 Qp..& Rp.C# Sp./* ow Tp.uw t+ '& >& Q7 ^9 hf 7= j/ Y; K- v} t} a3 @4 Pn s} ,[ l: l: l: l: l: $k.> .>+ Up.Vp.Wp.`{.5p.H3 rn _7 _7 ,8 ,8 8j l: l: l: l: l: l: l: l: l: l: l: l: l: l: 8j 9j Ni fi Hi Xp.S1.Yp.H+.Zp.`p. q..q.+q.@q.#q.$q.%q.&q.R[.*q.=q.-q.;q.>q.;K ,q.'q.w6 Lz ^d.Et 9j x2 9j 9j 8j 9j 8j 9j 8j 8j 8j 8j 8j 8j l: 8j 8j 9j ,8 ,8 sk %i )q.gi !q.~q.e  {q.]q.uS o].^q./q.(q._q.:q.Y].@7 l: l: l( c< _1 I) Ej 3y ~* N> @< b^ A{ A{ O< V@ =, ); Lz !x B@.Xm Xm K  -5 L5 )s K= &: S; )_ :f A{ <q.~! <( )~ r/ v< Z{ U' z7 ]{ ]E Cv A~ =H [q.}q.#z 49 j! |q.Q7 1q.2q.C$ R4 o+.q].3q.4q.5q.6q.7q.8q.9q.0q.&; H& c' 2s 6a F| a* 2s yH p! aq.bq.cq.dq.eq.Q~ {) !} Dh *0 L< /e Ka }a g! W; }] 8< {/ e, b] x} %r Y! fq._{ gq.v= N8 =8 w^ |' Xv hq.iq.jq.Xv 81 B, d' j0 K3 :] ",
"K) )~ K) |: :[ kk :^ P' A, S' 7^ k, E! M| ~} !{ }- 9- K> _[  ^ *3 F! {) '~ K- v{ o< k/ b' X~ S, dJ O! '~ 3- g; h[ 3~ [# t9 kl ok g^ r} vp o) k8 o) o) <6 ]8 ]8 Q[ {' M2 Q, tn |n 7o nn nn }n 2m (n I2 >2 K& Q4 k9 >( .^ :~ Q' >( h< !~ .^ @1 @1 N| a* bB 8e G= N& 4: )4 L+ kq.lq.mq.1. +* 4! Pu QY Jk nq.1: !A oq.O2 )) g/ L_ K- u} gn.71 @4 Pp 3s ,[ l: l: l: l: l: pq.qq.rq.sq.sq.Wp.%i.Rq I7 y2 cj cj l: cj l: l: l: l: l: l: l: l: l: l: l: l: l: l: l: l: l: Li 0{.Bi tq.'< Db d3.~<.h$.e2.uq.vq.wq.xq.yq.zq.Aq.ep.Bq.Cq.Dq.Eq.Fq.Gq.Hq.Iq.Jq.Xe )g R| ,8 k( ,8 ,8 8j 8j 8j 8j l: 8j 8j 8j 8j 8j l: 8j 8j ,8 l: ,8 R| bi &i gi my 5{.Kq.Lq.J1.Mq.Nq.Oq.Pq.L].Qq.{~ Rq.#4 l: l: m( Sq./8 I- X^ W4 2' q& tc b^ _9 H5 b^ %0 G$.#g >7.PY zB Tq.s7 Uq.k* =& =& E4 Ct .[ G* P< Vq.Oh.}# z, s~ _] %> '~ f- H> {{ X~ /' :> =H 'P 'r DI 1) r@ Ab Wq.Xq.Yq.n+ Xn Zq.`q. r..r.+r.@r.#r.$r.%r.&r.Xy mE M| k, g] -} p@ {) (b p! *r.=r.-r.;r.>r.vD v= z[ ;j )9 m} Ia SH KE p] @; Z~ 4) K) k~ V; Z- mu ep #u ,r.'r.gj $8 8b $8 j~ %t )r.Pz /!.4n Z; )~ 2s cI 8: '= ",
"S- :] i] l] <3 <3 1'  $ 7- 8- x_ S' }- 3> M| 8- }' ^^ i< @^ r- c' K~ L' E) i] P] Ow 99 k/ k/ S, dJ b' V; ;- _a M& %_ G: 4| kl ok k( )l E7 o) k8 }7 }7 }> H6 ]8 n_ b3 g/ wr ym ^o ^o 1m (n |m /n )m !r.u} O- |h 1g a} Q* !~ f2 >( .8 r~ :~ .^ h, i, c' S' ]a P3 [# 0* Ga ~r.{r.{| Zk u5 +* fn.)z x& v^ z_ R3 ^9 6, 62 1' g/ h) x} v5 p: 71 @4 Pp 3s ,[ l: l: l: 8j 0j ]r.^r./r.(r._r.:r.z-.6t I7 Y8 _7 cj cj ,8 l: l: l: l: l: l: l: 8j l: l: l: l: l: l: l: ,8 +k 1i `3.N5.<r.[r.t-.._.0!.}r.|r.1r.2r.3r.4r.5r.6r.7r.8r.9r.0r.ar.br.cr.dr.er.fr.gr.hr.ir.^7 9j _7 9j 9j 9j ,8 l: 9j l: 9j 8j 8j 8j 8j l: 8j l: ,8 cj x2 ;8 *i )q.qi O[.i+.U  T;.jr.kr.lr.mr.Pq.nr.or.pr.dj 6/ l: l: m( mA f: L_ L2 79 G8 ;} ,a c& ), h} N2 Q; 1K kj.qr.Ia.X}.^0 0v |$ .r !q Lg /g F; t- f] N< rr.sr.if R' d( 91 k~ :] v) 81 F} S[ 0( T~ Br 7H _{.lH o9 [# tr.2e ib ur.vr.wr.xr.yr.zr.Ar.Br.Cr.Dr.Er.Fr.Gr.>z 'y w/ A3 D) a*  ^ <a yH v: Ta Q~ P~ Hr.Ir.uD %: Jr.:! n4 (-  { Kr.Lr.`! :] )~ :_ :_ {* |' A^  _ n( t( bt *k w: }b 5c ]1 Z~ un lB Mr.Mr.yn `4 :] 4} 8: {^ 4) ",
"L~ L~ $> :_ :_ :] :]  $ Q' :~ :~ R' j, ld.S* ~/ &_ N} w_ g] 9- !~ {* K) E) i, .$ '; 2| 32 F} -; dJ a' v) e- f; &- _a l! n) ]5 g^ g^ {l E7 (5 sn sn (5 }> f: 8( +z P8 P[ T[ Am 2o ^o zn |n mp <n _n wn L| ^h Mu q- h< .^ g, K> h] A; .8 R* 01 62 P( e- B, k~ %) E~ 91 J3 G& #= o  Nr.)^.r+.Gk 0u d* m. /_ #% 4: Se M/ T- 1> C2 Z6 R[ 3x C} EG Pp QA '[ l: l: 8j ih.Or.Pr.Qr.Rr.Sr.Tr.yv (h.6t qq ;] _7 8j cj l: l: l: l: l: l: l: l: l: l: l: l: l: 8j 9j 9j 9j Mi Ur.Vr.Wr.Xr.Yr.Zr.`r.U-. s..s.+s.@s.#s.$s.%s.&s.*s.=s.P<.-s.;s.>s.,s.'s.)s.!s.~s.{s.]s..| Ni ^s.Pv Et 9j 8j 8j 8j l: 8j l: 8j 8j 8j l: 8j 8j 8j cj x2 bi Ew +i /s.(s.VZ _s.To.:s.<s.[s.}s.|s.1s.2s.wi.SP Z( l: l: m( V'.m9 H> g/ w} J> p@ p~ @/ t^ u& u& '- 3s.M* <  4s.]U F{.$; y; Vy Ig bI Xz Ue Id m~ kf 5s.6s.S< .1 R* e( e( ~} K) T2 L2 Z; &t b: (u ;q _{.X- 5^ ]a Ad 7s.ib 8s.hL 4E 9s.0s.as.bs.cs.ds.es.fs.gs.hs.is.&2 js.N~ L' #7 @1 +; xr +6 <a l, 6( O( aW A1 ;: ks.ls.ms.G5 ns.=6 2~ A, :] >( t3 <_ (2 $> P- KF sk.y^ &] g} wD Lr.La 3& 8< ~t 6A mx fv 4n -; J/ v) C' v) {/ ",
"S- K) :_ e( `- T' `! h! $> $> h] 1|  ^ 5} 5} w_ Yd os.S< jH q~ <_ _4 d( :~  ^ ]/ q3 y} f} F} q_ F} w2 s~ T] r& >5 1~ *^ !z *| qk g^ 7l uq D7  _  _ i| H6 8( ot o0 P[ 32 T[ <q <n op eo 4q /q /q bo Cr _~ x7 ef s3 /: i< |_ r- Q* /: P; D) 4> h[ =8 5> j, J/ X^ )^ +5 ): ]% ps.#i.qs.rs.$2.lD b) ss.Wx Qu Uq.)@ 4: ,' ~* v{ X9 .> {' 13 _B @4 Pn w1 qk l: l: *A ts.jy us.vs.ws.xs.ys.zs.As.e5 v} n: 4< cj cj 8j l: l: l: l: l: l: l: 8j l: 9j 8j aj Bs.Cs.Ds.Es.Fs.Gs.Hs.Is.Js.Ks.Ls.Ms.Ns.Os.Ps. q.Qs.Rs.Ss.Ts.Us.Vs.Ws.Xs.Ys.Zs.2].`s. t.cf.M,..t.Ae f..+t.@t.Wr.#t.$t.%t.&t.*t.=t.0j l: l: 9j 8j 8j 8j 8j 8j ,8 l: pk Eb.-t.L*.MW ;t.Y[.>t.,t.'t.)t.!t.~t.{t.]t.^t.xp.E-.u1 l: l: m( c< [> F) X; t< i] a* '} $# r7 y| j: #< ;: LE ks.jA <C ;7.Q=.C&.)h +A fy IW x9 X7 `0 5f '( M7 vh.jH (& 5} O/ k! /< K) :^ T- 9< A6 m9 ns 7H }K -] P3 /t.(t._t.8s.:t.Z2 <t.[t.}t.|t.1t.2t.3t.4t.5t.6t.]7 7t.8t.x/ -9 r| (2 +] p] -' T' `6 {) 7^ 62 ## J; z{ WJ 9v 9t.f; j' G: e( O; .^ !~ +^ f2 f2 E| *} +] v_ :( V% &5 U) Lr.i' J~ _q 6A 0t.cC go F5 n_ n_ n_ _~ '~ ",
"S- K) :] M| Z& <( `- )~ P] G' vd i1 Fn Yj '- J0 $  at.bt.`h i1 52 y, J> ): 1+ 5[ r| y} f} F} -; B~ w2 #> d' m< f; e; $] 4( <4 ,{ g^ pl pn T[ u9 =[ H6 +z {{ o0 ^6 Z; S[ /8 *p 1q pr uo 5r mt 9r 8r 0: 7< t3 vY M0 L> ^/ U] z[ _& P* }[ L/ f] s8 /= .f p@ @> i| Y1 Q5 :' Nw M#.`5.$$ 4C RC Zo.ej C& v^ )4 z| q8 :C 3{ h< mz =; #[ 5= B2 71 EG d3 ml !6 l: l: ct.r].dt.F(.et.ft.gt.ht.it.A: 7- L; d9 e2 cj l: l: l: l: l: l: l: l: l: l: l: l: 8j jt.kt.s'.n>.lt.Ob.mt.nt.H% ot.pt.$T qt.rt.st.tt.ut.vt.wt.Kb uv #K _k xt.yt.zt.At.Bt.Ct.Dt.s0.S-.[<.Et.Z:.Ft.Gt.Ht.It.Jt.Kt.Lt.Mt.Nt.Ot.8j l: 8j l: 8j 8j 8j 8j cj l: ^7 -t.#m ~g.Pt.X/.V%.{].Qt.Rt.St.Tt.Ut.Vt.Wt.Xt.f5 Yt.Zt.m( l: ,8 ^8 Y~ `{ {a E/ O: ,' T} /! 6> w@ m' s8 [* j} j} H{ &3 z8 =f [H 5| 4( U6 3| v{ *f KI H' ;/ K/ K/ hf /& /& |[ |[ O_ e( i] 4& {^ I~ gr AH !r X- T[ P( xd `t. u.j% CB Ol.*G .u.+u.@u.#u.$u.%u.&u.*u.=u.g^ -u.;u.6c  $ q3 g2 :] {^ 4} 8- }- `6 S' T] w_ }( u& J; u& G{ S' *^ A, M| 7- i, R* u< u< '_ '_  6 i! /< Z& >u.O3 ]a &b eb W; :q lB ,u.:t %t i0 9| P/ P/ F} 8< ",
"K) K) :_  6 E! r@ T' g, y, H9.'u.)u.F,.ql.!u.~u.{u.~u.>< ]u.^u.-j /u.D{.x6 H' $^ R5 %7 &~ B~ B~ B~ P[ #> D) T} k' +N $]  _ W2 !6 g^ L6 (u.2) 2) F} >2 o0 3) H- g/ g/ 3] 0< Cr 5q A=.9q II 8r gq MJ Ws #) 3z 0d ~( &0 i: HQ m~ *0 z[ z[ %f F( 19 -5 a4 O* !y et et _u.We :u.<u.[u.$p.;D }u.QC =( !0 #< /! 9= Rb A1 M> -9 B' u] #> 2> i| @u !5 H3 ;] ~6 m( l: |u.Kk *< Ij M_.1u.2u.3u.4u. k O/ 7^ X& XF l: l: l: l: l: l: l: l: l: l: ,8 8j 9j 0j 5u.6u.7u.8u.9u.0u.au.bu.cu.du.eu.fu.gu.hu.iu.ju.ku.lu.mu.uL nu.yg.71.kf.ou.pu.qu.Am.ru.su.q; tu.!_.uu.vu.wu.xu.yu.zu.Au.Bu.Cu.Du.Eu.Fu.9j l: 8j 8j ,8 8j cj 8j ,8 ,8 ]7 Gu.}g.Ja.Hu.Jf.Iu.Ju.}N p2.Ku.Lu.Mu.Nu.Ou.Pu.gj.Qu.oE m( l: ok <I >; *B 0{ qb e- [a _a R& oq.7) !A Ru.Lu zc Ru.l} Su.N| (' W4 5| J8 Z< Ej Z6 ft jj Gh U< L/ ,( ,_ Xd Xd 3{ 3{ [# 3> r~ )= 8: 8< 0: W< Up Sp J8 P( cc Tu.Uu.*5 }A z9 4i Vu.Wu.Xu.Yu.Zu.`u. v..v.+v.k( @v.#v.=] O; K> t3 f, 4} `- E! E! &D s/ ]a P( |[ X6 }( hf 62 <( A3 $] x_ q~ w| R' i! S8.B, h, R' w| d1 A3 e' L) 62 m6 wD W; W- )4.0t.:t #o W~ 9| 4( s< X^ Z~ ",
"~* L~ i] Q' e( T' x8 a* `/.$v.%v.&v.M_.P{.se H}.*v.w2.=v.-v.HW ;v.>v.,v.'v.JD j1 ty Z6 w2 S[ 8( S, w2 u] ^^ T} m7 +N $] _/ <4 cE g^ ml vq P/ !z n) p( Q[ |7 F} Q[ v2 9| p) wq |q up Ap qp *I 3} 3} a( 81 }A KI )v.O4 5& 5& }M ,h :' :' [e *0 t& /_ sy !v.~v.z9 /] {v.]v.Yj ${ ;. Mp.Nw D$.([ Jd Q; }$ O| v; v; V6 K> K& I8 I8 34 n_ 7/ $B %2 Io #B 1} k( l: ^v./v.g# (v._v.:v.<v.[v.}v.|v.Q} D$ $u DB 8j l: l: l: l: l: l: l: l: l: l: m( ,8 aj 1v.2v.3v.4v.5v.6v.7v.8v.9v.0v.av.bv.cv.dv.ev.fv.gv.ni.E%.Yu ,[ pk li av hv.iv.jv.kv.lv.`=.T-.mv..k.vu.nv.ov.pv.qv.rv.sv.tv.uv.vv.wv.xv.9j l: cj l: 8j cj ,8 cj ,8 ,8 r1 Yt.x; yv.zv.Av.Bv.Cv.Dv.Ev.Fv.Gv.Hv.Iv.Jv.t].Q=.~v.;i l: l: ok K7 X~ M~ @~ 91 f, j, (& !: u- &: 4: w@ 55 .% c^ +} O| ~' u{ n9 p< p< 8A J8 }0 pg 3g 2g ty r3 0} f~ Id /: /: .$ h] h0 .> kk #[ I- P/ tz %t P#.n9 O2 de Kv.Lv._^ t>.Mv.#G Rz ,N Nv.Ov.Pv.Qv.Rv.Sv.Tv.4_ q$.Uv.(/ |- Z} @1 ~{ {} x_ j! &D s/ -1 7, P_ P_ 7, ^! >- G: B] l! E! *^ /< <~ w| w| z, R' z, q~ q~ d1 S' [# A] v= [[ z] V; V~ cC 0t.6A mp mu 9| Yz sp v} '= ",
"R- M_ ~* {* {* g, 6- *D Vv.Wv.Xv.Yv.Zv.`v. w..w.+w.@w.#w.$w.TY IX X/.%w.&w./u.mE Mg 2| w2 iI Q, 8( w2 :^ ^^ [[ k' l7 $] _/ W2 ~6 ,{ f) N3 AE 83 `7 H3 Pp e3 e3 #2 Pn r< k| .G <m <m &2 *2 P6 wp wp |C A} Pg @m =A =A =A =A y0.*w.*w.*i.,F cu Ve ); 2d.{p -J hi ji |i =w.fg )E NI E{.-w.;w.>w.,w.8g lg >g lg lg mg ix 8G 8v 8v >[ Pp x+.Vv 'w.nA !i Vu.hh.)w.xy !w.~w.{w.]w.^w./w.(w._w.:w.<w.hf.vi.+x rl x2 ,8 ,8 ,8 ,8 ,8 ,8 ,8 ,8 x2 +k ]u [w.}w.S(.a@ |w.1w.2w.3w.4w.5w.6w.7w.8w.To.3_.9w.0w.aw.bw.,F {7 -H k( 6v /E cw.dw.ew.fw.e1.gw.hw.c_.iw.jw.kw.T,.lw.)` mw.nw.ow.pw.qw.rw.sw.Et +k k( x2 Ni pk O=.O=.pk _7 Ew tw.5k 01.*# uw.vw.ww.xw.yw.zw.Aw.Bw.Cw.Dw.Ew.Hf N=.>i l: l: ,8 3_ e3 @u D0 D0 .( hg 4g Y7 2B PF HD Jg [g [g ); tL r] Rg Qg Cq @G @G oA +B z@.'t Sn TK yg Fw.Wg $N Bg Gw.LN LN Ag _g .A kL @w Pn m: en =2 :m ]B x' Hw.Iw.1( G= Hd Mv.cr cr Ki 7[ ]u 7[ wv Jw.4i Q8 z@.D[ z^ r/ M| Q* .^ 7- {} x_ M} ,~ G: [# 5) #5 s@ P_ #5 L) G: s/ l! M} E! d1 x_ /< /< q~ q~ q~ f( f( .1 ,~ z] 2~ $: _a j' j~ V~ )C ^w :t 4n 1) p( j| j| >2 L~ ",
"Q- R- R- |' l] l] l~ =0 Z/.5c.Kw.Lw.Mw.Nw.oo.Ow.wT Pw.Qw.Rw.Sw.Tw.Uw.}h.Vw.9/.!y e< &~ +z +z 8( B~ &~ J/ j, 7} k' d; D^ _/ <4 vk Y: &l V2 ql t1 ]7 ;8 d| 6/ 6/ {7 {7 c| c| d) d) d) d) ql V2 ql /7 e[ f> &i Ww.Ww.*i ~i $i )q.)q.)q.7i di yi #F  G ]i 6i >8 O=.>8 9s d| YE qt /] qt 8W rz Zt.~F `s #4 #4 @7 nA ll ll @7 0l F3 F3 4_ Tu ok ,8 Ni ,N J$.Xw.Yw.Zw.`w. x..x.ws.+x.@x.#x.$x.%x.&x.p1.+k.*x.=x.-x.#t.D|.tq.;x.Xp.L] xg.6_.>x.,x.'x.)x.!x.2<.~x.{x.]x.^x./x.(x._x.:x.<x.U/.u9.[x.}x.|x.1x.% .<i k( l( m( ,8 *i.GX 2x.3x.4x.5x.6x.qv.`f hw.7x.T,.8x.9x..x.0x.)_.L5.ax.US bx.cx.dx.ex.ex.lo vA fx.>f.gx.Eg.hx.ix.jx.kx.lx.mx.nx.BT ox.{o.px.2n.qx.rx.sx.tx.ux.Gf vx.$i l: l: l: ok b~.d| wx.6/ `s Ki -i -i Gi hi bF |i [i [i [i |i yi ll 6/ Z( '[ k( k( k( ^7 ^7 ^7 ,[ 9s 9s >8 ]7 r1 d| %i F3 ;8 9s pk ^7 9s 4_ 1} [l -2 @I W5 x' xx.%m Bt 66 5:  G 6/ 6/ ,[ `( l( l( l( >s W2 l| E} D: b] :{ `! 7- ~} j8 M| d1 01 k! G: [# 7, P_ #5 W7 W7 L) G: s/ S' M} M} d1 d1 x_ f( /< f( /< d1 M} d1 O_ $8 #(.Ia .; yx.8< Sp zx.Ax.,u.(o (u =[ p( >H !8 >A ",
"U5 91 91 |' l] P- h0 Dh Mb va.P[.Bx.Cx.Dx.Ex.Fx.7$.Gx.Hx.6%.Ix.$T Jx.Kx.Lx.Mx.NF 3y .) 8( 8( 8( B~ w2 -~ j, N> >5 d; E^ _/ f) e[ -n Y: Y: k( 9j 9j 8j 9j ,8 ,8 ,8 ,8 aF l( m( m( m( l: l: l: l: l: l: l: l: l: l: l: l: l: l: l: l: l: l: ,8 ,8 ,8 ,8 9j l: l: 8j l: l: ,8 ,8 x2 x2 ,8 ok ,8 m( l: l: m( m( l( ,8 ,8 ,8 cj ,8 9j l: l: l: l: 0j Nx.Ox.Px.Qx.Rx.Sx.Tx.Ux.Vx.Wx.Xx.Yx.yw.Zx.`x. y..y.+y.@y.#y.gw.%2.$y.R= ay {{.>K %y.&y.*y.=y.G4.-y.|U ;y.>y.,y.'y.)y.!y.~y.{y.]y.^y.{- /y.(y._y.:y.v;.s1 cj m( m( l: gi <y.[y.9,.}y.|y.1y.,/.`(.*<.2y.8x.3y.4y.El.5y.Fl.rd v1.6y.7y.8y.Tq 9y.0y.ay.yS s-.by.|:.cy.Uo.dy.ey.fy.gy.hy.iy.jy.ky.ly.my.ny._|.oy.py.qy.ry.A^.sy.oi l: l: l: l: aF l: L2.,8 ,8 8j 8j l: l: l: 9j 9j ,8 ,8 x2 ,8 +k ,8 ,8 cj m( l: l: l: l: l: l: l: l: l: l: l: l: l: l: l: l: l: l: l: l: 8j ok g> _y E2 tg !: 0c $n Iw.66 Ue +F r1 6/ !6 ,8 l: m( m( m( 0F 4^ G} // p] `! A, E/ v_ r/ `! E! ,~ O_ [# cv 7, 5) #5 7, W7 L) -1 <( ,~ 01 M} j! E! d1 x_ x_ j! d1 E! S' xh.ty.Ka >7 uy.,c Jm Y{ V[ vy.wy.xy.:r Cr v2 t9 |> h= #[ ",
"<3 s~ R- S- 91 A4 G' Q} Z/.yy.UX Os.zy.Ay.By.|#.a6.Cy.d5.e}.Dy.Ey.Fy.Gy.Hy.fz )h gE v5 z3 -; -; B~ k/ :^ j, N> Iy.+N :( ![ f) pE ;m h^ m( l: l: l: l: l: l: l: l: l: l: l: l: l: l: l: l: l: l: l: l: l: l: l: l: l: l: l: l: l: l: l: l: l: l: l: l: l: l: l: l: l: l: l: l: l: ,8 l: l: l: l: l: l: l: l: l: l: l: l: l: l: l: l: l: l: l: aj Jy.Ky.Ly.My.7_ ;2.Ny.Oy.`s.Py.Qy.Ry.Sy.Ty.Uy.Vy.Wy.Xy.Yy.Zy.`y. z..z.+z. s.@z.#z.$z.%z.&z.*z.h}.=z.;e.-z.;z.>z.,z.'z.)z.!z.~z.{z.:/.xu.xL `1.Jl.cF %i _7 cj l: l: l: x2 ]z.0y ^z./z.(z._z.:z.s;.} .2y.9x.4y.AX <z.[z.^V }z.|z.1z.2z.!{.G^.3z.4z.5z.6z.0M .z.7z.8z.9z.0z.az.bz.cz.8r.dz.ez.fz.gz.hz.iz.,y.jz.kz.lz.Rb.!(.mz.kh.l: l: l: l: l: l: l: l: l: l: l: l: l: l: l: l: 8j 8j 9j 8j 8j 8j l: l: l: l: l: l: l: l: l: l: l: l: l: l: l: l: l: l: l: l: l: l: l: l: m( ]} -G *1 6| ,( lc nz.%m -5 r3 Fw.@w @w Q8 @7 !6 oz.e[ }4 _< 5t .) +~ 4) 'a B, j8 )~ )~ 'a E! k! O/ g< 7, pz.W7 W7 7, W7 L) O_ l! ,~ M} M} j! E! j! j! d1 j! j! M} A3 Q9.wh.8^ `}.8e >0 db C/ ;4 qz.wy.rz.dH Cr v2 H6 >H P9 #[ ",
"L- s~ |' S- 91 %7 ;g ([ fk sz.tz.uz.vz.wz.xz.yz.zz.^N g3.Z@.Ix.Az.Bz.Cz.Xk.pf.w9 [: ^( U! 8( 8( B~ L2 <3  ^ m7 $_ C{ p/ -] [4 W2 &l h^ l: l: l: l: l: l: l: l: l: l: l: aF l: l: l: 9j l: l: l: l: l: l: l: 9j ,8 ,8 ,8 ,8 ,8 ,8 ,8 ok ok ok ,8 ,8 ,8 ,8 ,8 ,8 8j l: l: l: ,8 cj ,8 ,8 ,8 ,8 cj 8j ,8 cj ,8 ,8 ,8 l: l: l: cj ,8 ,8 ,8 l: l: Dz.Ez.Fz.Gz.Hz.;|.Iz.Jz.Kz.Lz.Mz.YY Nz.Oz.Pz.Qz.Rz.Sz.Tz.Uz.78.Vz.Wz.Xz.Yz.Zz.`z. A..A.+A.@A.#A.7).$A.u).%A.&A.*A.=A.-A.;A.>A.,A.'A.~d.)A.Aj vg.hX Hi ]7 ,8 m( l: l: l: 0j @0.!A.)K ~A.{A.]A.^A.q;./A.(A._A.:A.<A.[A.}A.|A.1A.2A.3A.4A.5A.6A.7A.e-.Zm.8A.9A.0A.0A.G:.4).aA.bA.cA.dA.eA.fA.gA.hA.iA.jA.kA.lA.mA.nA.oA.}e.pA.qA.uu l: l: l: l: l: l: ,8 l: ,8 9j ,8 9j ,8 9j ,8 ,8 x2 0j 0j x2 x2 x2 x2 x2 x2 x2 ,8 ,8 ,8 ,8 ,8 ,8 9j l: l: l: l: l: l: l: l: l: l: cj cj ok ,{ Qp @z @I tg K/ >1 At rA.<8 a; ;g +( %~ 69 _g 83 FB l| f3 xw 4( f} (~ 1' P' r~ )~  $ )~ {} l! t~ >- pz.pz.pz.pz.pz.>- >- [# O_ s/ S6 01 01 j! j! E! 01 M} M} M} &D &D Q9.sA.tA.n2 8f H= Pc a{ 4^ uA.)r.vA.;G mu 2) $9 >H b3 B; ",
"L- s~ %> S- #) 99 (' #0 wA.xA.s*.yA.zA.AA.BA.CA.DA.EA.FA.GA.8u.HA.p0.IA.0+.fz !y `[ _~ b' {{ 32 32 99 P] D) w^ t/ f; 7^ -] [4 W2 ]} m( m( l: l: l: l: l: l: l: l: l: l: l: 8j 8j 8j 8j 8j 8j ,8 k( R| t1 t1 4_ d) V2 )[ 6/ f> *| ]5 kl =| ,l =| y2 y2 u1 al F3 Y2 t1 U2 qk U2 ^} 1} 0l *| *| 0l 0l 0l 0l u1 #4 0l 1} '[ ,8 ,8 cj ,8 ,8 l: l: Dz.JA.KA.LA.MA.NA.OA.PA.QA.TA RA.SA.TA.UA.VA.WA.XA.YA.o_.ZA.`A. B..B.+B.@B.@B.#B.`z.$B.%B.Qt.&B.#A.*B.+A.=B. z.-B.;B.M<.>B.j>.,B.o-.j>.qX 3/.#t.'B.;8 k( m( l: l: l: l: 8j )B.!B.!s.~B.{B.]B.^B./B.d<.%j y/.xh (B._B.:B.<B.[B.}B.|B.|B.1B.2B.3B.4B.5B.),.9A.6B.7B.8B.9B.0B.aB.bB.cB.dB.eB.fB.gB.3v.hB.iB.jB.kB.lB.mB.g,.nB.oB.2u l: l: l: l: m( l: ok g^ d) 6/ F3 {7 {7 {7 `s `s 7u 7u W8 W8 ~i ~i ~i M[ M[ `s `s bl .F ;i qE ~l ~l .F u1 #4 F3 )[ f> )[ d) d) ql )[ *| ;l SF ^l -2 Y[ .7 ;( =m +# +# jp S% 3z .$ .^ @( U6 p< Z: =[ P8 `; t< T- l] )) S9 16  $ )~ +; x_ g< <9 O> P7 ^! nI P_ ^! >- >- [# G: k! ,~ 01 01 01 01 S' ,~ ,~ &D &D s/ l! 01 9u 'f ic [* |( 'd 7^ c9 pB.6A Wo yo ^' 2) H6 }> ,7.<] ",
"<3 91 |' e, @) Ej qB.rB.sB.c_.[` u=.tB.uB.[| vB.wB.jm.!j xB.V& It.yB.zB.AB.c{.e5 T2 $) =' &) I- 6; kk M_ w] $_ #_ _a q@ -] (B Qp ]} Y: ,{ ~6 ,[ ,[ pk k( x2 x2 x2 ,8 ,8 ,8 x2 x2 +k +k pk R| 1} X8 ~l s} Z8 N3 E[ ){ m: m: m: <m ;2 *2 wp YM q< wp *[  p BB.H7 h| s} X2 >l =| y2 X2 Z8 K7 _m <m <m AE I_ F7 w-.m: il v1 d) >{ g^ _7 cj m( l: Dz.CB.DB.EB.FB.nA.GB.zv.HB.IB.JB.O&.KB.LB.MB.iA.NB.OB.PB.QB.t(.Bq.RB.SB.TB.TB.UB.VB.WB.X~.XB.Za.YB.|].#1.ZB.`B. C..C.+C.@C.e_.#C.$C.%C.dW 9p.&C.*C.^7 ok m( l: l: l: l: l: 4I =C.-C.;C.>C.yu.,C.'C.Vo.x*.)C.@[.!C.m@.~C.{C.Uh ]C.^C./C.k#.(C.`` *].:].g$._C.:C.<C.[C.}C.|C.1C.2C.L}.3C.;m.VA mv.4C.5C.6C.rx.7C.8C.9C.0C.aC.bC.b_ l: l: l: ok ~6 ~6 g> <4 7l DB em em :1 :1 m: G7 BB.w-.F7 w-.BB.AE G7 5G G3 Jo Jo ^{./B hI b( E7 E7 b( l| *[ AE <m (m ^m K6 fm nm K6 ^m pm cC.cm .p Y[ tt t^ %e dC.+# g% G* -f /: R' M_ ^( Z: :6 H6 o0 7< |- j0 k! z, h< Q' -9 E/ u2 G: y] Xd Xd Xd P> 8! P_ P_ ^! >- t~ t~ O/ q@ ,~ ,~ ,~ k! s/ q@ -1 g< G: O_ s/ S6 qG Oh.!b `j [I ce <# -] #t 9z 2J eo _: z3 v2 =[ B0 0a ",
"v] |' S- w/ j] Z< 5g eC.fC.gk Z:.BC n' Q3 PC .J gC.[2 hC.vw iC.#A #A jC.+v ^B +4 %) b] G~ |s E' v) S- z, 3{ 6, tc $_ l! 5^ 7A ;n -n -n {H f) W2 )[ d) 1} U2 R| ^7 ^7 k( k( k( k( pk ^7 ,[ 4< u1 e2 :1 r< e3 f3 I2 wn <q :q tz vp Co un iq |q Ap iq iq Co tz b9 l| ;2 im w1 7l )l ml }m Am Cp XX XX q} vp E7 E7 b9 ;2 il =| *| >{ _7 m( l: l: 0j kC.lC.mC.nC.oC.pC.qC.AA Of.rC.s^.uh.]q.sC.j1.tC.B9.uC.vC.wC.xC.yC.zC.AC.BC.CC.CC.u(.DC.EC.FC.>(.GC.SY /B.s~.VZ e<.c<.'K )(.HC.e<.H3.lh tg.IC.Dz.x2 ,8 l: l: l: l: l: l: l: +k JC.KC.YX LC.MC.T{.NC.Nx yS OC.PC.Gb.S:.QC.RC.SC.TC.UC.VC.WC.XC.YC.U!.ZC.`C. D..D. B.+D.hz.@D.Jx.#D.$D.%D.Gy.&D.*D.wa.=D.-D.;D.>D.,D.0C.'D.)D.^s.l: l: l: g^ An An =l Qq fm <m ;2 3m sm sm 85 Am zm xn =p =p }G mB mB [n |G lp /n |G }G hq 6q Cr Cr 6q pn Co xn yn [n tm _n 1m =9 _n kn tm _n !n 4o 1o W5 }( 3: !D.At x  `] [$ .$ z, `} L2 r( [5  _ v2 k^ |- b6 M8 >- c' B, Z& r@ 5) i' ~D.*b `% Z% {D.PK m6 P> A] P_ 7, >- [# t~ G: G: g< ]a 7, P_ &5 8! P_ M) <( .1 !u -5 04 35 |8 {e $: L| ~v -p !o ;q _: dJ 2) =[ O9 %H ",
"#) w/ d, d, q+.ye ]D.Vh. l *y.^D./* _8 }. A6 0( rt .~ uc k] D; 4} {) 1' o: r< bd S} Gn x/ (a j~ '~ j8 k, f; Jw rF $_ S] W~ )p qD ,o ,o Lq io ~q An pE ql '{ U2 ,[ k( k( ok k( ^7 '[ Z( >{ W2 kl {l _m YM 95 wn yt yt vn :q :q rq Wq _q _q |q 2q |q |q iq iq tz I2 ;2 M6 `q r} *l 6l }m Cp [G }G XX vp vp Co vp b9 }m hm r} Qq <4 g^ l: l: l: 9j 2:./D.(D._D.:D.L9.<D.fh -A 2z ]U 'v.sl.[p.[D.}D.|D.1D.0% ,o.2D.3D.4D.5D.6D.7D.8D.9D.0D.aD.bD.cD.dD.eD.fD.gD.I3.hD.iD.jD.kD.g].#c lD.mD.la nD.Ni ,8 ,8 l: l: l: l: l: l: l: +k Et oD.OP zQ pD.qD.qD.rD.sD.tD.uD.){.){.2j vD.wD.xD.yD.zD.AD.BD.CD.DD.ED.FD.GD.h2.HD.ID.JD.KD.LD.)A.<s.b].MD.ND._6.OD.,[.h!.PD.QD.Tb.RD.SD.TD.^s.l: l: m( -n dE ~q dE Lq Ix )m UD./n 1m 1m :n |n nn op mp mp 2v mp op mn an 9m 0o an mq VD.Qs 5r JN Br bo up xn Cp }n :n kn kn KQ in hn hn zn ~o Dp Y[ et ## >1 WD.XD.'1 U} u3 u< q~ f, 81 T[ s( 22 9| w} {* N/ Fd cd 9- M| q@ }a h' 4f Kx YD.d& RH e; PK }a W7 O_ k! p/ S' E! *^ x_ T' Z& p/ 7^ e- e' [# k, $] n] B[ U< 4: ck >f [I 5e *3 9| Es 3o 9o ;q _: gr wr =[ 8/ 0a ",
"v) w/ X{ n1 q+.ye 8h HQ ZD. l `D.!0 46 Ra  E.|K I#.K, .E.-) E' Z{ `S M~ g_ d3 z3 <[ Gn q! A- I~ W; 4) O: q& >0 u= $_ p/ mu )p ^U fV ^U wH Kr Kq !p io <4 xp vk ~6 !6 g^ Y: Y: g^ !6 '{ e[ <4 An 3l )m vm on Sp go go go go go go mq Gq eo rq rq rq _q Dq Br 6q Ap <m qn <4 7A {H Qq bm nn np mB mB =p =p vp ym Cp [m fm +E.+E.]l V2 ,8 l: l: l: @E.#E.$E.%E.eu.&E.*E.=E.A*.-E.;4.;E.Sj.uw >E.xx ,E.@i.'E.t+.)E.!E.~E.{E.]E.z[.^E./E.k(.(E.&/._E.:E.<E.(d [E.}E._g.|E.1E.2E.kD.3E._p vl.4E.5E.Dm.,8 ,8 l: l: l: l: l: l: l: ,8 Ni :y.-B K{ 6E.Qk G1.7E.Ba 8E.qo 9E.0E.aE.bE.cE.wD.dE.eE.fE.gE.hE.fw.iE.jE.kE.lE.mE.nE.oE.xj Z:.pE.u~.YA bb.Pe @9.Jt.qE.n;.rE.sE.54.bg.tE.uE.Mi l: l: m( ]} XG 3l Jx kp 2o 1m |G kn <n <n 4n np #o pp Bu Bu mq oq IG 9n in 0o NH 0n @o `n MC nt [s ir J2 3^ ym mB nn <n kn kn ln ln 7o 7o 9m tq _r km 5p.3+ := vE.2: {< p~ 3z u< q~ :~ J/ n_ -] +4 >2 .> h< M/ __ X6 C, L' x_ O: `6 T] wE.U< $^ xE.u< Q' _4 (( x^ kk t4 y} h8 T6 2| 2| Z6 t4 +5 T2 I> I> @> T6 f} 8h yE.KI If R; T; j, m_ C} km 'm am ;q mu 0< f: }> G- I, ",
"v) V; 4) {/ '' U7 lF s9 _f zE.<f 15 P3 4% AE.BE.I#.I#.CD Hw /' &) uc Ws YM m: !z H> $) .~ >; &t &) y7 O; M> _I (^ M& 7^ 3} Hp fV >o ,o JG tq 5o Ix Ds @p el >l el }l 24 An e) qk ~6 e) cE (B 2l 5o <n _q 4q 4q 3q 4q |q up vn fo eo Xr Vp pr Ps 1q 9q @t UH CD P, tz >l Qp io !p Rp mn @o Ps pr 1q CE.DE.DE.1q up zm sm tm [n 3m `q >s l: l: l: EE.FE.GE.HE.|}.yy.IE.JE.KE.LE.ME.NE.PY @A iw $C OE.]| (4.}! C1.PE.Gm QE.RE.SE.i/.=/.TE.+_.${.UE.VE.WE.XE.YE.#c ZE._<.#c kD.`E. F..F.+F.@F.Ai 9j 8j ,8 l: l: l: l: l: l: m( cj aj :h.w+.Tb 7d Id.6o.#F.r^.$F.En En YE.%F.&F.*F.=F.-F.-F.;F.>F.`E.,F.'F.zk )F.'F.!F.42.~F.~_ K@.%9.{F.]F.b3.^F./F.(F._F.:F.<F.[F.}F.s~. 4.|F.R: l: l: ,8 An )m g3 |m /n hJ HG 1F.*p Br Cr jr /8 wr wr 0< a( hr 0q kr 6q 2q or np 2F.0q =t Vl 3F.D' *t P8 P/ O[ qp bo pn up hJ }G 4F.or Fq <n ]o 5F.M6 +v ~4 87 6F.!k yB +} s9 3z ]/ /: Q- A^ D: 81 #> a} -} 5> Bc 6, __ D) i, ~* w} 6[ 7F.8F.9F.OI 0F.aF.bF.cF.dF.`z {F  A C3 5v V^ dt dt C3 Q8 8u +7 +7 bv Xt C3 ^5.:< /d.{E 3h eF.>[ bv s} Z8 ^m )m xn mu f: =[ q( P[ `S ",
"#) k~ e, '~ m^ 7/ Pp [H O- N4 :^ 1a H~ fF.gF.hs (s <) Br Dq tn *I a( Ap gm 6l 7/ w2 N!  ' P, 9( yp /6 #> *  N8 ,a Zd x= 3} xp h^ h^ -n JG 2o 2o 2o fn Vr ^l gm _m [m Bm ^l <4 ~6 cE ]} -n XG ~m 1m Ps mt mr _> _> _> pq 0: ir {( Ar Os 0p Dr !t ^u rH M*.Gv .E.F' 9| &2 dn m| un 1q ^u JN Ys rH hF.iF.r>.OH 0q _s Dq <q =p up xn hv ,{ l: l: l: jF.'A.7<.`#.kF.qX j'.lF.Wj mF.!^.$[.;u nF.dh oF.Xi.uA R2.Ae.`4.pF.qF.rF.*E.sF.tF.uF.vF.wF.xF.-<.yF.%F.zF.{x AF.sd BF.U{.CF.xt.Lb Si.vo.ti Ni l: l: l: l: l: l: l: l: l: m( cj 8j DF.nu.EF.FF.xo.wB GF.z*.-p.HF.IF.JF.KF.LF.MF.NF.O2.OF.PF.a1.QF.*3.Pk.,k.Z1.ex.RF.BA RF.SF.Z{.TF.Ac.UF.VF.F|.WF.XF.YF.}` nc.ZF.`F._<. G.oB.Pv l: l: ,8 Qq Bp vn fo =p .G.9r 9( 9( Ws ot 17 K- 7< -~ t< l^ 5] 6^ I- H- iI 0< yq C+.es G-.4% ^) I, <a L~ `4 +4 ]8 yp 9r 0q *p |q +G.1F.@G.rq 9m +H L6 +v d> 87 6F.97 {< `] [$ .$ J3 /: t3 d( j< {* !~ g: U} Ac Y) >| =8 5- L' 4] I3 1i kh.#G.$G.$G.lh.lh.Ni +k +k x2 x2 ,8 ,8 ,8 8j 8j l: 8j 8j ,8 ,8 +k x2 +k k( k( x2 x2 x2 x2 x2 k( U2 h> M6 K6 en xn 3} 0< r9 T[ %[ &] ",
"#) %> V; d, Z- f0 i2 >l /l [m [n 4q ^u *q `n 0p -q vn }n {n h3 :q ao 05 @p r} xw B~ b' a: <) hr wr +z i/ R* Xd L< m} S* P/ '{ m( m( -n !p 2o 2o fn fn fn Vr ~m tm Am =9  1 W2 '{ ,{ -n ,o Rp %G.Cp 3q mr v( F' F' Y& A6 sr /' }6 nu ls o&.Dr ^u ^q ]q :> Dv =) f- 2> U6 n9 9| wr MJ }s :) sH &G.*G.PH 0r 9r 8r =G.8q |q rq |q wn Y[ !6 m( l: l: Y:.-G./_.Jb.;G.>G.^2.,G.'G.)G.!G.~G.rE ;F Dt  G {G.]G.Dt {E $w `s l: l: pk /i.^G.Hl.K[./G.(G._G.U}.:G.1E.AF.AF.t2.fD.sd CF.xa <G.j%.[G.^7 l: l: l: l: l: l: l: l: l: l: l: m( cj CF 1F !h.}G.N).|G.1G.2G.xa 3G.4G.wl 5G.q~.6G.7G.&y.# .Q;.-{.*v `4.0i l: l: cj Y2 8G.>] T8 Rz LW .| Tv.9G.0G.aG.bG.ES cG.,}.xS HC.dG.}V vx.b_ l: l: ,8 =[.Cp 1q vn rq 0q nz zp yp w2 `; I} <3 91 91 R- s~ _] N' M~ %) b/ H- {{ p} I~ +6 AC eG.;J 6( E/ kk F} ot %a EH q>._s 3q fG.gG.<s cH |o Xo -2 8G ;( u% hG.iG.7@ C4 /: +^ 1| 1| @^ R' f( f( j! ,- Fx *: m' l3 =8 5} `} b3  1 l: 9j 9j 9j 0j 9j 9j 0j 0j x2 x2 ,8 ,8 ,8 l: l: l: l: l: l: l: l: 8j 8j 8j 8j 8j 8j l: l: 8j 8j ,8 _7 0l w1 E2 nJ xn c: gr _1 m9 %[ 3D ",
"g~ v) V; W; Y~ 05 jG.;n {H G%.4o BE 1p |p @o eo Bu mp gn >n Ip =9 m| :m [p 9l q: q_ b' a: }r ir MJ +z #[ 9- 6} 5> L^ L& s< ,[ l: l: Y: 3l 2o 2o 1o fn 5o Vr mm kG.zm q| 2} V2 ql cE -n Hp am or pp 1q mr =) %) z7 K8 K8 8/ {{ dJ 7r 2r ms Vp m%.ap Mn 2r xt +z -~ )) G' 34 e< Q[ r9 ar PH PH &G.PH PH [s 9r 8r =G.8q Ps <q Ps wn en ~6 m( l: l: Te.=4.lG.# .YA mG.nG.oG.pG.qG.rG.Q7.Ft ,g 'g rE sG.tG.nF.uG.Bg ^5.x2 l: >8 vG.Kk.wG.xG.i_.0E.yG.zG.lD.AG.u|.BG.AS >G.t2.HF.wa !u.CG.YE k( l: l: l: l: l: l: l: l: l: m( l: l: cj uk DG.EG.Aw FG.A* GG.HG.9w IF.IG.JG.Eb KG.LG.MG.NG.$ .@2.Ao.OG.N=.6i 8j ,8 '[ +2 PG.&N QG. < #F dF RG.SG.TG.UG.Bz VG.P5.|E.WG.OC.XG.oX wg.Mi l: l: ,8 -G nn _q fo #o 8q nr }r wr 8( M2 +5 J/ U5 U5 Q- v] <3 '' '' C[ b/ G6 H- sr G~ o] p1 7: #( aa +; Y; F} /' CD _> nz _s -q 9q <s <s cH &p Xo -2 8| ,: := ;% s% jt [- /: f2 [z $^ ^/ T; 5} 5} v/ w] o4 ([ J; g& C4 -9 `; (5 qn l: 8j 8j 9j 9j 9j 9j 0j 0j x2 x2 ,8 ,8 l: l: l: l: l: l: l: l: l: l: l: l: l: l: l: l: l: l: l: l: cj >{ jm *1 F2 yn c: dJ [> _1 %[ G> ",
":^ y7 // <[ N! 05 Z5 Hp ko !p 4o $q dp Yr ;q fo wn xn gn Ur io 3l ]l =l cE W2 xm 8( V, Cv a: }5 0< M2 ~* N/ ~b G4 @f (& Gt ,[ l: l: Y: @z 2o fn .p fn 5o Vr )m kG.ym Bp EB 9l W2 Qp e) XG Cp 1q or 1q lr A6 // f- y7 l^ `; P8 -; }r 4r Os -q ms Mn Mn AH U~ P/ /~ ;~ ;~ y, ]h o( (5 II [s PH YG.@t }r mt gq hr 6r *p <q or up wn K7 e[ m( l: l: Cg.Oa.!).ZG.`G. H..H.+H.@H.#H.$H.!^.%H.V9.%H.G9.&H.7j *H.=H.Yx `J pk l: >8 C^.-H.E,.F>.AQ X4.;H.N,. G.Y=.>H.,H.b<.'H.f'.jD.)H.VS Xp.ll ,8 l: l: l: l: l: l: l: l: l: m( m( m( l: 8j Mi `x !H.gf.5w Ox Hj mj u$.~H.{H.8y.9E.NG.]H.-4.Zj.Oi.d!.JT ;F E3 0l ]5 pl qq 8G .7 Pg s] ,w.~v.^H./H.w6 K8.(H.Gm.tg.7/.0E.UZ ^).x=.-P 0j l: l: ok -G [n up or np 9q 6r /8 a( ~8 33 2| +5 C: T2 P- P- J/ (~ K- K- K- Y; h) 5] #) L~ L~ ,; v) V; s~ 81 32 ot 0( b: 5s 2r Jq {q _H.<s pr #p Xo a< ]B w- :H.;% <H.Za r& u< B[ S8.U< h9 ,_ }( G{ $# b; 5j ,/ ([ u& v/ K& K_ F7 >{ l: 8j l: l: l: 9j k( 9s Z( ,[ U2 U2 U2 '[ '[ g^ g^ _7 _7 ok g^ g^ ,[ !6 Z( Z( Z( R| Z( Z( Z( Tu ,8 ,8 !6 kl co  q on c: dJ r! _1 B~ R! ",
"i/ K- j] '' `, H%.-r ko Ep Mq JG 3o .p gn gn (n (n =2 Rp (B vk ~6 ~6 ,{ Y: ]5 ,} G} ]{ ]E 3] a: %[ h) f, T%  b >| l} h9 7g R| l: l: Y: @z 2o fn fn fn 5o Vr ~m sm ym 95 <I w1 =| h> Qq 6o <q Dq fo iq Q, +~ @; M' l^ 0' ^( n_ -; -; 7r 6r Zn ir mt mt Ar >} n9 l_ Gh Gh =C Re AD i| Ss 5s 9r 5s }r 0< /8 a( <6 T[ qp vp =p <q vp :m d) m( l: l: [i F9.[H.}H.|H.1H.2H.3H.4H.5H.6H.7H.8d m{.Nr $  5M Yj P} w' V6 Cg ci x2 pi b{.|w sS 8H.9x 9H.Zj.|k 0H.aH.Y/.bH.cH.dH.]K eH.fH.1/.<v r1 l( l: l: l: l: l: l: l: l: l: m( m( m( l: l: x2 gH.4x _c.4{.hH.y*.iH.kw ~H.jH.G+.nB.kH.lH.<2.mH.2u rl Li X8 h| g) C} c9 p( !7 X9 *g Ue t| y, ,:.kj 4~.nH.oH.ZG.Yh pH.ki.Pe qH.[/ c~.l: l: l: ok el 4n vn #o np *p jr <6 =[ v2 u} w} u4 `[ @> kk T2 J/ F: I} I} -~ L- J/ /~ <3 v] :^ kk `[ +5 kk k^ &~ b3 o0 3) 5s kr bo @G.hF.<s Iq 8m 1H 1o .( `] := rH.s% sH.r& u< B[ @^ )x Fx :f Fx J  b; ~4 +7.OZ 5M )x @^ .z i> 'l Y: l: 8j l: l: aF +k #4 ;] s! w1  1 hv fm gm gm ^l Ip ]l `q }l ]l ]l  1 m: d3 |C l| FB r< H3 %2 QA >{ ,8 g^ f> 9l >l q< c: dJ *~ r9 a' H> ",
"j/ 2| A^ U- b' D5 c< Y[ B5 )p ]} cE cE e) ;n g> g> g> ~6 Y: m( l: m( ql 7l k| 4( Z; Y~ rt 0( 0( ]{ H> L; xc Rd [I :* @/ V9 R| l: l: Y: ~p fn fn 5o 5o 5o Vr Vr cm Am m| sm en  1 w1 1o _n up 2q hJ iq -; %) v) I} 0' Ej $a v5 -; 8( S[ %a *) z7 &) &u 8( -] |1 3( Fj u3 3= z' ': 34 &~ Z; 3) 9: _~ Z; L2 `4 o0 {{ D7 Co XX :q :q q| )[ m( l: l: 4i Hy 5y m{.tH.uH.vH.wH.xH.yH.zH.AH.BH.>w (! j: ), l'  3 b^ v/ NF QG.CH.#G  r x1 W8 '[ DH.6p.jf.3}.03.b3.EH.FH.Ad.GH.S;.HC.fD.HH.IH.]7 m( l: l: l: l: l: l: l: l: l: 8j l: m( l: l: ,8 72 JH.KH.Qk LH.MH.g .,1.NH.)j YA 9j. 2.oh.OH.Dc.rl l: l: `| e: PH.=[ ]8 Q9 6= Ml mz CB ): z8 y; Xe +m Tz nH.o..]_ N,.QH.oR b1.$| Dz.l: l: l: ok Iv go vn mB Cp lq hr a( =[ v2 v5 v} w} 34 .> @> T2 J/ J/ J) <3 v] v] U5 L- P- T2 m_ .> `< `< Z6 k^ 99 M2 6] I- lr RH.*p 6q hF.gG.1q cn !o en D9 v- [= rH.07 f{ -a u< B[ @^ ,- Fx :f Fx Ct S; S; !4 !f y' Ek N- AD +B )[ h^ l: l: l: l: l: k( jm q| 61 e/ -4 :n }n }n <n :n :n 2m 2m (n |m =2 Bp >4 5^ /8 5^ r( _/ :6 _5 %2 6/ nk _7 >{ )[ h> YM =[ P8 F} u} 81 '= ",
"(] `< Y; K- I) s( #I tz P6 dE m( l: l: l: l: l: l: l: l: l: l: l: cj 5G s< 3| 2| H} W, *) v( &) &) -~ `! 3& ZM SH.:* B4 *y Z( l: l: tk ~p 3o 3o Vr 5o 5o Vr B5 ^m :m q| 75 75 q< P6 m| KW Ap 1I TH.Ap 2) H> 7< 81 L2 Ej X^ w2 w2 w2 9: I~ `S $] f, ~* t< +5 M] vd 5& If If K0 O| P4 ,2 @( g~ 91 z/ x7 L- v] // uc +z Ap ym Co Co ;2 *| ok l: l: `s Pg Hy 4z x; UH.Ek.VH.WH.JZ @(.UH.z& $0 ad Q; U] '} hf /, R* kE Ba.z2 vG O6 qJ $4 Y8 &F y9 XH.$k.}6.na >p.mi.er.Q5.i1.YH.)C.ig.wg.>8 l: l: l: l: l: Pv ZH.`H. I..I.+I.bj l: l: l: cj R| :y.T0.@I.#I.$I.%I.,1.&I.IF.Ae *I.=I.-I.;I.>I.j,.8j l: t1 e: (5 }> }> L| u} aH v4 {9 $~ x3 Kg ,I.Gk. - 4~.'I.#9.)I.P,.vv !I.DF.0j l: l: l: ok Ur mB up #o xn D7 Ws S[ F} X^ 3| !7 09 34 ]h m_ T2 J/ j] |: |: U5 P] N4 U5 P- %7 34 u4 [: LF y} +( I> <3 -~ %) F- wr o) 8q ~I.0q 1q 7o Ao en +A G* {I.]I.s% Za r& e( f2 [z }[ S; Ct Ct )_ '} i: 0; )d Mu ;g P- U6 jl <4 h^ m( l: l: l: l: k( nB *4 x,.90 2m }n $q $q $q (o (o |n |n hn 2m =9 }n ao }6 a: [> W~ m9 T[ j^ k| 4< cj x2 U2 QF al ^I.P9 $u  > 9' L~ Z$ ",
"(] 6; -~ X; F> B~ V< }5 wn dE m( l: l: l: l: l: l: l: l: l: l: l: x2 /I.4] l] h0 L- <3 M~ M~ C[ C[ #) z, f; 9^ Y) (I.B: 5g t1 l: l: g^ ~p 3o Ix 3o Vr 5o Vr 3o ~m km R9 ;2 q} U[ U[ J2 qp qp qp pn J2 2) I- H} Z6 L2 &~ M2 I- _~ `, 6^ Hx sa m6 ^/ s9 h] 2' vd *H.pD K0 7t )2 ), E4 V6 G8 g2 f2 (2 4K _I.=} Y{ j~ ot 1I ym Co Co ;2 h> g^ ,8 l: x2 `s 'i S8 YJ :I.na <I.[I.K8.}I.,D Yj Dh <g |I.1I.*7.jE BG c3 x0 e: vG hI 3o.:7 2I.H9 3I.0G ug 4I.wk E].5I.TZ jw zn.7M 6I.~j u~.u;.R| l: l: l: l: 8j 7I.3h.8I.;t.cA zf.rl l: l: l: l: x2 *P <G.9I.0I.aI.YH.bI.4d cI.i'.dI.uo.Nk eI.t! fI..| pk d2 /B x0 4m 75 /{.4m 3o.20 /5 QJ Kw Hy KJ Dh 4D 4D Gj -f.gI.hI.O0.9i Li x2 ,8 ,8 cj ,{ Rp vp bo tn wq Ws b/ 5] 6; y} d< y} d< ]h (' l_ I> <3 <3 U5 U5 P] N4 k9 N4 O- *g pG Ow h0 N] iI.O4 f2 Q' S- %> m^ |7 _6 *I ar hF.3q 9n No Bm jE G* 87 jI.s% jt N> n] Q' +^ 0} f~ u3 k1 G1 P* &  Ek Mu _h y} 2> j| G7 f) Y: l: l: l: l: l: ,8 An C5 TP =4 zt $q ;G BE mp (o BE |n |n |n :n 2m }n Bo NC Cv <> 5^ _1 r9 j^ k| 4< 8j ,8 U2 /7 al kI.^6 lI.KK m+.Y$ n6 ",
"99 A^ $) @~ q/ F> Y~ ]{ w< =l ok ,8 l: l: l: l: l: 8j 8j 8j 8j 8j O=.mI.l_ q3 k9 x7 (( #) f- $) %) v) 3> +N a^ _* (I.:f sg t1 l: l: g^ ~p 3o 3o Vr Vr 6o Vr 1o Bm km F2 :m uq yq yq yq 3} *I JI JI D7 -; H8 H8 X^ n_ X^ 0' L_ J- z^ Y; +; b6 >5 h9 nI.Ek z8 (g 5z /u.#k EA )b k4 !A h9 R5 #J s3 oI.0J #J =} {/ h~ /' pn ym Co Co &2 =l !6 k( ok m( m( l: l: x2 -F ud w6 u7 ;E.8d Lf B( i1 >w._G ~i ;8 ci 0l 6l G3 aO aO aO `8 pI.qI.4E rI.xp.sI.8y Ov EF.tI.$ .nB.uI.V  =v.vI.9+._4.R| l: l: l: l: 8j wI.Cl.3y.T;.xI.Eg.pk l: l: l: l: ,8 w~.yI.zI.AI.BI.CI.DI.EI.YE.FI.GI.PP U^ HI.X: W4.zw <l .: }o *[ ml VF '{ ql *| >l ^5 6u 0G e> $g T4 If iy my II.aj l: l: 8j ,8 ,[ U2 Z( !6 )[ ^m 00 kr 3} <6 b/ E> )) /~ %~ Y6 Y6 G$ Y6 vd Z[ B' @( <3 <3 U5 J> k9 #~ s| %~ Ow '; /: w_ !: (& >~ _[ !~ l< *} I} 8( _6 *I 6r ar 5q 8n nx 90 Ng G* JI.KI.o% LI.d; v_ g! {* Mu MI.$g 2g 2g 3( Y6 5: ': .z +5 6^ -] &2 24 Y: l: l: l: l: l: ,8 |4 EB Uy ;4 05 xn yt Tp Tp ;G ;G !~.BE $q $q bs go lq T~ N, U, [> dJ z3 ![ H3 4< cj cj qk '{ *| TB NI.OI.PI.QI.!= R0 ",
"C2 `[ /( I( -~ X; m^ I-  _ &2 DB g| #4 6/ 4_ r1 4< F3 F3 7u f| !l yw tE mz k9 ,2 z/ r$.N' N' N' X; 1' 3> _0 #_ :8 SJ Fx sg t1 l: l: g^ _y 3o 5o 3o 5o 5o Vr K6 _m en *1 K7 c9 T[ <6 jr Ss *I JI *I u9 ]8 32 F} ]( 4| v5 M2 6^ x} J- Y; *} &^ 7} N_ )_ iy 3= !' 5z =h.,/ :8 0c RI.SI._0 r3 N] R5 TI.UI.t3 *} F~ A6 0: Ap xn <q <q ;2 9l >{ >{ >{ g^ ok ,8 l: x2 ez 3d.Lz =h.=h.VI.=H.|g Eg lF  ( ]7 k( +k _7 +G ^5 aO hI dG x0 gn.WI.XI.YI.o> gL d!.$k.(j.R,.ZI._F.`I.R:. J.#j .J.+J.Li l: l: l: l: bj 83.@J.#J.ck.X  _i.x2 l: l: l: l: ,8 lo PE.$J.%J.&J.*J.DI.bI.,}.=J.-J.;J.CQ do.>J.,J.'J.)J.H7 !J.*[ ml ql g^ '[ '{ V2 r} ^5 6m uE u{ 3a Mu Mu cu /d.Ni l: l: ,8 ok Z( >{ 0F g> 7A Bm 1r ir 5^ 2) %) i] d( P] q3 P; 2+ v; -f R4 z; s| B' |: |: #> )) l] #~ J> h0 N4 /:  ~ ;| {4 5> i: 0} q3 (2 $> I} L| }7 ~J.jr 6r ^u 2v {J.90 Ng 2{ Gs ]J.}@ 84  ; h! l< {* Mg oz lg  | o8 ix Ng j/ $u i/ -~ H> m9 P6 @z -n l: l: l: ,8 !6 ZK &J h2 1) 1) ]' c9 c9 :q fo 1p Tp ;G ;G mp }p $q ds {( Cv [6 ]E  ) !P z3 )5 H3 d) ,8 cj qk vk TF dG 3v ^J.80 MF dx /J.",
"6= y} y} :[ +5 K- 2> 81 X^ p(  9 @u Pp 83 +B J_ J_ %2 I7 <p X1 dq Y1 z} %7 ;g ,2 k9 B_ _] _] N' N' 1' M| 7} (J.25 _J.Fx ,w.;8 l: l: ,{ `q 3o Ix fn fn fn Vr ^m 3m &2 ^8 &2 A} F5 F5 3} J6 kq kq JI D7 V- q_ <^ ]( Pw v5 Z; H> U- x} I} d( @^ !u e] #% M. 0e Zh 5z Lz $  c^ :J.+{ zc 18 O4 N] R5 <J. a +^ *} %) Z- dJ pn fo vn tz *2 X2 u1 u1 0l !6 ,8 ,8 l: l: &i _G 'g {v.{v.JT ke.ke.S9.+7 ;i R| +k Ni x2 t1 WF BB.`8 O6 gn.[J.C=.}J.|J.1J.!j.W]./i.vL |j.2J.3J.4J.5J.6J.7J.Tg.8J.9J.l: l: l: l: 0J.va.aJ.bJ.cJ.ZF.i%.bj l: l: l: l: 8j Ku 8# dJ.eJ.fJ.ck.gJ.hJ.i1.DS iJ.Qv !I.vo.jJ.Kl kJ.Tv _l H7 tp ml ql '[ lJ.'[ !6 ql u1 WF h| .A >[ Zs ]r $w Ii x2 l: l: m( ok !6 >{ g> e) Hp .p ao Zn c: f: X; `} t3 E; L> =  d] N_ ]= N: [$ V4 8; @( U5 #> l] #~ #~ J> N4 r| L& L< (J.;e ), m~ KI 1g l~ $> t< v5 }7 }7 yq jr /q ;G mJ.d} V9 H@ nJ.oJ.2# #d b6 s4 cD <_ ft 79 @5 WG X1 @4 pA 32 8/ 7< uc F> [> m| c< q#.m( l: _7 =| $2 h2 0| _1 Z- m^ 1> |1 eE /5 r&.Ap |q up tn 2q 1r *p lq Zn [r ;; 2^ to r9 ![ 2x +B 4_ ,8 ok ,{ ~6 (B b9 Ha.Q9 pJ.qJ..8 #8 ",
".> #x .> kk kk x^ kk K- K- l^ H- +4 p< EG C} -8 q: ,} o: 4( Q[ `4  > @> ': ff Zx Q- B_ B_ _] _] (( s~ U; T} G4 SG  3 t^ 6[ ;8 l: l: !6 @p 3o Dp 5o 5o 5o fm 3m c9 Z: c9 A} Z: q( P/ k8 iJ pn pn qp _6 *~ z3 <^ bd bd n_ Z; U- U- x} J/ 91 .$ Lm.>f 35 ;w Lf *H.rJ.<E %c rI 7f a4 sJ.*0 i1 O4 ;3.;3.1| +^ |' F: W, 0( MJ /q *p ao |C nl X2 ~l y2 >{ ,8 l: 8j l: ,8 O=.R| R| >8 s1 s1 s1 >8 >8 pk x2 8j x2 x2 pk Y2 Uv G7 tJ ]6 tJ.uJ.vJ.wJ.xJ.yJ.zJ.:d.;^.;v.AJ.BJ.j>.rn.CJ.Xs.l-.DJ.EJ.FJ.GJ.HJ.IJ.JJ.KJ.LJ.8A.MJ.}y.qh.NJ.Jl Z^ Z^ OJ.PJ.Gs.$y.QJ.RJ.SJ.TJ.[ .+C.G,.;v.UJ.Ku CQ VJ.kR WJ.VJ.1F f| WF 7l [l '[ ,8 8j cj m( m( nk ok _7 '[ R| R| R| ^7 x2 8j l: l: m( Y: V2 24 ~p j_ [p )m *p jr u9 v2 T- :~ r- d~ M> M& ;| f] M: jJ $A l~ )) v] U5 P] )) )) Q- N4 ty E; `& u- F( 7f Ob '- XJ.)d P4 >( /~ u} (5 F5 f: MJ Br dp D,.e/ sz g( j$ YJ.Gs  u v= g! s4 {0 U5 09 d5 >6 Z: j^ E} B~ N! Y~ .~ >; gr m| Ip ,o m( m( V2 C7 ~[ =~ .' ZJ.v~ l< 5: +g sR qR 1` `J. K..K.HI -} ]= 8} cd 16 Z; a: zp 8( g/ e< !w ]r ;i x2 ,8 tk ]} io zm s> Ha.>H +J S9 ~a ",
"O- Ow +5 P- L- z/ x7 _] f- (> &) V- A} C} xm xw ,} p: }7 p( v} `; 5; #[ K& Zx N4 z/ B_ @~ @~ 91 (( N4 g, 8} tc Te Q& V{ hE t1 l: l: !6 c< .p 4o 2o 2o )m 3m Ap /6 Y; 6; L2 >2 b3 L| i0 iq Co 3^ g_ :6 ]( .) &~ k/ k/ H8 J- W, W, 6{ X; =} +K.@K.y% Ye #K.r  $K.Ok %K.>u >u [e 0e ;j 'D 4D -3.&K.H' *K.=K.B[ k~ }] j~ fs lr zp 5s k8 wp <m AE im ;l '[ cj cj cj l: l: l: l: l: l: l: l: l: 8j 8j 0j 0j 0j x2 pk R| F3 .F 7v r0 -K.;K.wi.>K.0d.^3.<h.-I. 7.BS k&.,K.cV 'K.`p.@'.4+.So.)K.+C.!K.r;.i;.~K.{K.W~.}+.]K.d;.^K./K. ~.pE.Q5.(K._K.:K.uw.[A.<K.4z.[K.}K.7,.TA 2J.|K.;f.uL ;I.Bb.Pi.Rf.Kl.To Y2 '{ g^ m( l: l: 8j m( m( cj cj 8j 8j 8j 8j 8j l: l: 8j ,8 l: m( !6 co .G d: q| :m zm Ss 2) v2 w} Q' j! 0* w] T} ./ 6, 6I g& A: b* K> R- 1' B_ Q- #> @( I> h0 M- ): }[ (& 6f B4 <f rI -3.!f z[ 0- )) j/ P8 G- /a <. 9r Iq u'.*2 *y pf O5 w. Gs K= y- r/ (4 [_ N4 yE sk.4( !z *~ dJ W6 7] 9: F> v( gr |C  q ]} m( ok co s( X, R! V' o6 1K.)~ :' 2K.6E.7n.j|.r$ py 3K.4K.5K.6K.bE $3 $m q3 I- *) M; __ )2 Ob >/ dg 2i l: ok ]} ko Cp *I <6 P/ i|  5 QH ",
"Q] C: A4 /~ U5 N- g2 @~ F' IK  ' c5 |) f3 I6 wm uq U[ k8 yq |7 g/ 4] K2 -[ Q- Q- Q- s~ 91 E> |' M- q- r3 L> z1 xc m7 L' W5 ,[ l: l: !6 Ip ]n lm 2o am [n Co gq ;) Z~ '~ 91 y7 g~ H> ]8 p: b9 ym wm g- z3 H8 D: 6; 7; J- x} W, K- (~ s~ M_ 0} *0 |u /4.7K.8K.9K.tR Ia.y; G$.Q( Q( :' V2.$0 M. ]g 9K 0K.0K.^: x_ G_ aa $[ 8/ aK.$y iI o) O[ k8 iq (m ql ok ok cj l: l: l: l: l: l: l: ,8 8j 9j l: 8j 8j 8j 9j +k x2 x2 pk W8 G/ bK.cK.Qh.dK.:j.Uk.i%.J2.!(.D9.eK.o-.cV Z&.fK.<..gK.hK.iK.~o.jK.kK.lK.J!.mK.&*.e}.nK.8%.J!../.oK.pK.qK.uz.*z.$/.rK.fK.9M q'.j!.d,.;/.y/.sK.qw.1j.tK.op.0+.Rh.uK.b4.+h.sk ok l: l: l: l: l: l: l: l: l: 8j 8j 8j 9j 8j 8j 8j l: l: l: l: !6 1v q} wq c9 3^ [5 f: |7 {' j/ i, #] w_ w_ /& [- L< D4 /! u& U] a} 16 V; V; s~ <3 @> .> T2 d( @1 r- d~ }[ z[ a; ~4 x| w' D> ]/ |' :^ 9/ (a P*.vK.() Ar tS P6 6[ n# ]@ a+ nJ.F= P( r/ _( e6 Q- T6 }0 J8 F5 2) %[  ' 7] N! sr w> [> YM `q ]} h^ !6 XF c3 34 0' P! ]{ E~ d( wK.g'.xK.yK.zK.^` AK.BK.CK.DK.EK.FK.GK.HK.p+.y3 P' b4 lc IK.6K ~y ~f =w.l: m( >o Lq _n |q pn uq wm ]8 D6 ",
"J> P- A4 P- k9 4y L> :~ 7< O! /8 t( c9 c9 w< ]' :6 F5 5^ f: +z I- I} #) 1' 91 A/ B_ @~ // E> h] 3z [$ }v Mg O- Q] I> z} 83 ,8 l: l: ~6 Es zn !n ]n lp vp k8 o0 e_ -' ~} )~ D; C; M' 3) g- q} b9 >4 :6 B~ J- A^ 6; 6; 6; Y; (~ H} H} Q- {* u| @l $; em.JK.Fp.KK.~M rR @A <E C! C! 3 .Jd ~9 aB 1x ro ,I.LK.;/ A] e{ *3 E) m0 x].MK.|6 lr R, 8( <6 l| f) qk '[ _7 l: l: l: l: l: l: l: l: l: l: l: 8j 8j 9j 9j +k x2 x2 0j %i /] NK.5g.vA ]).OK.H8.R0.PK.QK.b,.1<.j>.sE.JX f;.k=.P4.:..RK.SK.TK.UK.VK.yK WK.XK.9;.YK.w!.$$.ZK.|=.`K. L..L.+L.{1.x6.@L.^'.#L.$L.dg.%L.&L.mh *L.o@.=L.UJ.u-.U5._c.*P oi x2 l: l: l: l: l: l: l: l: l: l: l: l: l: l: l: l: l: l: 9j l: m( !6 dn 3^ g- J6 [5 o) 2) v} n_ 2> 3> g1 #] 0* 9} /, X6 -} a; w) V7 a} P' '= D; 91 J/ Z6 v{ 4] $> u< r- 4y 4y <' R; K/ >: j: ,: L> E> g~ >) -L.;L.>L.9I x%.}q.Uy sg sC ,L.'L.&= ,f ;- )~ _( &C k9 D8 gE n) j| v2 B~ V, N! N! p} Z- z3 YM -G ]} Y: Y2 )L.]r.7j.l].jX h/ Q- N] 2 .b<.!L.~L.{L.]L.]L.^L.2r./L.(L._L.:L.<L.7g.=, @1 A1 [L.}L.|L.1L.2L.3L.l: m( >o Lq |m <q E7 ym f3 sn L_ ",
"d( C: A4 +( TI.,( )f O> Q' K- 8( V- ~[ 5^ -] z3 q_ G} %[ S[ {{ Q! F> f- 1a E_ E_ =^ 4L.N' g~ k. )} U} k1 hg ^F @B DB Q/ e[ l: l: l: ~6 Ix in zn am lp <q o) H- Q_ <a E/ j8 P' Z9 9< 17 p) q} b9 c9 F5 {{ 6^ Y; 81 Z6 Z6 Y; I} Y; +5 <3 (2 z; {g =z 5L.kn.6L.=6.7L.8L.9L.mE =h -h V6 /_ =7.c- 2c.d  d  5M c1 N> f; 4> i, E> Z9 xr (> EH R, R, D7 /B )[ '[ '[ _7 l: l: l: l: l: l: l: l: l: l: l: l: l: 8j 9j 0j 9j x2 9j .| W8.Xi.W]./j.^e.0L.aL.bL.cL.dL.4J.eL.RD.fL.|}.e3.gL.k*.hL.iL.d@.1b.d-.zK r7.jL.kL.S3.lL.*'.mL.nL.oL.pL.(Z <W [-.qL.y6.rL.sL.tL.uL.vL. C.wL.+~.t;.*~.xL.iJ.yL.N8.c1.zf.b_ 8j l: l: l: l: l: l: l: l: l: l: l: l: l: l: l: l: l: l: l: l: m( qk M6 tz J6 J6 [5 g- =[ v2 R[ C2 r~ c' M| .^ r- r- g: s- N: g9 V7 A; i] S- @; ,; I} 99 f} 2> i] R' j! g: &  d~ O* t- /! ,4 {= c' 1' *> (> P*.zL.AL.%u ^q #).Uy hg `9 '$ BL.CL.t* ;d l< h! [_ k9 y} gE ye Z1 +4 q_ 7] N! 3) 6^ W, F} g) Qq 'p qk /w DL.EL..3.U6.FL.|A d~ u| O[.~K GL.HL.IL.oK JL.KL.HL.}%.LL.ML.NL.OL.PL.=B L. (! QL.RL.SL.TL.UL.VL.l: m( >o ,p /n =p Co I2 f3 wq P8 ",
"l] ft +( y6 WL.5s.XL.P< ,~ :_ U- b' *~ -] *~ k/ N! J- H8 32 32 H8 6] H> z7 +~ F~ =^ S} W, +5 t| sy $m ,: oz #4 g^ g^ ok ok l: l: l: !6 Es 2m hn gn 3m wm (5 o0 Z9 u2 `! 'a 4) Z~ j~ 17 p) q} b9 wq T[ 3) K- T2 (~ kk C: U5 l] L- C: N4 +^ Ek eb.YL.ZL.`L. M..M.T& .& +a KJ Fa.PF [' $m 6! 8t  - PR &V ~4 )2 +M.YD.+N j, `} Q_ @M.#M.pq a( hr k8 dm ql U2 r1 U2 ,8 l: l: l: l: l: l: l: l: 8j l: l: l: 9j 8j 0j 0j 9j 9j 7[ Mv.$M.vA %M.&M.N(.*M.=M.-M.;M.>M.,M.'M.54.5<.)M.C).!M.~M.{M.b;.]M.y).]b. >.E5.^M.7;.(+.0U C!./M.H .*;.=>.(M._M.(1.:M.<M.[M.x8.;L }M.:A.dD.)_.R5.>1.YX Gs.93.2/.|M.i,.Mi cj l: l: l: l: l: l: l: l: l: l: l: l: l: l: l: l: l: l: l: m( m( ,{  1 q} [5 O[ g_ sn p( t9 o( 33 1' `} ~* B' g2 +^ j, ;9 __ ;} p@ @1 i] 91 %> s~ K- L2 3| y} >( #] hf N_ }( ~f Jd J  ,4 r8 /& c' a/ *> m0 ,= ,= D' b: mu }) B} Hg |A z. 1M.s= I^ N/ +] <_ <_ ty 2M.KF $a ]( <^ )^ 7] 6] 9: m^ M~ /6 4m =l 'p 3M.4M.5M.6M.7M.8M.Ct.B1.9M.h< E{.w=.0M.aM.bM.cM.dM.dM.1r.eM.fM.gM.hM.~H.iM.=3.JD jM.kM.lM.{ .mM.(2.@m l: m( fV kp zn xn vp I2 b9 p: P[ ",
"P] k9 q3 ~u '( *: nM.9t.D, 7- g~ 0' 4| J| 4| 2| C: J/ .> (] f} 2| 2> T2 y7 f- F~ G~ // j] @> ); tk.hA I  Fa..F Z( >{ ~6 g^ l: l: l: g^ `q gn am ~m )m b9 o: u} X; S- j< %> v] X; m^ 8( >4 wp wp xm }7 n_ 99 h8 Z6 Z6 (' #~ f2 #~ Mg '; Id Fn iC.oM.pM.qM.rM.sM.a  7!.ZP G$.sb.Hy 5[ O} 1{ )4 F0 tM.^g ~4 9t.%: !! 6} q~ D; uM.`K vM.~I hr 7r *I P6 ~p jm ml 'l ,[ l: l( ,8 ,8 ,8 ,8 ,8 l: l: l: l: l: 8j 8j 9j 9j 0j 9j 7i @k wM.%3.M5.qE.xM.ue.yM.`r.zM.zM.xF.+Z 8<.[}.AM.W~.BM.M~.!].5B.U~.0a.&*. &.iY CM.DM.EM.'T <W k` W+.=;.9X FM.GM.HM.U~.:_.sd.#L.$L.T}.S^.oc.IM.`=.JM.KM.K(.LM.X{.1/.MM.Ni cj l: l: l: l: l: l: m( ok ok ,8 ,8 ,8 ,8 ,8 ,8 ,8 pk R| Z( Z( ~6 Qp o, q} [5 k8 J6 }> h= 5= w} 3| +5 4] Z6 (] kk Q' q@ Fd A1 /! V@ 9; a} i] d( <3 L_ b3 O8 h8 @1 s; L^ u/ 55 sJ.<f ad <f B: `& h] yY #[.o0 H- o0 P[ r9 Y< 05 '6 Gu.R1 O5 n= %% NM.e' JA A_ g2 Zx Yh.Z6 D: I) Y~ OM.4{ N! 6] m^ M~ Z; c( f) ]} PM.QM.RM.SM.TM.UM.VM.WM.XM.D_ g2 Pu YM.ZM.`M. N.wC..N.+N.@N.#N.$N.%N.&N.*N.tM.=B Qx =N.-N.$p.;N.L#.>N.l: m( -n gV 2m on Bp Bp =9 f3 P[ ",
"<3 Q' L> h9 >: N{ Zj GQ D) |- v) C: u4 h8 Ow G8 N| s9 O4 52 Q4 lz 9- c' ~{ l< 7{  ] n] R* -f iC.Tb %j.2c.Pu._G bv H3 J_ v1 ,8 9j l: ,8 e[ An dE <4 *| {l ^5 z2 Y4 ZJ )w [0 ,6 c_ c( &2  q [l [l 'l ml jl 83 ,N.'N.fC +8.=f ): T4 #6.42 :2 +[ Mk.)N.!N.~N.{N.]N.N&.[9 Q} 2g 4g x9 Z} D> sy )9 J0 Dj ^g !f ;/ 5} x] D) !~ V* $[ ^N.dw nz }r 2^ 0< g_ 85 yn q} *[ Q/ >{ e[ ZK *| h> *| >{ cj l: l: 9j l: 9j 8j 9j 9j 0j 0j 7i (G Mx.&3.'i./N.0|.(N._N.:N.7<._/.<N.[N.}N.11.O6.#'.|N.1N.2N.8A.g#.8%.d}.3N.IL.4N.5N.6N.7R 7N.td.@S ;;.QM 8N.%$.wK /..9N.+1.0N.;L aN.aN.sd.mo.bN.T|.cN.:K h>.dN.N8.eN.Et 8j m( ,8 l: 9j ,8 ok g^ V2 [l [l An W2 W2 <4 W2 f) >l ]l gm ^l ^l gm Bp qp yq T[ H6 g/ T- R- <3 d< 2| f} 3y $a Z6 @; H! cd ,' V@ !f ]* -} D) i, i] :^ @> 9' J> h: if  3 -5 @[ 19 S% j1 3= Ek ~' Z7 4m *[ AE BB.AE ;2 im F2 fN.7u oF.IC nJ.^@ gN.zd e' hN.y/ A8 iX N4 _4 )~ 1_ `{ iN.q+.T! I) U- M~ _~ n( ]5 ~6 jN.kN.lN.mN.nN.oN.;a.pN.E! qN.U4 C, rN.sN.tN.5# 7# uN.vN.vN.%I.a& E/.t .Cj ij.%A wN.t7 Z= xN.2c.#g #F m( h^ ,o <t |n V[ =9 )m fn |C 8/ ",
"u] M| O2 if Q< Ob :f )x K. a/ :^ q- q3 .$ d~ %0 )( +7.Gk.yN.5M B: ;| R& O2 !~ :_ '_ ,~ _0 v^ {| zN.PL.AN.vv wE $g /~ M2 Pn k( l: 8j l: m( h^ h^ ok tk U2 '{ 4< F3 #4 #4 BN.0l f> ql x< Y: #s m( cj ,8 k( ,[ 9s >8 >8 /U WX V7 N: nm.Yj `2 B| O5 CN.DN.EN.Mx FN.X}.@A 42 Wn Pt z} h/ z; T4 .J T4 >9 mE #6.Q4 P] q- 5: P] g~ C' )u Hw 7r }s 5s gr kr ao 1r J6 3^ en `q 2} km im (m km 24 Y: l: l: 8j l: l: 8j 9j 9j 0j 9j oi @k tA GN.X:.n0.HN.IN.JN.KN.LN.MN.NN.ON.ON.11.sL.&=.PN.Y(.QN.RN.9A.*B.HP SN.TN.UN.VN.WN.eS XN.YN.1>. #.;;.ZN.`N.yZ  O.Wa.i-.}M.P+.Q+.L~..O.:_.s!.+O.@O.#O.D8.$O.*~.0<.Et l: cj m( l( ,8 ,8 h^ e) ,m 1o 1o B5 Es Es Ip Ip Ix lm /n 1m 1m 1m 1m fo *I wr 2) +z L_ i] P' |' 2> >2 n) )5  _ w2 C[ '~ 27 .8 3= N* t- f] m5  ~ ~/ f, {* O; g] jf $f )b %O.#{ _= =& +8 =! Ue Z].8u '{ tk _7 _7 _7 tk ok m( l: k( {P &O.*O.<@ =O.5e G# b] [M A8 ty m] /< 7, KE w:  h.8, o/ H( I) H> &~ <p W2 (7 -O.;O.lN.>O.,O.'O.)O.!O.O) ~O.{O.+~ g] ^% 's Bj.]O.$z ^O./O.Q;./O.Ka.(O.&i._O.Rq.:O.<O.[O.!v.=! D9 ~l h^ >o ^U Oq |n Bp K7 Es ]l YM A6 ",
"@( f( O2 if Y5.GQ m~ 0- R- t< T2 i] 0- ^/ L/ 6f }O.k{ 'w ,w +L bx lx $f _0 P4 t| _2 |O.EA PN 1O.<k.uS Rh.zx c~ @/ qj.k, U6 t1 l: 0j ,8 h^ Y: Y: ,{ !6 d) 4_ 6/ 4_ c| oz.d) >{ e[ ~6 ~6 >s >s ok ,8 ,8 +k k( pk Ni x2 qi d+.z[ B4 P} n4 J' =$ 2O.8@ 3O.4O.Rh.5O.*H.); Ue 7J 69 z} *g =f 38 38 Xj =f Wn 4h 4h 7J #x 3a Re u] 1' 9/ H- 7r l9 to ir Cr 00 ao Y< I2 en  q R9 K7 Bm =4 km [p Y: m( m( 8j l: 8j 9j 0j 9j 0j 0j 7i 6O.7O.6M Hl.8O.S$.9O.VM.0O.aO.bO.MN.cO.dO.eO.fO.&=.gO.hO.iO.jO.kO.(..lO.tK mO.nO.oO.pO.qO.+&.rO.sO.tO. #.YW uO.vO.RK.wO.Z(.,].xO.yO.zO.V!.{M.8A.vW AO.;q.={.w^.*~.0<.Et cj m( ok ok ok ,8 h^ ;n >p ]n !m 4o 4o +p Dp Dp 2o 9m in 1n 2n 7o 7o rq GG BO.R, /6 a0 D;  $ |' 81 X^ 4( 8A Z: L| I- '' t< #> t| F; @/ M< e] r& N/ i, +^ 6-  ~ !1 1f CO.+D DO.@D 25 [$ P] ;g lF /F k( h^ m( ,8 m( cj m( m( l: x2 6O.|x EO.FO.GO.!d 5) k~ r$.:0 HO.~u /I ~D.~! IO.U) P) 8] T6 `< h8 79 JO.kl 1} KO.LO.MO.NO.OO.PO.QO.lm.@7.RO.SO.Ou ^, }. [# D, b; Y1. - !/ TO.#  F0 C{.ig qq 8| z} s| X8.lI.a9  _ `q >o >o qD Dp 4n l| (m ^l pl E7 >) ",
"4] e( T] P( /, -} -f l~  5 F- G- ~* i< h: (, L/ ~4 x| ]g ^_ )4 `2 gb 7> G& e^ XK K0 +0 ={ UO.VO.oy Fp.`f.WO.XO.*a YO.<B Ml %i 8j 0j ,8 ok Y: tk ,{ qk >{ d) 4< 4< ZO.ZK d) V2 i2 |4 g> cE ,{ g^ g^ k( ,8 ,8 +k rl bj 2y ig lz v3 :2 aB ej A. `O.F=. P..P.%; H9.gj.Ue Q] ]h z} z} j/ kH mz 6+ mz Wn Wn .z *g d< (' (' h/ 8; i] C' G- a( D7 Ss yq :6 qp *p ao I2 1o Ip Ix .p 'm 'm B5 {v ,{ ok ,8 ,8 l: 8j 8j 9j 9j 0j 9j 7[ C^.O#.GN.+P.s;.+*.@P.#P.$P.%P.&P.*P.=P.-P.$P Sw.X@.;P.>P.hO.,P.1N.nK.'P.)P.!P.~P.{P.]P.0S Y$.^P.`K./P.2>.(P._P.:P.<P.[P.}P.|P.1P.W%.M^.zO.,e.2P.vW 3P.4P.Cl.RT -4.0<.Et m( l: ,8 h^ ok ok ;m qD <t 0o ~o +p +p +p +p tq tq {o ^!.2n 2n <n nn Ps II MJ Yn /6 l^ L~ 4& |' 6; v5 n9 MD MD r9 3] sr m^ g~ s| R4 !4  & F( T} g] U; A; Q* /, 5P.lx 04 J^ Zc :J.=8 A; ]h x9 ZJ $o k( m( l: cj cj ,8 m( m( l: x2 C^.Qx j$ ^@ GO.6P.3- *} 7P.8P.3 .%^ ;/ )f Zd A1 G{ O| mE H9.9P.hj.)F @k #B e[ LW 0P.aP.bP.cP.dP.eP.J{  6 T,  ) +~ 5( -0 }a /& V] n4 fP.%j.QY BH.d> =, jx I7 c( j| T- C; Hm E# Zn >p fV fV qD fn xn f3 k| N3 ^m uq |v ",
"6] :] z, 3> #7 ): V4 )) a0 F- H- l] /: e~ nI.Q; -3.OZ 4M ^d %E ]f $V W] !0 BH.!_ ^& Nr.t[ 'j !N.gP.hP.iP.G@ _A %% 3: (= q3 e| 0j Ni +k !6 ql ql *| h> y2 v1 Y8 h> [4 _< y%.nB @z -G Ep ~q An [l kl #4 Z( k( +k Ni x2 s1 _G r] lc.mE iC.c* K+ O+ jP.kP.kP.#2.Gj Mu N4 ,2 A4 Q5 3| I8 d< kH d< Ml Ml Ml y} y} %7 ': ': O- G8 .8 `} :^ h= u} $9 H6 t9 t9 ]8 wr kq 85 =2 _n }n 4n 4n :n 'm !p (B Qq *| '[ 8j ,8 x2 9j x2 8j 7[ ^d.=i.oh.lP.@C.Y~.mP.nP.=z.%P.fg.oP.pP.&:.qP.P6.rP.A).sP.kO.:..BM.tP.^M.uP.vP.wP.xP.q9.yP.(P.zP.AP.%$.S3.BP.b).vK CP.DP.cD.EP.*/.}M.][.#/.d;.FP.Iu.GP.HP.R5.u~.ug.3}.Li l: l: m( h^ Y: cE >m )p -p jn 9o ~o ~o 9o 9o 0o ^n !n in mn IG up kq wr O! 9: H- k^ I} K) r~ K) J/ 6; &~ F} <^ G} /' p} *) 9/ #> z; P* M7 B: G{ s- Z} -! g0 k1 M7 5s.*: EA u/ {4 5} Z6 @u 93 $o d| ,8 _7 _7 '[ '[ '[ _7 ok m( x2 6p.0B IP.FO.GO.`a <# h, JP.KP.LP.za.oa jh ]0 MP.NP.Is.OP.PP.QP.RP.SP.qF.TP.f> 6i UP.VP.WP.XP.YP.R>.n4 A/ Uv.W~ Y~  [ P_ P(  ~ 1{ b) uH.ZP.X0 D$.Ct |h >[ w1 EB 11 U- I~ R~ `P.q) -p (!.^U jo )m g_ j^ pA t} p: _6 G- ",
"]8 M~ $[ C' 9' d< I8 G6  Q.]M R, kk t3 1| vY .Q.P'.4D #3.|u z{ (2.lk Dl &k Hj.hH.+Q.LP @Q.#Q.$Q.mg.Bf.l1.%Q.P. 6F.&Q.9> Gh ,i 9j 0j k( ]5 co ml Z8 :1 m: m: im M6 2} F2 Y[ A5 !m !m !m .p .p K7 ){ s! @7 '[ cj cj cj ,8 t1 Ci #F ^d.pf.-{ *Q.om.Ck.=Q.N&.d8 ro |h ft ft aC ^( n_ w} w} 1> w} 1> e< t] v{ Z6 Z6 kH @> =; q- !~ .^ N- mz e< 48 48 1> h) a0 b/ Q, J2 iq 2q Bo /q Br Bo vn 2m [m sm (m kl ,8 9j x2 9j 0j 8j 7[ 6p.Qh.+J.-Q.pP.s!.;Q.>Q.,Q.'Q.$c.)Q.!Q.i;.cg.~Q.{Q.]Q.^Q./Q.(Q.vf.v)._Q.E2.tO.pQ :Q.<Q.]N [Q.}Q.|Q.1Q.2Q. ;.&*.7'.3Q.4Q.&c.IX :/.oP.5Q.f,.6Q.S|.7Q.5].su.HW 8Q.9Q.;I.Li l: l: l: ,8 ~6 (B Ep zG cn mn 3n 3n 3n 2n 1n in cn !n cn |n <q jr %a 1a '= @; <3 kk t< ~* f, }_ l< 4) e, e, w/ .} A~ s,.[r /' `4 =; 3= R; V@ h: K> /~ v{  7 X7 XJ.ww 0Q.HD 3( P] 99 P| ~p e[ k( ,8 k( U2 R| 1} 4< `s 4< g^ m( ,8 w;.yh.aQ.n= :H.;6 7} w] i: MI bQ.I{.cQ.lH.dQ.eQ.fQ.gQ.hQ.iQ.jQ.kQ.lQ.mQ.nQ.{7 >i tm.oQ.1j.pQ.oX -E.G' Z1 H%.n| 1) d, G_ e- _0 W] qQ.0k rQ./3 9v '} x9 X5 Y: e) @I w4 c: Zn ^q tS sQ.tQ.uQ.vQ._m g- X^ j/ #[.P8 f: t9 ",
"!z H> K8 => d9 h= W1.>H rp jq rp 0' >( 1| E; }h %o 4D Pi PN 2L.j; Nw i; wQ.xQ.{l.yQ.zQ.!M AQ. y BQ.CQ.DQ.EQ.O{.YJ.W. Gs 0; yi 9j 0j ,[ co q| wp Am zm [o n%.on =2 Bm 90 :n (o BE BE mp mp go #o I2 &2 Q/ ,[ cj cj ,8 cj l: ,8 ,8 ;8 <e.c~ Qu FQ.TO.v' ZA Pu $  GQ.HQ.A4 u4 3| n_ &~ &~ &~ X^ 10 f} 99 34 d< .> .> h8 (' M- i, c' K. B' ]h X9 .z .> @( L~ 1a %a kr ao 6q JN 3r ar 3r -q (o on xn q< 'l k( ,8 x2 9j 0j bj oi w;.vA IQ.FT JQ.hK.KQ.LQ.MQ.NQ.OQ.PQ.NY QQ.RQ.SQ.TQ.UQ.@f.H!.VQ.WQ.i` 8).XQ.YQ.,'.ZQ.`Q.yP  R..R.+R.@R.#R.$R.%R.d@.&R.*R.//.4^.C8.yM.Kw.~Q.f,.K~.@=.EW c_.=R.-R.1/.=f.Li l: l: l: l( Qp }l Ds 4o 1n ur 8n 9n rr 8n 8n 1n 1m /n gn :n 3^ ]8 C[ p] D/ ~} )) A4 T2 |' f, e( 'a `! 'a W{ N~ 0! ;R.7H AH lq D7 4= z; Q; U] 0- P] 5F ]B 8G iE }A '2 Ig RP .q N6 e3 1v e[ ok l: ,8 '[ ql 1} ]5 v1 X2 y2 >{ m( ,8 X: OE.,L.>. >R.-5 _0 !u if ,R.'R.jk )R.!R.~R.{R.]R.^R./R.(R._R.:R.<R.[R.}R.`s  F |R.1R.4W 1h pG Q5 5| |) c/ p| k_ // g} G: &: =5.2R.3R.4R.u[ 3, '} & .'w.l: h^ V2 dn <m q| Bm lt us Ny 5R.ev )m :6 I- 1' v9 *t w2 4( ",
"U[ P8 l^ -> E> 6R.Xn 7R.+u n%.jq g/ >( /: .Q.2C 8R.~; fH 9R.+* ~7.0R.aR.'6.bR.P{.xK.cR.uI.dR.eR.fR..x gR.I% bw v$.ra.tC W& yi 9j 0j ,[ 2} g3 Cp xn yn #o mB }n (n !m {n ~r BE dp 2v Zv 2v 1p Bu xn &2 v1 g^ m( m( l: l: l: l: l: pk -z y' y| R% sl.j~.hR.iR.$  <g jR.kR.lR.z} O8 X^ X^ X^ &~ (] f} (] e< 2| C2 2| 99 34 #> L' K~ K. '; Og !h M] =; @( E> M~ {{ p) pn Bo 8q _s 3r &q Wq :n tm mB sm 'l _7 ,8 9j 8j 9j 8j 7[ w;.mR.nR.oR.pR.D).qR.rR.sR.|_.tR.uR.&E.V6.K5.vR.wR.xR.T}.S$.4B.Y` yR.8).zR.e).}#.AR.BR. c.CR.DR.1Q.Xd.w8.@-..{.ER.+n.:B.Y0.I[.</.e>.Cl.FR.;9.52.(<.S>.a].GR.@V [d.Te.Li l: l: m( h^ {H 3l ,m ;p _o ur rr 9n 8n 8n 1n hn (n cm Bm *2 q} =[ 5] 4) 'a :~ l] A4 kk d( f, _( +; 'a +; r/ r/ A6 Cr }p Up Dq J6 33 z; %^ >/ u3 3( NF s0 aG s] g0 @e ~' mX 7u ml  1 9l Y: m( l: ,8 tk ~6 ql kl jm pl r} e[ m( x2 X: 2K.HR.>. 4u [* ,: O> IR.|O.XJ.Xh.Ig JR.mv KR.LR.MR.NR.OR.PR.QR.RR.SR.TR.1i YE UR.VR.(h 2M.h8 (] q( k_ =4 2} I6 M~ V5 d' &: !D WR.XR.YR..^.3, L/ ^G wx.l: m( >{ QA YF K7 en .p _r Jr ZR.`R.fn f/ g/ C' ,= F' S[ P/ ",
"p: +4 6] -> E) N; u] v4 xs TB xq 1> M_ <' Gh  S.ae ,/ |* =$ .S.F@.Zk z&.+S.0y.@S.cR.#S.uI.$S.._ %S.Il.&S.*S.=S.@I.-S.;. H' yi 8j 0j !6 hv :n <n Cp }n [n :n kn !n !m ho 'n 1n 8n 8n 2v 9n mp }p on <m qn g^ m( m( ,8 ,8 l: l: l: x2 wg jX iy iC.4s.n@ Bv iR.tk.P'.ef ty +( u4 99 j/ 0' M2 &~ 34 Ml mz Ml d< v{ v{ L2 2| :^ E) E) r| 52 Q4 Mu 2g Mg l_ #[ 4] 32 P/ k8 kq 8q GG 0q Br vn _n tm =p Bp r} g^ ok ,8 8j 9j 0j oi w;.qp.;S.>S.Ug.VQ.,S.v).h}.'S.)S.!S.(6.~S.)M {S.]S.]}.^S.aV /S.M^.(S._S. ;.^M.:S.<S.HL [S.;T TW l8.V>.1U 3<.9!.}S.|S.1S.T:.K[.4i.2S.dh.A|.f%.3S.4S..C.Y0.5S.6S.%k.Te.Li l: l: m( Y: (B @p ,m _r 3n oq IG op op np (o :n 3m wp g) 4m 3x n) `[ Q' i, z, t3 h0 h0 i] u<  6 _( n] )~ )~ K) C[ 5^ (q ls ar /8 Z6 `0 5M ]: %^ z8 5: ~' 7J M] /: w_ G8 vg y2 >l qn pE Y: m( ,8 ok tk qk ql 24 {l gm ]l }4 #s x2 6p.$z 7S.8S.9S.!2 !u 0S.aS.bS.q&.X, (: <D cS.dS.eS.fS.gS.hS.iS.jS.kS.lS.QN 7i YE mS.Au _h qg pg AD @5 n( oA pl 4m -~ p/ j! E4 nS.4u.oS.%x pS.qS.)_ $I wx.l: l: Z( X5 YF N3 dn R9 !v us Mr.rS.2o uq n_ Y; m^ %a |7 u} ",
"C} -8 j| 7< ;> ;> sS.tS.6n pI.5m jE '; 4y H' 23.W& cB Qu Xm ', .* P1 5k PL.uS.vS.wS.k&.xS.yS.zS.AS.BS.CS.6d oB DS.|G.z| |h </ l: 8j '[ ^l _n <n kn kn hn 1m in jn !n {n ,n (o 2v rr 8n 8n 8n 4n on q| 2} =l V2 <4 9l 9l e[ ,8 l: l: 6/ LQ 0G ES.yi.f7 c* S& )4  & O< Zd O2 M_ kk 4] `; L2 `< q3 g: ]* v; 3= 5: m_ D: 7] /' o0 C2 O- 3= <' O| 3= t| Y6 @( #> :^ b/ I- /6 R, MJ 0< Zn 2q Cp Cp rq yn hv [l *| *| ql Z( R| M[ z9 ~v.Qf.FS.*/.GS.HS.IS.JS.KS.LS.BS.MS.|_.NS.S4.]}.OS.F8.*{.*<.>t.PS.QS.RW g` RS.SS..-.)Z TS.US.VS.WS.XS.YS. ! ZS.`S./N. T..T.Bf.+T.@T.rw #T.$T.%T.&T.*T.BS [e.:c.Te.b_ l: l: l: ~6 Rp cm am 9m rr Fq IG IG pp pp pp =p xm t} s< lR p0 AD %7 f, .1 .N c' +^ h] !~ R* R* :~ f, Q' `} $> $) 8( ar mt 5s -; A4 l. J0 Jd Jd Ga /& =  g] u| 2g '; |0 Js 4_ ~6 cE ]} e) Qp Qp V2 V2 pE pE Qq Ur Rp Ur ~E h^ pk ku z$ tC W. -u )b !u j! M} =T.`, -T.;T.U~ dI >T.,T.'T.)T.!T.~T.{T.]T.^T./T.3< -i (T.yg Wg $N Ag HB #2 +B 7l >l /B h) 8: e( m~ =$ _T.:T.g|.r+.MT !: LZ wx.l: l: lJ.`s ~l i^ ~p -G Ep &s cC <t tq ym }1 t9 f: D7 q( 7< ",
"d3 oA 3x Z6 16 27 u] t] 23 AG O6 <T.P9.$^ S< P< Q< Q} my U9.[T.=z !; p+.oM.}T.|T.1T.B|.2T.Ah CS.)i.34./e.3T.uK.4T.'F 5T.Sn 9s l: l: g^  q _n :n kn 2m :n kn (o 4n Sp #z %t vn 4q %q eo pp pp xn xn m| ;2 en km :m l| 95 ^8 >{ l: l: l: ,8 k( t1 6T.0t ~9 /2.:u.(* |f !A L^ /: L- T2 h) 1> %7 w]  3 7T.LT OZ ): x7 H8 'J 00 tz xw d< k1 Ct S; k1 0} G8 (2 :~ 3> !{ 4} C; %) Z; {{ |7 *I iq tn 00 vn =9 K6 im (m nm 7l kl g| }3 8T.RF.9T.5x.0T.7l.<C.aT.Ah bT.cT.dT.eT.fT.Zl.gT.hT.iT.jT.kT.ue.lT.mT.Qd.nT.oT.pT.qT.vR.rT.sT.tT.uT.vT.wT.xT.yT.-R.9@ zT.AT.BT.CT.0i DT.ET./w.FT.GT.9k.u~.HH.%9.Te.>8 l: l: l: pE cm go mp op @o Xr Gq mq fo up |q qp T[ 32 M2 j/ !7 09 ^h h, 0S.XM.t~ M} z, 9- q~ 9- h, u< +^ <_ t3 @~ 7] ir kr /8 G} v] }[ o4 o4 J  V] l5 `d %8 l~ ;{ z9 I[ r1 k( Y: h^ ~6 `q K7 [m q| !m 3o >n Ix 3o ^o ^s ;s HT.U2 Kp Rt ]J.IT.[L.JT./^ .1 28 C_ KT.LT.MT.FI 8D NT.OT.PT.QT.RT.ST.TT.UT.|u.VT.7i {i oi Ki -i ,i 'i cr g| #B =| =| F7 6] F_ 4) ;3.Dl WT.XT.SC [! *: ,_ YT.'w.l: ,8 x2 Li U2 >{ '{ e) dE &I hu |{.{o go c9 o: p: q: P/ C/ ",
"Pp @B <p 33 >A S9 #[ 6= kE ZT./I.et 3g +1 !! u= (_ V6 @n `T. U.WX y&.Bj.`9 4s.{F.1i..U.0_.ve lr.wG.qF.kR +U.}/.Ai +F R8 7u ,8 l: l: ok `q |m 1m _n (n (n 1m Cp wn U~ U~ Y< J6 _: {( 4q pp mB mB xn yn vm q| .G q< 3^ g_ bH ZK l: l: l: l: l: x2 @U.WC sy {f sJ.(* = .#f ~: .$ @( t< h) 6< +5 8} Dy #U.Bv Qx #; G' w2 mu Tp =2 YM j/ g: G{ '} P* lz u| >( 3> H! G_ :H <a L~ `; P8 |7 $U.pn pn Bo Ps kn cm _n sm qm o, Q/ 3s qq <D %U.&U.]B.*U.=U.-U.;U.zn..I.cT.zh >U.}%.,U.'U./l.Az l: )U.zL !U.gl.~U.{U.]U.^U./U.`I.zw.(U._U.:U.<U.X:.OJ.F%.[U.}U.|U.1U.Y  2U.Q: AB.3U.4U.5U.6U.7U.8U.9U.Cn.=P ]u l: l: m( {H |m pp op rr nq ZG tr Eq eo _q bo JI wr g/ 6; 2| e< Q5 (' .^ 9} A] t~ ,~ f( j! c' ]/ h, u< +^ A[ s3 l] `4 }7 wm (5 b3 Dz $A Y1.Jd *D Q3 Ru ce Qd 0U.j( gi s1 x2 l: l: m( ,{ @z K7 q| 2m (n 9m ]n 9o jn |o ;p #N HT.^} ^h.aU.>% bU.cU.>1 w^ f( 9- $> .) x..dU.eU.yq P9 fU.gU.hU.iU.jU.kU.iu dm G3 e2 r1 8j ,8 ,8 ,8 ,8 ,[ 0l =| r} pl 3m G} &] |s v] ;( '& gx tl lU.A: s; lR.mU.l: ,8 l: 8j l: cj m( nk gy ;p 9o {!.Nt (o tz tz m| 85 s( .5 ",
"nU.De.et P: :^ T- #[ kH .9  9 A2 Ag !h #] Go.5c &- ^< 6[ et Pg 89 N- !u rr.qS.oU.pU.qU.rU.%U tI.<c.sU.N5.Ew )i UE @B ;] Q/ k( l: l: Y: @p |m _n kn lp cm |m yn un Y< J2 i0 jr MJ ir /q :q xn ym xn on g3 =2 :m sm wn Co 3m V2 l: l: l: l: l: lJ.tU.C&.y' Jd +0 uU.vU.25 Fx 3= 7= R- :^ `[ %~ /& _C w[ g7 wU.xU.=C 2> [> eU.Sp 3^ m_ ^/ M7 Ct O* Id K> .^ }- k, e- ;d {) P' `; v} a( _6 J%.*p 6q Iq kn cm _n [n sm (m 7l s} c( hx 9g Z3.yU.<).1@.zU.;U.AU.BU.KC.@[.CU.b5.DU.EU.FU.GU.l: ag.HU.IU.JU.KU.lv.J2.l: Ju yb.LU.MU.NU.OU.PU.OY Q: &i 9i.QU.RU.SU.TU.UU.xl.b1.VU.WU.XU.YU.ZU.ve 8j.lg.0K .| l: l: m( {H 1m dp 8n 9n nq .H Gq mq Ps Dq 1r _6 >H P9 b3 X^ |1 10 ]h f2 0* <9 #] ,~  ^ d' D) >~ d~ i< s9 s9 ;~ z; *g  | X1 /5 I8 3z '- ,/ Gk.Y1.J; ^9 Nc 8b >( fC ci R| x2 l: 8j m( cE -G Ip Ix .p ^o 9o &p |o ts `U.Yo  V.HT.`| xi.:A s. .V.+V.Ky t/ D) ~/ e( '' T, 'J xt 2^ F- H- (u.2o LC Jr 4o ,n go Cp /m y2 ,8 l: l: l: l: ok )[ X2  1 en 85 X~ x/ 6c +~ j, m  1{ !0 Pi c& c; @V.#V.l( `( l: 8j l: cj m( nk xp Dp |o }t Nt (o fo D5 m| 85 Z: r/ ",
"#a $V.T1 sz !7 2| w} v5 n9 3x l| }3 sk.*} l! [# <~ C: d5 >6 E8 $a 7; D! b1 ~: 'w %V.&V.F|.jk Il N=.{E @F 7u 7u i^ dn K7 i^ ,8 l: l: Y: @p =9 2m lp /n lp mB lq MJ 0: gr yp iI 0( 6s }r 00 Cp [n on vm Bp g3 *2 P6 Am zm ){ @x k( Tu .2 ok l: 8j Y2 *V.1I.rg |g T0 Vq.c^ $0 @g 2+ *  L' R- ,2 N: C& wQ.a  pl.=V.-V.U; A6 ;V.)t 3} #> -} w' x| *0 k1 &  C, }- O: p/ 7^ !{ D; `; t9 !z }7 wq qp 7q Iq hn am 1m :n tm (m 7l il c( }1 jx >V.]c.,V.'V.%,.)V.!V.~V.{V.]V.|r.^V./V.(V.0w _V.;z :V.<V.[V.}V.|V.<A.HB.1V.#t.Ij 2V.3V.4V.5V.6V.pE.ri v;.#~.7V.8V.9V.0V.aV.bV.<4.cV.dV.eV.YT fV.gV.hV.iV.jV.2u l: l: l: Hp 9m op 3n `o ur tH Gq Gq Wq 5q 8q JI }7 Yz l8 q( +: p0 33 U5 E; R' R' f( L> D) *  h: >~ a* g: d~ 0- Gh G8 (' 5F Pt Wn 3= nm.kV.yN.6{.Jd $# D> #7 }0 oE k( ,8 ,8 l: l: Y: -G Y[ C5 h3 zn 1n Mo Mo Zv PT lV. ^.4A HT.^} mV.dd 1G.nV.~4.oV.Q< i< i< h, %> w> <> _1 0: b: lr |q pV.qV.rV.sV._t yo eo 75 'l _7 l: l: l: l: cj '{ r} pl fm g3 [> 1^ 1^ k] `6 ]= `] 9= {4 O< |[ qB.tV.m( ,8 l: 8j l: cj l: m( gy ;p %p %p $p 3n xn tz D5 95 :6 8< ",
"2| f} Gt U1 #2 U1 Pp k| oA ;] Do i^ z@.HN 4| v5 n) pA @4 c_ (< uV.r( _~ ~{ (& *0 I0.=n N=.V0.<i +F g| qE rn @B x;.A} ,} Sm k( l: l: Y: @p 2m 2m 1m /n <n II vV.H~ H~ .~ F' F' -)  E.Dv *I mB Bp vm Cp vn 4q 00 un Co E7 l| ){ N3 ){ oA y%.#s l: cj k( r1 T8 sI.HI R2 w@ T0 Jd I  B= ,' U; q3 K0 wV.dn.^r.o' xV.;w M> &] N, Z' 3] :] ## Ob >: w' $# E, M/ T] E! <~ 8- 3> '= h) Q[ q( P/ (5 Ss 0q 5q mn cn kn nn [n _m ml dn I6 :6  | yV.T&.zV.AV.;'.9>.D9.BV.CV.xh DV.02.o3.EV.FV.x{ *|.GV.Bt.HV.IV.JV.KV.&v.FI.;B ,l.LV.MV.NV.OV.PV.TA QV.-f.RV.SV.TV.yw.UV.VV.WV.rg.XV.Rs.YV.NL.ZV.6S.VR OH.jJ.2u l: l: l: g> /n mp 7o bn rr Fq Fq Hq 3q _s 6r Ss k8 J9 J9 PH.n: A} dq AD *g L- )) h< i, d' g] 5} V{ s; ,_ ,_ 'A s; V{ O/ :~ C: y} cf @l NI nm.!f S4 `V.e> >[ cr ,[ ,8 ,8 ,8 l: m( ~6 Es -4 =9 =2 }n pr qr `n 0p Gq nx pH 4A  W./7 Kp Q1 .W.+W.@W.6W )} J> N- [_ ,; w> }5 mu l9 <> 7r xn wH #W.XS $W.}t N'.Mt Am ~l _7 l: l: l: l: m( U2 >l r} @p 'm 5^ 3D 1^ h~ m! g] `& X6 L< L< 62 99 s$.,8 k( 8j l: l: 8j m( h^ ;n &I &p %p NH 1n :q U[ g- f/ +4 $1 ",
"09 3| ]B %W.6/ F3 1} U2 g^ g^ tk ,{ 0F &W.:/ ;H s! y>.9~.J_ J_ JH $J w4 :^ L> z[ O| Ue 3h fi ^} Y2 y2 g| ~7 83 C} Z: _5 +B _7 l: l: Y: c< 2m 1m (n !n np q>.*W./| A- I~ |s B6 H~ =W.|K II yn 3m g3 =p 8q mt 7r Cr [5 c9 q: f3 f3 I6 q< co ok l: l: l: l: pk :D +8 Zd {4 u& J  G* N2 /& P; q3 0e 2c.-W.;W.>W.,W.Qt __ $1 ;^ z,.pt ~{ N_ )2  & &o `] w-  ~ 62 x_ .^ :~ K. S9 9' e< O8 n_ ]8 8( Ws 6r 2F.IG or rq }G }m M6 im |) r( ]B JE.6f.'W.5).#A.d;.)W.!W.~W.{W.]W.A2.^W./W.(W._W.Hs.F}.:W.<W.[W.<S.`Y }W.|W.1W.ph 2W.3W.4W.^V.fM 5W.6W.7W.ZV.8W.9W.0W.aW.)}.la.bW.cW.dW.dW.eW.;+ kb.fW.3}..K {i l: l: l: g> gW.op KQ 7m tr A=.3q 3q 1F.~I.nr <6 k8 I9 hW.dG }o  p g) n: 6: d< I>  $ 8- 62 M> __ /^ d& $_ iW.3f Go.w>.D{ e' 91 y} 5h &[.%c Jd }( #7 c) bi '[ ok cj cj l: l: l: l: ~6 Es |m gn .p :n Xr jW.0H Er @o `I pH xC q@.U2 ES.n@ kW.lW.Lp S7 mW.X9 .> I> Y; {{ _: ]' 22 l9 lq (n e) h^ h^ nW.oW.pW.qW.}n y2 ,8 l: l: l: l: l: tk <4 Qq el Rp J6 Hl Hn fq rW.`6 U; g: |[ b6 g1 Q5 UE m( k( 8j l: l: l: m( h^ Fp 5F.&p $p hu 1n tn F5 =[ u9 |7 8: ",
"Q5 f} LN )6.{7 d| t1 ,[ _7 _7 g^ !6 {6 ZK ]5 v1 i^ RA oA +B z>.z>.F[ A} I} .1 :9 U< N] Wg e| 4< 0l cl Uv 7v #2 b( n: D0 tp _7 l: l: ok  q 1m 1m (n !n np MC sW. E.H~ n^ n^ =) =) dw _> lq yn g3 Bp up ir .n NC kr 00 3^ q: I6 I6 q: m| 2} m( l: l: m( ok '[ tW.!y  ^ 3+ z[ c  $# ]= -} 9; '2 F; -{ FQ.,E.uW.Q. E( M> C/ X' z,.{{ r~ }( Ob >: Su.B4 ;} 8} N/ 9- >( g2 #~ P] h/ A4 Ow A4 +5 (~ 8/ pq 8q 2q 5q *p |q sm o, <m >4 22 pA vW.wW.xW.;P.D).>(.yW.O).<U zW.]W.j4.a2.AW.BW.~F.CW.DW.EW.FW.FW.GW.HW.IW.i..@[.+m.a2.3W.JW.KW.LW.MW.NW.[6.l^.OW.PW.QW.RW.SW.ka.bW.TW.UW.VW.WW.LH.XW.OH.nu.>J.Q: 8j l: l: {H in pp <n np 7q nr hr jr hr C+.Ws Ws D7 4m G3 G3 YW.hl cG N6 c3 w} a9 &> K3 P( E, w_ 5- 3f ZW.ZW.Kx `W.e&  X.;d {* P- ft Q4 If x'  ~ E; 0G '[ ok ok ok cj ,8 x2 +k '[ <4 K6 sm |m gn $q AH &q :s &q A=.2v fw $s ,o >{ -t.n@ Po.$I..X.mf.iy x9 1> Z6 1> .) 5^ _/ i0 c: [5 'm ]} h^ >o gy hu +X.C'.x4 0l 8j l: l: l: l: l: Y: {H io el 5o Ar K, y#.Hn `S H! K~ ~/ P( v= g1 [: s$.#s g^ ,8 8j l: m( l: h^ Fp &I !o Wo Xu 1n 1r yp /6 ]8 .) F_ ",
"|0 pg 5g sI Y4 _g Qg `7 =F s} 3s ~7 ~7 @G h| J_ Pp @4 8| >6 >6 n9 J8 32 W; l! w_ +1 +^ |0 @X.7n 7n 3o.mI.#X.%4 Ga..9 Q[ Pn _7 l: l: ok ]l (n /n /n !n kn 4q Zn MJ 2^ Q, S[ 8( 0: 7r kr tn #o 4n go _q Zn nz 9r Cr >4 I2 I2 q} q} tz l| pl nk ok ,{ ]} Y: ok t1 6u jx 5F T9 }A V7 [( $X.P4 S4 1+ c  B$ Rt %X.%- +$ 8- k] S! l9 f: T- -} w' w' x| S; )x *  R* 2' Q] +( ': ^h O- Q] ;g h0 Q] U5 )u Hw II 5q 9q 1F.&X.wp o, [m tz xI -8 DT.*X.=X.j-.-X.qg.Hl.;X.>X.Y0.,X.'X.)X.!X.~X.S0.{X.L:.]X.^X./X.(X._X.#` h%.rY :X.<X.[X.4W.Sy.}X.0x.Mf.|X.1X.2X.3X.4X.5X.s0.z^.&{.6X.7X.8X.9X.i+.=L.}G.$k.=k.y< ,8 l: l: T'.in mq nn rq =G.pq iI yp Ws /6  Q.o0 {8 fG /l 0X.8l hl hl cG BB.N6 n: q( b3 :^ %~ h8 )) Q> aX.ab bX.cX.dX.eX.W{ -~ T2 |: Ow *f P] #> W4 dt ok nk cj ,8 sk F3 .F !l QA B5 =2 Bp tm 4n 3q &q uo 3q 3q rq op fw R_ fV U2 D;.fX.gX.hX.iX.1! @l p0 i0 !z n) <^ F} B~ F} v5 4( 5t 1v w1 gm )m np Mt Mt 2m 1} l: l: _7 ql *| -l =[.RF fn !m KQ &q |K &B fr 4% jX.kX.3- L8 p& ;- 99 #B l( ,8 9j ,8 l: m( m( h^ >m <t ~o hu lX.3n Cr /6 6] v} v2 f- ",
"lR.fE w9 Kw Kw fE Kw W9 =Z c) HB 7| Y4 >[ 8v X1 >6 3y v{ `[ k^ 2> 4] #) `! [# P_ >- ,~ K> #> #[ #[ m_ t0 3( r| G8 B' kk 7| k( l: l: ok `q gn gn cm cm 1m tm on Am tz uq f/ U[ pn tn tn _q |q un _q 00 c: gq 0< i0 U[ 7/ p: 8D uq U[ q: &2 ]l 2} en 2} e) Y: m( ok '{ 9{.jc.X9 P; P; Z} 0- `& x' C$ b* mX.!x 9..qC R- G> <> z5 _/ kk 5[ b; ~4 !4 U] P; 2' Q] ': ]h y} ]h (' O- P] N4 N4 P] s~ %) 0( gG.5q *p 1F.&X.YM K6 ^m q| d} 1v nX.oX.Ra.pX.qX.Cf.rX.sX.tX.uX.H4.I4.vX.m(.R= 4_.wX.xX.yX.zX.AX.BX.CX.DX.EX.FX.eW GX.HX.IX.JX.KX.`B.LX.MX.ay.9D.NX.OX. x.Hg.PX.QX.RX.T,.SX.7b.3e.u;.,J.w;.&A DH.x2 l: l: 7A ln hJ [G &X.zp F- H- n0 /6 H- %a G6 |7 xm hl ml L6 hl 8l [4 >{ 1} d) [l il hI -I nE !w &5 TX.UX.#6 VX.WX.eX.A_ H8 6; H} }0 _g ^B ^B @G 4_ Y: Y: ok g^ u1 yw W1 r< q< 85 yn 4n go _q =H 0r {( fo go on Bp Ix !E HT.>{ W8.(c.S,.`S.}, XX.Dg BB.*4 *4 C} bd y^ A^ Z6 u4 89 YX.hx c3 }1 j^ o) 7q ms 3m Z( l: _7 6l !r.Co =p 4n [n nn pp @o ar S~ S~ X' ZX.`X. Y..Y.db Us KE D8 Zt.#s ok x2 g^ tk tk ok Y: ;n +Y.{o |{. ^.hn |r L_ t< `; F} g/ ",
"pg Yg Yg 2B Ll ~h !h !h &y 6[ lF  | U9 8G O6 t} Y1 6< kk I> :^ g~ T- V; D/ [# &b &b G: C| l0 E0 27 &> -! t>.3z 5+ l~ P] zg ^7 l: l: ok `q Bm )m gn cm /n )m 1o hv en 75 f3 f3 I2 I2 W- tn pn ao ao [5 _6 T[ q( s< }> $9 i| dq sn :6 [5 tz on xn 95 Bm e) m( l: m( m( '[ *G %4 K. Q* Z} g: }( U} t- 9* [2 *, {~ :E L_ /' _: }) <5 2| 3z U] )x )x g: A; m_ h8 d< .> @> A4 /~ %~ L- L- ;g %~ L- m^ EH GG 2q bo 5q 1q Am ^m ^m km @z |4 @Y.#Y.dN.e>.$Y.C0.%Y.Ab.QN 4i.&Y.9N.*Y.=Y.-Y.;Y.>Y.{W.,Y.'Y.)Y.!Y.~Y.x*.{Y.]Y.^Y./Y.(Y._Y.Sy.:Y.ck.gX <Y.,K [Y.}Y.|Y.1Y.T7.2Y.3Y.C0.4Y.5Y.6Y.7Y.Vr.'J.&A Sv bi ,8 l: l: AR 8Y.Hq #o 1I yp %a /6 |7 >2 `4 o0 H- u} xm M6 {l }l /l <G *| ok m( l: l: _7 kt _l I[ U6 pz.9Y.0Y.aY.bY.cY.dY.X{ a' I) U- U7 $o k( '[ '[ '[ g^ Y: ok !6 ~l 83 d3 4m 95 go go 4n mp _q OH 9r lq on =9 =9 3m Ip VD HT.e) eY.fY.;v.%, .i.em. U.Qq ko -r <I *~ I) :[ NZ (h ch fE W9 NF eE F/ u9 Cr Bo &2 t1 l: k( L6 vp 5q 1q Gq Eq dp Fq pr }s _> P, M! gY.hY.iY.aW jY.vb kY.A^ lY.#s >s ok tk cE cE ~6 >m gy Kq tq Lr pH :n wr g~ &> E> K- 1> ",
"=g mY.mY.=g =g Ve -g Og &y n8 [H Ng +: t} X1 A2 +: &~ T2 v] T- )) 1' V; +; S' L) ;d k, 1- |- |- &} nY.qC !q Q; Fy O| q3 &j.,[ l: l: ok `q Bm )m )m cm /n ~m fm 2} hv K7 q< f3 q: tz 3^ iq pn xq xq wq j^ i| i| t9 d9 t< (] }1 o: O[ tn :q xn un :q =2 ~6 m( m( m( Y: qk +2 <T.K& m+.SB u; G* s& ;( v3 iC.pD 4j 3a h) {{ W~ k_ >} P[ !~ a* z[ ^/ C, i] @> Z6 `[ kk T2 C: L- h0 h0 L- L- C: T2 T2 pt oY.bo *p *p bo wn |m [m R9 {v |4 }i pY.IZ qY.Q5.3e.CT.rY.sY.tY.KY uY.vY.yt.9n.wY.xY.o'.yY.zY.AY.BY.CY.DY.EY.FY.GY.HY.IY.JY.@q.KY.:o.LY.MY.NY.OY.px.uz.PY.QY.RY.Ri.~e.SY.wS.Is.kt.eI.Rx T8 S8 Y2 g^ h^ h^ kp IG A=.up k8 +z g/ >2 u} v} 1> `4 g/ v} o: 75 :m (m .G (m X2 g^ ,8 ,8 ,8 pk +2 JC *F !7 XM.TY.UY.VY.WY.XY..4 v_ YY.D: Y; E8 s$.m( cj _7 U2 '{ qk '[ 6/ s} k| d3 YM yn pp fo #o Tp 4q nr 5s p) xn Bp sm *2 2} !E fV xp ZY.% .`Y.!-  Z.,D lF ]l |H M=.C5 Z< 7; :[ t4 #x 3g |I -h L0.`^ .Z.f9 a( mu d: t1 l: _7 >l 3m ym dp 8n 9n 8n Eq pr 5s &[ 0( /a +Z.eq.@Z.iY.#Z.r2 }~ x} $Z.Y: ~6 ,{ e) xp <4 <4 AR AR Kq Dp %Z.Oq 4n !8 A; C| dx D; `[ ",
"`0 O4 3 .`0 N| O| [$ G8 7h Ga.10 n_  _ 20 e: g) 3o.9| Y; _] T- T- )) R- i] f, e( 7- &Z.L' C| T9.58 C$ *Z.vw  - ]g =0 P4 =Z.9s l: l: ok r} )m ~m 'm gn cm 'm ^m im dn 1v &2 q: f/ [5 >4 Co E7 q} TB 20 s< |1 O8 t] S9 27 @> s< 8D q: xn 95 Cp vp vp [m j2 R_ R_ g> dE g> e[ tp H_ c3 6: '2 ;( G{ !f B( ]0 -Z.pD >9 #~ 7< w2 E} q( I- r~ L> g: >~ i< $> +5 6; 81 81 +5 +5 T2 U5 v] <3 L- L- U5 -~ 6] jr 1F.7q 2r /q up :n (n 1o {v BD +F ;Z.~s.Mb >Z.,Z.nu.uy 'Z.3Y.!K ~j )Z.!Z.~Z.{Z.]Z.Vi  Z ^Z./Z.(Z._Z.:Z.N[.<Z.Sq [Z.}Z.|Z.lK &J.1Z.2Z.3Z.4Z.b/.+y.uL.>M.}k @T.&P pw.C0.GR.5Z.<j.{i.8H.X8 F3 U2 tk ;m 6Z.JG mq Bo J%.}> `; 4] d< C2 d< m_ /~ I} Y; 99 L| 2) v2 L| +4 @4 W^ Uu dt C3 V^ V8 5v H/ A4 d; 7Z.8Z.`W.l& yx.W7 v7 9Z.>6 )5 Pn f> m( l: ok vk ql )[ ]5 X2 em &2 k| *2 }n eo !t m%.8p (q to <> |r J2 wq E7 l| hv !E HT.;s h| %U.p- =4.;:.=H.H_ A5  (.pB.y4 o9 Z6 ut 2M.0Z.MI.aZ.LP.w; Lz lc.T9 |7 |r d3 t1 l: ok *| im :n mn 3n 3n )n No or lr >) W; 9< bZ.$H 6( %5 X}  4 mG 6^ 73 Y: Q| ;n dE T'.,p 2G cZ.Mq Kr ;p &I &I Cp ^6 K. 2+ j> 27 9' ",
"%0 %0 i: ;/ !: 3{ O> r- !h u{ !7 X^  _ D5 :m km :1 o: h) s~ l] )) l] #~ l] A8 _4 {* h< P; L& ]I 6> ;: G0 !/ W0 ms.|$ Dh 1B 9s l: l: ok ~p 'm ~m )m )m cm cm 3m 75 m: 1v .G wq yq c: ao ym l| *[ *[ _B Q[ i/ -[ T- K. )= K& _M t} 8D q} ym ym 3^ iq m| C5 A5 y4 C5 Y[ _y Q| '{ f> ]5 s} )h 3= Id P'.-{ Bv 3C Qx cB m~  ^ P' $) I} R- .^ ]/ 5[ L> |_ i] Y; 81 81 D: y^ Z6 i/ T- 1' Q- Q- l] |' v) &) R, Ss 6r nr 4r ao yn x4 h3 k2 j2 KC Oi +l (f.1d.@8.=k.pi 2u MW dZ.pE.eZ.Ck.0A C^.fZ.ax.gZ.hZ.iZ.jZ.j/.7W.kZ.lZ.5}.H}.mZ.y(.nZ.!_.oZ.pZ.qZ. d.S5.JQ.rZ.sZ.tZ.uZ.+v.vZ.wZ.xZ.5Z.mg.{i.uy pk _7 ,8 _7 tk 'p zG fo 6q o) v} :^ )) Q] %~ Q] )) d( A/ l] 91 91 S- @; 4) V; 2| T1 hE ,y 89 @5 Z4 5v _g M- &- ,c Go.k! #~ y} 79 @4 @G QA M3 ]5 ok m( m( &l <4 =| w1 im F7 g) d: &2 q| V[ cp Xs JN ms Ar ;V.S! {{ 8( 2) i0 ,} EB Cd.VD Ep :1 aG nu.yZ.15.Bg q< {r lB }!.W[ o9 7; ut 2M.~h zZ.IQ k{ >N cB =, =; /6 a( e3 t1 l: m( e[ Ip lm !n 9o 9o BH Dp %G.AZ.BZ.2- E6 2- E6 `6 m! A( CZ.DZ.Q! ;H g^ e) ko Ur 'o ko gy gy T'.JG %Z.&I 5F.[G ^6 h< !} U; Dz 2> ",
"S; G{ /& __ __ N> d; !} !y V9 |1 R[ f/ Uy hv ~p jm N6 C2 #> #~ #~ J> J> P] U5 (( 91 i] .^ w_ (e *5 $l .* dd cw ZA 9v !f EZ.Ji l: l: ok ~p K6 K6 ~m ^m cm =2 P6 m| &2 1v .G O[ a( /8 )t yn *2 ){ m: N6 `; j8 4} E) K. .8 h/ QJ o( p( _6 wq Co wq ao un ep %t V[ Xv e} F2 e) ok l: l: pk wg od.-m K{.FZ.GZ.HZ.(D X@ 8..:f &_ .^ r~ R* r- i< 6- f( q~ {* kk 6; 6; 6< a' L2 4] #) )) )) A8 R- $> ~* -~ +z =[ wr 9( 0< Cr :q on Bm ~v y;.Q/ IZ.hh {v.6T.VE ~i x2 Ni {e.Dg.JZ.sp.i6 Qu.qE is.yc.hw.FC.0O.KZ.LZ.D|.Tu MZ.NZ.y/.OZ.PZ.QZ.(6.RZ.{i Lx SZ.5c.TZ.UZ.VZ.Se.]u WZ.XZ.YZ.ZZ.xa.6M Mi.wv 8j l: l: ok Y: 'p zG fo kq :6 &~ T- ~* J> J> #~ N- $> j< |' {* )~ W{ `! <~ e( U5 pG Ow '; ,2 P: %F ji ug '2 f& (^ $_ @^ 4g vg +7 Uu 0l qk g^ ok m( m( h^ cE 24 L6 ){ q< xm -8 l| *2 -4 Sp m%./s =H /q 4r Cv G) G- H- /6 f: [5 q| j2 qD G%.dm 6O.VJ.`Z.zy VE im %). `.^y a< -] 7; aC NZ ~h ;h I0._f /f rI 3= /~ H- gr 95 4_ l: l: ok vk Lq kp kp Ep Ep G%.cC.d9 l) k) o+ cd [] )= A7 5( ca AC b' QA g^ g> Ip lm ^o Nq jo ,o ,o `R.vs MH %Z.IG iI V* 0U..8 >A M2 ",
"Jd G{ hf T} [[ T%  ; r- x9 lF o( 9| o: YM hv 24 [l Pp (] #> N- M- N4 P] v] v] v] B_ |' h<  ^ %D A1 qa i; /3 =/ 3M 9D 5f .`.Ji l: l: `( ~p K6 1o K6 )m cm |m vm 95 P6 EB &2 f/ 0< to Y< m| q| ){ jl +u $7 G_ y- }' a} J> (' d< i/ X& &) 2) Ap Ap [5 un xn %t }n e} e/ 2} e[ ok l: l: pk _G !q.G9.$9.ji.+`.@`.#`.Cj.S{ +L _& /: Q* !} i< r- P; @] @] t3 /~ +5 7; 6< ^( &~ 81 X; #) Q- l] k9 d( N- -~ X^ p( +4 wr <6 p) 3^ wn g3 y4 X[ qn #4 &i ci ci R| _7 cj rl ;P Yj.*3.*! u@.HB 6/ $`.f..;G.%`.&`..x.*`.GU.`( 4I =`.< .P_.-`.;`.>`.,`.uu 7[ IC.QK.X/.Qe.'`.)`.lh.Ju KC.)i.<4.!`.ph.Kl 3< 9j l: m( ,{ ~6 ;n ^s <q J6 :6 w} s~ $> k9 J> N- M_ $> _4 d( :_ e( 3> 9- 9- .$ ,2 Eg Ve }h }A Dg DQ ~`.o{.'h u- m5 ,: O4 2h /] #F g| Y2 _7 _7 ok tk ,{ e[ An `q  1 (m wp q: c9 3^ D5 tz g_ Br q) ^q 00 Cr Ws 0( 9: o0 P8 r9 g- 85 b< 8z zG {`.Eh.;f.6M G@.]p.J7 -2 }!.4A R9 *~ 81 aC ]`.]`.Yh.,A x| ~f %  V4 K2 ^`.a: D5 d) l: l: l: m( h^ ;m ;m 'p ;n dE o, I8 3+ H# yD T9.LJ I| ;> u2 l, {a <^ /`.Y: g> Ix zn jn <t qD fV >o jo Wu MH uH dp yp *> V* V* @( Z6 ",
"Q; )x w_ O2 62 62 k! @1 Og  7 v{ v4 :6 95 K7  q co n( 09 N4 M- q- N4 h0 @( g~ v] v] s~ |'  $ L' /; *D c- x@ $< =( EA %0 (`.]7 l: l: g^ r} K6 fn fn ~m cm |m vm m| P6 :m bH U[ |r kr b} 95 q< &2 F7 dq P' jL !a cd !} h] #~ i] i8 !{ Z9 o0 g_ Co un :q ep wn %t Sp ;4 C5 24 V2 !6 !6 Z( 4i 6p.@k wk Em.oX Z4.Q;._`.:`.|A }$ ): 5+ P; L' .^ .$ i< ]/ f2 U5 J) kk M2 X^ a' 6; I} X; <3 Q] h0 N4 P] m_ 33 6: 4| t9 yq :6 E7 Co m| =2 =2 *1 !6 ,8 8j 8j 8j _7 cj rl wv <`.71.[`.}`.D3 k( 2u -J.0_.e<.iw.s0.9Q.|`.,8 k( s|.R;.8 .1`./N.}5.2`.Li ^7 3`.4`.=` O(.5`.9i 9j x2 6`.7`.8`.kR kJ.Jw.pk l: h^ ~6 -G (r (r .p vn 1r :6 32 @) d( Q- N4 #~ N- d( l] _4 R* #] E, D, xD &  lz Jg Ve &[.,:.U9.9`.0`.%o eb.y' z8 z' 4W @k Ew DH.t1 k( cj ,8 tk e[ g> =l }l ^l 2} gm <m E7 JI 5^ /8 f: 2) /8 mu tn vp g_ |r 0: 8( 2) a( 3} J6 95 2!.^y zG a`.]F.ER b`.xx @r )h km M=.BD EB v2 81 NZ kR.c`.#x O4 >/ Q; lz 7= => ^`.~I 3^ f> l: l: l: l: m( m( m( &l g> {H il T9 ]* c  d`.e`.f`. l.6= 1' 4) b] J8 nB ok e) (r ^n ]o 'o !E fV ,o ev }~.a+.Lr mp /8 h) $u $u i/ v) ",
"3= ): h] h] i] :_ :_ K> h< .^ O; <[ -; U[ B} l| C} }0 I> E; @1 K> g2 N4 Q] @( |: j] :^ v] v] K& B' S4 y| E( 5! ;w EA ,- (`.]7 l: l: g^ jm K6 fn 1o ~m cm |m g3 75 d: *2 95 <5 J6 Y< g_ :q I6 B} e: i| D6 W} Us p& M> 0* L> ~/ e- G# ef.6] uq ym tz :q >4 Y< Y< z5 y8 H2 *1 jm 9l 9l 4< QF t1 t1 t1 g`.pF.,Z.h`.ea mm.R1 Q} y' 3z J3 [$ .$ @1 R* i< @1 {* {* l] +5 o< &~ D: K- I} J/ %~ O- +( +( Ow v{ !7 w} L2 |7 9| U[ >4 ym on zm ){ >{ l: l: m( cj x2 cj bj 0j Li ]u >8 ,[ ,8 l: x2 %~.i`.j`.M5.Na.MW k`.l: cj `3.lg.Lx. 7.!`.>z l`.9j 9j 7i m`.ag.n`.WZ.x2 m( l: 9j 0j x2 x2 _7 ,8 m( m( Y5 y;.'m 2m #q 2m ~t J2 g- 3y T2 Q- h0 Q] N4 #~ k9 Zx r3 ,- N8 3~ t/ m5 B4 rI 5y be <E |D !4 ), hA #n R; L0.^h.`T.Mv.4i sk x2 l: l: l: ok pE ]l Es 1o gn =2 en gm :m g_ gr rt /a *) H> {{ 5^ 3^ 95 E7 J2 3} c: 3} p) J6 JI wn fw %s 2l yz o`.kw ) .#F.WJ lE x0 m| ep w< 32 Z6 h8 qB.p`.{h N4 /: J3 k. 7= => F- P, g_ kl l: l: l: m( m( ok _7 e[ 9l W2 I< W9 j1 KJ %Z q`.r`.]6 B2 h= I} H> _5 3_ m( ,{ -G .p ~m km F2 'm gn 4o vs ^w [t BE lq H6 .9 .9 1> .5 ",
"s| O-  7 10 O8 34 <3 R* x= 62 g1 p] Z;  _ >4 7/ j| O- R* O/ O2 5} f( (2 L- J/ J/ -~ -~ J/ T2 2> d< A' :2 N0 -: $m =& &^ xE ]7 l: l: g^ `q K6 1o fn .p cm =2 q| ){ &2 85 |) >4 g_ U~ (q tn ,} I6 _B }> +6 s`.]e Jm _a z1 !: v/ d0 S] }] P[ wm zm 95 I2 un ]' z5 p) z5 ep F2 mA ~p nB e[ ok l: l: l: lJ.kJ.U9.t`.d8 !_ &7.-{ Dj -f v; /: #7 K> !~ h, g, :~ h, Q' J/ 6< a' 0' Y; K- kk m_ @> (' #x #x *g d< 2> Y; 6; S[ 3} g_ xn Cp xn [m e[ l: l: l: l: l: l: 8j l: l: l: l: l: l: l: l: 0j Ni Ni +k +k 0j 8j m( m( ,8 ]u oi rS ]u Li 0j 9j l: 9j +k Ni 0j 8j l: l: l: l: l: l: l: l: l: l: m( Y: [p #q bs ,n vr vn 00 c9 U6 y} O- C: ^h ft '; h0 ;` 42 G{ *5 66 s8 H5 6> ,4 '- [e eb.c  Bc ,q &e PG [- Dg (i.Sv hi %i ,8 l: l: l: l: ]} @p c} Bp 05 ds #o g3 'm =9 ao iI F' 3D 1a M~ 9: r9 3^ |C I2 g_ [5 1r 1r z5 *p lq wn fw #N el {P u`.vs.v`.w`.Jk y&.aH Hw X' 9: D: `< fE lR.bh qB.ut q3 .8 2' $7 N9 F- P, b} jm cj l: l: l: m( _7 pi bl qn W2 X5 eE Hd h6 x`./I./B vG +u u} `; Z; xw f> m( ok h> :1 /B C} xw f/ pn <n cC ,u.9z 1n ns U[ n: p< p0 Z9 ",
"5: mz AD Gt Y1 33 <3 `- ^a v= [# L; 17 T[ r&.PH.|1 )) S' d; m7 N> [# f, h0 x^ I} -~ -~ I} (~ Y; 6; 3( $A A: )@ t5 ^= ,- 5g y`.l: l: ,{ {l K6 1o fn 2o cm cm .G E[ r< b( U[ U[ w< >} b} [5 uq q: 71 u9 j~ %5 .Y.$: f; /^ ,: T; C| N; *> |7 wm |C zm wn >4 z5 JI 3} (u wn R9  J  q c< |4 #s m( m( m( _7 Rx z`.~; @0 ^d G0 ,D ;j Q} 0; J3 #7 E; >( !~ h, q~ j! e( v] y^ &~ 0' Y; K- H} .> y} M] !h *g .z *g k^ 4] h) O! yq pn xn on #o =9 dE ok #s ok cj l: l: 8j l: l: l: l: l: m( l: l: l: l: l: l: l: l: ,8 ,8 ok l: l: 8j 8j l: l: 8j 9j l: l: l: l: l: l: l: l: l: l: 8j l: l: l: l: m( m( Y: io ]n hn !n ,n ;q un q: 4( u4 A4 Ow Ow ^h G' ff Mu 42 3+ dc ck i} iA N0 ;: d> Dh :p K/ >| 9c Bt `M wc A&.Eb.8G.Ki R| 8j l: l: l: m( !E Ip =9 V[ %t fo fo [n (n [n 1r Q, &t z7 F' m^ P[ -] >4 b9 I2 >4 tn 00 -q /q 9q 1r wn A`.#N SF B`.C`.pa.D`.6o.au Hd d9 -) R~ f- t4 09 fE pg fE [: 7~.L- R- 1' y7 b/ rt ;; Y< ml rl bj bz 5/ E`.F`.G`.H`.+2 ZK co d5 q9 y1 cj.p: YM |C vq L9 H- {{ C} 0F l: 8j `s Ol.uJ.#X.D9 x$.K_ *2 -s }~.I`.3n fo q: C} N6 pA -> ",
"s| h/ 10 Ng 5| X^ -~ A, S' G: x= j8 A0 !8 $9 .9 1> ~* 8- [# 7, 7, E! :_ <3 F: F: '' -~ C[ W, K- K- -[ 26 PI 2{ 2{ 5> #] 5g ]7 l: l: ,{ {l ~m fn fn fn )m 75 xw MD  _ !z 9| q( ![ :6 ]' g_ uq xm _B dq k/ y7 V* !} |[ T} t^ g: V4 h/ I8 Q[ o: ,} wq 3} [>  ' b: M! C8 t: Xv -4 -4 61 *1 Q| h^ h^ h^ Y: R8 =Z ); If ^g 1` =3.,D 1x :2 HI S4 r| N- E; i< 0* 0* h, J> Z6 L2 0' L_ K- H} +5 #x Ow Og mz x9 !7 e< j/ g/ P8 D7 pn =p go fo :n !p g> BD {H cE nk l: l: l: l: l: l: l: l: l: l: aF aF aF aF l: l: ,8 ,8 m( l( ,8 ,8 ,8 l: l: 8j l: l: l: l: l: l: l: l: l: l: l: 8j l: m( h^ ,{ g> g> Hp 3l {n ,n gn vr 8p <5 A} d5 h8 C: ': Ow P9.;` |h 2C Lg v3 x* N0 #8.q8 i9 m  !4 Fy !f c6 :# qc 94 ,7 b6 [H &F pi R| _7 l: l: l: m( Y: pE Vr 90 #q hn (o np nn Bp #o z5 /8 8( S[ S[ 32 +4  _ c9 tz tz ~t Ps Iq -q )H ^u )t wn Pq ^y el J`.K`.i...J.L`.Rt ;k.,7.C[ f- <3 +5 h8 ~h (h #x y} ut v] E> 1' X; sr S~ ;; Y< il DG.M`.N`.O`.P`.Q`.R`.S`.ai d) mA E5 l^  > {8 Ap on Am Co yq |7 2) do {6 l: l: T`.uA 0`.U`.9P.tL fy AE wH Ny :t zn Co sn dq pA 9| $[ ",
"$~ 8; d< 10 [H 33 2> j< f, 'a O;  $ S9 >A -[ >A L~ M| T' `! 4& '~ k~ #) <3 X; $) '' C[ C[ W, W, M~ L~ #7 u; p~ B= N8 w_ 8h 4_ l: l: ,{ `q ~m 3o fn 5o ~m b9 |7 Y; T2 7; D: H8 7] a' 5^ >4 q} c( C} -8 8D -8 ]r 7J a* __ G{ O| 3a z} {' u} u9 !z a( 9: F) (/ ; .q! Ou S! :5 U~ <5 y8 Uy _< ]} ]} q#.Y: !6 S8 ez +8.V`.$[.,j ^_ v^ Q3 a; 3z Hd ,2 z; `& w- N_ U] P4 $~ I> m_ 4] i/ /~ U5 q- r| M_ ,2 .z u{ 89 M2 Z; F} _6 O[ Co vn _q 4n cs ,m (r ^s XG ,{ m( l: l: l: l: l: l: l: l: l: l: l: l: l: l: 8j 8j cj l: aF ,8 ,8 l: l: l: aF l: l: m( m( l: l: l: l: l: l: l: m( m( m( Q| Iv 3o 3o Es ^o $q go mp 8p Ar 5^ -] &~ J/ Q- h0 ff ef A[ ;3.5& i( *Z.`9 ry ry .- B$ o@ Fy B( $# d] z1 w_ ^^ |_ ': @w r1 uk 8j l: cj ,[ 1} )[ (B km on W! #z V[ go #o #o #o 4q mu 5^ W~ p) :6 n9 >6 >6 o: p: ,} W- fo Wq Vp Ko Mt Os eo Vo 'C Ep BJ gz W`.X`.pl.Y`.50 d9 Y; I} T2 ^h (' Yh.Yh.+( %~ U5 d( `} V; X; L_ b: S, >4 F9 Z`.``.  +. ++ +@ +# +$ +% +ql -G do i0 o) tz :n !m )m cm 05 k_ q: & +g^ l: l: * +(O.2K.HS = +7p.C! !J.Mq - +Jr zn [5 =[ .9 O8 g/ Z~ ",
";[ s| ~' *g |0 Xz .z ': I> 8; l] h] K. L' 6- }' x8 g1 q@ +; T2 `[ t4 K- X; ,; v) -~ K- H> W, M~ $[ 4& #7 g: u- A1 g; 62 8h t1 l: l: ,{ `q 1o 3o 3o Ix 'm Co 9: V; S- @) F: W, N' '' u( k_ C7 d3 c( 4m g) oA V^ P: *  z1 G{ Id Ll fy sz O8 t9 p( |7 7< 4) {a F_ F_ n, w> W~ :5 z5 CH 5< *1 dE |4 R_ Y: m( m( cj k( ,[ Ag.)E ]A _C K  *w F; u| #6.=C $# EA EA V] $# 's /; h] m_ ': P] f2 i<  ^ f( +^ #x u{ 79 L2 P[ F} _6 O[ up Co up 4n 4o ;p 4o 4o zG cE m( l: l: l: l: l: l: l: l: l: l: l: l: l: l: 8j l: l: l: l: 9j l: l: l: l: 9j ,8 m( m( l: l: l: l: l: l: l: l( l( m( h^ Hp 1o }n :n !n |n vn Iq Iq lq }6 %[ b' H} d( {* M- N] s9 U] m~ Fy @A iw IA kA ; +A$ <2 ro iy 's m5 46 Q* c) jc.'t U8 bl x2 cj l: cj ok #4 3s 1v km 85 b} Y< ns ~t un tn tn 4q lq ir T[ :6 U[ A} D0 pA n9 s< }1 U[ >4 fo Fq @o Xr Iq ms or Yo ^D ,p r@.6g.> +1, , +@} ' +yY K- J/ C: /h ^h ^h P9.G' L- Q- $> `} S- s~ 5] {{ *~ C} .F f{.) +! +~ +{ +] +^ +/ +( +'{ =l hv K6 o, ^l Ds Kq 1l 3l  q Ip gm _< ok l: l: Rx J].m.._ +%U : +< +Ba.Uo - +Wu zn z5 u} -t `4 h) .5 ",
"&[.Vy lE _' 7J %g mY.$g q] Re K& l~ (; @e /; p@ `& V@ g] K> h8 lR.+f D: j] V; ,; -~ +5 A^ W, k] C/ p] !~ @e T} N8 08 g1 5g t1 l: l: ,{ `q 1o 3o 3o Ix 'm Co 3) T- 91 j] F: '' E_ F~ b' F8 F[ F[ Pp i> I7 s! C3 6= d0 __ ;/ Id Ll fy kE 33 %4 kE v4 #[ f, {} `- u2 '~ H> E} y8 ]' @' w<  1 An i2 x< Y: m( m( m( m( l: zD j1 z_ }* ]A J  iy Lg }h =, ^; EA Uc v& g( t& ,J P; O- ': )) .^ j, &^ j! g, Ow 69 3y L2 w2 -; 3} [5 vp ym mB |n Zo DH Zo ]o ^s >m m( l: l: l: l: l: l: l: l: l: l: l: l: l: l: l: l: l: l: l: l: l: l: l: l: l: l: ,8 l: l: m( l: l: l: l: l: l: l: m( m( Hp !m 4n }n !n |n vn _q _q Cr 0: X~ H8 K- l] (2 N] O] <' )_ J  =0 tM.X}.2c.kA kA A$ mX.tM.N* n7 ,c Ka h] .q X8 u1 )[ U2 m( l: l: l: ok Y8 em ){ en 85 [5 J2 U~ un un <5 00 ao p) |r yq J6 2_ Ql pA n9 s< s< }1 f/ 00 up or Eq Wq Iq %q (o U'.tQ.Cd.Ba.[ +*2.} +7S.i} 2+ $u C[ -~ C: /h ^h ^h HQ.+( S5 z/ ~* i] S- 91 K- 32 )5 d3 @7 | +1 +2 +3 +4 +5 +6 +7 +e~.qk =l {l X2 X2 SF 5l 5l |l Ur }l ~p `q W2 ,8 l: l: 8 +tR ea 9 +*N.pR tL ^B ev bC 0 +zn J6 v} h= >2 `; p] ",
";w.u@.jX A' A' A' Vy &[.#g Vy +g y; [2 c~ ]v <2 mX.Lf <  D{.h..sb.Y7 yE O- )) T- K- `[ `[ I} ,= }] )~ >( 2+ /& k) /& j, V9 R| l: l: ,{ {l 1o fn 3o Ix )m up /6 K- j] H} U- 6{ +~ +~ .' _5 n( C} @u n: -8 d3 _B a9 ~/ |[ (& V6 5: (' @> /~ m_ Ml (' R- B, j! E! }- )~ -~ .) Z< +4 B~ :6 dn qn mA 9l ~6 m( m( m( m( l: )i u@.rI sy b* W& K0 %c eb.[2 *D c- ^| IC -V.g* a +Q6 3( /~ l]  $ .^ @^ R* f2 @> u{ {' &~ a' 2) 3} J2 uq iq <q Bu in 9o !n cn tq Lq -n ok tk ,{ g^ cj 8j 8j 8j 8j l: l: l: l: l: l: l: l: l: l: l: l: l: l: 8j 8j 8j l: h^ h^ Y: Y: ok nk m( #s tk g^ tk ]} [p lp mp |n (n mp 4q 00 <5 Cr 0: G} L2 81 U5 k9 |h Q4 u3 m~ Jd K0 .B <  h( .- b +R1 uz nm.@g e0 %_ p& L- Cq al )[ !6 g^ l: l: l: cj qk ml F7 75 K7 m| J2 p) ao pn J2 *I Ss D7 D7 yq c: p) j^  _ !z i|  _ pA pA f/ k8 2q eo Bu Wq %q Up 2m ;r xC Hp Ba.M* c +8@ d +Hk Y9  5 C[ -~ x^ /h ^h ^h HQ./h S5 x7 91 S- |' s~ (~ y^ Pw iV v1 is.e +f +g +h +i +j +k +^s.,{ pE [4 *| dl TF -l -l Qq 1G *l 24 qn V2 ,8 l: l: =i k]. B oR v~.$3.^H.Q8 )p bC 0 +!n o) !8 5= >2 k^ E/ ",
"tL od.&[.#; @q o+.[2 Da.x; =z %i.l +mi.m +=j.=j.n +SA o +p +yv.]{.D{.:' #6.3( T2 `[ Z6 2> I} N' @~ 91 2' 26 !: x' p@ r- <D R| l: l: ,{ {l 1o 1o 2o Vr am up S[ 6; A^ I) E: I) x} Z- N! B~ w2 0' Y; Y; J- 7] P[ T2 :_ i, ~/ D) &  /: .^ R* -9 K> a} i, 0* w_ T] D) B, <_ 91 %> %> b] H8 L3 k| e3 k| qn ok m( l: m( l: R| (T.!g jg %U.rC .a Jd Z0 4D &3 {2 ^| b +B$ jJ h* j> 8; K& #~ N- N- (2 K> h] A4 z} W4 O8 .) f: !z P/ q( r9 T[ kr pr 2v mn (o in DH 'o Kq zG RF [p ,{ l: 8j 8j 8j l: l: l: l: l: l: l: l: l: l: l: l: l: l: l: 8j cj ok ]} >m g> g> {H vk ,{ x< -G Ur @p (r ~m 4n eo dp Cp bo ir |r 5^ 0< G} P[ 6< y} P- h0 G' Jg j1 R; 5M nm.iw h( s7 5$ Wx q +r7 R; }A Re ~* )) Gt cr rk '[ m( l: l: ,8 g^ ql *l ;2 uq c9 I2 1r 0:  ' 3] S[ /' &u /a p} -; F5 i0 D7 u9 q( 9| i| U7 4( j| u9 P/ qp |q <q Hq Iq Wq ,n sD 1{.T'. r M* r +s +A| t +u +$u m^ -~ x^ ^h ^h ^h ^h /h S5 |: (( 91 s~ (( (( d( |: $V.Uh.%i Fc.v +w +x +y +z +A +x2 q#.,{ '{ _7 _7 ok _7 tk tk &l qk ~6 ~6 g^ m( l: l: '[ *V.pq.35.!I.6O. G y2 #N ]w [D !n _6 h= 6= I8 i/ aa ",
"f5 lc.#6.y' W& '- =0 -{ X}.B +C +i|.D +kE.cW.E +F +E +G +H +&y.I +m..nH.2z Ue %7 2| Z6 Y; '' R} $) X; R- P; V{ !: p@ /: .( R| l: l: ,{ ]l ~m .p 2o 3o am up 8( 0' y^ 6< _~ H8 7] X, o/ $) '~ v_ `! -' I! C/ w/ N' -~ 91 z, g] g] 0* D) L& *   ^  ^ p@ /, !: 5} N} k3 c' x_ B] C^ A3 |: Qw (< E5 7/ YF !6 ok m( m( m( cj pk Li Ni 0{.=! p~ j: +0 |$ v& fj Ey :& >J S% 68 ^^ q9 #> R- #~ P] k9 E; t3 C: 79 !w 3y v5 ]( 5| p( v} L2 w2 0: lq rq mq Fq dp 1n zn in in 1m Rp cE m( cj 9j 9j 8j l: l: l: l: l: l: l: l: l: l: l: l: l: l: l: nk e) dE Mq Jx !p !p ~q dE !p gn kn :n 2m (o Bu Wq fo :q Ss P, S[ F} 32 H8 M2 M2 Z6 C: ft 2g <g i1 5f rI Y1.|$ C& D& '4 @% 4, a4 B= *f _G Js .A @B Z( l: l: l: m( m( /7 =| Z8 .G ,} F5 W~ )t [s IK J +.~ Y& uc J~ Hx 9< p} r9 _6 i0  _ j^  _ 5| n_ j/ yY `; 8( Ss 6q 00 1q 4q _q :n *s yC ,p :G M* K +L +M +N +O +9' kk I} T2 ^h Ow Ow ^h +( P- }: U5 (( Q- z/ f2 ,~ ,~ R9.P +1i 8i Q +R +S +T +2u +k ,8 >s ok x2 8j l: l: l: l: l: l: l: l: l: l: l: l: l: l: ,8 pk O=.Ni Ni Ni !6 )p Uo [D 1m yq j/ mz d9 $7 G_ ",
"$g X7 mR lz F; Q} 'D 2c.~q.Mb U +V +W +He X +X +Y +Z +jd ` + .+h ...+vm.+.+#g Wn 99 `< +5 -~ M~ +~ $) s~ u< X6 =  E, /: @5 R| l: l: ,{ ]l ~m fn 2o 4o am un 0: P[ k/ G} `, G} Y, Y, )' k] N~ {} 3> u2 +6 {I x/ 1a X; |' {} q@ k, T] 0* 0* `& ^/ ^/ T; '} ,( V{ w] &_ k3 01 g< -1 :( |: n9 2x ![ _5 Wv ~6 Y: nk ok h^ ok cj m( l: r1 38 ,: x* A: Qu {2 @} ', ^| n# r7 D> 6- N- #> )) Q- Q] J> h] h] C: 79 }0 3y |1 }0 d5 sz 3| (] b3 |7 6q or mq Fq mq rr 1n (o mn kn cs ]} m( nk ,8 ,8 cj l: l: l: l: l: l: l: l: l: l: l: l: l: l: l: Y: )p 'o 'o Jr Nq Nq Ep ko >p hn mp mp (o mp Bu eo pp <q yq Q, B~ F} X^ L2 6< 99 h8 ': %~ Mg 2g `0 5f J  T0 -( z_ t8 j} Hk Pd D= |b N4 8u ~7 @G v1 g^ l: l: l: m( Y: dl gm &2 85 c9 3} p) Ar (s @.+#.+-) D' E' }] 7( Hx b/ =[ :6 f/ ,} I6 -8 E5 Z; C' ;> #) Y~ 5s kr *p Dq _q _q $q Vo $.+M=.%.+&.+*2.*.+^3 y* I$ kH +5 kk /( Ow #x 5h =.++( P- L- L- |: |: A8 R' 5- 3{ #1 -.+Gi |i.'B.;.+6`.wv 2u Ni 9j k( +k x2 l: l: l: l: l: l: l: l: l: l: 8j ,8 8j 8j 8j 8j 8j bj bj 0j Ni U2 )p Uo Jx 2m >H kH 9' Xn $7 G_ ",
"$g G' P] G8 q- z' !; #2.bw.Z4.BG.>.+,.+'.+).+).+!.+~.+{.+].+]B.^.+/.+(.+-B Q=.$g u4 99 7; m^ >; #U k .(( z, <# m7 8} i< .( R| l: l: ]} ]l 1o .p .p 4o !n ~t gr {{ w2 b' 7] G} )^ G} )' L=.r/ ~} ~{ +; 8< I~ F~ N' %) k] -' B] s/ d' 0* g] ^/ ,- )x 's ;/ !: x' (& &0 k3 q~ *^ E^ `! F: n) _/ E} s( $2 pE g> vk vk 'p ]} Y: nk m( t1 Ga.g: t^ +$ A& {2 Jk $6.^| !9 C) ]* 9; q9 )) l] Q- U5 J> h] h] C: 79 }0 3y 69 W4 sz *y 69 Q5 33 ]8 kq Co <q rq or np 7o 1n mn 7o 5o )p ]} e) e[ ql rk ok l: l: 8j l: l: l: l: l: l: l: l: l: l: l: Y: kp =s ;p <t <t &I 'o LC _r |n ;G dp mp dp eo eo #o :q T[ B~ .) n_ X^ k/ 6< 99 34 ': +( ^h G' 0} >/ )_ @/ -/ sJ.z_ 55 .% o1 Q& m7 (h U8 ~7 ;H ]5 k( l: l: m( ,{ {H }l hv q| g3 I2 pn bo Bo (s J#.o5 `P.*) %) j~ $1 Z9 l^ Q[ (5 U[ I6 e3 C} r( {{ K8 k] M~ Y~ a: Zn 5q 4q _q ns Tp FH lB Ep eu &.+*2.cn._.+k..:.+kH `[ kk %7 aC #x 5h Ow ^h +( ft }: |: U5 d( z, O2 5} O4 ~g <.+pd.j%.6w [.+O#.}.+|.+_i S9.H/ +_ s1 R| R| U2 U2 /7 /7 ^} s1 pi hi (d.Sz ,J.1.+2.+/j.pF.a4.3.+6p.=i {H Mq LC _n 4.+8J {9 I8 K2 H! ",
"(h J) s~ l] P- 3g ve.Tb 5.+f<.nc.6.+'V 7.+8.+8.+9.+0.+a.+rB P^.KJ.0p.US 4c.l].Xj y} [: <^ z3 _1 FQ <^ J/ ~/ _a n[ __  ^ lF U2 l: l: ,{ ]l 1o .p lm 2o cm vn gq P[ &~ Z; 6] k/ q_ q_ Q! // :] +; O; ~* Y; w2 8( z3 -; Z; ,; <~ E! ~/ D) p@ ,- )x '} x' x' ,( !: G{ w] }[ !~ f, +; )~ -~ n_ +4 +4 :6 bH hv fm fm E2 el xp -n ;m m( '[ -| 5F q] xz Da.h( z| s7 L+ {; v3 1+ P4 7= #> l] )) @( U5 #~ M- m_ 79 !w 69 79 ,4.!w 5g 6[ 69 AD +4 :6 O[ kq 8q b.+rq <n ln ln |n am >n ,m zG Ds ]l 24 vk ok l: l: l: l: l: l: l: l: l: l: l: l: l: -n c.+-p d.+;p +p 9o .p fw gn eo AH !t Dq Bo Bo Dq un >4 T[ F} Ej n_ X^ o< (] 09 u4 (' +( Mg Mg O] Fj <' %^ R; <f r8 r8 p~ Fn ;[ pg e.+#4 0l ]5 '{ cj l: cj cE }l fm _m :m Bp ;4 wn un 00 (q }s t> Pm S'.V, 9: C[ T- *> j/ |> (5 Z: Z: Z: P/ }> -; {{ 9: 0( 3] /8 1r wn np wn un #o FH )4.#t Zr o].*2.f.+g.+h.+:.+d< `[ +5 NZ NZ #x Ow aC A4 +( ft L- U5 U5 l]  $ R* _2 [g ]D A$ i.+j.+~7.J@ C& )4 Fy =H.`0 q3 8T.Q8 Q8 H7 m: ^{.^{.G3 $4 V^ ci.ig Ve *, lC 9i.k.+m..Vz R(.H0 l.+wg )[ AR LC /o {8 8J kH 1> yY C0 ",
"#x (( %> j< x^ qg =n jD m.+#Z QC.n.+o.+p.+q.+r.+Dv.zT s.+t.+u.+RD.v.+s'.o@.5O.mR O- (] J8 |) &4 &4 p< =; 0* f& J5 L< )x 9g s1 l: l: ,{ `q K6 ~m lm ~m /n :q R, P[ L2 0' I- H8  6.<: _~ s~ )~ :~ f, T- O8 p: 4^ h2 f3 7/ L2 `} M| L> D) T; V@ '} G{ }( G{ 6f ,_ 18 !:  ^ #1 l] 91 $> j] M2 32 &~ *~ 5< h2 tz |) |) q| 24 &l Y: ;m w.+1} 7u W8 +_ ;u vw Wx u^ Rt IC -V.Tk 26 $~ #> #~ R- #> U5 Q- N4 ]h bh u{ 79 89 qB.89 ,y *y *y U6 o( u9 p( R, yp x.+qp Cp XP nn nn :n cm mm gn Bm 'm ^l pE Y: l: l: 8j 9j 9j l: l: l: l: l: l: l: m(  W.5!.qH |{.+p jn 2v }n c} 4n /q ar @t as mt 7r Zn J6 f/ =[ .) Ej Ej ^( o< [: 09 u4 %7 +( Mg Yx Xh.Xx }v .Q.ww )_ 4: (- Ga M{.y.+$i k( k( '[ '{ tk ok l: ok XG sm ym q} zm 3^ >4 J2 1r 1r ao 4r z.+;V.}5 V- v2 33 1> I8 48 |> }> H6 b3 h) 5] 6; n_ }> r9 <6 |r qp mB =9 (n yn up ds )n )~.,m 6t A.+r +B.+,L.C.++q d< `[ +5 t4 NZ %7 A4 aC /( P- J/ <3 v] Q- Q- Q- Q] Yh.=n n# D.+:@ '% )% x+ E.+:= 25 kf >5 d; P- @u @u t} wq wm 3^ I2 e: *[ X1 Re v/ m  au xx F.+G.+H.+I.+;$ ([ Ut ql ~q G%./o {8  >  > 1> k^ Z9 ",
"O- d( K) e, T2 bh ,:.J.+mG.K.+L.+M.+N.+O.+P.+Q.+R.+R.+%].S.+&:.IX  ! *j wL  |.mR %~ e< n9 do T.+& +c_ Ml D) $_ ~b $_ #] 8g R| l: l: ,{ `q 1o 1o ~m lm |m <q R, M2 99 Z6 81 M2 g8 <^ M2 -~ :] Q' {* T2 j| 3I <I <I $J e3 4| s~ ~{ R* C, p@ )x '} x' G{ K/ B4 18 N_ 3{ 0* M- `[ `[ -~ K- Z; k/ k/ v2 ]' >4 [5 1r z5 ;4 24 ]} 6Z.-n 'p Y: m( l: x2 (G 6n.I@ {2 ^| +[ /2 U} a* V4 P] #~ N- l] Q- @( +( {h ,y !w bh bh {h 09 79 T1 <D Y1 p0 u9 t9 yp S[ yp 1r Cp [n U.+U.+tm |m am gn gn ~m Ip g> #s m( m( 8j 8j l: l: l: l: l: l: l: l: m( R_ #t =s  ^.+p 3n Wq fo x4 go /q }s PH NC P, zp 0< p) Z: 9| n_ 3y #a X^ o< (] [: 09 #x +( *f 3g =g 2g cf >h 3 .S; *5 ak 's ,F ai Mi ,8 g^ ok ok h^ m( m( &l |l yn 3^ :q I2 g_ lq |r kr lq Dq Bo )t #u )t 1) 4| 33 e< v{ t] >2 +z H- 1a $1 R] b] P[ *I 1r 1r J6 up vm Bm =4 4n up #o ~n V.+3!.@X.<2 _A *_ IP.l% V7 *g D8 :[ :[ :[ A^ :[ /( x^ x^ L- <3 v] U5 v] <3 ut 0Z.r3 sA 9J W.+X.+Y.+Z.+`.+ ++'u )f &- e{ $) _5 Z: :6 J6 4q un xn Xv Bp 7/ T- .++sA Nz 78 w. N@ I+ +++97 -/ @++Jp [p 'o =9 yq  > $u #[.o0 '' ",
"N4 +] r/ {/ F: sg @h #++$++*# + .%++&++*++Qf =++-++*++;++>++7,.[` Of ,++|5.]h.#g O- 99 !z r: D2 '++(< 34 L> *b %_ %_ 0* WH ,[ l: l: ,{ `q 1o 1o !m lm 1m :q yp G- 2> 2> K- Y; x} I- `[ H} <3 T- #> Z6 +: d3 d: f3 q: ,} bd v) _( !~ R* C, /; z[ U] m~ V@ !: s; [[ 4> T] v] 3| 3| 6; I- I) _~ I) 32 i0 >4 00 ao J2 sm Qq >m >m e) g> &l h^ m( Ni 6p.<E w3 1x +0 t5 N0 ^= V@ r| J> N- $> N- R- @( +( {h bh 79 lR.fE (h (h Q5 Ng +A p0 j| i| }> ]8 8( R, kq =p }G =p }G <n cm .p !m )m lm Rp ~q ~6 Y: ,8 9j 0j 9j 9j l: 9j l: l: l: l: ok An >n Pq  ^.|{.1n Vp vn $q Sp 4q Br )v }s 5s 2^ 0< 3} j^ 9| f< gE gE Ej f} o< (] 09 y} C: Yh.6h -g 2C +n 3 .'h Dh N_ w- T4 dj.2y Ni ,8 ok ok tk -n ]} cE T'.A;.4n xn mB xn *p nr 5s }5 Zn )t z5 Y< )t :5 F5 `4 :^ )) q9 S9 :^ m^ M~ `{ -- -- o] p} Cr W< W< W< :q zm sm vm wn tn fo FH U'.3!.13 )++S7 'z i& 7> `# (' %7 F: (~ /( A^ H} v7 J) J) |: |: U5 U5 v] U5 P- ^h s3 L< !++~++{++]++^++/++0c SG hf 3{ q@ I- g_ U[ [5 ~t $q 'n $).$).{r wn &) S] 3- (++_++o/.FO.vE.w+ J^ B4 @++*| -G ,m g3 F5 L_ y7 &u P8 a' ",
"g2 h! r/ )~ T2 mg :++5I.$++n'.<++[++}++|++1++2++3++4++5++6++nj VM BT.7++:j.JR.8++%7 (] J8 F8 &4 61 @u e< 1| z1 w^ >5 6- Gw.,[ l: m( ]} `q 1o 1o am lm |m <q zp b/ :^ 7< T- E> P' '= @) (] }0 W4 O8 n) 71 d: m| U[ i0 F5 k/ ,; `} >A -[ q9 lz s9 Id Id Ek [$ a* |[ 5- E! i/ !z  _ L| &~ 6; 6^ m^ 9: 2) J6 lq p) 1) b9 ^l 7A 1G Qq (B cE h^ m( x2 Hi JT 9++gL 0++:2 =& Rb p@ M_ J> 2' M_ )) )) Q] %~ ^h +( ^h Yh.Og Mg P9.(h sz BG j| j| i| q( H6 yp wr J6 tn 2q 2q |q mB cm fn fn lm )m fn Rp {l [4 >{ x2 9j 9j 9j 9j l: l: l: l: l: ,{ @p (n vr zn 3n Fq {q 1r un :q (q (q W< 1r Ss 0< 2) T[ !z n) 4| Pw }0 3y 3| f} (] 09 Z6 ^h G' ff }v 4y _& h: ;~ mk cu ,w.XH.0{.rl 9j l: l: l: Y: pE ^l gm 'm |m =p <q wn fo Br 2] P, 0: /8 3} c: _: _: W~ 8( ,; }- g] A@.S* !) C' E' {I z- S] 1_ rt lq (q _q ~t iq iq a++vq @N uq #o FH U'.~v :4 37 %} b++n% -y xD h0 L- v] (~ +) y^ T6 t4 x^ J) j] <3 U5 U5 v] v] @( %~ ,2  ^ 57 t= a7 3u c++d++WM ;| *  c' )~ q_ q: ,} I2 B5 ~E !E HT.HT.,o 0z W< ]E &) $7 Q6 ,a Lp.,f -y cx L> W5 =| 3l (r :n 3} 3) &u iI /8 T[ ",
"t3 n] ~} h! T2 Gw.e++f++g++)).-V h++zk ha Sl rR =:.Hh i++>j.[p.}p.Bk.j++k++l++Y7 aC D: ]( 2x m++5t D0 fE _2 V{ s; s; K> Rg pk l: m( ~6 {l 1o .p gn ]n |m vp Ws |v L~ |' P' p] `- `- w/ v5 n( #2 8v n( Pp d: B} U[ !z +4 D: ,; |' .> Xz 7J Y6 lz lz t| Og $g s| &  g] z, `[ K_ _5 9| X^ F: ,; :] |' U- 32 +z %[ {{ F5 95 q| 3m ;2 im (B Y: m( l: x2 pi 3< ~z vG.#; `] G* u; l~ N- E; h] )) U5 P- P] t3 4y pa n++1g N] R5 N4 f} o( p( p( i| j| f: -; 2) W~ mu 6r 6r 8q up _n .p !m gn |m 2m _n 3m en 9l k( 9j 9j 9j aF 9j 9j ,8 l: h^ Cd.A5 ;q Up Wq Vp Qs MC 7r Zn mu Cr ao U~ W- Y< f: 32 .) v5 4| ye d5 U6 W4 3| f} f} 09 #x ft N] n++>~ hf if k' >~ 5T.o++fi >8 pk x2 ,8 l: l: l: ,{ hv m| tz :q :q 4q W< 4q 4q ^' 2^ /' Q, -; 2) X~ .' Z, !P 6] ~{ b6 bB `$ ;' y5 k] n^ ; .yl #( Z9 3) z5 ns Up }) >4 6n p++rI.q++tE xn FH V.+Sq.t} a; %} r++x% ,f 3+ #7 Z} f2 L- 8~.!w 8h qB.A4 L- |: |: v] v] v] v] U5 Q] P- J> p@ j% K= s++s++6P.+e f; P; Q' 91 R[ -8 F8 B} ~p ,8 l: l: l: m( $s y4 Bp }n |C AG NJ hL &} D$ D$ l_ a3 co _y >n 4n Cr 0< r9 r( s( !z ",
"K> e( +; :] K- tg ex.7` t++){.l{ xl )z p3 1C Yz f9 u++v++s& G& l+.w++hC.-H.-F %4 4] 81 <^ j^ 5< (< @5 w9 g2 &_ >~ &  vd vg k( l: cj e) ]l K6 .p ]n !n /n mB 9( |v L~ V*  $ p] {} {} V; v5 <p @2 H3 H3 H3 k| d3 -8 r( 4| `4 :^ I> e< 6[ 5F h/ .8 m) $~ rg sg qg r| 6- r~ C2 dq A} s< v} B_ :~ <~ e( v) j/ o0 Z; p} yp O[ tz Co I2 75 ~p Y: m( l: l: l: l: 8j r@.:; w- w- ]* E; k. U* d7 P] O- (' Q] s9 U] z[ Id O] ef 0} ~* 1> p( p( j| i| i| =[ 2) 0< Zn }s [s [s ar 3q kn 2o .p )m |m :n [n on =2 Qq _7 l: 9j 9j l: l: l: l( l: h^ Cd.{n Up m%.!t `n Fr [s [s [s <) }s /q wn h2 k_ m9 X~ P[ X^ 4| U7 hx Gt 6: 3y 3| f} w9 Ow k9 #1 4y V@ d] f& M& #] Wy 3< 8j 8j x2 8j l: l: l: l: ]} 'm :q (q 4q vn 4q Bo /q Dq Cr gr Q, 2) 2) 8( sr G> H) %[ 0' O; 8} N8 n6 QI <] E# 6s M! B6 h~ )u 2) b} E>.~t un I9 x++y++z++A++B++b9 C++D++3!.t} t; ;6 ;& g% G= uI Y* [( x#.ud E++F++G++{Z.ud =, '2 #~ v] v] v] v] U5 L- kk C: L' H++I++J++-= -= wb t@ O; |' X; 4| C} xm l| jm ,8 l: l: m( m( qD >p .p 4o .p qm Ha.K++80 #[ I> 33 qq w1 ,m _r np Br c: f/ q: q: f/ ",
"@1 e( +; g! T2 Gw.Cm  - L++M++Cj.N++)@ K~ o0 0q 6r fs O++x= d0 y- M> ): mg _O.O8 -~ $) J- a' v5 3y (] ': E; w] T; ]/ 1g yg ,[ m( ok e[ ^l ~m ~m am /n cm on jr O9 :^ #[ T- E> :] '~ 9/ n_ p< <p Pn Pn EG xw p< HN 4( |1 1> @> @> v{ 10 T9 mz N- Z} l~ Og 4h Ow r| P; r~ d< c3 D0 i| L2 [_ x_ x= j! {* @> 6; I- 6^ +z k8 E7 iq iq m| 2} ~6 ;m h^ l: l: l: cj jc.8; M/ v/ ]/ P4 P; r- k. ,2 Q] Re ,2 4y a; c  `0 cf Q4 O4 R- (] n) p( 9| i| i| =[ ]8 gr 7r [s gs ~I 9r 7q np cm gn 1m :n kn tm %G.)m Qq tk ,8 x2 k( x2 +k ,8 ok g^ ~6 ~q {n Bu cp -q ^u &q 4r Zn xt Zn Zn lq un I2 g_ T[ S, B~ L| n) P++KH WH hE AD 3| 89 {h ;` _2 @] e~ i: h9 z1 [[ i< jg R| l: l: ,8 8j x2 l: l: m( ;n cm 4q ns vn rq /q 4r Zn kr l9 dJ dJ *~ V- G} *) %) w> u( k/  $ 5- N8 (e qj.`6 YH ir :: '^ 8( H6 i0 xI (q (q f/ Q++R++(w S++T++U++%.+V++D++3!.t} #] Pd x  zc /b O2 J3 H& [C W++X++Y++Z++`++i-  @+.@+42 Q] <3 v] v] v] U5 P- L- B, aW RJ -7 0~.I: %J vD )~ @~ -~ 9| EG -8 B} w1 Y: m( m( m( >o ev fw {n {n =2 Bp |7 8/ )u *> t< u} e: pl @p Ix go Cr r9 F5 f/ c9 g- ",
"Z} f, )~ K) I} @5 ig O| .0 +@+T0 E4 v= .5 6s 6r Br 4r nr Q, O! y7 E> 1> i> H7 f9 #) @; ,; f- v) S- Dz #7 !: 9e oq.46 `& 9g t1 l: ok vk ^l K6 ~m gn !m cm _n pn $9 O8 {' w} Z6 kk +5 C2 4| >6 A} C} @u t9 `4 M2 (] L2 e< w} (] (] 1> C2 C2 w} u4 =; 5: q3 @1 R* j, ^^ .^ m_ 6: +: P/ C2 <~ XM.l7 P> 01 >( {* S- $[ L_ P/ E7 wm wm m| gm {H >m ,{ ok l: l: l: +2 tE t] .> %~ ): /; 5[ ): l~ k. z; R4 N: B: B4 Q; +n |h s| I> 3y i| p( 9| i| 4( +4 -; -; gr :> ND JJ gs hF._q on nn pp pp <n /n bm ~m ,m pE ql '{ '[ k( x2 g^ [l E2 :m =2 }n or _q 1q 4q Dq /q Bo )t *p p) lq J6 J2 _6 T[ r9 9| n) d5 }0 AD AD !w !w 69 89 6h t3 01 9} >~ 0} }A 5: N4 fE *V.8j l: l: l: cj lJ.g^ ~6 '{ (B cm eo vn Bu eo 3r NC [s nu }r X~ 7] a' a' &~ 81 81 a' o9 +4 q9 e0 r& -a @@+7a [7 vp q< q< b( +u p: <5 z5 3} j| yr.Xw #@+$@+%@+&@+*@+Y[ =@+%1 7/ T] G= 84 .3 Sc R* mY.7O.-@+;@+>@+,@+'@+)@+!@+~@+{@+l].%g P- v] v] v] U5 U5 v] )~ r@ Y} da TG o} ]9 2- #) (~ J- )5 <p B} e3 en dE -n fV ]@+]@+tQ.^@+&s &s >p [m Ws |6 >) -> )u v2 g)  q @p Rp 4n kr %[ 3] 0< 9| H8 ",
"+^ :_ {* S- -~ dq z2 BG X9 (' kH $u p} P, ar /q tn un mB yn I2 yq v} aD ^5 .: |1 S- W{ ][ u2 S] 7, O2 5- oq.v  /@+Ed &8 Eg &i l: ok e[ ^l en 'm )m am /n cm ym aD B2 dq 23 |1 3| {' R[ 4( dq @4 c( pA 81 V; |' J) .> 09 !w d5 Gt }0 v} -t f9 p0 sz =f Q* ,' 8} 4> P( ~/ 91 2| 6: j| 2> O/ (@+_@+3f Xd 01 f( <~ 'a %) }> 8D wm 3^ 95 ^m }l 5l r} e[ h^ l: l: x2 0l g| 5v lg a} e0 v/ 0- .$ D$ !} _& B4 _9 @f Y5.u3 |h Mg (' {' n) H6 t9 j| n) v2 F} 8( Q, O, I#.9I () P, II tn tn *p 5q pp gn lm am lm K6 M6 jm V2 g^ `( ZK e/ ]' |r Cr ao _q 4q 1q bo bo bo 2q 00 tn lq Ss |r <6 =[ }> 9| 5| d5 O8 @> I> A4 Q5 5g 5g 89 h0 U< >e +N +1 Yx Ag H/ #w 8u `s l: l: l: l: lJ.<1 em &2 q| q| 85 un tn un Dq NC :@+6s a: /' F' b] %> @) +5 Z6 f} n) MD 5| 7= |[ (e =w <@+[@+_M }o jl jl .q 93 8D o) Zn a( J& }@+|@+1@+2@+3@+4@+5@+km 6@+Sq.p< d' :# }I Q'.,s g~ vg Ur.7@+8@+9@+0@+a@+b@+c@+d@+e@+:4.5g.': R- 91 Q- Q- Q- )) 91 91 91 %> -> $[ ,; -~ y^ 6] P[ s( &2 &2 &2 ^8 @z )p ^U nW.3~.3~.(!.(!.q@.,o Ds 9r vM.f@+>) )u 2) q< ]l @p Es go l9 b: 9: 8( 32 4) ",
":_ $> s~ 91 m^ ,} w1 q| xm ,} jq qp *p /q !t 3q up :q zm 85 ep c: 8( g- ;] F9 o( S- ][ qb N) P3 `~ [[ b1 7e g@+h@+i@+zd t| W8 m( ok e)  q en 1o gn )m mm )m !r.r&.p8 WG /5 AD (] X^ R[ K_ 71 _B N6 dq 6; 1' )) C: 34 f} 6: Y1 n9 5| Q[ v} $9 p( U6 h8 Q* 8} >' m7 b6 O: D; l^ u} j| k^ k! YD.@< $_ 3{ &_ f( i, ~} 7< l8 20 E7 q} m| _m gm im im >l g^ l: l: l: l: l: ,[ WG Z}  ~ X6 5[ [$ V7 &  ]* B: Ac  3 )f Ek =g 7h Q5 |1 p( H6 t9 p( 9| v2 F} F} S[ CD dw dw &t 6s 7r qp 00 6q 9q mq lm 5o am kn <n _n hv pE ok #s An 05 7r 2^ hr lq 00 |q j@+DE.2q bo 2q un un 1r c: /8 r9 =[ }> n) 5| n) &~ P- P] ^h pg 6[ V9 89 N- |[ d& _a D) e< k%.f| 7u r1 k( l: l: l: l: ,[ cG 8D i0 J6 U~ I2 U~ un tn Bo .n 9I S~ a: V, U' +6 {} +; <3 D: v5 )5 2_  _ #> F, vc k@+l@+6R.m@+z2 g[ n@+Hn.-| 13 i0 l9 T[ C9 o@+p@+q@+r@+s@+t@+u@+hv v@+%1 Ql S' ^9 O& ,7 H^ K- @2 xl.w@+x@+y@+z@+A@+B@+C@+D@+E@+#| vJ.{9 d( l] k9 Q- Q- 91 v) X; F: I} I} K- Y; A^ 6; H> 6] MD ){ YF YF 1v ~q qD WS ^U ^U qD ]@+q@.fV fV Ur 5s GB El ^N.fs f: q< `q @p >n go l9 /' O! 2) .) D/ ",
"91 s~ g~ v] 81 q: c< Bm xn I2 wn 2q Dq /q Bo bo 00 tn ym 85 ep 3} q_ r( Z8 cr U6 k~ P) N~ `! m! ;d 5} _0 ^c F@+G@+H@+jb K> 'i l: ok e[ ^l im en cm )m ~m ^m ym l8 p( 5| n_ @> #> <3 `[ 4| t} n: o: q( 6; #> R- Q- L- m_ d< v{ w} 1> 0' 6] b3 w2 L2 m_ .^ O2 =  k) P( E! D; I} Q[ i| Z6 01 +N *b z1 5} L> ]/ i, n] <3 H6 sn sn O[ wm Bp [m YM |C im e[ ok ok ,8 m( l( ,[ lu M_ /, T; &  &  >~ 1+ c  sy O< 4: @/ /g qg w9 e< Q[ Q[ Q[ R[ 4| p( Q[ F} F} 32 3) T5 /a T5 ]{ gr lq ao JI 6q hJ am 2o 9m 7o U.+Bp B5 W2 g^ .2 Iv yn Cr )v 8q Bo tn |q 1q 3q 3q bo tn un >4 kq c: |r T[ =[ }> j| 5| n) 33 kk O- ]h Kw |0 bh (h +^ 4> 8I f; j! 89 ]F u1 6/ 1} ,[ l: l: l: cj ql m: g_ Ss kq tn :q 00 Dq )t /q .n CD O, %[ P! L=.Vq {a )~ j] 7; g8 Z< E5 9| >A F, I@+Ip.]) g~ [J.CG a`.J@+@U.ic.H_ E} CH E} Qu.z].K@+L@+M@+N@+O@+P@+R9 2!.%1 2_ l! :b Oc Cd {! H} Q@++i R@+S@+T@+U@+V@+W@+X@+Y@+Z@+`@+mI.2> |' d( l] Q- B_ 91 91 s~ s~ #) #) @) @) @) X; #) W, q( r< jl jl YF f) >m >m Hp ;n gy !E !E ,o 'p L6 Q, Y& `K I~ &) r9 d: `q @z Ip Sp /8 3) Z; L| k/ {a ",
"k^ 2> Y; L_ w2 d3 (B Vr [m |m (n on xn <q =p ym 95 Am (m 2}  q .G B} &2 =| 9{.p0 T- X{ '~ V; %> :_ !~ p@ zd  #+.#+i@+7e lz qE l: cj e) ^l K6 ^m 'm mm K6 ~m ym ~8 `4 f} +5 P' 4} `! '= 6; n) +4 b3 h) s~  $ e( z, 9- R' u< h< `} D; E> %) 6] 6] 81 m_ #> E; !~ u< i] v] g/ ]8 _5 xw O8 r- 0* N} ]/ s9 ;~ /: .^ Q' J/ 33 Q[ /6 o0 R, [5 zm Co iq *2 f) ,{ ,{ ok m( m( ok @B LN 09 7J 3( [$ z[ z[ m~ ;( r8 ), ;( 42 M] (' 9' |7 +4 v2 4| n) 4| +4 L| L| -; 8( 3] {{ /6 S[ r9 J6 qp kq qp or kn 1m 7o mn mn 1m 'm 2} `q 2} 'm go tn 00 tn |q up |q }q Ps |q 2q |q un un qp D7 yq F5 }> }> j| i| p0 33 /~ k9 M- J> k9 #~ (2 f2 R' }- M| U5 W5 X5 1} ,[ cj cj l: m( k( +G 'l (m ym 00 un un 1r 7r [s 2] mt P, ew M! Cv V, Z- z7 W, x} 2| 0' P[ .) *~ v2 @( w= 98 +#+2s @#+[J.##+ju $#+%#+C;.,H F5 t: _/ s0 &#+*#+=#+-#+;#+>#+,#+km 3!.Iv 2_ r@ J= !d zb S> 7] Wv !i %S.'#+)#+!#+~#+{#+]#+Fz.jO 8G.BB.Ws C' 1' Q- Q- Q- s~ l] 91 s~ v) s~ _] _] 91 v) @~ #) L2 !z j^ K_ 71 :1 {l ]l fm hv ^l [p )p jo ;n fn yp E# br (> sr T[ &2 ~p -G @p 4n f: k^ k^ L2 Z6 p] ",
"f9 X^ 32 w2 +4 &2 g> T'.Qq AR T'.io Qq el el el =| [4 ql tk ok k( U2 U2 pk y2 s< <3 k~ // $) H} /( L- r- Jw ^#+/@+ee 7) O] ;i l: cj ~6 ]l en en 'm 2o K6 ^m vp /6 4] 2> s~ 4} 7^ 7^ {} T- M2 0' M~ $[ 'a x_ ,~ O/ t~ 0S.k! D) j! f( ~{ ,; 6^ 81 K- 6; AD V9 Z7 hE hx pA c( d: dn E[ K_ O- ty q- ,2 1g q3 K> K> {* J/ 99 k^ C' 9< M~ q_ f/ k8 o) b9 L6 qn qn [l ~6 >s `( t1 ll  F KC jg N| ,_ }( 6f B: O< g& Fx ,I.O] N- )) &~ 4| ]( 4| n) 4| Z< v5 F} v2 E} E} !z q( q( i0 :6 g- J6 J2 Ap rq rq rq Fq mp }n Bp on Cp 95 yn wn :q un un |q up hq TH.|q up Ap Ap >4 wm k8 D7 yq !z q( q( n) Y1 p0 79 }: B[ @^ 28 S6 k! E! z/ !w .(  | HB @G !6 l: l: l: m( ,8 ql I< I7 g) 4m q} b} <5 b} }r &t /a W' S~ M! E- >; >; v( b' Z< >6 )5 $a M2 M2 k/ q_ a' I> r~ &Z.}' &} a9 /#+(#+_#+:#+<#+[#+}J.o( ![ MD }#+|#+1#+2#+3#+4#+5#+6#+km 7#+_y 7/ [# 8#+-6 jG #: q_ 3_ k( x2 9#+0#+a#+b#+c#+d#+e#+f#+r1 w1 T[ %) ,; Q- U5 U5 s~ )) 91 s~ _] @~ %> %> k~ k~ e, k~ @~ $) X; X; I) E5 C} I6 2_ 3^ 95 K7 2} ,m @z sm ot E' |s F' sr T[ .G -G XG 3l 95 b3 k9 G8 J> R- 'a ",
"j| 4| Q[ v} u9 (m ~6 >m 7A {H >m 'p tk &l tk tk _7 _7 ok m( l: l: l: ,8 k( .F H_ A^ X; -~ Y; 0' 2| h8 $~ r& pc %y ec v* 3a bi l: m( ,{ }l K6 km K6 fn fn ~m ym !8 yY i/ L~ `- 7^ H! C0 a/  > L_ M' Z9 4} ~/ g] g1 g1 N/ w_ T] D) S* M| E> L_ 2> i/ j/ <D Zs ]r HB Y4 I3 o,  q [4 ml x0 10 4h M] M] Mg ;g #~ #~ k9 A4 99 j/ T- C; M' P8 g- f/ f/ f3 K7 en K7 Y[ ~p e) ]} !6 ,8 ,8 ,8 @w Dz __ `] G* G* `l `l Fx H' 3z 3z ~* w} +4 9| n) q( n) 4| v5 L| f: ![ j^ K_ >6 j^ j^ g- k8 J6 J6 00 |q j@+2F.Fq op |n 4n =p <q V~ wn xn xn wn Co |q Co up up up Co iq iq uq 8D sn (5 P/ s< q( i| 5| 4( <D AD S5 f2 |_ 01 t~ A] ;d )) bG `z @2 Q8 7u ,8 l: l: l: l: _7 =| *[ 7/ o: p: g_ 1r ao /q [s dw `P./a 0( V, &t .~ A6 F' P8 n9 @4 D0 o( L2 w2 |7 L| P8 O9 L~ .8 '> g#+h#+i#+j#+k#+l#+m#+n#+o#+DF *7.p#+$k.q#+r#+s#+t#+u#+v#+w#+fm 0z @z t} 62 K= |# 8#+[a 9| >{ m( l: aj x#+y#+z#+y{.A#+B#+1F pk ql rp A0 1' @( L- <3 v] )) 91 91 91 |' S- e, S- S- e, '~ Z~ Z~ 1_ p] v) n_ dq _5 g- f/ tz 3m en B5 Ip vJ Ws b/ *) G- 9: q( :m Qq [p Qq |C d9 ): 5y P4 K. |- ",
"n) 4| f< &~ 9| ;2 e[ g> Qq 7A 'p &l nk Y: ;m tk tk tk nk nk m( l: x2 nA V^ -| Gt Z6 I} I} U- +5 `[ u4 Zx 5- 6P.-c C#+w^ Yg t1 l: l: ,{ }l K6 o, K6 ~m fn ~m ym v} L_ 5] ;> 8- p/ E! `! 1' yY 7< $[ 4) L; c' D) T] g1 w_ w_ w_ #] #] }' &> #[ T- ~* I> Pt .7 et ix WG c( N3 2} `q im 8| #x ff '; '; 1g t| r| (2 q3 ,2 ': %7 <3 E> y7 v} }7 g- J2 3^ 85 85 ep 05 K7 24 i2 @x ~6 ok l: *F s|  ~ v- G* J; 9D D#+>N Jd N: [' K. `; ~8 u} Q[ n) n) 9| v2 ]8 L| R[ 4| n) j| q( !z j^ Z: g- J6 1r Bo Bo Dq _q dp nn go Bu xn ep xn xn xn V~ :q iq >4 pn OD b.+pn wq uq 8D 8D 8| K_ }1 +: i| o( U6 +A WH ,y h0 ^< p4 &_ t~ A] q@ L- U1 ^5.dt Uu 6/ cj l: l: cj '[ )[ ml F7 E7 20 wq J6 c: 3} kr 0: &t &B /a 0( {{ 3) sr sr sr 32 n) n9 p( X^ y^ &~ v5 R[ X^ O9 $[  $ E#+F#+G#+H#+I#+J#+I#+K#+L#+M#+N#+O#+:d.P#+Q#+R#+S#+T#+U#+LO._#+hv %1 ~p q0 /, yB ;6 ic %D o( d) #s ok pk 3< xl.Ma.}R.v-.b{.[{.4< ]5 o) 7< E> Q- U5 x7 B_ l] d( |' S- S- {* e, +] K) +] K) g! Z~ 1_ E) #) X^ }1 sn Z: A} q} *2 ^m gm @p w-.u} B0 a0 8/ 17 }> :1 An ~q =l b9 h/ V6 Dh Id Z} ~{ ",
"4| n_ F} w2 u} xw oA im }m 2l -n m( m( m( l: m( m( m( nk m( l: ok y2 D} 6: e< Z6 H} I} %) $) K- 81 Z6 %~ 01 tb  b (^ T; {u ^7 l: l: ,{ }l km K6 )m ~m )m )m zm =[ &~ L2 :^ +; `! +; S- m_ 1> H- a0 -~ <3 l] t3 g, i, 9-  ^ 5} X6 /, L& L' A; |- }' U; Y6 *g 34 3| D0 e3 q| =4 C5 m| u} >( |_ ]/ J3 r- /: 0- q~ }[ i< !~ )) I> I> 2> v} =[ a( a( p) :q %t FI ep =4 -G _< 3_ e[ ok l: F9 kE N- lz u3 ad ;: EA K' w' ^; $# j, T- a0 )u H> L| !z j^ !z +4 k/ J- H> 6^ I- Z; F} !z 7/ U[ p) |r gr 2^ 5s }s Bo #o IG Bu #o go yn xn yn xn I2 3^ J6 hr V#+9( a( u9 }1 K_ dq c3 Gt hx c3 o( w} h8 u4 pG ^h A[ k3 U< @^ A[ =} x^ P++`E t1 4_ Z( x2 l: l: l: !6 X2 (m w-./B g) e: iq Ss nr Zn kr }r () dw =) &[ 3] wr 2) f: 2) r9 R[ F} 6] 81 6; F}  _ s( J8 |7 17 i/ W#+X#+Y#+Z#+`#+ $+.$+.$++$+@$+#$+$$+%$+&$+*$+=$+-$+;$+Z/ >$+,$+L6 Ep =l ]r )} ,& 64 =5 ]= 'y @7 0F f> U2 '[ _7 ,[ Z( ZO.X2 (m q| Uy wr K8 E> l] Q- v] B_ 91 |' $> S- $> $> *} *} *} K) S- e, e, '~ D; T- 6; &~ n_ v5 q( :6 uq q} on q| p: -~ E0 -' {^ $[ t9 w1 R_ Hp dE YM h/ G1 O* H& Z} -9 ",
"t9 >2 b3 Z; M2 X^ 9| D7 uq M6 g^ l: l: m( l: m( l: m( cj ,8 l: k( Uu j| *> S- s~ @) #) 1a // N' j] /~ %~ h] j, `& D) t| }`.k( l: m( ~6 @p K6 en ^m )m cm cm zm o) s< n9 &~ :^ 91 <3 2> w} p( l8 H6 Q[ X^ v{ %7 ': m_ Q] u< 5- w^ d]  ~ ,' M/ M> 4> |[ &  Z} E; P- pA &2 =4 -4 -4 B7 33 .^ ^/ #] `& P* }[ >~ +1 w_ w_ D) h< P] l_ y} >2 yp 3] iI f: [5 wn V~ ep C5 Z5 BD W2 }4 !6 nk '$+.: ^B Qg sa.Kg ), s8 55 ), r8 &: 8} 3> xr D6 C/ 6; J8 5< A}  _ 6; <[ @; V; k] M~ I- Z< A} ,} (5 |7 G) v( =) &[ <) 1q mq eo wn xn xn wn xn I2 95 >4 hr  Q.2I 8/ o0 33 U6 Gt p0 [H W4 [H *y !7 /~ N- (2 f2 u< N} S0 <9 A[ rg tt )$+!$+,[ 8j ,8 l: l: m( m( nk f) m: b9 I6 4m B} 95 qp x.+P, }r nr P, E- fr n^ *) 3] D7 o) U[ f/ g- 2) O! m^ C[ H> F} U[ B} B7 wm sn /5 Zi.t$.~$+{$+]$+^$+/$+($+_$+:$+<$+[$+@$+}$+|$+1$+2$+3$+4$+5$+_#+^l -u.|4 U1 ^/ }* 1t Q= B4 |0 =F s! il u1 !6 ok m( m( Y5 Z5 H2 W~ %[ &) G~ w/ |' l] Q- l] |' S- S- S- S- {* S- K) e, S- *} e, |' |' 91 )) :^ -~ I} i/ 6^ H- {{ -; 0< E} I- [# p& T> L8 2- w2 9l >o ;n gy wp O- a; sC D> L> L' ",
"p( n_ &~ y^ 0' Y; I- w2 c9 co ok l: l: l: l: l: l: l: l: l: l: _7 ~l }1 :^ D; ,; v) v) 1a V; V; s~ I> l_ P] y6 5: Q4 WX /] +k l: m( ~6 @p en K6 ^m am )m cm [n iJ p: xw j| h) I} 2> 1> t9 s< sn sn (5 u} C2 d< v{ z} 10 Dz =  7I ^= N2 B= D4 B= D4 {= [' 5[ 26 N4 ix J_ C5 c} =2 B} O8 @1 0* v/ ^/ >~ }[ a* #] 5} X6 g] Q* J> O- Z6 L| f: 0: Q, /8 [5 xn #o Sp y4 Hp Cd.j2 pE e) ;m 6$+_7 k( k( JC e9 p+ =5 Dl G5 EA =& [- O: E/ 4} {^ Y; i| C} c( pA 81 V; '~ @; ,; #) U- bd @u -8 j^ F} Y~ v( F' *) 2^ 1q #o or #o ds %t xn ds ds xn 00 }r ^`.Vl a0 `; O8 d5 <D p0 AD 3| {' W4 e< @( E| h< u< q~ jH _0 }( z; >g U8 oE d| k( ,8 ,8 ,8 m( m( ok cE Qq ;2 q} E7 E7 wm uq 3} 8r 2^ 7r 6r 2^ IK -) H~ =) yp k8 c9 I6 F8 [5 gr b: H> a0 6^ F} _5 N6 <p c( _B dI 7$+8$+9$+0$+a$+b$+c$+d$+e$+f$+g$+h$+i$+j$+k$+l$+m$+n$+o$+p$+q$+pl r$+V2 DG 0; 1A $* Ej.pf WX jc.G7 $4 +2 ,[ m( m( m( h^ ;n #z }5 ]{ F> <[ ,; 1' s~ Q- l] d( $> j< $> S- i] S- S- S- *} k~ k~ |' B_ v] v] g~ v] J/ I} 6^ `; O! /6 S[ F} v] m7 Q& >0 Ha QI j/ y2 h^ e) xp 75 =; S; ,4 __ d' U; ",
"n) Q[ f} Z6 U- M~ b/ w2 3x QA g^ m( l: l: l: l: l: l: k( r1 `s <1 V^ WG j/ >A 1' T- _] b] j~ D; |' I> G' q- r| t| y, Ig Mv.Ni l: m( ~6  q en 'm )m )m )m cm Am uq 7/ (< n) 81 -~ K- Z6 v5 P/ _5 o:  _ >2 81 4] 99 sz sz R- =  6> x* Q3 /! D4 d] D4 ,: Ga a; p@ ): sz z2 ){ -4 q| N6 z} N| w] /, ,- ^/ _& `& w_ O2 ## 5} i< M_ P] mz {' T[ T[ r9 D7 00 :q yt ds 90 ~v hw 1o 1o Ip <4 ql qk g^ k( &N q] n5 H5 `2 9D t5 s& %D )= L~ ,; @; L_ }> -8 C} n9 I} j~ W; M~ -~ W, K- ^( HN xw E5 F} Y~ v( F' >; %[ tn or fo fo yt ds wn V~ ds xn Bo mr Vl s$+*t g/ 3| d5 WH Gt W4 AD z} gE (] C: Q- J> d( f2 k! z1 5- q- Zs g| 7u d| ,[ k( _7 tk ,{ e[ W2 >l gm vm wm uq uq qp JI |r 6r Zn /q Br [s BE.=W.fq fr 8( g- U[ c9 U[ _6 iI p} &) 8/ I- L2 {' o( p0 }1 pA 8G t$+u$+v$+w$+x$+y$+z$+A$+B$+C$+D$+E$+F$+G$+H$+I$+J$+K$+L$+M$+N$+ml fN.]5 f^ B( G; <p.-. As xz 9G A2 J7 .: r1 g^ `( g^ ~6 (B 95 f: 3) H> 9/ E> s~ Q- k9 d( d( $> =} {* $> {* *} *} {* {* *} e, |' A/ s~ s~ v] s~ X; C[ I- `4 |7 2) 2) f: B' R< (U bk 0b f; =; g| nk e) {H /{.kH P* $# t; <$ &> ",
"4| 3| 99 kk -~ v) v] 2| hx EG :1 X2 al 4< 1} >{ !6 1} .: 6t /5 j| o( O8 .> :^ :^ 7< -~ v) V; V; v] A4 Og u| V7 1+ 9; lE @k Ni l: m( {6  q en ^m 'm lm !m )m Bp iq f/ _5 4| 6; t< l^ 2> O8  _ p: wq (5 F} `; k^ &~ 5| 4( :^ ,' 6I /! `] v- U@ H# S% jJ PI *D $# &  !7 :G r< B} B} a3 W9 ;~ ,- v/ )x U] a* p@ T; X6 ## /, c' >( N- i/ u} _6 p) 3} J6 [5 iq tn 00 ns yt Up )t 00 on @p 7A VF (7 _7 Hm.O$+@g m~ a; O* W& 8= I$ SB m_ C2 k^ v} s< 71 @4 t9 N9 ,= K8 I- Z; I) H> w2 >6 A} 4( <^ 6] F> .~ F> 0: |q #o fo :q yt wn :q ds ds #o )t 6s  E.G-.>) t< ]h 4g ng WH T1 Ng U6 d5 W4 v{ %7 k^ d< C: :~ g1 D) ]h Js 1} >{ !6 g^ g^ ok ,{ f) L6 _m g3 on tz 00 [5 Ap qp II 8r MC ar Br {( [s P$+ E.Q$+fr dJ J2 g- 3} |r }r b: &[ rt iI w2 4] 7= dD K&  l._M tE ff.R$+S$+T$+U$+V$+W$+X$+Y$+Z$+`$+ %+.%++%+@%+#%+$%+%%+&%+*%+=%+il ~p y2 eF.cB 45 -%+3t 0u 6n.JW 1> QJ @X.@2 y>.RA x+.K7 wp g- 32 I- l^ g~ >A #> Q- k9 d( $> {* {* {* *} *} *} +] K) {* +] {/ S- |' s~ s~ #) #) #) 7< G- b3 q_ L| V- j| 3( c6 u/ a6 ^9 w^ l_ Uu _7 e) {H aO e5 5: >9 y3 9' 1> ",
"6< kk v] *} K) :] A/ :[ o< f< n9 c_ I3 '6 jl XF s} XF gn.C2 <3 1' g~ I> I> P- /~ l^ I} -~ X; <3 /( .z =g S4 ,: /! p~ [$ @++>8 l: cj e[ Ip ^m ^m )m !m gn cm on wq i0 i0 4| X^ M2 g/ `4 u} q( (5 _6 }> +z `4 C2 ^( 5| 4( i/ D, n5 G* `] v- `] c6 `] 2{ I  u& V] S; vd Z7 +: p0 Y1 Z7 Ll f~ ^/ v/ )x U] a* U] #] /, O2 M/ L> .^ h< #> 32 D7 D7 3} p) J6 kq lq {( ^' x%.^q ^' 1r xn gm el f) Jp '[ 0l y9 =Z )h r] Y].~v.NK.=Z Zh.s< dq +: Yz c3 p< K_ v} 7< %) L_ b3 .) _~ Y; M2 Z< 4( v5 y^ U- F) Ou z7 S, U~ =p :q un g_ Y< Y< U~ tz V~ mu () ;%+>%+-' g, HO.,%+'%+Au 8T.LN ]B tt .( Y1 d5 n9 LN hE (' h] d( $V.tV._7 '[ ,[ ,[ '[ g^ e[ 2} P6 tz >4 Co tn J6 p) J2 J6 ir mr CD ew O, ND 6s K, y#.fq fr S, p) 3} 2) Q, P, rt rt Cv T[ v2 |' *  F| -f y3 e5 Zi.)%+!%+~%+{%+]%+^%+/%+(%+_%+:%+<%+[%+}%+|%+1%+2%+3%+4%+5%+6%+7%+_l co g| sa.*w ;. O. J+ *( o@ a} 4& ,; M2 n) Z: 8A 8A YP V- N! $) b] @; K) S- d( d( $> :_ Q' l< :_ :_ K) +] K) :] :] l< :] g! {/ S- @~ s~ v) v) g~ y7 81 Z; F} v2 V- 4| G' Y5.`2 hV >a w^ P] Q8 '{ Qp dE dm <T.oz )h p0 +: t} ",
"v] h! r~ +; +; h! A/ A^ o< ^( 5| 2x C} U1 qq I3 I_ I7  9  > $7 1' >A -[ #[ 5; a9 4] 4] 5] (~ x^ C: 3g Ue ]* R2 o1 57 ]= rg bi l: cj vk ^l K7 K7 Bm )m am (n yn O[ D7 u9 j| |1 n_ v} b3 P9 u} L| Ws iI /6 b3 w} 3y p0 4( j/ C| _D D> $# ]= }( ,: {= ;} `] ,4 ,4 B4 P4 3a x9 +> 7J 7J lc.5& }[ D) g: &  P; i< ]/ j!  ^ L> R* f, r~ >A &~ F5 D7 yq c: 3} II 0q Zn )v ^q 4q ns fo vr ^s 2l -l <4 ,{ qk d2 =i Ki &i r1 ;8 ;8 &i WF yw s} 7v n: }1 pA i| ~8 `4 X^ H6 }> +4 32 0' 6< ^( .) H8 x} M~ 1a f- W, -; un I2 E7 uq :6 c: r9 :6 ,} q} i0 Dv 1^ $1 `- ~u 8%+9%+0%+a%+dg Pg tg 8G |3 I7 E[ dt V^ U8 Y4  | ix b%+,[ l: ,8 L2.k( g^ ,{ Qp gm 85 fo up up Ap 6q Cr JI JI hr %u fr -) .E.vM.*) M~ E' I~ =) 0: _: |r <> a: 2^ Cv ;; to c9 j| D# E$ ^% HI c%+d%+-K.e%+f%+g%+h%+i%+j%+k%+(%+l%+m%+n%+o%+`$+p%+q%+r%+s%+t%+1#+u%+v%+w%+7l 4i y0.I  >R.hG.w+ 7@ 68 U; ef.C/ H> -; T[ -] FQ z3 b' F) Z{ u2 K3 -' 1_ )~ )~ ~} 7- M| `! e( ~} +; f, +; O; O; ~} ~} L; j8 4& V; E> ,; 1' g~ l^ g/ X^ t9 9| F5 ]B mY.!4 t5 c^ e] 3{ I> +7 )[ <4 7A M6 i> >[ Qg I7 I_ i> ",
"Z~ p/ <~ W{ _( :~ $> +5 n_ $a @5 ,6 n( 03 qq i> I3 i> +: C2 i/ t< t< t< 5; 5; a9 =; 4] i/ g~ `} .$ ;~ %  /! E= U3 x%+a4 A' =i l: cj {6 2} _m =2 cm cm gn =9 =p kq u9 q( v2 L2 Z6 Z6 4] A0  5 N9 K8 y7 7< h) C2 1> w} 33 34 N- #7 S4 l. -f 26 D$ V7 [' p~ r8 6> ), 3+ O| }A Re Ue vd y, 5& [$ [$ a} J> P- %~ I> |: Q] L- m_ m_ 5; k^ L| T[ <6 a( /8 |r jr ir to xt lq vn #o %t :n lm ~m {m km 24 vk tk _7 l: l: l: l: l: l: '[ 4< 1} E3 13 o( p( I/ lR j^ A} 20 wm o) wr 6] U- j] v] N' $) #) C' M~ U- bd wm b( 20 pA R[ k/ _~ 2) Z: -8 P/ 9: E' $[ !~ QR y%+z%+z%+QR #6.7h ,y Z7 a3 9{.'[ k( _7 k( t1 `s M[ R| ,8 ,8 pk R| ql )[ <4 [4 fm vm xn #o xn pn jr /8 <6 r9 8( es ;) ,= 1a (> |v ,; @; 8< |v iI to 7r }6 to Cr Cr lq g_ e3 /5 A%+36 :2 W& :; 6+ B%+C%+D%+E%+F%+G%+H%+I%+J%+K%+L%+M%+N%+O%+P%+Q%+R%+S%+T%+U%+V%+W%+&N .: Eb.d!.c  <* ;f Q7 56 j0 W* X%+^N.O! i0 f/ s( r( F5 z3 Z- W; C/ E) 4) S- l] l] d( {* K) i] |' 91 s~ v] @( @( v] v] v] T- <3 i/ `[ 6; Z6 Z6 1> O8 n) n9 t} p< 3x 8v V`.G$.j1 }$ J3 r| z} tp {l `q -G gm AE I_ :1 Z8 x+.xw ",
"D/ 5( E! B, _( e( K) `[ f< ye NT HN p< n: @u 3x X1 @u s< X^ `; 2> 2> 2> 2> kH 9' l_ <3 <3 S- O:  ; __ C4 s8 T3  d nL D= P4 eO 8j ,8 {6 2} :m cm /n /n cm 2m <q o) P/  _ v5 $u E> |' $[ ;> B; C; C; '= L~ $7 -[ )) R- 7= 8; Dz lz :; y&.t>.;[ t>.Hd J3 U} a4 s8 <* R2 ;} ): Vy A' 52 >9 lz ): a} 7= .> 10 n_ u} n_ v5 6: Y1 Y1 o( o( q( <6 a( f: f: /8 jr c: |r Zn lq tn 4q )t ms fo mB wn I2 ^m <4 &l ok l: l: l: l: l: l: '[ '[ x2 ~i WG O8 v4 {' }1 -8 g) q< B} g_ /8 F> r/ Um E^ v< <[ W, m^ H> 6] 9| xm qq 71 >6 3| J- x} L| w4 L3 K_ F} G- a0 )) .Q.Y%+Z%+`%+)( <' (2 #~ (' H_ .F l: l: l: l: l: l: 8j x2 1} `s .F X5 dn <m <m _m Bp <q un un 4q 7r F- &) 6^ I- 6] 8/ b/ C[ C[ )u 9/ P' 1_ D6 >) pt hr hr 7r mu W- 05 ;4 &2 h| r0 :E F; iC.$;  &+.&++&+@&+#&+w$+$&+%&+&&+*&+=&+-&+;&+>&+,&+'&+)&+!&+~&+{&+]&+]T.^&+/&+(&+Eb._&+:&+C&.V4 @1 h< R- 5= =[ f: <6 ,} &2 N3 E[ J_ '6 d3 )w n9 5| +A U7 @5 W5 6| W5 tt tt W5 6| ZJ X4 |3 D[ D[ D[ |3 |3 |3 a3 U1 #2 }3 #2 Pn ^B '6 ^F C3 D3 Uu Uu WF Di _i ,g A9 .7 HB V1 il M6 gm }l B5 75 g) %2 Wv N3 i0 ",
"p] V5 p/ T' A, z, )~ T2 f} Ej W4 gE $a v5 W4 {' u} u} u} &~ g/ k^ 2> L_ k^ j/ 9' R-  $ S- l< k, kb 46 :C [b Yt <&+[&+*e 6- V8 8j ,8 e) 2} =2 =2 |m /n /n :n up ~J.o) K_ v5 9/ j8 j8 E) C; C; E0 ]^ Q_ E) 4& ~{ j, ,~  ^ L> [' N: G1 -f P4 g0 =C z8 ]* ^= ,f ;1 x  5@ R2 v; #6.z' T4 =, lz >( >( 8; d< O8 v5 Q[ v5 R[ c3 3x X1 8| n9 u9 H6 R, 2) f: r9 |r T[ 5^ mu 1r ao kr 5s }r 1r vn tn >4 ;2 W2 Y: nk l: l: l: l: l: l: _7 pk x2 M[ q0 10 z} 6: p8 @4 4m f3 |) J6 dJ E' J< }&+s@ J< )a J- P[ k/ a' !z _B eu F-.et $V.f< bd _5 C7 J_ 71 T[ gr ot t< .Q.|&+1&+2&+s; +1 u< r~ @( n9 ~F l: l: l: l: l: l: 8j pk y2 ml s! E[ |C 3^ Co vp iq *p 1r lq 4r CD i= x/ (/ 1a m^ 6; b3 w2 99 2> #) E/ `6 S] C/ p} /8 hr to (u ep -4 ^8 dn s} y9 $M.vv GN.3&+4&+5&+6&+7&+8&+9&+0&+a&+b&+c&+d&+e&+f&+g&+h&+>&+i&+j&+k&+l&+m&+n&+H. o&+p&+(i.q&+r&+#F Js '6 F[ %2 :1 o, dn dn X2 d) !6 Z( Z( ]7 ]7 d| {7 &i &i {7 {7 d| 4_ ]7 Ji ]7 ]7 9s R| ,[ ^7 -H -H k( -H ^7 ^7 ^7 '[ pk ,[ ^7 ^7 k( k( k( k( +k k( _7 ,8 ,8 +k pk R| t1 t1 1} r} K6 1o Ip 1o m| q: c( k| d: f: ",
"@~ ][ {} T' Z& p/ W{ <3 (] +f f} (] (] 99 99 34 k^ 6; 0' C2 0' k^ 2> 2> k^ u4 @>  $ 3> O; {* i, E, __ 6I s&+V$ t&+u&+ec i, KC 8j cj e) 2} [m [m /n /n (n :n up JI (5 j^ u} X; .5 {^ Q_ '= ,; -> uM..5 E) 4& C| w_ O> (& )x K/ w' Jd B( 0; }$ V6 p3 PI :C O& Wd 8> x  _8 Dh }h =, y' z8 '2 h] M_ P] .> e< w} b3 M2 b3 p0 X1 a3 6| n9 q( +4 ]8 ]8 +4 T[ q( T[ c: lq [5 y8 |r P, nz 6q =p <q tz <m Qp nk nk l: l: l: l: l: l: l: x2 ,8 bi -I Z7 Zh.ix HB X1 71 c9 f/ W~ <> -) J< }&+$5 ,5 (/ 7] z3 v2 R[ +: v&+|w w&+4g._g 03 i> E[ ;] il qq }1 r9 R, k^ R5 '( [f x&+(& L> K. Dz m_ H_ 7u l: l: l: l: l: l: l: _7 =|  1  1 ^8 I2 g_ tn Co tn 1r /q Br OH y&+z&+C/ Hm W; C[ M2 {' W4 3y 34 #) E/ {) V5 Hx rt r9 yq c: Cr un b9 85 I7 ,t Kl.A&+B&+C&+D&+E&+F&+G&+H&+I&+J&+K&+L&+M&+M&+N&+O&+P&+Q&+R&+S&+T&+U&+V&+W&+X&+Y&+Z&+`&+kJ. *+.*++x 7[ ,[ Z( !6 '{ vk '{ ~6 e[ qk ok cj 8j l: 9j 9j 8j 8j 9j x2 Ni Ni Ni pk Ni rl x2 +k x2 0j 9j 9j 8j 8j 8j 9j 9j 9j 9j ,8 ,8 9j 9j 9j 8j l: l: l: l: l: l: l: l: l: 8j 8j cj cj ok (B Vr 3o >n .p xn c9 q: l| B} L| ",
"L2 :[ J) K) 'a !{ ~} |: `< [: [: [: !7 e< 2| k^ 2> 4] +5 k^ 6; +5 +5 +5 2> 34 .> h] 3> O; R- h] i< %0 T} b7 .w BF == `}.(2 oE l: ,8 e) Es [m [m |m /n (n tm |q F5 +4 t9 b3 5] M' $[ $[ 1a X; y7 1' E> E> d( h< g: U] +*+h1 Y1.d> ZP .r c  c  a; t- v- h} s8 ic ;f 6@ <- Fy eb.-f G1 S4 l~ N- R- U5 @> j/ 6; 6; Y; h) 6: @4 >[ ZJ H_ }1 !z !z !z q( 9| +4 H6 f: F5 :6 1) 0< mr nz 7q or =p I2 _m pE &l &l ok ok m( m( l: cj l: cj 8j ~i 5p.|0 %4 n8 jE +: aD q( to gr Cv Y& Vq M) Hv Sa ; .7] bd R[ U6 #X.@*+#*+$*+Vk.%*+*V.'6 %2 k| qq pA n) L| 8( 6] #> L> h9 jH L> j, L' .8 @( +A E3 8j l: l: l: l: l: l: ,8 *| 7l pl dn 95 tn un :q un Dq 5q /q ]q |K R~ n, (/ V; y7 2> 99 u4 d< m_ /~ q9 P' E) |v S[ F5 i0 F5 3} o) K_ Gx q0 6T.&*+**+=*+-*+;*+>*+,*+'*+)*+!*+~*+{*+]*+^*+*&+/*+(*+_*+:*+Q&+<*+[*+}*+|*+1*+2*+U%+3*+4*+5*+6*+7*+hI.{i ,[ !6 ~6 vk 8*+vk Q| ~6 !6 _7 ,8 ,8 9j 9j 9j 9j 9j 9j 0j x2 0j 0j Ni Ni x2 0j 0j 0j 9j 8j 8j l: l: l: l: l: 8j l: 8j 8j 8j l: l: l: l: l: l: l: l: l: l: l: l: l: cj cj nk Y: [p Vr 1o Es lm <q g- sn c9 o: H- ",
"K_ NT hx Ej 0' -~ -~ +5 6< 6< P[ 99 v{ .> i/ g~ -[ -[ t< .> `[ .> +5 +5 .> 34 *g %~ $> q9 @( J> r| 4y V@ A1 ^9 i[ 56 [[ h8 nA l: ,8 e) Es =9 =2 |m /n (n [n Cr iI pt ^6 ,7.g/ 0' `; L_ h) h) `; h) 2> 4] A4 ft KI 3= :' i1 $  o@ ~; .a .[ U@ v- M: 9*+=& (- ;a <* <* (- J  =0 ^% b; O| G8 U5 @( T2 2> `; 6; 6^ m^ 0' 4( #2 't #2 03 <p c( B} f3 Z: u} g/ h) `; w2 -; 0< 0: P, 9r 8q bo qp 1r xn 1o @p ^l {l [4 ~6 ok l: l: l: l: 9j Ci Kw .^ !} Q6 3' kH Q[ |7 /' M! Dv .~ Y{ A3 L) J< 6c 7] 32 {' 'y ^h.0*+o&+a*+b*+8h.tg Z1 *~ Q[ O8 2| Z6 6] c*+17 I} L~ f, !~ -9 d0 P( ^a 9- d< Js ,8 l: l: ,8 U2 >{ >{ e[ r} M6 o, 3m :q ao 00 tn kq hr 9r 2^ ND Mh.>; F' F' M~ C' '~ +; E/ )= D# a9 v{ C2 `; +z yq k8 o) [E P/ sp ZH NT.Zi.d*+8x e*+R#+f*+g*+h*+i*+j*+k*+l*+m*+n*+o*+p*+q*+r*+s*+t*+u*+v*+w*+x*+y*+z*+A*+B*+C*+D*+E*+F*+G*+H*+BU.Jw.@7 3_ =l 24 TF Qp e[ <4 ql _7 l: 8j 8j 8j l: 9j 9j 8j 8j x2 Li R| R| R| R| ^7 pk pk k( x2 x2 x2 x2 x2 x2 x2 _7 _7 _7 k( k( k( _7 ok ,8 ,8 ,8 ,8 ,8 ,8 ok ,8 k( k( qk ~6 e) Hp 3l 5o 2o cs ~m up |r wr 2) +z v) ",
"-8 C} c( c_ p< 5| v5 L2 6< _~ _~ :[ N4 +^ 3> d' S' c' h] P- .> .> .> .> `[ d< .z *g *f O- %~ h0 q- a} 5[ g] X6 36 L& K. <D r1 l: ,8 e) Es =9 =9 2m (n =2 ym 9( *t %) b/ 17 b3 u} Q[ v} P9 -t >2 33 e< 34 .z M] 4z aZ.aZ.|D Yj ]g F0 sC ), (- *5 *5 <- h% c^ %C hV y_ u/ r8 ,4 A: V] 0; $~ /~ m_ `[ `; g/ 6; 6] 6^ &~ ZJ `z 8W Js U8 dt ;]  1 E[ _5 0' 9/ M' f- z7 6^ O! 3] 2^ }5 Cr kr }r 5s Cr I2 Bp xn 85 ){ Qq ~6 m( m( l: 8j 9j hi =f /, ;} p~ T; q9 99 Z; G> .} K, n^ v~  E S' 0{ S} Q, H6 F/ Rq.$*+I*+J*+K*+L*+}G.M*+Y, fO I) 81 J/ <3 -~ b/ a0 a0 N' #) s~ K) ;d N> [[ N/ U5 .A +k l: l: qk jm hv km km =2 P6 yn vn *p Cr 1r qp gq <. .E.-) .E.=) 3) {{ P[ H> 9< l, O~ o& K< H! #[ Q[ 9| t9 l8 (5 sn (u.C*.P/ /5 NT.N*+C>.O*+P*+Q*+R*+S*+T*+U*+V*+W*+X*+Y*+Z*+`*+ =+.=++=+_*+@=+#=+$=+%=+&=+*=+==+-=+;=+>=+,=+'=+|} )=+F*+!=+@| sS yw dn km o, 6l -l <4 >l h> '[ 8j 8j 8j 8j 9j 9j 0j 8j 9j t1 ;i Uu s} ml 7l e2 X2 ~l ~l ,l <1 <1 <1 <1 <1 <1 ,l =| =| =| =| =| =| 9l 9l kl 9l 9l [4 [4 24 9l qn ~p _y ,m (r (r Vr .p 2o Ix )m pn S[ 17 L_ I} r~ ",
"xw xm b( A} pA !z 4| 32 P[ _~ I) P- s9 V{ T} >5 m7 M> !} P] ]h d< h8 Z6 Z6 Z6 I8 34 *g ]h ': %~ N4 #~ @1 9- 9- ~{ E) :^ X1 9s l: ,8 ~6 2} |m 2m 1m (n =2 =p ~I E# f- m^ 17 w2 Q[ p( t9 u} >2 33 10 e< h8 *g Eg 4z ~=+{=+x6 7t +0 M. ~9 (- o1 s8 <* C= u/ w@ u/ iA _- .% 4: )@ )@ /_ a; r| %~ m_ `[ C2 33 >2 P9 &~ sz Zs 8W U8 $F &w KC WF i^ YF o: `; 1a @; -> |v *) 9: 3] }6 ir Cr Zn zp P, ir un xn un vp P6 @p pE -n nk l: l: 8j hi Xj ,: t& /! ]= a} d< h) $) F~ B6 K#.w/ '_ x_ ~^ C6 J2 c( 03 W8.]=+^=+/=+(=+_=+:=+.7 d_ 0] C~ `< %~ )) s~ K8 N9 a0 M~ %) X; S- G: l7 <# N/ @( .A x2 l: l: qk 2} =2 =9 =9 V[ go yt 4q /q Br )t ao nz fF.<=+'v K#.fr {{ -; q_ G) 1^ [=+}=+|=+<c Q~ #) -; a( Yn 1=+>H  9 B=.2=+2=+cq 3=+4=+5=+6=+7=+8=+9=+0=+a=+b=+c=+d=+e=+f=+g=+h=+i=+j=+k=+P&+l=+m=+%=+n=+o=+p=+q=+r=+s=+t=+u=+v=+l#+w=+x=+]z @| t! H7 q| =4 _m /l =l pE -G 9l !6 cj 8j 8j 9j 9j 9j 9j 8j 8j r1 DB F7 d: *2 [m ^m ^m ^m ^m ]m ^m ~m ~m K6 ~m ~m ~m fn fn fm fm fm fm fm fm fm 1o K6 K6 K6 'm 'm en .p .p .p ^o !m ]n ]n ^o 5o gn J2 O! 5] l^ #[  $ ",
"7/ n( 71 q( w2 `; 0' _~ M2 0' I) L- }[ C4 ^= t/ A1 (++u; q3 ^h y} h8 h8 T6 Z6 j/ *g (h y} %7 (' m_ P- $> B, K3 D/ R] $) !5 ,[ m( cj ~6 ^l [m |m |m |m =2 yn nr &u b/ I- 6] P8 L| 4| t9 v} w} !7 e< v{ y} Ow |h KI y=+hr.:p Jd sy J  w' 9= Se c^ R2 h% ), 4: N0 <- @% N0 9D 9D )@ h; sy V7 h< k. q9 m_ {' 6: t9 {' Ng .7 xg Mv.;F $w ^F YF s} h| 8D >2 m^ X; %) 5] G- P8 gr |r Zn II nr zp lr 6r |q mB <q =p tm ^l -G pE ,{ l: l: 8j Ew Ue J; =& g& `] Q* =; $u +~ 3D bt 6c @; +^ /< qA T5 &2 4< F3 E`.z=+A=+B=+C=+D=+E=+F=+G=+V< Z1 !w *f V4 i] M' m0 y7 v) f- v) :] [# N> 4> w_ L- H=++k l: l: qk Ip =2 2m zn |n 4n ds ns Bo lq ao W< }r vV. E.=W.L&.A6 Q! 7] O! G) Hl *] I=+J=+J=+K=+A6 {{ S[ Hw L=+fU.m8 M=+N=+O=+P=+Q=+R=+Rx.S=+T=+U=+V=+W=+X=+Y=+Z=+`=+ -+.-+f=++-+@-+#-+$-+%-+&-+*-+=-+--+;-+>-+,-+'-+)-+!-+~-+{-+l#+KO.x=+]z ]z W4.tp 3m 90 ~m }l {H !E dE dE cE ok ,8 ,8 ,8 9j 9j 9j l: l: 4_ s! F7 P6 _n |m )m )m )m am am am ^n lm lm ^n ^n lm ^o 2o 2o 2o 2o 2o 2o fn .p ~m !m !m h3 gn gn =2 gn gn !n !n !n /n 9m lm 2o lp qp +z g/ j/ kH ~* ",
"dq I3 EG &~ 1a '= v) U- y^ X, I) N4 P* B: 9= 9= t& 68 c0 #7 N- U5 C: t4 D: 2| 2| Z6 `[ .> j/ 33 3y 6< X; Y{ 1_ R] o] q+.]-+Tu ,8 cj !6 pl _m cm =2 cm cm g3 Ap {8 ]8 ]8 +z +z L| 4| H6 v4 !7 P: !7 T9 .z Ow }v W@ 5M 4D L0 K0 HI 0; P* s- ]* g9 c0 v3 ~4 N2 h% /9 Sb h; (% +[ Uq.z| m. sy x' X6 v/ >( Ga. | c3 W4 z} W9 6g Gg ,g >[ kL %2 YF Z8 e3 j^ +4 v2 v2 p( u9 (5 _6 3} |r hr zp %u rt zp Ss 1I pn up Cp )m 'm gm y;.,8 l: 8j /U mR x* a4 N0 Q< V6 %~ t< +~ 3D n^ B6 b] }_ q~ ~^ &[ 1v l: 8j ^-+/-+(-+_-+:-+<-+[-+Fe.}-+do n( Pg $g r3 k. L~ C' T- S- D; V; )~ >- +N 4> #] h0 fC +k l: l: ,{ @p C5 90 {n hn go ds vn Dq *p 00 tn 0q _> 9I IK *t E' k] k] C' F' &[ Dv ;^ C- Jh.J +&t b: b: () |-+1-+>k.2-+3-+4-+5-+6-+7-+8-+9-+]%+0-+a-+b-+c-+d-+e-+f-+g-+h-+i-+j-+k-+4:.`u.l-+m-+n-+o-+p-+q-+r-+;*+s-+t-+u-+v-+w-+|} x-+y-+z-+A-+!H.G7 =2 Bm K6 B-+{H >m Hp T'.>m Y: ok _7 _7 ,8 ,8 9j l: l: >{ 7l im _m [m am 2o .p lm !m lm lm ^n lm ^o ^o ~o ^o 4o 4o tq 4o 3o 5o 3o 3o fn ~m ~m !m !m )m )m Bm )m gn gn /n /n /n /n )m ~m lp jq }> t9 kE z} B' ",
"}1 V1 71 L_ 7( (b $1 X; D: C~ _~ k9 _& u& A: Pb _U *D g9 g: !} .$ q3 P- Z6 M2 M2 Z6 Y; 2> (] n9 (< E8 J- // N' z7 f- x} L3 of.,8 m( !6 co K7 _m =2 _m _m =2 YM 3^ o: Z: u9 t9 Q[ 4| t9 aH T9 &y W9 W9 7h -g f~ !4 pf &3 OC )E 0t z8 T4 Hd SZ Z[ Vy 1K G1 N2 <- <- N( (% +0 :& Uq.z: z| v^ ), :C 6I ^^ 5F Rq 8G T1 10 X9 Xz ,w.mg .7 _B k| @I L6 .G B} I6 I6 I6 b9 b9 q} sn a( 0: 0: pt *t D' *t %u P, zp 6r bo pp #o [n Es ok l: 8j /U A' O} iA .% F( P* P] L- N' E~ C6 .} // f, w| v| [6 E2 l: l: C-+D-+E-+F-+G-+H-+I-+J-+BN.PA W^ ZF u@..Q.0} i] ~* `} B, i, :~ i! P7 +N [[ O2 k9 #w +k l: l: tk ~p en 'm !m xn lq ^' /q ao pn iq un 6q BO.yp ot 6^ $[ <a `6 E/ W; 3) /8 kr xt <) ]E CD p} 0( rt #9 K-+L-+M-+N-+O-+P-+Q-+R-+S-+T-+U-+V-+W-+X-+Y-+Z-+`-+ ;+.;++;+@;+#;+$;+%;+&;+*;+=;+-;+;;+>;+,;+';+'-+);+!;+~;+{;+];+];+y-+^;+]=+/;+H*+7v Bm h3 cC.{m hm Rp Vr Ds T'.&l g^ '[ '[ k( ,8 l: l: l: Z( 3s Z8 N3 sm kn lm ~m )m am am am 9m am ^n ^n 9m am am am am am am am gn /n UD.3m _n tm Bp vm (;+3m ;2 =9 3m _n _n /o lp cm )m lp XX O[ PH.B2 p0 /~ ",
"o( #2 D0 9/ z- 9a u2 ,; D: o< M2 5: 9* ~9 (% FA _;+C) v3 v3 z[ V7 lz ft 34 99 M2 6; Y; I- v5 @4 %2 C} L| x} 7] q_ N! 6] !5 Z( L2.cj !6 {l K7 Bm cm _m _m =2 P6 b9 xm xw Z: p( Q[ 4| p( {' P: &y W9 &y M] ,2 0- x' u& P} Q; =, (g :; 3' $~ Re 6+ Wn Ue V7 =w dc u/ ), ~9 >J n4 Uq.C& -w ;w H5 _8 (_ a* &y Rq lu LN *y Fg Fg Fg &y V9 X1 <m *1 ^l _m |C f3 b9 |C 85 d: |C o) |7 iI Ws pt *t ^N.L&.:;+Yl vV.<;+hF.CE.-q <q 1o Y: l: 8j dF mR t5 iA _- ;: ]* s| P] j] [;+:| f6 N' E| '_ r/ P! w,.m( m( aj };+|;+1;+2;+3;+4;+d~.!6 |4 #B @k Yk.XJ.A[ l~ >( Q* ^/ ,- &_ ,~ 5;+*b >5 4> M_ @w k( l: l: Y: -G km ~m !m 00 pq 6s 7r lq pn 3^ Co pn _6 yq ]8 g/ C; 2- e- `6 '~ {{ p) Ap *Z k0 }r EH &u F- d9 6;+7;+8;+9;+0;+a;+b;+c;+d;+e;+f;+g;+h;+i;+j;+k;+l;+m;+n;+o;+p;+q;+r;+s;+t;+u;+v;+w;+x;+y;+y;+z;+A;+B;+C;+D;+qw 9J.E;+F;+G;+H;+I;+J;+K;+7v h3 #q [n L;+Co Ps Ps <n 3l ]} ,{ !6 !6 g^ +k 9j l: l: 6/ 83 qq N6 wq iq UD.{m )m am am am am /n 9m 9m 9m 1m %G.%G.tm vm [n on Am ym ym 3^ wq J9 [E (5 AG n: +u 5n iq jq iq TH.=p mB kG.kG.XX wm t} p8 c3 i/ ",
"O8 et o( -> 2- 6( m! @; 6; &~ e< Y6 9* m. B@.l+.}+ M;+N;+<2 G1 Id t| =f w9 C2 `[ x} x} N! *~ ~5 Wv '6 E5 a' G} U! Q! sr Ql 4_ k( ,8 Z(  q K7 Bm cm _m Bm =2 vm q} E7 F8 }7 Q[ F} R[ 6: %4 10 5F &y !y Q] >( d~ ^/ w] Yd k1 0} u| k. U* 2' %~ mz ]h G$ Q* /, {= ,: ~4 ^; sC c- z: ~0 Xm (0 N0 #% J; G1 O;+)h s] 6[ Pt Ll Wn 3( Y6 ]h c3 75 en N3 P6 wm uq 8D ,} C} B} q: }> /6 o0 yp :B es E# vM.s$+P;+Q;+gF.R;+S;+!t Ps fn Y: l: 8j +i Vy K' iA :- v^ 9* =C V4 d( @~ @) q+.R} x7 _4 k~ `, y>.m( m( bj T;+U;+V;+W;+X;+Y;+7w ,[ {6 7u /i ho.|D f~ l~ l~ Ek R; '- L/ s; YD.@< f& +N K> _g +k l: l: Y: [p B5 1o A5 1r () dw <> 1r >4 tz q} uq J9 P/ +4 o0 '= H! r@ p1 w/ S[ J6 k_ >} xI l9 X~ es Z;+`;+ >+.>++>+@>+#>+$>+%>+&>+*>+=>+->+;>+>>+,>+'>+)>+!>+~>+{>+]>+^>+/>+(>+_>+:>+<>+x;+[>+}>+}>+4/ 1#+Y;+|>+1>+2>+N:.qw /T.3>+P@+4>+5>+6>+K;+7v nH ;I rq 7>+0q hF.rH Hq >p !E ,{ ~6 >{ !6 k( ,8 l: l: ~F H_ 3| (] I- -; wp M6 ~m lm am am am cm am mm am 2m U.+!r.Am !r.fG zm ym wm 5n sn }> L9 P9 P8 t9 i| }1 (5 sp D7 $U.GG kq qp OD 2q up E7 3x n: }1 t< ",
"C2 [H w} ;> {) :H  [ @; 7; f} !7 3( .r ~9 /2 o3 n# M;+]v 9..L. x3 X7 Ll Xz j/ Y; U- J- k/ Z1 c( G[ 83 pA 0' <[ W; n, G~ NT d| k( ,8 Z( co ^m Bm Bm Bm Bm :m sm zm f3 I6 sn v2 X^ v5 |1 5F P: W9 |0 u4 U5 t3 g, _2 &C u< r- -9 h] LJ K. &> #> /~ h/ QI.|5 Q* +8 '2 =C }$ t- t5 1{ Pi Uq.g( d> d>  * 'D 8>+!v.mR Ue *f X7 vd R4 !} `} !7 20 |C f3 q} g_ f/ K_ }1 7/ q: }7 +z 6; `; L9 %9 %a fs 9>+Vl Yl 0>+a>+b>+S;+Jq rq B5 ok l: l: |i.#g /_ 4, c>+v^ -{ j1 V6 D) T] x_ ~} A/ w7 iX A_ x} I3 m( l: uk d>+e>+f>+g>+h>+i>+j>+'[ U2 ;i Jd.#m x6 Ek z; t>.L. Nr 7t <f d] tA.'f Ma Z% @1 xg +k l: l: ok =l hv 1o !m 00 =t () }r O[ Co TB TB vq [E *9 ]8 `4 ;) R] {a Y{ u: dJ s( 5< 7/ dq Z< &~ t< k>+l>+m>+n>+o>+p>+q>+r>+s>+t>+u>+v>+w>+x>+y>+z>+A>+B>+C>+D>+E>+F>+G>+H>+I>+J>+K>+L>+M>+N>+O>+5%+P>+P>+Q>+R>+S>+T>+U>+(x V>+W>+X>+5$+J#+=*+Sy Y>+v,.,r Wq 1F.0q ar Z>+ZG &I qD !E e) V2 >{ >s m( l: l: Uu 1> K) :~ )= 7< N6 nl nm ~m lm cC.gn am lm ~m ~m lp um 3E `>+/{.JE b( TB 20 5n J9 =[ -t `4 ^6 L9 p( s<  9 sp K9 K9 K9 GG GG Ss 8q &X.a++20 O6 +: g~ ",
".9 t9 >2 :^ '~ .5 '~ X; 0' f} &~ O- y' a; :2 |+  ,+<2 M* *Z..,+HI l. z' _' 6= 6; 6; _~ a' ]( s( c_ 13 3| h! &b }~ h' J< 5| d| k( x2 Z( {l ^m Bm Bm Bm Bm _m [m P6 wp Uy q: P/ 4| j| Y1 jE 'y lF +A W4 `< /( L- P- C: J>  $ r~ 16 16 27 &> S9 @( u] 0U.g] E, `& k1 R4 R4 V7 $# +} &o {; =3.YL.<V iw ~; Fn K0 F; S4 '2 /g '2 C, A@.K~ /~ p( u9 T[ :6 sn  9 p( Q[  9 @N _M L_ g~ J/ 5= +z Ws pq <;+=t +,+Ym H&.:s A=.A=.or Es ok l: l: Jw.@,+A: ;w ej MT cB iw w' L^ ~1 l& l7 M} #,+TI.z, K) pA k( cj x2 j,.$,+ZH.%,+~;+Li.Li pk 1} 8W ^H.%K.x6 3= z; 0t Lf d^ 2L.$l b^ 9^ ns.&,+*b g, _g ,8 l: l: ,8 f) hv .p ]n =p 6r 2^ R, |7 |7 L9 v} L9 v4 -t j/ `; Z; 0( 9: V, %[ mu pA T1 &y C&.Hy =f t| *,+=,+-,+;,+>,+,,+',+),+!,+~,+{,+],+^,+/,+(,+_,+e>+`&+:,+<,+[,+},+},+|,+1,+2,+3,+4,+n$+5,+6,+7,+8,+9,+0,+a,+b,+c,+d,+e,+f,+y{.g,+h,+i,+j,+k,+l,+#q ~r Bu m,+|q Iq A=.op <t 8z gy dE An V2 g^ l: l: l: XF #> O2 T% <# O; o8 BB.w-.;2 |m 3m |m sm tm vm Am wm gn.@N O6 Gx p0 u} f9 aD +u aD f9 -t Q9 #[.d9 kH t] e5 7R.n,+n,+Nh.~I.hr o,+RH.5q Ap O[ aD j| V* ",
"4m 3x sn 9| L| >2 32 &~ ^( &~ 32 34 =f lE jX p,+xY qC q,+b8 qa h% sA w- .$ v{ L| F} .) G} 7] 3) I- -~ ~} jL 9b r,+%J z] $a d| +k x2 U2 co K7 Bm Bm Bm Bm _m :m q| *2 &2 l| 8D Z: t} X1 @X.Z2 G/ G/ 13 E8 Z1 v5 3| 10 y} <3 #> t< t< >A 1' u] #[ 12 Q6 r& >0 _^ ~1 %D a} $g Ve (g Ek x; Gj O[.YL.`/.<2 V2.V2.K0 G1 +q [$ u3 ^^ 36 ^^ q9 2> L_ L_ +z i| p( b3 `4 p( n: |1 )) !~ {* #[ ^6 <6 JI *p _s 3r hF.3r S;+2F.Ps Bu Es ok l: l: s,+< +v& 4~ |9 {p.z& |A )@ 8f Rd I= 5c 5;+.1 k3 >- x_ v5 Z( ,8 x2 x2 rl Mi Ni rl aj x2 '[ bl t,+[h Po i1 #1 g2 j1 9v u,+v,+,e 'u K5 `d W3 3f e( Y4 ,8 l: l: ,8 i2 hv Bm !n |n wn J6 F- e_ sc C0 Qb RR -[ 5; -[ 5; s< q< Uy h2 I2 I6 d5 We 9d 8d =3.w,+&V x,+y,+z,+A,+B,+C,+D,+E,+F,+G,+H,+I,+P&+Y$+J,+K,+L,+;K.M,+N,+O,+P,+Q,+|,+R,+S,+T,+4,+U,+C*+V,+W,+(x X,+Y,+Z,+`,+;*+ '+.'++'+@'+#'+$'+%'+1$+&'+*'+Bp |n <n gW.)m ^n cn ='+&I G%.3l Ur ]l 24 !6 l: l: l: Q8 !~ }# ,c Ia N/ Ml Y1 }7 uq zm vm [n 3^ :6 T[ wr ^6 5= 48 z} d< E> j8 E> |1 71 Gx I/ .9 .9 `4 >A |- -9 7=  l.+J cj.-'+C+.lr <;+o,+6q 8q wr v} g/ 3> ",
"pl :1 .G d: q< B} B7 Z: R[ G} 32 F} j| n9 p8 <T.J& A; m+  / s8 /= k& 56 *  O8 g- F5 *~ G} F> ; .J&.,5 t@ /J.;'+Ad !d 2~ KF d| +k ,8 !6 co K7 Bm _m Bm ^m ^m :m [m ;2 ;2 q< q: p: -8 d3 !J.-| Q8 $4 @2 !5 Ql >6 4( +A 69 u4 2| w} w} k^ a9 70 .> Re 26 7I Nc ec C#+jI k. sa.`F ug  U.M{.*! I].YL.>'+A.+p+.Z0 .r w) -} `& 6- 6- g: &  A; L~ 27 P' 5] t9 |1 1> `4 j| @4 }0 N- i, .^ D; 8/ (u.Cp tm fo -q 5q 5q A=.4F.hJ pp Rp ok l: l: s,+E&.m. #} Gk ^& d* M+ /A s8 K5 K5 V3 ;0 O> /I [[ ;d 5= `s cj ,8 8j cj 8j 8j l: 8j cj '[ gl Gt }v If 0} (2 d( u3 ~0 QL.,'+~++;5 >| ZM /b w>.B, Zs ,8 l: l: ,8 i2 R9 (n /n !n !m q} ''+)'+QH !a Y} d0 Z} m+.2' #[ n: =l =l k2 hv F7 Y7 Fa qf !'+16.~'+{'+]'+^'+/'+('+_'+:'+<'+['+}'+|'+1'+2'+3'+4'+5'+6'+d%+Z; 7'+8'+9'+0'+a'+b'+c'+d'+/=+e'+f'+g'+h'+cz az i'+j'+k'+l'+%'+m'+n'+o'+p'+aP.q'+r'+s'+t'+u'+go 1n 9m v'+w'+Jx 5F.tq tq Dp 2o .p .p  q ~6 l: l: l: ZY.i, +< `d  b m< A; 2> >2 u9 f3 =2 g3 J2 S[ I) H> T- B' G' %~ h] S' *3 `- &~ n( 20 }1 i|  _ -; K) e- cd )= 9' kE >H -'+x'+y'+z'+9r 6q OH Hw 8/ 9/ 5) ",
"~p 1v im ){ (m :m d: 5< v2 W6 G} q_ F5 g- U[ o: 2a |- `$ j% hV iA C= =8 C, t9 w< _/ FQ W6 z7 Jz gq.ca =y e+..3 ce 0O 8^ qB.F3 x2 ,8 !6  q Bm Bm cm Bm Bm K7 :m [m ;2 &2 bH C} xw L3 k| I_ Cq dt s} E[ e3 xw Z: 4( d5 3y 09 e< O8 O8 C2 =; h/ %~ s| 5[ 6I  u LI.#d R& a} ix z9 't %F OF =B <C vu J].-Z.9L.o@ ^; I  U} ## /; P; #7 3z -9 dx ex 2s S9 %4 _M v5 {' +: 03 Ng #~ i< !} O; l^ k8 (n gn nn Iq Jq A=.Ps A'+or [G Ip ok l: 8j B'+E&.m. #} Gk Qp.C'+t6 )@ g& ;| (_ ,a w^ 4> Xd m7 y- mz Ci rl x2 8j 8j 8j m( l: 8j x2 pi yw U6 r| s9 E; *} |' 4y Pi 2c {D *m (M 8#+D'+;7 }b z, E'+,8 l: l: ,8 [l km =9 zn #q ~m mB Wk F'+aW :I 08 F, L' q9 q9 m_ a3 V2 g> |4 ~p tp Hy G'+H'+I'+J'+ja BH.R1 K'+L'+M'+N'+O'+P'+Q'+R'+S'+T'+U'+*).mV.V'+5F Z; [6 T9 W'+X'+Y'+Z'+`'+ )+.)++)+@)+#)+$)+%)+N:.bj dL j'+&)+*)+=)+=)+-)+;)+>)+,)+-)+')+))+!)+~)+#o :r ^n G%.Lq Lq zG 4o ~o ]o ]n !n am >n ~6 l: l: l: =F i, uy.Cd {)+f; K.  5 b3 5| 85 2} en J2 Z; U- T2 Q- 5: ,2 $~ .^ q@ P_ T' M2 !5 EG dq Z: s( 2) 4& ;- l) 1- a9 kE _M $9 ])+^)+EH 8r 6q 7r ^`.*t M' eb ",
"c< C5 *2 q< 75 P6 B} Z: B~ 7] X~ Z, _1 T[ i0  _ aH dx (e <- $m h} N0 r8 26 I/ f/ ![ *~ dJ {{ Z- 1a {^ E, m5 cx t* )D l5 09 %i ,8 ,8 !6  q Bm cm cm Bm K7 Bm :m q| &2 $J d: e: c( d3 %2 5G V^ S8 3s tp e3 c_ K_ d5 !w Q5 d< d< w} L2 a9 V4 (; &  1+ Ga G* *5 |q.Te k' @1 Pt 8G >[ fC r] hC.K0.[C vu /)+]0 >J m  O} ^= w- ]* S4 T4 ): 9; /; ;9 g] M_ QJ o8  | c3 13 kL  | Q] R* i< O; A0 [5 gn gn op Ps A=.Hq mq ()+pp U.+]l ok l: 8j B'+2d.I@ ^* _)+:)+i.+IC )9 )x T; D, X6 ## /& /& k) E$ Re /] Rv 5i gH..| Mi Ni Mi Pv Li.<)+-J sz _4 f, +] .] b] ~{ E4 04 )e ># J= `d ]c Qc H: z, E'+L2.l: l: ,8 [l en =9 ,n (n lm !r.K8 =3 L8 :I IB Fd K; 6R.a9 !7 8v il Y[ EB ){ 93 tL >w [)+4o.lf.7K.~9 3+ ]0 })+|)+1)+2)+3)+N&.]v 1C [J.o8 H_ +: <T.}0 8( U, 10 4)+5)+Y'+6)+7)+8)+9)+0)+a)+b)+c)+Ju aj bj az d)+e)+f)+g)+g)+h)+i)+j)+k)+[>+,;+l)+A#+AJ 4n ,r ]n +Y.JG 'o DH ]o ~o Zo ~o ~n ]n ^s ~6 l: l: l: @B .8 La :b /b 8} S9 C2 t9 j^ q< 2} N3 o) I- <3 s~ (2 O4 0} a} r- j! S' e( 2| D0 D0 Z: _5 w4 2) '~ k, ^a C| K& t] 48 v} ~8 yp Ws 0< Ss gr F- *) |v ;J ",
"F2 -4 h2 f3 f3 I6 ,} T[ O! Y~ N! b' S, 2) L| p( pJ.m)+F* _8 /A N( 4:  & l. QJ !z V- V- :6 ,} q: 7/ p0 38 PC 68  / Dy v* 89 d| ,8 ,8 !6  q _m cm =2 _m _m ^m [m P6 85 Uy g) q< l| q< *[ G7 V^ UE cr tp <p c_ pA Ng 69 w9 d< .> C2 j/ 8; 5[ ]= C4 `] 68 *D G{ ;} L< ,: /: e< ix ]r Qg hg [A mX.$; e^ 0B  0 )4 /_ Sb  / D4 [' l. lz 5+ 9; a* w_ 0* N- eE s0 ix  | ZJ #w LN (' M_  $ L~ G- g_ gn (n np Ps pr Fq IG op np nn @p ,8 l: 8j B'+2d.aB {3.l4 aU.IA f7 <; >9 Hd U* j> {> /, ,' ,' p@ u| Xz Ga.n)+U'+o)+.I.TR.p)+q#+q)+Gi.7h.rg A/ h! >j r)+8, p] S' >e n[ D{ 4f +@ 7{.$6 4f i! 7| L2.l: l: cj *| im sm :n 1m mm Cp s)+%5 5H vc wc n< !{ yY Q[ 4( >6 F5 0< 2) +4 i| -g _f 9B 2$ t)+8t u- ;d 0S.!4 j~.'x /* o# u/ p@ u4 +: /5 lR lR Y1 Ng v2 ;; u} 6x u)+v)+w)+x)+y)+ I.z)+(x A)+(x B)+bz aj U>+C)+D)+E)+F)+G)+D)+H)+4;+I)+J)+K)+L)+1.+*[ eH M)+an 9m am !n cn 9m {o Zo ~o ^n lm Ds ~6 l: l: l: ~l %~ b6 }# kb 9- v{ hx dq _5 C} l| q: u} y7 `} ~{ D) %0 U] >~ $^ .$ Q' l] A^ Ej n_ p( j^ s( f: t<  $ K. h] 7= >A u]  > -t b3 3) O! /6 H- 5] I} M~ H! ",
"'m m| tz wm uq c9 g- -; Q! Z- Y~ N! {{ {{ Z; -t  l.<$ Rb .% /A ]A c^ G* R4 AD +4 G} z3 ,} 73 W2 pE ~l F-.Xj 8= C$ V] v/ WH Z( ,8 ,8 !6  q =2 =2 =2 _m _m :m P6 un [5 >4 f3 85 q< Uy 4^ g) 7v $o D3 Cq qq EG HN Gt AD w9 34 Ml X9 6= q9 )} #< e] O} 68 I* L. F; a; ^% <$ X9 ix ]r Ba.ig >7.pD ud N)++a +$ j: Q3 x* M: e0 V7 5+ +8 a} U* /: i< U; K& sz ix +A o( ]B Y4 8| 69 (] 99 P[ =[ I2 Bm gn }n or Bu mp np nn mp <n Ds ok l: 8j s,+0`.A& O)+%# v$ P)+-k.Q)+`V.~' 8; U* D$ xD g] L& >~ r- !~ -9 LJ Vn h- 2j.R)+S)+T)+U)+V)+`;+Jg *} >j W)+]4 X)+&] v_ W{ z, E^ 1k (1 Y)+J( Lr.W{ E'+,8 l: l: cj f> o, sm kn zn ~m (;+H- aa Ic Fd <# ;- 4& Q[ -8 xw m9 0( /a fs sr b3 ;g h9 55 -: bx B4 T] !{ p1 qb w_ 7} h[ &8 Tc }- L2 }1 s< 9| I/ p0 p0 T[ <) =[ Z)+y;+`)+ !+.!++!+}i 7u j,.(x @!+%)+% +yF #!+$!+_=+%!+M>+%%+&!+*!+=!+-!+D>.vG.D;.#2 x4 YI ;!+GN 2v Bu mq pp <n ^n Zo ^n ^n ~o zG cE l: l: l: 0l 5F @1 a* K~ h/ 13 J_ %2 C} dq r9 32 I} |' !~  ^ hf _0 c1 V{ L> r| S5 aC /( Y; 81 .) )5 8A F5 +4 QJ u{ 34 >A 0U.A; u] 6= L_ y7 f- #) f- C' g~ #) 4} ",
":m D5 c9 O[ [5 g- F5 S[ &) '' W, Z- N! Z- %) yY =; D$ /! 4: ), ), #< G{ '2 f} F} 7] q_ >!+mA -n Y: ,[ 8u &y t>.y&.x3 G' Y4 ,[ k( ,8 ~6 Ip =2 |m |m =2 =2 =9 :q hr 2^ |r [5 xn 05 4^ >} p: p< X1 X4 @4 @u WG ]B c3 sz Kw *g @> .> A4 l~ )} M: 6I /! 's #; #6.z' v; /; U* x9 ix |3 ]r c) wE fz wM.4j H& w) ;( ]= ]= 36 2+ +8 -! dD dD s| #~ #~ 8; 9' %4 o( {' 3y p0 13 WG @5 W5 p< w< >4 Bp gn am 1m nn pp np np nn np [n Ip ok l: 8j s,+,!+h( :A aU.:  ij.6T.p#+9G IW t] 5: g0 9; &  C, @e ^^ O: cI }' t>.!q.'!+jF )!+U( !!+~!+{!+Lg ]< ]!+]!+^!+/!+]4 f! g! Y{ o] :( Y%  4 t2 }~ 'a ,6 k( l: m( ok f> 2} ^m ^o 4o _r 1o F5 K8 C; !) )= 27 9' K_ C7 l| g_ 1) _1 f: gr v2 @> C, X6 /, T; 6- r~ C; 8< '~ .^ 8- ^a }. G! 4& 32 P/ i| 9| H6 p( n) E} %r !z (!+_!+:!+<!+[!+}!+Ho F2 T`.|!+1!+2!+3!+3!+D*+4!+N>+%!+5!+A;+6!+7!+8!+}J.Yz }1 ,} 95 eH 9!+0!+u%.@o Iq -q 3q A'+cn ]o 0o 9m ^n Nq ]} l: l: l: 4< <D 3( E; l~ 48 J_ |4 9l &2 F5 17 #) K) i] E; ]/ 5- _0 _0 h9 D) g2 2M.h8 /( I} U- g8 )5 r( i0 >6 WG WG AD -[ N; &> :^ k^ 4] 1' K) {/ 4) 4) @; 91 j8 ",
"K7 4^ ,} U[ U[ g- q( w2 m^ $) C[ H> I- K- #) t< h/ [$ X6 }( a; c  1+ ): ~' O8 +z O! <^ (< :/ ]} ,{ qk =F Yt.]H /G C&.bI W1 ^7 k( ,8 >{ 2} (n (n 2m (n =2 g3 *p _> Dv a: (u :q V~ V~ J2 Q[ .> /~ /~ u4 W4 d5 4( pA U9 *y d< u] #> )) i] !} xD T; a* 3z y, ~' :E -! 2' ': *y ix t} dq a!+i~.`T.Cg NF b!+9; a* /; ^^ <$ 2' 12 u] y1 l_ l_ /~ m_ m_ Z6 v4 {' {' R[ 4( @4 @u n9 n9 _5 tn Co tm !m 2o am kn np IG pp nn 4n [n ^l Y: l: 8j Jw.c!+c+.Tq.kq.f7 c{.sk U2 X8 ^5 dI  7 WC +8 bD 26 [( x8 S* S* }' V4 -H.AS.d!+e!+f!+g!+h!+i!+KJ A_ j!+k!+l!+m!+X)+r)+ ] Y{ /4 7: $5 o} TG i' 'a X4 k( l: m( ok V2 *| An T'.)p jo dE ;2 K_ f9 1> a9 #[ t] t} q< P6 l| Uy h2 4^ k_ j^ k^ K. C| U; #7 `} D; -> ,; C' )) 1' 16 L~ .6 l^ L| u9 q( 9| a( <6 q( i0 (u r(  U.fW.n!+o!+@k p!+q!+e/ r!+s!+t!+u!+v!+w!+x!+y!+z!+A!+B!+C!+D!+z].E!+`i.9r 7r #u FI BE 'r 7H 7H @o Wq Jq fG.2F.in ]o 9m jn ]n <t ]} l: l: l: 6/ jx l_ h] r| T9 tp ZK [l J_ u9 7< C; L; P' M_ /: /, ,: 18 X6  ^ G8 y} v{ /( I} (~ a'  _ 8A !z n9 t} D0 Q[ 5; R- T- 2> 33 w} a9 ') '= +; 1_ Z~ L~ B; ",
"dn q< f3 A} 7/ j^ 9| M2 i/ j] J/ t< kk I> J> #~ s| #7 ]/ k1 Id '2 ,2 *f w9 AD 32 7] <^ A} 73 e[ ,{ '{ 't W9 ~' Xj O;+d+.H=+^7 k( ,8 >{ M6 g3 2m tm 2m 2m on 8q CD dw Cv _: tn >4 tn c: 5] .^ T9.~/ >( A4 1> R[ 8| 7| T1 /~ r~ &Z.4} ~} `} )) J> #> 1' #> -[ u] I> k^ 3| 5| 5| }> v2 6: eE BG p0 O8 g~ l0 ex S* ~/ R* q9 u] @( @( :^ /~ 5; i/ kk k^ w} {' R[ 5| _5 n( |3 n) X^ v2 c: qp ym g3 gn (n :n pp mq =p Cp go 4n Es Y: l: 8j Jw.D&.0B 8L.#C =B -F ,8 l: l: !6 F!+K++LJ 9; 9; !} K~ j, ~/ ~/ 6- Lg fY.G!+H!+I!+J!+K!+L!+M!+[T._] N!+O!+O!+P!+iN.Q!+R!+x/ `{ g6 S!+T!+ba h' 'a ZJ k( 8j ,8 _7 V2 ql e) !E !E !E T'.im xm +: {' kH :^ 2> i| I6 e: B} l| l| B} q: !z i/ :~ i, ~{ O; r~  $ K) K) L~ E> s~ T- g~ X; H> {{ L| L| L| L| =[ q(  _ _/ :6 *7.U!+jg.V!+a3 W!+X! X!+Y!+Z!+`!+ ~+5%+.~++~+@~+#~+$~+%~+I)+&~+*~+=~+!8 -~+ n SI eU.~t m%.Os AH fo or -q {q pr KQ ^n !n an !n =s e) l: l: l: !l T9 #7 a* L> '; U9 <p <p _B j| 7< p] 3> r~ M_ /: 5} ,: ,: x' g: G8 =f d< I> s~ v] _~ q( E5 Z1 !z _5 dq p( C2 @> g/ v5 s< n9 n) >2 *> j8 `! 1_ '~ D; ",
"&2 xw n9 4| 4| |1 O8 j/ P- #> s~ M_ h] s9 !} L> |_ ]/ u< !~ {* l] P- Z6 &~ v5 n_ a' v5 U[ ){ [l !6 y2  | l~ c' P; J3 $~ [3 ^7 +k ,8 1} km tm _n _n _n _n [n *p ~I z'+.n )v )t Y< lq R, a/ S* e0 X6 7- J/ g/ X^ p0  | KF 91 !{ G_ G_ !{ '~ K- 81 K- 1a 8< }] '= @~ Y; k/ v2 2) 2) Q, w2 +5 I} X; #) '~ L; `6 BZ.{) L; 1' N9 K2  5 l^ 5] 4] L_ 17 ^6 F} 9| !z MD c( '6 <p 4| 6] o0 gr Ss O[ iq vp mB np pp mq pp mB Cp [n Ix Y: l: 8j Jw.ij.<  ;~+^0 =B -z s1 ,8 ,8 `| vG A0 m) P; (; m) ~{ L; 'a L; -9 )E >~+,~+'~+)~+!~+W&+~~+{~+pf.H} ]~+^~+^~+/~+(~+<[ a] F> F) Y{ %5 u,.Lr.wD 'a 8G pk 8j l: ,8 0l =| [4 (B io io gm b( s< Q[ 1> 4] l^ `; u9 I6 B} f3 f3 I6 I6 A} p( X; `! z, L; O; 4& P' S- S- |' E> #) @) X; $) sr O! F} F} -; R, t9 ye 5| !z s< #X.Do._~+:~+:4 :q _B $*+<~+[~+}~+x;+|~+V%+1~+2~+3~+4~+5~+6~+H#+V].7~+lr 8~+-~+_) ^' Ar Br 2r Bo <q =p |q 5q rq in 0o 8m zn jn Dp ;s >s ,8 _7 eu >( [- R& k' i, d< b3 F} Z: 13 33 16 E/  $ N- !~ D, t^ @/ '} 2+ $~ =f 3a R- K) S- `[ n)  _ Z< !z p: x0 8D K_ s< }1 }1 aD t} n: dq h= $[ {^ !) (8 -> ",
"@4 n_ i/ g~ /~ ': ]h +( q- t3 @1 |_ h: ,( h9 S0 9} `5 l] T2 H} H} 6; _~ H8 a' .) k/ X^ u9 xm oA QA ^B @> ;- Z% 8} G{ r- 9~+,[ k( ,8 ql o, tm tm :n :n tm [n un Cr 8r nr 7r }5 }6 2] F- 7- 3+ 68 ]= K~ s~ I- Y; J/ T- ~* )~ D/ `S v: R] =^ 4{ W6 P! z7 )a Gn w/ // v( V, S, z3 _1 }6 3) P' m! S] v: R] $[ W; L~ $[ 7< `4 ~8 |7 ]8 f: r9 r9 yq P/ k8 c9 tz h2 {5 ){ y>.H3 !z O! {{ 0< /8 f: R, 0< *I iq =p =p or mB Cp 4n Ix Y: l: 8j r .tA -Z.*6.n@ `/.cK.Z'.X8 X8 9{.G7 _M 6= =; 3a 5; :^ y7 M~ M~ T- L. ^v 33.0~+a~+b~+c~+d~+e~+_e.yE o7 f~+g~+g~+F) I- v5 Qw Z: 6; r@ V} {b -0 ~} et ,[ 8j l: ,8 y2 il o, fm 1o 'm vm P/ L2 81 Y; `; P8 +4 U[ f3 b9 q: c9 7/ 5< A} }1 `; E> -> v) 9/ C[ b/ h) k^ g/ C2 M2 D: 6; N! 2) !z s( s( O[ }7 n) 33 w} O8 p( fy h~+i~+j~+;K.Zi.k~+l~+m~+n~+o~+p~+q~+r~+s~+t~+u~+v~+w~+x~+)%+(!+BG 5s 8~+y~+ n <) ir to ir Cr 00 |q 2q DE.or in 8m cn hn hn {n a< c< _< y2 10 4> ZM (M Z}.|[ U5 2> b3 xw oA 13  > P' h] #~ !~ v/ p~ t^ '} 2+ G8 ~' l_ A; .^ r~ T2 }0 5| v2 q( q: d: k| k| g) f3 sn u9 j| j^ 7/ R[ #) .5 '= y7 k] ",
"D0 6; :] +; {* J> ;g ,2 E; _[ r- >~ V@ 18 kf /^ A] u< A4 ^( a' k/ 7] N! 7] k/ H8 _~ 32 !z xw %2 E[ p< T- ^a M> X6 X6 9- @u ,[ k( ok d) fm _n _n :n :n }n 4n wn _q *p 8q }r S~ I#.CD |6 ex `] r7 PI }' 1' Y~ F~ 7: sa G! 1_ #) *) F' T5  ' }5 l9 @' Cv T5 >; >; #U [6 Cv }6 m9 W~ %r  ' 7( [^ z~+A~+J&.M~ 17 8/ H> {{ c: J%.J%.Ap iq :q :q xn sm ^m M6 pl `q Do qn Vv YF 20 }> }5 c: /8 /6 &) F- 9( pn ym pp or Cp Cp on Es Y: l: 8j p#.pf.-Z.B~+C~+qR le.D;.Hn.X!+G7 M6 G7 v&+a!+#X.6: +z ot 0( G) m^ Z} 5k 9` D~+E~+F~+G~+H~+I~+^t.Ej  s J~+J~+K~+X' +z j^ 5t h2 B~ z- L~+}~ }&+~} W5 9s 8j m( ,8 @7 Z8 K7 ~m ~m _m q} H6 L_ K2 A0 Q9 u9 wq I2 B} b9 8D _5 o: p: ,} 20 P/ +z /6 n0 /6 8( ]8 K9 o) o: _5 j^ +4 H6 T[ wm *[ AE F7 k| 4m q( k^ $u j/ v5 fy bK.M~+M~+N~+O~+P~+Q~+R~+S~+T~+U~+qx P=+V~+W~+X~+:7 kI.Y~+Z~+v&+vq JN 2H Ir _) 2] 7r /8 0< ir *I 8q 6q 3q go /n 9o in hn hn hn bs Sp -4 ){ A4 R& `~+]4.Dd  ~ =; QJ }1 %2 kl tp I/ i/ I> P-  $ N/ {= ;( '} V7 t>.3a Re h] .^ r~ F: $a n) <^ 9| f3 B5  q pl M6 ;2 U[ =[ L9 +4 j^ n) h) %) L_ P[ f- ",
"t} 81 )~ ~{ >( M_ G8 r| @1 r- i< ]/ ^/ ,_ 'g.jf z1 B, %7 f< U! G} `, X, .' P[ 6] I) n_ _5 e3 k| *[ dq @( ~/ S* L& X6 C, [0 !6 k( ok 0F hv =9 2m Bp }n go Bu _q Ps tn 00 0< 9I Gv I#.fr cI s& u& t^ g] @; Z- Tt AC i' wD -' m^ {{ 8( S, dJ l9 W~ 5^ dJ V, w> w> G)  ' Q, 0< /8 %r l9 V, yH n}  {+ra rW.1a a0 a0 )u 0( jr 00 00 00 tn _q _q fo g3 fm }l [4 [l i2 [l Vv 73 r< q: y8 22 wr 9: )u gI `C 1I XX =p hJ [G zm Am fm tk l: 9j (z t{ <A zB Sj.qR .{++{+@{+C=.71 ){ K6 /{.@N C=.j| 8( Hw &[ E- uc 7- >w #{+${+%{+&{+*{+H. ={+-{+v2 >^ ;{+>{+,{+Cv V- j^ 5< w< N! '{+L~+}~ f' +; W5 Z( ,8 m( ,8 y2 em <m lm ]o gn Ap &9 m0 ') 7< Q9 P/ uq tz D5 tz p: K_ }7 sn c9 wm i0 Q, pt AZ.G- O! Ws u9 }7 ,} 20 t} }> p( :6 B} .G <m I_ I_ i> 4( `; 5] 6] L| j| Z].n)+6!.){+uA G!+!{+~{+{{+]{+^{+/{+({+8~+ps Mt 8p Yr eo mB ym <q -q o&.=q =H ar kr )v l9 ir 0q 0q 8q 3q np !n 9o an an an 'n ;G %q ds C7 F: Kx `~+]4.[I /& X9 tE Y4 I_ em I3 +: !7 v{ d< i] N/ ,: }( )} V7 x3 X7 G' (2 f, f, <3 f< +4 a' V- I6 hv {l {l M6 ;2 c9 }> ]8 =[ }1 4( u} -; u9 q( 1a ",
"t} 2> E) i, e( g, @1 N| @1 .$ 3z s9 0d h9 if m} !u h, %7 Ej n_ G} b' b' G} a' 1> C2 X^ J| >6 dq >6 {' M_ O/ E, M/ M> 8- Ql !6 k( ok 0F 2} Bm Bm |m _n 4n #o vn up wn I2 p) _> M! ;; b: 7a h* r7 ;( L& -> S~ E- I! 1k 7^ p] a0 {{ 8( dJ (: m9 m9 m9 S, ]{ T5 &t G)  ' %[ -; gr }5 Z' O! C/ ;= K< :H 4} $[ ') $7 C' F- c: ns ns 00 ao Dq 4q 4q #o [m M6 w1 :/ :/ s! h| J_ F[ &2 85 un jr :B 6] Ws D7 tz Cp mB =p mB Am zm ^m qk l: 9j 1F < +0B zB C~+_{+:{+<{+a!+[{+r&.g3 ~m YM 8D p: _6 Q, 9I K, B6 1^ M|  0 9E.]}.}{+|{+1{+2{+3{+V'+c3 }5 ;V.u) G#.*~ J8 !z  _ -] x} z- }~ da 9a :] 8| Z( 9j l: cj h> :1 wp :n zn g3 J2 #[.9/ 9/ 5] 32 P/ U[ 3^ W- D5 3x gn.o: p: 8D p: r9 3) es 8/ 8/ H- Ws u9 sn 3^ q: @N (5 P/ f/ 4^ *2 &2 q< *[ YM A} q( 2) _1 _: F5 4{+5{+w0 44 xi.Il.6{+7{+]{+8{+9{+0{+qI a{+b{+c{+>!.d{+d{+1p Bu Bu Gq Gq Wq Up _q |q <5 >4 b} Dq !t pr or kn am 9o !n !n 9o ~n BE m%.~t Uy kk d& )# C-.lx /, !y ix ]B c3 s< p0 sz z} AD !7 #~ g] t^ ;( -} }$ x3 X7 ;g N- r~ f, <3 Ej R[ &~ <^ A} AE m: *[ 7n 3x j^ u9 }> Yz r&.o: }7 xq b9 wm %) ",
"Y1 -~ M| d' D) ,~ j! d~ /: vY A[ N| <' V{ 7} >5 Xd q~ <3 D: M2 Z; H8 b' G} .) 33 (] (] (] f} 3| 10 (h /: k) 6) T} __ j, [0 Fw -H ,8 !6 [4 }l @z @p Ds B5 'm =9 =9 q| <I Co Ss to mu f: V* u; [' `& 7- C[ <> ;; F) g! 4) 1a sr S[ 2) _1 V< W~ W~ %r  ) S! R! G) |] ;; dJ [> [> }6 5s S[ v) 3> {) 1- N; -[ #[ yY G6 |7 J2 ~t Up %q Dq AH Bo /q ao tz |C d3 d3 e3 C} @u @u c( .G q| yn qp D7 T[ o) c9 ym zm mB ym zm zm xn 3m g> m( x2 e{+u@.=0 St A$ *Z.Ai.%4 f9 H6 _6 85 .p tm Co [5 T[ 3] X' f{+g{+6c O; o@ YA h{+i{+j{+k{+CQ.l{+In.WG g- [) :: p)  _ }1 5| j| n) 6;  [ [a eb {) R- 8G ]7 8j 8j ,8 Y8 AE |C 4n }n xn _6 3) *) H> H- ]8 (5 O[ U[ >} I6 4m N6 _B b( xm 8D F5 ;; 0( 3) /' -; =[ }7 o: ,} 8D A} Z: Z: U[ f3 q< bH Uy l| 85 YM f3 tz U~ AH Br <6 H6 t9 i| pA nu.m{+n{+o{+p{+q{+r{+YG.s{+t{+u{+Fh.v{+>!.w{+Zv 8n BE |n }n tm on Bp P6 P6 Bp zt 3n |o 8m {o ]o ]o ]n ^o ho 9o KG Nn x{+do %7 &f !A y{+Gz ,( *f P: v{ 81 5] 4] C2 !7 n8 !7 #~ T; p~ t^ Ga V7 x3 Vy 5: E; g, .^ s~ (] 3y 99 &~ q( Z:  _ n) aH >2 b3 v} Q[ >H (5 J%.uq q} rm q} K8 ",
"v5 v] B, S' l! g1 ,~  ^ 1| _2 A[ _2 0- ^/ !: hf O2 9- ~* @) W, J- L2 X^ .) .) 3| !7 e< 1> C2 1> 4= ]h P; xc Nu N8 T} ~/ 2x Fw -H 9j _7 !6 e) ]} e) e) g> pE =l 24 `q  q <m I6 wq 3^ [5 b3 K& B' B' yY 2) Y< {( S, N! H- /6 8( r9 p) f/ w< j9 j9 j9 :5 FQ (: dJ n/ t: pv z5 1) W~ W~ c: X^ @> 5; MF JW =^.Yt.Zi.Tn /I.fG go vn Wq _q %q !t ^u Dq tn >4 uq o: j^  _ Y1 }1 20 <m 1o =2 [n ym E7 q} XX Am Am Cp zm !r.zm xn sm 24 ,[ pk `'.T9 .8 (; 9; Dz h) f: 5^ Cr _q !n  ^.9o dp 4q kr mt  n M, N, G) Y; Kg z{+9_.VZ.A{+fW.B{+D*.v&+g) zm :q ns W- ,} o: P/  9 !z X^ ,; D/ D6 4& +5 8v ]7 8j x2 g^ 'l <m vm }n V[ #o ao _1 S, [> T[ J6 g_ g_ [5 g_ 95 G7 Eo 7v 7v tp YM pn Cr l9 c: 3} J2 wq wm 20 E7 xm c( I6 I6 f3 85 ;4 P6 P6 g3 =9 :m :m 90 ;I KG 8H ls )v _: X< }q.do C{+D{+E{+F{+Jv. 9 G'.G{+H{+J'.v{+>!.d{+Jt <o ]n 4o 3o 1o Vr km M6 M6 L6 Ip 'o [D OA ]w ]w LC <t Dp Pq ^o )o 7p ap x{+|C y} _0 _* I{+sL h9 Ue d< t< T- 9/ y7 h) 33 6: u{ Y6 -} /% sy w) I* !v.Vy y, a} !~ .^ R- 34 89 Q5 f} u} u} b3 6= a9 5; l^  > ,7.>2 }> wq yn =9 fm YM A6 ",
"&~ T2 s~ {* :_ .^ R* i< R' S8.@^ R' @^ $^ ^: +1  ^ i< f, +] 91 T2 M2 X^ n_ X^ f} (] 99 99 C2 1> 1> mz !} wc #(.3~ 5> #] 8A c| Tu cj k( ok Y: h^ h^ h^ h^ Y: ,{ ~6 |4 9l 1v r< I6 tz 3^ sn 4( s< P/ j^ >} ep }) k0 V< T[ 5^ W~ g- U[ tz lJ P#.P#.P#.h2 P| F8 P| B7 Uy bH Uy 4^ D5 k_ ,} D0 n9 d5 ix 6t ,t J{+8G.E3 e2 /m mB (q (q ns %q !t Bo Dq _q un O[ i0 q( T[ 9| !z c9 *2 'm gn 2m 2m Bp vm 4n Cp yn Bp tm sm Bp }n Bp 1o w1 i^ N3 U[ +4 H6 dJ |r Y< }K !~.bs v,.A`.us 1H GN  !.ms Os ^q ^q )t J2 _5 D9 pd._i.K{+L{+y.+7v pm ^m ~m |m $q }K X- V~ >4 22 J6 (u pv d_ X~ 7] 32 5| F[ 4_ !6 f> [4 L6 :m e} bs Sp Tp E>.p9 xI xI U~ |) D5 tn ]' Y< 4^ dn !l !l g| s} .G q} >4 b} tn U~ V~ f3 b( wm wm E7 m| q< d: *2 q| e/ =2 e/ e/ c} Bm A5 o| M{+YI N{+GJ HJ 7H O{+P{+Q{+hy Rx R{+S{+a`._q T{+U{+J'.~~.~!.~!.~!.BE #q !v {v io @z }l r} Q/ X2 'l f) !E HT.h^ m( h^ !E Uo >p 3o #q ~r 2p ap V{+h2 y} c1 }f |f eI _0 t| =; @( 1' #) 7< `; v} sz z} %~ @e )} a; s- 3z t| Ue WC K> .^ .^ ~* 4] 2| o< R[ +4 Q[ 1> 6= a9 t<  5 O9 `; >2 P/ Am zG ,p jo (r Q, ",
"v} M2 w} e< v{ @> @( >( R* q~ z, 3> .^ ;~ Ri _2 .^ e( )~ {/ ,; m^ L2 Ej n_ X^ o< (] 1> 99 99 L2 e< .> i, $8 #(.{1 }# ;d  _ @x Tu ,8 k( ok g^ ok Y: ok Y: Y: ,{ ,{ {6 V2 Q/ dn P6 85 yn yn m| V[ Xv on ;4 x4 V[ 05 V~ W- 3^ 3^ wn zm ;4 <I C5 Y[ gO EB ^8 J_ oA Wv E2 E2 E2 @I EB :m .G F7 &2 k| h| Q/ U2 ok cj ,8 cE 3o yt (q _q vn 1p Yr Wq eo #o <q Ap J2 p) W~ 3} J2 W- zt ]n 0o ~n #q vr $q }p |n ~r ,n !m fn .p {r zt Bp m| e} zt V[ X- BE }p bs )n W{+U'.us -s 5A Pz 6A X{+<o GN 8n :r bs 2m Bm em Q8 tU.F%.Bc.y< Jp ~q kp 0z fw ho !o Y{+;!+C,.$q yt E>.8p >G yt E>.~t }K ;4 Z{+fN.Do km 1o 'm Y[ h3 #q 'n ~r bs bs `{+`{+zt zt x4 :q Y< b} 05 s! y2 W8 +2 'l 2} =9 V[ go 4n 4n Sp b9 b9 q} ym 95 85 P6 *2 *2 e/ e/ e/ e/ Bm !m 'm 'm A5 |J  ]+.]++]+)n v,. ]+@]+#]+$]+ 1 XE  G g) ;G %]+&]+Ht 7D :r No 'n !m !v dE e) ;n 7A f) f) )[ +G ql qk nk m( l: l: l: m( !E 0z lt #q D,.'r 7..7H Xv j/ !u l} |f !A [- $~ kH 2> K- H> G- v} Q[ o( R[ 34 R- k. k. V4 5: *]+=; u] i] :] +] s~ K- Y; H8 Z1 !z }> v4 5=  > 5;  5  > Q9 Ha.iJ fn !E >o >o ]} Co ",
"n_ f} W4 W4 69 Q5 %7 d( ~{ x_ $] z, +^ q3 #J =} {* )~ l< e, @) J- k/ X^ X^ &~ (] (] (] 99 M2 99 (] d< R* 3& 5c 8b h[ *3 -] y%.Z( ,8 ,8 m( ok #s #s m( m( m( #s Y: >s g^ V2 {l N3 ){ =9 3m zt e/ e/ =4 *4 [m *2 61 P6 YM |C |C m| l| P6 <I N3 km F2 x+.W^  A V^ QA qn jm mA  q 2} YF oL h| W^ @G WF d) ,8 l: l: l: Y: ~v yn :q zm [n V[ 4n op go xn I2 tz c9 f/ ]' J2 g_ V~ x4 'n No :r !~.tS }p }p $q bs ~n 4o >n >n fw gn mB >4 <q mB $q C,.vr ;I {n 4o $t {v ko Z5 =]+^@+us Vo #q 2m (n !m .p km  1 X5 S8 3i W0.-]+sk ,{ !E ;n ,p Ep >n qH >r |J {n =2 g3 vr bs vr vr ;]+mH )g.o| -2 p| a< Bm 90 h3 1o C5 90 #q c} e/ d} 90 90 Bm C5 c} wn y8 y8 ep 1v `s bi >]+cl {l K7 =9 Bp tm tm :n YM e: e: YM g) 75 ;2 .G .G K7 ){ _m :m N3 en fm 1o y4 BH Dp Pq F2  1 pl ~v ,]+']+)]+~p )i &w BB.zt !]+~]+No an (n 'm Y[ w1 nB e) ]} ]} 8*+VF QF `| 1} U2 _7 m( l: l: l: l: m( ,o -r -2 {n 'n GN v%.FJ 05 `; 8} 8f 1f {]+r& s| v{ &~ 32 |7 u} R[ v5 Q[ v5 X^ 34 *g ]h *g 34 I8 .> t< ,; k~ %> j] W, %) x} c] J8 9| O8 1>  > #[ @( a9 g/ R, wq Es -n h^ h^ -n Cp ",
"{' O8 3y 3| 89 u4 ]h P] :_ ~} _( l< A8 U5 L- Q- l] d( V; #) 6; n_ v5 X^ w} w} (] e< e< e< 1> 1> w} u4 >( T% &6 8b 1[ *3 *~ )6 b~.,8 ,8 ,[ r1 %i %i ci r1 4_ r1 F3 M[ Ki Ei z9 Rq s0 uE J7 }o d3 qq N6 13 U9 *7.c) 9G ]]+#X.BG Ng F/ BG ]B 3x a3 EG et lF ,w.9g yg DB  q en q< b( p< uE tt et Rg ^]+F%./s./]+(]+c)+S| _]+:]+Kp <]+t$+ES.9G ZT.B2 <T.x$.QJ 10 4= w} 33 QJ p0 }7 O[ OD b.+o) D7 u9 Yz [J.x0 2I.[]+}]+cG <t.sJ |]+1]+`i.L9 C+.gr MJ =[ i| 2]+AJ n@+7%+Gn.g[ I3 N6 13 8| tE 3]+Rq aG +v Ed.3.+a4.Bb.sy.4]+%)+j,.&| Rv 5]+6]+w&+r0 t} t} AG H_ 23 Y1 i| 23 c3 }1 dq 13 a3 8v 8v a3 A2 A2 X1 6t A2 :4 uE q0 @X.F-.-I eu DG Qg Zr <T.%4 O8 Zh.z9 Bc./s.kF zw  r dq (5 D7 [E J9 AG p8 9G c) s0 C=.*).*).5p.*).5p.3]+3]+C=.9G :4 vG /m im (m I_ w&+7]+8]+eI.,j.ml -2 em DJ 9]+}G.0]+a]+PH.b]+`>+H9 -I +v ;{ eF.tU.bl +G *| ;l N[ &F eO eO =i c]+ql qk g^ k( `( ,{ pE &J E[ C7 05 Tp FJ Yr ep g/ E, u= [I P& !u ': I/ j| u9 P/ i| t9 b3 `4 L2 X^ 48 P: Kw 33 -t -t C2 2> t< 9/ #) +5 `[ J/ l^ 32 ]( 6: {' 10 6= #[ #> :^ 2> +z qp ~m !E Y: h^ g> 00 ",
"w} 99 99 A4 U5 R- P] m_ d< .> `[ +5 mz l_ I> @( P] #~ M_ U5 !7 hx Ng 33 v{ e< e< e< e< w} e< !7 48 e< G8 !: u@ d]+u@ ;- r9 *1 #V.9s 'i vg V`.<e.nF.V`.Cg sa.oF.e]+{p lo f]+*4.g]+0B vw U`.$M.cK.sE EF..(.tH.aR.h]+t7 ~M B~+i]+j]+}+ St iw =B x; !; @r /0 {3.2, k]+<e.[1 i0 l^ K. a* N: Jd J0 m{.ma E(.l]+Gr.m]+n]+o]+p]+q]+r]+s]+T: t]+u]+K0.9L.@r 2c.h( :& Wx (% f* rj.]O..r HI $r jV q,+L* IA v]+oM.|d.+&+w]+x]+y]+z]+A]+B]+C]+FQ.FA m> (++n7 D]+E]+F]+G]+H]+I]+J]+K]+n].J0.%6.L]+L]+&6.tb.pR : +)/ 45.M]+8b.nw.L5.N]+j{.Xw.O]+P]+W7.C0.Q]+R]+IA zB ^0 v$ wV.0v z%.wV.G0 h(  - 0B <  rR <  -{ @r OE.S]+T]+;~+^0 bd.em.Ka.jy U]+%; 9i.wz V]+[+ /0 i]+]3.SP.,] W]+X]+Y]+_U rA rA Z]+K* L* yh.OE.t`.L]+yh.$z MP.bd.^0 ^0 z$ kA _;+r7 w) lE 9G 3o.Z2 F&.o#.`]+ ^+.^+*x.2E *7.+^+x, V7.~G @^+#^+z$ P)+$^+)j.rR d* )z %- I].Do.p#+s0 Zh.B9 @_ M{.%^+`^ .Z.23 xq tz 95 l| I6 D0 d5 AD e< &~ 5^ m%.!r un 6; T] t/ G= N& ,- Kw H_ Z: }7 }7 5| v} 4] t< 4] v{ !y d+.Fg T9 d%+1C  7 JW t0 :E Y6 Ml w9 x9 I8 b3 &~ O8 z} Ga.X9 *]+-! &> .6 A0 wr q} Rp XG Qq vm /a ",
"Z6 y^ 6; ,; )~ ~} i] X9 D9 lg D9 |0 6+ Z[ >9 42 >9 }A ;[ =! W9 s0 jx 5F e< v{ 99 (] (] (] &~ X^ O8 Kw %~ L> 3{ M> M> !{ W~ nJ ;] qE a3 Y6 P* 'D V2.9t Da.XK }g.&^+*^+=^+a1.HR GF.c# va -^+;^+>^+4_.[e.ay.,^+'^+)^+!^+~^+{^+]^+g# g# ^^+/^+,h.(^+zs _^+:^+Rr.<^+[^+}^+^t.lI.`$ |( |^+J+ 1G.(k 1^+2^+Y&.3^+4^+5^+6^+7^+8^+9^+0^+a^+b^+c^+d^+pD.e^+Hj 5o.py =v nV.M# Tx -v f^+g^+h^+x. i^+n}.-+ `  w<.j^+k^+l/.l^+m^+n^+_3.o^+ak.p^+:^+q^+r^+r^+s^+|  t^+u^+v^+w^+x^+y^+z^+B# bR.A^+B^+C^+bR.vB D^+pn.qa.E^+F^+G^+gB.>B.H^+I^+J^+K^+L^+M^+N^+O^+Dl.{^+~^+P^+Wp.zv 7n.Q^+R^+S^+S^+T^+<x j^.xk.U^+d# V^+}& W^+X^+'+ '+ Y^+Z^+`^+ /+]^+{. 1p.Qo../++/+@/+<% #/+V/.$/+l}.%/+&/+*/+=/+9% -/+d$ ;/+>/+,/+p$ ;_ *< =_ q^+q^+'/+J# )/+Ox !/+rH.s= -V.~/+a!+In.{/+Cl.]/+^/+//+(/+_/+WX :/+</+[/+}/+|/+1/+@i.2/+3/+6L.=v 4/+5/+6/+'z 7/+jj.e7 v; 9* h( z%.x& B& u& E$ cI 1- L; E0 i] q3 ;~ s9 d~ r~ F- JN cp _q 3) ~{ v/ B: K/ q- 8G r< l| b9 Ap }> P[ :^ g~ i/ Wn q] ]j.D&.8/+~/+9/+Un Z+ ~j.~j.0/+a/+5T.ag 79 32 P[ w2 n_ }0 e5 m_ i] l0 E) M' 9: 3} m| 3m 95 P[ ,5 ",
"+5 Z6 kk '= D6 Z& O; (' 9g ~v.b/+c/+9..mX.p+.%6.JB /)+#A [A u@.5T.bI Hy M] d< 2| 6< L2 (] &~ X^ 3| f} O- Q* ~/ R* u< @; mu )g.R9 il n9 |- 3{ .[ d> L* Z0 Fn 'D p+.fX.Ae bH.d/+e/+ o.8n.f/+ 2.<4.g/+M9.Gl.@n.h/+i/+j/+k/+l/+m/+n/+o/+p/+q/+r/+s/+t/+u/+fz.v/+w/+x/+y/+z/+A/+C.+=u u+.B/+C/+D/+E/+F/+bN.G/+H/+I/+J/+K/+L/+M/+N/+O/+P/+Q/+R/+-n.S/+P{.T/+{l.~l.U/+V/+W/+X/+r[.Y/+f+ d+ Z/+`/+ (+.(++(+iA.-q.@(+#(+$(+%(+oC.&(+*(+)].OY.1^.=(+Zn.-(+;(+>(+,(+'(+)(+!(+~(+{(+](+L_.^(+/(+((+9X.f . o._(+:(+<(+[(+}(+^(+|(+1(+2(+3(+4(+5(+6(+7(+8(+S!.Ys.9(+ko.`/+0(+a(+b(+((+c(+d(+d(+e(+f(+g(+'^+h(+a(+h(+i(+j(+k(+%n.l(+ft.o/+m(+xs.n(+o(+p(+q(+r(+s(+QU.t(+u(+_D.v(+]/+w(+x(+y(+z(+R@ A(+B(+C(+K<.7X.D(+L_.t[.((+E(+Zn.F(+G(+H(+ET.I(+iG.>J /G lR ){+J(+K(+L(+M(+_|.N(+EF.Xz O(+P(+Q(+R(+S(+T(+U(+a  V(+W(+YM.X(+Y(+Z(+`(+o`.+.+$  sy j: hO Zo. _+9B i} t/ N8 T% Fd G! C, N| O| (, (& 3> &) =H AH (q /6 E> a} O| Ek P: 7v jm 2} 'm ym <6 6] f- #) 5; Y6 *Z.V]+r].._++_+@_+#_+$_+%_+&_+*_+.&+=_+]t.Fg b3 6] Z; X^ 4| AD @> :_ M| K3 C/ =) c: 85 [m E7 %) <H ",
"5] h) I- <[ Q_ !{ R* (g V9.U9.=z k+.bn.-_+;_+>/+>_+,_+'_+z. Q1 <C 9t Po [g M] C2 `4 L2 (] &~ X^ X^ 3| mz 0U.C| A; M_ C' Br ho B5 gm (5 ]^ )_+/% ^; C) v3 HI Fn *Z.L]+M).!_+Jj ~_+{_+vs.Ft.]_+wI.^_+/_+(_+__+:_+<_+[_+}_+l/+|_+=Y.1_+-m.d/.2_+2_+3_+4_+5_+6_+7_+8_+9_+0_+a_+ri.b_+c_+d_+e_+f_+g_+h_+p'.i_+j_+k_+l_+m_+n_+o_+p_+q_+v! r_+s_+Fq.t_+u_+l~.((+V/+v_+V/+w_+x_+e(+y_+z_+A_+B_+C_+D_+8X.E_+F_+Gv.G_+H_+I_+J_+K_+L_+&B.`y.M_+CJ.N_+O_+q[.P_+Q_+R_+S_+T_+U_+V_+W_+X_+Y_+Z_+)l.`_+E(+ :+.:+VU.e_+s..+:+Eu @:+#:+$:+%:+&:+*:+=:+-:+;:+>:+,:+':+]w.):+!:+:(+@` z_+0% ~:+{:+]:+^:+`_+0I.B_+0% /:+A(+(:+_w._:+::+x_+s(+<:+[:+QU.}:+|:+1:+2:+3:+/# (l.4:+5:+6:+7:+'y.8:+9:+::+0:+D  j(+a:+E_+1U.b:+u[.C_+f(+c(+y_+c:+d:+e:+f:+3K.0$ g:+@a Un x$.){+{!+v9.h:+i:+j:+Gy.k:+YD /q.l:+m:+n:+o:+p:+bw q:+r:+s:+B/+t:+u:+v:+w:+$v.tR p+.o@ |$ Pu A* x:+-$ _C 6I -a q& :U ;- L> ;~ -f t; E, M| p} JN m%.Iq Q, g~ V4 ): '2 C9 .: }4 dE -G 3m II c*+M~ v) C: 0; ). it.y:+z:+A:+B:+C:+D:+E:+F:+G:+/- H:+I:+~~ h) P! 7] .) 4| v5 @> :] 4} K3 e_ *) F5 *2 M6 3I m0 J:+",
"m^ I- 7] U- #) j8 #7 :' +F.O[.tI.K:+3u.L:+M:+N:+O:+P:+Q:+R:+@i.S:+-# 5k F{.PF f} X^ &~ a' &~ &~ X^ 10 d< i] L' !~ a} V; 4r ]n 3o M6 g- T:+Gd _D ZS u; /; D$ v; N* p+.U:+ki.V:+W:+X:+u0.%v.GJ.Y:+1T.cL.(A.(z.Z:+Cf `:+ <+.<+aw .o.+<+@<+W:+#<+$<+d/+%<+&<+*<+=<+Gv.-<+;<+><+,<+s. '<+/x )<+!<+!<+!k.~<+2+.{<+]<+^<+/<+(<+_<+:<+<<+[<+}<+b/.$I.@<+|<+1<+2<+pk.3<+4<+3U.5<+3R.6<+a$ q..7<+r. 6<+8<+9<+0<+RE.a<+b<+c<+d<+Cp.e<+f<+4].g<+h<+l|.k|.j|.i<+j<+k<+l<+m<+n<+o<+p<+F}.q<+r<+s<+t<+=p.%p.u<+$p.v<+w<+x<+3R.I1.y<+z<+A<+B<+C<+D<+E<+F<+G<+H<+za hH.H.+r. I<+I+ I+ t%.x<+m .m .J<+K<+I(+L<+L<+^H _ .M<+N<+O<+D@.P<+_ .Q<+R<+5<+S<+T<+U<+0$ B+ w<+a$ zv V<+W<+X<+Y<+Z<+`<+R<+ [+.[++[+e:+2<++o.ET.@[+3R.2R.J<+[u.#[+$[+%[+&[+*[+=[+y  .- *, Bo.c!+e]./N.-[+;[+11.>[+,[+Xj W9.'[+)[+_x.![+~[+wa R=.0y f/+j<+{[+][+^[+/[+yv.6y NI ;j J0 ^_ j; #U.QC 3, $# M/ d0 cI C| @1 r| P4 g: d' E) O! Mn 7..cp 3] L~ Q* _& 5[ .> @2 9l k2 @p 3m 3} H- f- k~ ft P} i+ ([+_[+:[+<[+[[+}[+|[+1[+2[+3[+*K 4[+kP.mX./~ `, 7] 32 v2 3| J/ f, )= j8 |' Y; +4 N6 jl #2 5] $( ",
"h) pt S[ k/ >2 +5 lE %K. |._c.Ld.5[+6[+7[+8[+9[+0[+a[+b[+c[+R  V& d[+Mq..|.7O.T1 E8 q( v2 F} <^ <^ v5 !7 B' |5 |5 .^ S- kr ]n 3o Es E7 H- ;) ') >A :^  5 yY @> 3a jX 1d.uR Ja.h`.>Z.ug.e[+MW 8`.f[+g[+HB.UZ t++h[+#++mm.0C R{ /p.q[ {p.}9 Tb Tz e8 ^& VO.i[+j[+k[+l[+m[+n[+{; iA 2D !4.%{ o[+p[+-E q[+fC.9` r[+s[+H2.t[+7c.2v.u[+v[+Ad.w[+-# ZP.x[+ys F@.r+.(4.b& lD b) j; $6.1{ )@ !0 z{ 8t 1{ C& J*.y[+z[+><+A[+J(+B[+C[+D[+/N.E[+mi.7K.|v.|v.ys F[++S.V(+G[+H[+m/.I[+m.+J[+F[+uH.:v b) Fk >D K[+L[+QC K% lD M[+ G.vS.N[+O[+P[+Q[+P[.8}.R[+Fk ]A z_ |M _C }* )1 )1 !4.!4.NE o[+${ -& Q= =( Xm '4 NE a) n~ {% S[+J=.T[+U[+fx 1t Ej.5! ;w -: :8 19 o# b& 5d V[+W[+X[+Y[+Pu Uc G5 EA -w ~0 x@ ={ hO 'e 19 *N *8.*8.T[+K^ -& ;# K^ -& QC z%.c+.b* Q} ;E.Z[+`[+b].hg. }+N* Q* }2 .}++}+@}+VV.bH.#}+tR nh.$}+aR.2$ %}+&}+jD -:.2d._' Ue Jg Lg zI yN.^g :' 3( 5; @> 2> j/ 34 +> h/ P] )) Y; 7r 9p v@.Xr b: 3> |[ !u !: N- <T.4m I2 ym Co yq o0 9/ K) Q] U0 *}+=}+eK -}+;}+>}+,}+'}+)}+!}+~}+B# {}+]}+qR @> u( Z, B~ L| M2 #> h] V* I> `[ Z6 &~ s< N6 z2 p8 2> ",
"w2 {{ +z 32 t9 sz 8/+Hf ^}+dh.G8.{w./}+(}+_}+:}+<}+[}+}}+|}+1}+2}+Y4.X`.3}+_e.Pg nU.4}+_/ *~ *~ 9| 5| 5g ': Z} Q* 6- :] xt ~n 3o Vr vm k8 yq K9 }> u9 q( P/ !z s< Zh.A9 Ed.JT 5}+wk .v Cg.+_ e| &i * +Cm -:.wK.1g ,2 '; ,2 q3 #1 K> q3 N4 +( Q] g2 .^ &  0; JD 6}+Kp E9 [{+SB c' h: p@ Ct %f ;/ i: U] 0; 4D 7}+nR w6 1` V2.Nr Nr av nm.Dh If iy :p W@ H' H' H' G1 k1 @g u3 3z #7 K. r~ h< Z} K> a} $~ 3a Fg Xz -h.gL =_+8}+9}+}d.0}+J].1` Mz Lf -{ 7}+tM.tR 8e.a}+Rh.Fm.b}+;E.;E.u7 Mz Z0 Fy Fy Fy !f *0 m~ *0 yN.u7  }+W`.)s.nB.c}+ji.=0 L& d' {) T] g1 E, /, $# x' G{ }( N_ _0 k' d] a1 D) C, ^/ N_ -( |u sJ.L7 ]d R< Y5.N_ }( (& ^/  ^ ~/ O: l! 62 u& [  _`.d}+e}+e7 Q- @) Ou <[ S- /: g: @e k3 f( q@ m6 %_ .; 9e @< gf 6> e] &: -/ 9v x@ -: EA +L f}+!).Ja.Ja.c~ xD L& &  g}+_/+X]+h}+1g.6}+X1.+v Qz i}+L0.Zh <E /G jg 5p.@X.et Pg r] Fa.PF Ll .Z.BG /5 p8 dq dq }1 i| QJ z} O8 v2 lq j}+c{+Wr &t wD +< Jw R&  ^  7 j| <6 Ss JI /8 Z; ') :~ l~ Jq.f_+k}+l}+m}+n}+o}+p}+q}+r}+s}+t}+s-.u}+v}+&6.=f q_ +' =~ -; `; R- M_ /~ Q5 w} K- :^ j/ +: z2 _l =F ",
"2) -; Ws iI H6 *7.$[.w}+1x.Hu.DJ.MW.x}+y}+z}+<}+a.+A}+B}+C}+c/.D}+E}+GH.2S.6w 8T.2x c_ (< w4 J2 w4 p<  | .z l~ -9 L' C; ar #q Ix cs _n Ap J2 O[ JI _6 3} 3} mu (u g- A} EG Pn Pp z@.F}+B3 X5 f> .2 s$.Xg #x ft J) W, H} /( F: <3 v] x^ :[ 81 H} j] // k] v) 2> }0 Pn J_ PH.m0 ~} `5 6- U] [' z[ d~ 4y 3z J3 r- R' B, {} `- E! .1 k3 h, Q' *} M_ E; +^ .^ e( e( .^ :~ r~ Q' :] '~ @; V; ,; V; @~ #) T2 Z6 f} e5 z} |0 G}+~/+9/.vR =z PY JD H* V2.Q} @A !; E].Q(.=z PY tM.9d H}+&V.*J 0e F; u3 u3 u3 4y 0- &  d~ k1 V2.I}+/O.tj.<  Dj i, K3 zl `h.yl +6 M| 9- v; P* Q; R; )x 3+ 3{ z1 m6 >- x_ 'a c' /& j: ks.>` r8 if c1 s; V{ w] D) 6- ~{ +; )~ p] r@ R&  k K+ e* ]O.Y6 .) =~ A~ +' U- l< c' !} u< )~ 'a 7^ p& l& 8b SH .; `$ G{ ad Y1.B& fH J' |M -( ;j [g J}+mR -f xD j0 C| WC C&.wE ~/+KT Xn {' C} :/ ;] ^B 8G o8 ]B 6t 03 Pn EG 2x U6 Xz !y |0 V9 dq 8D xm xm -8 U[ j^ p( |> $9 9| ^u qW.xo Yr =) u,.Oa I= /b 62 @> H6 ir Ss 8q /8 3) -> 7- N| fB -(+K}+L}+M}+N}+cB.O}+P}+Q}+R}+S}+T}+U}+v}+V1.*g dJ +' (: _1 P[ T- d( %7 3y w} 9/ @;  5 l8  p !l 1} ",
"Z< 2) S[ 3) |7 lg V}++.+S#._F.W}+X}+Y}+Z}+`}+ |+Fe .|++|+@|+#|+{_.$|+HX np.%|+7G U7 5< L3 h2 m| e3 Pn tg x9 G8 a} m) D; ir #q _r zG =2 >4 J6 g- p) 3} to |r _: (u p) s( 2x (< (< c_ &|+{5 YF >q *|+=|+-|+aC x7 =1 (( _] B_ $> Q' f, M_ h0 C: x^ j] q/ _] X; k^ !w |3 #2 p0 .6 p/ O/ 0* !4 o4 ,( HQ 23.Dh d~ 3> d1 $] 3k A3 l! k! ,~ D! _( +] :_ r~ e( <~ x_ z, B, h, :~ _( v_ p] )~ {/ S- @; V; 91 t< +5 h8 Wn 8++WX -h.rb.,[+[C $C =3.1` V2.;|+'D Dj N* e^ w; XK XK NI av >|+4E.,|+}$ V6 4y 4y 0- 0- 0- d~ }[ P* Fn Mz Sl 0B c  ^^ $] m! #( gq.v: K3 7- V6 m{.UH.AH.ta M. sC u- C4 z1 5- S' z, D) E4 Nw lD UL.$l P< c6 ,: ,: }( !: w_ 01 B, {* K) G_ 0^ 9B t)+/p.*w :E 9| 5^ B~ 7] #> R* _& &  R* Q' ~} 7^ 2~ ,c yb ]b uy.B= *0 '|++L Jk fH 6! Vq.j: -3.0Q.)|+z' 5[ g] S* P; u| vd Mu =! K& I> 99 MD $J d3 7/ o( |1 U6 <D Gt P++Pw Ej &~ !7 w9 u{ hE >6 7/ 8D A} p: j^ T[ F} P8 /6 0: ^q {t d{+yo `P.~a ~c Q'.Mc 3{ I> L| c: /q 6q MJ F- C; c' &0 !|+3w ~|+{|+]|+^|+/|+(|+_|+:|+<|+[|+}|+||+1|+7}+y} }6 =~ }5 m9 X^ :^ R- kk 3| (] C' '~ 7< *9 F7 WF )[ ",
"q( 2) 8( b' v} D9 Mx._u jw sK.6d._o.2|+3|+4|+5|+6|+7|+8|+9|+.o.G,.9y.0,.kH.mc.Y7 Pw 2x C7 ^8 @I Wv W1 et 4h ,2 h0 J> T- kr {r 0z Ep 'm iq o) k8 k8 D7 /8 /8 |r p) :6 Z: 8A Qw 4( !z J8 E8 ]B 6| 0|+.( ,y y} /( J) B_ $> :~ 01 w_ w_ i< P] ]h y} kk I} (~ K- `[ 99 |1 *y z} >A }- T] g: B( o4 a|+>: Fx R; J3 R* z, D! $] *^ &D ,~ Z& {} _( :_ :_ !~ z, x_ j! f( R' e( :~ :~ :~ ~{ ~} Q' N- l] )) J> ,2 $~ r3 z8 J. Un 9++!j.9t rj.>J F0 N* L. e7 !q %  c  a; O* z8 ,:.0%+Xe >|+>|+L0 k1 &  V6 0- 0- V6 d~ 5[ 5[ 1+ G1 Q} Z0 ~; u; S* 2s  [ v: q1 <a M| 9; iw b|+c|+d|+N++^d ,w $# s; !: 5} 01 i, g: v& e|+Dm f|+$< )2 Ct V@ }( E4 R< _0 5} c' {* A/ p/ u= &( Yo.L% B$ lE [H f} v] :~ ^^ xD _& /: +^ Q' _( x_ Mg.8I g|+Mc oq.>: Nr ,w j; Mw Nw 3, s  Y1.^g XJ.XJ.V6 `& xD j> 5+ P4 &  J3 h] #> /~ 2| f< 4| <^ >2 C2 34 h8 v{ .z `[ i/ +5 (] 6[ sz V9 d5 s< j^ sn sn }1 J8 *~ S[ O! %a ;; o&.Kt 6p 2v <. 5H t  9^ =8 ,' #[ 2) kr Bo /q }r %a D; C, vh.Hu h|+i|+j|+k|+l|+m|+n|+o|+p|+q|+r|+s|+t|+[p.@r d< _1 }5 to ~[ ]( j/ l^ 0' 4| n) w2 H- -; 8D em r} h> ",
"D7 -; -; G} X^ fy -A u|+c!.:F.+V v|+w|+x|+y|+z|+A|+B|+C|+D|+z*.(^+ni.5.+o@.Pf.sb.3y Qw C7 1v mA E|+bv 1I.Wn }A Og %g d< J2 Ix |H ~q 1o un o) k8 sn F5 f: 0< /8 i0 r( >6 Y1 }0 w} j/ Y; x^ <3 B' P] %~ Og pG (h A4 (( Q' l! d; w^ /^ ,- ty w9 e< Z6 +5 Y; Y; A^ H} Y; 4] Z6 @( {* f, >( u3 )_ F|+G|+K  K/ r- Q' +; ~} W{ W{ W{ h, i, 7- :~ h< h< .$ q~ j, j! f( 9- u< :~ .^ u< B, 7- !~ q- ft ff q- 3= -3.^; sC #A tw.-^.H|+yh.', #8.,4 0; }h Yx mR J3 X6 ,: /, @1 [h ~=+QR 9K MI L0 G1 P* }[ }[ }[ }[ >~ _& >~ _& s- W& 'D .r `& Hp.O: T' +6 *B R] ~{ u3 !/ J'+za No.I|+J|+ - %^  ^ ~/ E! 9- .^ k1 D$.Jj.K|+:p.PN Su.I0.f~ )x 5> {4 Zd N_ ^/ :_ A/ S' Q& -& Vx Gk IC mE Yx .$ 8} wc M& B: &0 @1 E| K) l< g! A, &D y] $_ t/ -/ ]g !|+L|+M|++@+=0 H' :p ^g '- P} u& .[ ]* P4 ): ]*  ~ X6 O; @> e< v{ 9' I> U5 I> P] #> N- M_ @1 .^ 7- i] y} 5g sz Pt AD |1 t9 q( q( j| q( F5 +4 R, Ws 5s m%.7D `I 'n wr O: m7 !u V{ R* ,7.+4 5^ Cr 4r 0: `4 K& Q* qG N|+!k.O|+Wb P|+Q|+R|+S|+T|+U|+V|+W|+l..=Q.j~.x#.!7 5^ to to _: q( =[ H6 u9 o: ,} c9 3^ Am K7 ^l ^l K7 ",
"D7 0< -; S[ F} lF V}+8d p +pE.Ft.R;.L`.VO.)^.X|+L +,W.{# ,L.v[ _)+Qp.C~+if.lo Y|+W4 +: e3 N3 M3 ;] `7 lF 3( Q* lz vd .z uq (r )p ,p 1o Co k8 O[ o: i0 f: 2) |r 1) g- E5 U6 33 k^ i/ 1' i] h< K. t,.k. G' 4h {h D8 L- Q' g< 1~ >5 C4 i: +n !h 7J .> m_ K- K- H} F: :^ y7 7< @( v] 91 l] ): B4 l3 X> 19 GQ 4y :_ l< +; ~} j8 :~ +^ :~ R* e( !~ Z} .^ i< ]/ c' c' r- .$ +^ g, u< R* U; ): mE OE OE Kg c~ >J %- N+ z$ Z|+yJ.`|+ 1+Nz .% p+ N: Q4 Hy X7 !} M> 4> M/ Z} Yh.5 .vY 0K.h1 <' k1 P* >~ >~ g: a* z[ z[ z[ !f O* .r q,+]* S* E6 aa m, 7( D/ Z~ r~ l. R% .1++1+EC Tl (4. - %  r- i, c' P; !~ }$ x& zk.yv sN.+* |$ }M @1+i< d] R2 6> C4 U] >( d( j, .f NE #U.l4  0 =, lz =  >0 0b Bc L< ^/ >( j< k~ K) k~ *} +] D! c; m5 J; B& QC #1+$1+,w u3 Ek Ek R; K' m' z_ V] Q; lz %1+t; rA %D #7 .z W9 34 >A I| h] V4 $~ 2' |5 ]/ D) 0* x= B, '; 4h !y Wn +> 4= O8 .9 u} ~8 u9 f/ w< O[ 1) Ar 2v $p {!.cC E7 R- &_ f( u< Q- O8 9| |r ir 7r yp Yn e5 5: !: ;: C* &1+f^+4# v[ Mk.q8 5, 6@ 6@ qa #A *1+#A =1+}1 1r z#.nu l9 F5 k8 wq wm TH.hq up }n !m Pq Dp !m up ",
"i0 |r 0< 0: -; hx li.=3.~'+-1+Q>.ga {f (& !~ |5 I$ 37 ]= n5 w* qa /2 G1 wE Ft Z7 {' 5| A} P| c_ @u .( {h lz X6 ;} >/ ;g r( (r ,p T'.fm E7 k8 f/ o: (5 H6 ]8 r9 i0 j^ 4( 3| j/ K- -~ 91 `} !~ :~ U; h< N4 #x #x ^h U5 {* x_ ^! w_ U] =0 Dj #; )d lz h] )) X; I} j] @) v) T- T- s~ j< |' .^ N_ 8f K5 @f ,_ @] e( W{ W{ {} `! B, '_ h, R' R' e( .^ .^ r- R' i< i, Q* @1 A[ _2 u< R* -9 Ek D{.D{.PY @A -{ ry u$ ;1+;~+>1+/q. &+,1+c- =& f] Ga P4 52 E; }' F, P_ l! K> iX #J pa h1 '1+M0 d~ g: a* D) `& ^/ ^/ U] U] R; c  c  F| u; S* E6 {) `6 rW.-' ~} .^ V6 f* Hj.+W.h|.)1+4! ([ P* &  L> ~/ ]/ J3 B( ~7.6E.: .6o.fn.#0 5& 52 4y B: c^ #% N2 G{ g: i< (& {4 Z] *{ K+ ^_ }$ g: 6) >0 Jw gf /^ D) K) A/ j< l< :] +; _( /< A] &f L< 9D !1+~1+{1+x| [$ @1 P4 N: g& 19  3 Su.>~ P4 3z xD ;} G{ 4y Jg Ve t| m) D$ !} #7 lz lz 26 `& V@ (& 5} L> #1 ,2 '; Z[ Q] 2> 1> w} g/ Q9 }> 3^ 85 m| V~ #o 9o :t fv ev P6 @( k3 G( '_ J) f< r9 /8 }6 9( Ws =[ :4 Xz 0* jf ]1+2M 2M EA )} 6R.y7 >) ~^  [ !{ }' M/ $r !y -8 (q xt <) 7r Zn qp E7 xn :q 2q Ps nn !n ]n {n c} 6r ",
"U[ p) 3} r9 r9 pA 6` ae ;E.fr.~q.+0 3{ ~} 4{ S, S[ 6^ )u 9< 4& 7- U; m_ ZJ -| }1 Q[ n) !z -; Q! Y; m_ N4 _2 ,: m} s; ~* T[ >n )p T'.B5 E7 k8 O[ wq (5 H6 2) +4 !z P/ n) &~ k^ O9 m^ -~ #) |' S- D; ~* P] Q] 8; R- R- R-  $ R* k. '2 .r ^; d> ~4 )} !> .8 )) <3 <3 v] @~ s~ v) ,; e, @; :~ g1 q& w^ z1 w_ T] Z& Z& qb `- D! 'a :~ z, <~ M| :~ O; -9 O; :~ O; Z} a} ;~ P4 3z .$ O; @1 y' iw ^1+1x )9  * F0 /1+;A (1+yh._1+:1+<1+)} 's ## C$ -} a* a* Y9 w= T' ][ K) B_ =} [z ~u M0 4y @^ ]/ j, d' L& L& ^/ U] `& U] U] [' g9 *  `6 aa {) {) m! m! 8- c' a* w' hO Yo.A* ej v& m~ g: a* U] w] a; N: ]0 [1+}1+,` va u[ ta c~ F; !f Fx ;: 9D ), x* B= T} D4 ), N0 ~0 MT +0 F| T9.3- j' j' e{ P( 3> V; s~ j< h! :{ qb `- Z& 7^ G: O/ G{ &: =: F( T; R* .^ -9 6- /, B: ,: V@ g: J3 P; D$ ]* N: a; C$ N: $A &c 8K *  6- 3z K> [$ @e [' `& 0* C, _[ E; '2 -! 8; a9 j/ j/ L_ G- <6 4^ =2 =2 =9 (n ;p $W.OA 4A sm 1' l! ,~ i! F: <^ _1 }5 <> Q, Ws i| 6u t,+k9 ,~ )x }( 7} N/ k~ [> ^' wG |1+%B Hl j~ u2 )~ W4 d3 _q }s [s mt Zn ao I2 Am xn up rq }n am 9m !n gn Zn ",
"I6 J2 J6 F5 F5 A} Ag @h /E F|.=h.3= D; G) Ar E>.8p (q 11+{( Zn Q, b: 5^ 61 m: (5 F} z3 iI (> +6 u2 O; >( .$ !: 5> N_ R* -; Ix 8z T'.gm vp J2 wq uq o) 2) F} F} H6 +4 W4 99 6; I- o0 Z; I- 4] i/ t< <3 #> V4 h< O; :] R- d( M_ Y6 vd 0; S% n  m  S% D> P; R- v] v] s~ 91 s~ 91 V; 4) Y{ p] L; `- x_ T] ;d -0 &5 W7 u~ :( B, l< {* :~ M| e( r~ f, r~ h< >( t3 r| O4 [$ 5[ 5[ /: +^ @1 K0 M. w& LE j: ~4 0; }$ Fy 40 jJ 21+,J Y9 K. Z} >~ PI v- rA h* Y9 j8 4) X{ JA Fh k< nC xE.xE.1| h, R' c' j, ~/ D) ^/ p@ `& U] U] )x )} L& 8: D6 K3 aa p/ k, H, d0 g] 3+ w' sC ^; a; k1 [$ [$ g: -} K/ w' IC [9 qq.31+ay :k ZP.5k +a o@ &3 .0 /f LE @% t* Pd I= tc &: g( g( |$ M. g9 ^^ O: V5 7^ 5( Z& n] @~ v] *} D! 41+8{ M) ^, -' r/ )~ B, ~/ M/ #] j, `! 'a L; ~{ U; r- i< C, j, C, Q6 k. u| H' h} (= |( R2 U@ C$ Tk u; 5[ s9 4y -f k1 k1 ]/ !} r- @1 ): q3 P] 9' k^ 4] -~ 5] =[ yn !m !m !m {r <t 51+bC nW.85 @; t~ g< /< j] B~ gr <> a: 3] iI (5 ^5 =F [H K- @> t< k] F' 0: yt <o ZI w{+4p q) P, A6 K- }1 d: |q mt NC 7r Zn ao ym Am mB :q fo <n gn !n (n !m J6 ",
"95 [5 3} <6 F5 xw et X7 KI =H.Ue h/ 6] [> W< Up 7H 61+7H cp ms /u NC {( c} ^8 :6 8( 8( ^`.;L.A~+Sa M| E; @1 /, jf k' x8 iI a< ;n gy Es vp qp wq uq g- 2) P[ 3) {{ 32 n_ L2 `4 0' b3 {{ /6 6] 6] 6; 4] )) 27 .^ R* Q' l] )) M_ s| WC V7 _U G& m  2{ 3+ r- R- v] Q- s~ |' B_ @~ V; 4) v< p] Z~ )~ _( T' &5 Y% o& ~, 8{ V5 a{ +] A/ :] +; Q' +] :_ K) *} $> M- M- A[ a* v/ 0* R' f, @1 O* f* ~0 _9 c& x' V6 s9 G1 w) 71+81+4+ C0 -> |' i< 68 9*+9*+U@ @e 4& w/ d, w/ k~ Fh <_ [z S8.1| i, i, /: .$ [$ k1 0; ]* z[ R; z[ )x V@ *  -9 27 O; 8- H! Z$ d0 g1 M/ X6 x' w] @e /: >( h] K> D$ -} p~ 2{ b  91+%|.01+a1+,! [1+=. n@ |x Rt d* C& z_ }* t= $b  e n2 /! Y1.o@  * o@ $A 26 -9 L; 1_ -' 1_ :] @) j] +] -1 U) U% $5 1k v_ e, :] D! {) l! T' K3 `! 'a L; L; -9 -9 .^ R* 3> C, Q* '; =g %  s8 9) 9c 84 Se 's xD {> 5a a* 0- ): Ek Ek 3z 3z s9 0} '2 q- L- `[ k^ I} 9/ C[ +4 Xv {r .p A5 .p <t 51+bC qD Am e, cv ty.F{ a] G} <> %[ Cv mr S[ K_ 3s XF j| I- 3) /' M! JJ /u |p '!.ZI $!.$!.v@.q) S'.3) g- d: up mt NC [s Zn pn ym vm Cp <q or |n ]n !m !m 3o c9 ",
"I2 J6 0< zp r9 xw p< d< P] h0 .> 2| 8( to Ar Bo AH V{+V{+ms o&./u _) ls c} Bm *I 3] 3] 9I b1+c1+Ta +; G8 K> O> 8^ &8 k, 3] a< !E Hp 2} vp rp J%.uq g- q_ Q! *) sr A^ T6 2| `4 C2 g/ I- G- 17 L_ 5] 7< S- O; R* R* Q' d( l] h] k. k. V7 a; ~4 sy t- -} .^ d( Q- s~ s~ d( l] A/ {* +; A, `- D/ :{ ][ m! f' d1+e1+h' DZ.gj e' $] [_ +^ h< Q' :_ `} i] ~* M- q- G8 .$ g] E, 0* z, :~ .^ O* y| g& :C n[ x' }[ J3 s- Tk _U H# x- C0 9< *} 6- r7 /2 n  ;( 2+ r~ '~ 4) '~ *} k< m] _2 pa @^ /; 8K x#.Lg [O.[ +1` vw !x f1+iw Lf ~; ;|+e7 x3 ): 5[ j0 ^a T] g1 5} /& /& !: D) q~ R* /: 4y g: V@ U@ Pb n# g1+h1+Y  i1+j1+k1+dn.[  [  l1+t$ m1+A% ,e pC 3u Lv.Pd A: F0 A$ i]+zB /)+9t n1+qC 5+ Q* K. +8 Y6 Q4 .$ m6 V} CZ.c{ ^, :{ {/ ~} 7^ ;d e- `6 u2 E/ 7- 7- 7- R* U; .^ .^ L' D$ Q* q- Mu k1 ;e  e +{ 2& ,a T; /; L& o1+15 ^/ 3= =H.=H.'h T4 )d u| KJ Ue 3a 34  > 9/ V; %) f: on A5 .p A5 .p <t - +bC qD 85 w/ g< ty.3k @~ b' S, Cv b: _> Q, t} Y8 7l g- {{ %[ }6 6D z.+q) p1+v%.4p v%.!!.q1+*H T~ b: p) P6 fo }s +t NC 6r pn zm Bp Cp <q fo mn am ~m .p B5 sn ",
"I2 Ss Q, pq wr I2 .G n: n9 hx pA _5 >} U~ :q =p go }p $q }p #o (q /q yt Pq y4 kq P, :> _> .E.vK.r1+g~ /~ N- ^! Sc ~b }- z3 hw VD jo ^l [o qp wq vq sn -; G- C[ 7< Q] ~' Eg #6.g0 s1+t1+I| 0U.X* u1+t1+=C #; S4 P4 r| #~ k9 M_ A; .8 Q* O| @g }$ v; [$ r| l] )) l] l] l] M- h] r- j, d' g1 d' T' {}  [ u~ E{ 5) #5 #5 =b +N hf U] v1+Yj Y1.rI Jd '- O* F; y; =, F; O* z[ ]/ R* ~{ Q* V7 v3 t^ N_ /& p@ P* 1+ [' w) ^% /% l) 4} >= :] C| a; ^; Jd B( v; -9 4& Z~ Q' :_ 0J 6G UI.pa V6 9* ]O.%6.-B [c.Ui.ve u~.*`.u~.w1+ve An.NP.9i.sR !x Lf c  -} `& D) p@ E, X6 5} D) >~ h: 0* 0* ,- V@ ]= I  *w n@ %|.x1+y1+z1+jx.fm.+`.ha u5 3$ A1+B1+k7 ;5 |# F= a4 f* H0 5k =Q.4O.C1+ub.4O.D1+E1+om.v' F1+jy 'v.m{.+} [- Q> M) E^ r/ e, 4& M| 8- c' B, 7- ~{ O; ~{ R* R* U; #7 !~ #7 !} ^^ ^^  ^ -} N_ t/ Q& ,a %D @e 6- *  e0 w- Ga vu G1+: +I}+`A H1++.+`{.qr.mE e9 h/ 1' '~ y7 r9 ;4 A5 .p h3 {r >p _~.ev qD wp %> O_ a8 <( b] 7] Q, /' b: b: yp TB ql >{ (m I2 D5 Xv Sp Sp %t }p 1p ;G 1p }p ds yt ao lq q} 'm yn 4r NC NC Zn 2q mB [n Am vp <q np [n zm 95 m| b3 ",
"ym |r 3] Hw 9( ;4 pE <4 *| [4 SF L6 hv o, km km Es Es @p @p @p B5 'm -2 )p {v |q [s as ar NC _> ot P8 w} m_ M| P_ ,~ L- f/ #t ^U ;n Ip ym O[ wq vq sn p( Q[ 1> =; A' my I{.ze =N.I1+J1+g@ ^3 q* $i.om.9U.Ew.ua./u.@l O] k9 R- R- ~* $> q3 $~ u| t| t| s| l] l] M- :0 k9 y6 s9 ,- s; s; /& ## w_ j, {} {} <~ 3> q~ /< !: >: +0 U2.@`.K1+L1+M1+N1+O1+P1+ Z.ed E9.V1.f1+0e P4 O; ~{ .^ l. If k1 g: g: 5[ 5[ s- N: N: Ga ]= E, &Z.8< 4) P; 1+ Q; G1 G1 26 U; E) h! Q' l< ]< 6G UI.pa O| ]v OE.Q1+|j.vS.VZ  .+R1+5,.S1+BY p~.T1+U1+V1+W1+Z4.X1+iw 1+ V7 d~ &  g: 5[ &  r- }[ (& hf hf X6 U] U] *0 B( Sl '6.Y1+Pr Z1+|, HR `1+wB r+.ow -w <- c^ F( T} ;} 3+ *D R1 Z= }c. 2+0w.DW..2++2+@2+#2+$2+%2+yF.&2+-1+ea J0 L> 'a g! ,; T- T- |' i] >(  $ r~ r~  $ r~ U; i, U; #7 @1 #7 q~ M/ k) m< X6 k1 l. &  V7 !} -9 U; <$ /; 's 2c.Ae iD.*2+=2+jo.-2+;2+MG.F1.I{ +m =n Q] s~ 2> ![ ;4 90 Bm =2 gn _r _~.ev !E P6 @~ K} cv L} n1 I) S[ /' b: b: R, YM g^ l: g^ '{ ql vk Qp An @p 1o _m cm =2 Bm km {l {l pl )l Qq =2 /q @t mt kr _q Cp _n sm 4n #o vn mu Q, G} F} ,; ",
"n%.c: mr Hw gr g3 e) &l &l cE VF =| X2 X2 r} Q/ qn =| W2 V2 vk e[ Qp cE nk Hp pp 3r _s 9q Br _: c: _6 !z {' kk <3 u4 ]B d: %s ,o !E (r xn qp pn uq r&./5 uE >g C&.1d.:c.tE.n|.>2+,2+&m.b:+w_+'2+)2+!2+~2+{2+]2+Cm.Q(.>9 #~ s~ X; v] s~ )) P] P] Q] Y6 h0 J> l] M- N] N] R5 &  G{ >: C4 G* w- X6 x8 M| 7- M| U; r| }v H' r  *N.^2+/2+(2+_2+:2+<2+[2+}2+_o.U1+|2+12+s#. B 42 h< ~} !~ P4 ): @1 @1 Q* Q* J3 1+ c  a; G{ ;} ,' 4} d, {/ u< }[ U] a; )} /; U;  $ :] :] Q' <_ <J.UI.22+[e 32+u]+42+8i.z~.52+62+72+82+82+92+02+A(.X[.a2+:K.D9.VS G1+y' (; /: .$ 3z ): E; a} ]/ 5- k' /^  ~ p@ _& s- H* yh.7L.b2+c2+dG.b`.HR d2+'$ e2+y& f2+|+ ZS xD @e 5[ 6- [' @a g2+42+h2+i2+j2+k2+l2+j2+PV.m2+n2+o2+oP.p2+Ft.oR x3 R- v) 7< i/ J/ v] l] M_ A; r~ r~ h< Q' ~{ L' R* .^ .$ /: j, P( m< 6) ## 9; ;[ u| g0 .8 0U.l0 q2+P; #r ~q.T5..C.T(.r2+s2+DP.t2+K}.u2+v2+w2+X6.pf.^E Pt D0 Uy n| 2m 2m c} Pq _~.^y !E 61 _] C^ x2+>u.c, G) 3] X~  ' pq a( ;2 ok l: l: l: 8j cj _7 qk *| {l 8l 8l L6 8l <1 1} '[ _7 y2+vk fn tn 4r 4r 7q vn tm cm cm |m 4n 2q P, A6 M~ K- Z~ ",
"|C JI zp pq /8 g3 g> &l ,{ e) Qp 9l 'l Q/ v1 v1 v1 y2 )[ 1} qk ~6 ~6 qk tk An go Br Br Br 4r to |r J6 c9 Z: gE 3y <0 .A dn Cd.HT.!E @p =p qp pn >4 o: dq >[ -F =i.t|.z2+A2+Xn.B2+C2+D2+Zl.!1.E2+F2+0V.G2+H2+I2+lP.,Z.l.+G8 A/ #) _] 91 |' #~ J> Q] ;g Q] Q- J> G8 y6 y6 s3 &  $# G* G* #< s& e0 x8 M| 4} 2s Q6 s| OE d  lb.f].J2+K2+L2+M2+N2+O2+P2+Q2+}_+R2+S2+T2+U2+V2+Kg h] f, h< Z} K> K> +^ !~ !~ s9 O| !f Ga __ D4 M> M| e, {/ u< h: x' ,:  ~ T; .^ {* {* `} Q' f2 A[ ;3.vY XJ.I].W2+X2+}h.#T Y2+~C Z2+`2+ 3+.3++3+@3+H,.#3+:5.$3+dZ.]{.L. Z} .$ @1 #7 a} t3 E; ]/ !u N8 >5 T} /, `& z[ s- +a 2, Sg.U +%3+E/.BC &3+m[ w[ 9v Y1.C$ 37 Y9 6- i< i< -} b  *3+=3+q0.-3+;3+>3+,3+'3+bB.)3+!3+~3+{3+]3+;M.<g.*H.I> <3 T2 T2 <3 l] M_ `} A; N;  $ :_ :_ !~ R* i, P; P; i, ^^ P( k) M8 M> P; t>.Hd a} K. -9 ^3+X* j> H* Cu D8. -.|N./3+Y(.~M.!].(3+_3+xK.AS Q8.gx.-f.5}+X1 h2 yn on }n x4 {r [D ^y !E 75 C[ Tm Al Al b] O! [> gr 8( 0: c: ){ m( l: l: l: cj ok g^ '[ )[ y2 =| =| <1 '8 al U2 '[ sk ^} Qp 1o :q )t /q 5q fo sm _m _m cm Bp 00 EH E' M~ 2> D; ",
"85 [5 hr gq Ss 3m Hp e) e[ vk vk d) d) 4< c| 6/ d) 4_ '[ _7 ok tk !6 )[ 9l km :q Br 2r ir mr Hw pq F5 c_ @u }0 f} WH #w ;] ]} h^ -n ,m }G bo pn >4 p: p< !J.(G Pf.:3+<3+n-. J.^C [3+}3+|3+13+*l.23+33+43+53+63+73+Y{.x0.}v $> %> %> %> %> v] x^ %7 %7 S5 z/ #~ g2 g2 q3 s3 /: p@ /& D4 f] n5 ## j, i, M| !{ L' X7 Ea.B{.h'.83+93+K2+03+a3+b3+c3+d3+e3+f3+g3+h3+i3+U2+TD Jg $> Q' f2 K> a} +^ h< r~ !~ _2 s9 0d p@ 5-  ~ O2 B, {/ 7{  6 L> (& X6 O2  ^ f, *} K) `} f2 f2 #1 UI.j3+)v.4k u`.||+O&.k3+l3+m3+n3+o3+p3+q3+r3+s3+t3+u3+v3+K(.w3+H9.T4 Z} @1 +^ .$ h< t3 E; i< 5- m7 e; 4> 9} ^/ `& g:  * S{ @`.FR Nj.L`.t@.x3+bo.K% LT +} }( T; C, [( L> ]/ 0; fj.g2+IA.y3+z3+A3+A3+B3+C3+D3+E3+F3+r5.G3+H3+I3+4f.;Z.]h x^ x^ L- v] i] h< {* @( /~ m_ A4 %~ k. P; i< !} !} 6- *  M/ 4- <# P( R* $~ d7 Z} K. N; l0 l0 nY.o+.{u.xM.T^.g#.J3+K3+,X.L3+M3+N3+O3+&j P3+Q3+IC.R3+Y4 4^ ds #o go $q {n zC  V.!E ;2 P[ $) 8] R} _~ F5 f/ o) T[ yq k8 m: '[ g^ ,[ '[ ok ok g^ qk !6 '{ ql ql 1} '{ rk U2 +G N[ s} M6 q| wn ~t ~t un wn on 3m _m _m tm |q 3] F' H> &~ K- ",
"P6 V~ ao Cr qp *2 Ip km K7 {l ~6 ok ,8 ok _7 g^ ok ,8 m( l: l: cj '{ 3s &2 I2 ao lq Ss P, Vl ^N.Y& F} @4 EG }0 34 !w _g QA Y: m( Y: 3l mB bo pn Ap o: 71 l,+Z{.S3+@U T3+U3+V3+{j !p.W3+h<+X3+Y3+E}.Z3+`3+ 4+.4++4+JE.OE r| Q' g! d, // '' 6< $a d5 v5 +5 d( (2 (2 g2 {* r| +^ r- 0* 3+ ;} 15 g] R* r~ j8 -' l0 WX Eh.X6.@4+dL.#4+uw.$4+%4+&4+*4+=4+-4+u=.u}+;4+>4+,4+'4+4g v] E) f, h<  $ h< Q' h< +^ g, _2 N| 3z ]/ ^^ ]/ !~ 4) )~  6 h, i< ]/ q~ u< Q' :_ Q'  $ f2 <J.TI.)4+!4+O] -:.~4+FL.]K 4..{x {4+lM.]4+^4+/4+(4+H1._4+}2.F4.sg.io.u@.d7 r~ h< +^ Q* h< >( E; /: D) 5} 5} O/ j! C, 9- 3z Fy ^d L++ua e..e..u[ :v 3M $6.A: t& ;} T; 6- C, *  L' }A !' J0.:4+f!.<4+[4+@` e_+}4+|4++:+-).kF.14+24+34+%9.sl bh T2 J) @) 1' 4& ~{ ~* !7 .( ix lg |0 $~ i, 6- 9- 6- 6- ^^ #] P( ;' M/ U; $~ q9 3' i] 1' g~ 4] 44+0/+ZL.ka.cN.0}.54+t^.64+74+84+wl 94+~K Jt.Mf.04+a4+Y4 I6 W- fo Bu }p )n lB pB.$s K7 -] <^ y+.z3 ![ D5 q< f3 wq wq >4 75 L6 o, :1 ml >{ cj cj ok _7 nk nk nk nk m( cj '[ ,l m: e: 85 %t wn %t V[ go #o xn vm [m cm tm Co 0< sr 6^ u} q( ",
"d: 85 xn tn >4 85 g3 :q tn q| g> ,8 l: m( m( ,8 m( l: l: l: l: m( >{ Z8 b9 O[ z5 J6 |r 9: h~ `{ C; `; ZJ #w .( z} lF Qg E|+Y: m( Y: 3l mB qp J2 O[ O[ _B T8 HI.b4+c4+U1+$C.w*.b<._W.<G.!u.Vz %|.0..xL d4+e4+f4+g4+h4+a%+:_ :{ 1_ Y{ // U- R[ D0 D[ NT Z6 S- Q' Q' :_ +] {* :_ h< z, j, L& x8 i, 4& 4) Q_ +6 E0 )y jf.H{.=# s0.q0.i4+'K R1.BH.-( K  PN GZ.j# j4+R]+5O.Z{.et l^ p] ~} f, h< h< Q' h< +^ g, +^ r| G8 R5 '2 @1 h< +; :~ n] g, +^ h< f, Q' )~ )~ )~ Q' +^ B[ <J.k4+l4+Zx 'F H{.ub.6d t|+m4+xx ls.n4+o4+U} !0 p4+ki.q4+rY S0.uK.PF q9 r~ Q' h< .$ @1 h<  $ !~ u< i, i, M| 7- ~{ r~ r| F; >N ow )< >D WJ %E x& Qu H@ S% U@ {= T; ]/ j, k, |- u{ @++>7.C~+!7.r4+L +2, n4 +[ '@ /* s4+t4+>C.W1+U5.u4+)g }0 F: N' s~ |' r/ 'a i] 3| Rg vg yg eE s| !} ]/ 9- c' C, L> *  g] M/ g] ~{ 7= 7= q9 S9 :^ h) K9 +u ;K.=).|, v4+0# Q*.(3 ^| 0v V0 w4+x4+7++y4+z4+A4+a4+lu q: U~ vn fo %t 'n  ^.}!.rD Y[ ]' *~ V- dJ W~ h2 ^8 ;2 B} q} q} YM YM E7 wm 75 W2 cj m( m( cj l: l: l: l: l: l: ok [4 ;2 b( I2 :q fo 4n =9 Bp %t xn [n sm *2 75 b9 <6 8/ %) P[ 7/ ",
"sm P6 YM tz Co xn wn 1r lq Bp An g^ _7 '[ k( k( g^ g^ k( k( g^ g^ V2 o, b9 [5 J2 g- <6 p} J~ D/ p] Y; 6| ,N._g sI TK 8W i^ ,{ h^ Y: Ur hJ JI *I D7 o) 4m e| 1u Da B4+t0.C4+D4+x~.i6 C{.*, $; E4+F4+7++G4+H4+I4+J4+[`.Wn  $ `! `! v< b] I} 3| n9 @u @5 Z6 S- r~ +; Q' l< K) 4) 4& v_ 1_ `! E/ L; .5 F_ `S #( Z9 fy K4+<  t@.L4+M4+Vo.m@ 4' 17 9I R~ F! Sb N4+B> `9 L{.6O.HB l^ 1_ ~{ !~ r~ r~ h< h< +^ !~ h< r3 N] q3 r| @1 R* z, e( :~ }_ h! Q' r~ Q' )~ )~ )~ Q' g, +^ +^ O4+P4+ff )F 7p.X0 rQ.t@.&k B$ SZ Ga.v5 k^ 0U.Xj.Q4+R4+S4+o.._h.^E #> 4& h< h< .^ .$ !~ h< h< f, f, r~ O; O; O;  $ g2 s9 c6 |u T4+U4+*: -( >: +} @/ }( ]= M> w_ ^^ d' ^a O; WH zg }A >J 4~ }{ h; R4 @( >A !~ Id V4+OP W4+Nb Mz ^E Zs ]( $) <[ ,; V; r/ 'a >( y} 6[ >g >g Y7 V4 i< c' ]/ c' C, ]/ c' C, ~/ c' K. 7= 8; R- S9 9/ `; k8 YM *7.d> X4+Y4+A& >( F' *t gI Z4+`4+U9.UG.pQ.|X. 5+UF.lu k_ ns _q 8p Tp hn ;p jq.=]+)g.<5 W~ @' _1 22 Uy dn K7 q< |C B} Am vp [5 [5 l| [4 tk _7 _7 _7 ok ok ok ,8 ok _7 ,{ [4 <m b9 ym wn xn on g3 Bp on yn [n on vm *2 vm :6 G- C[ P[ 2x ",
"wp 85 YM 95 q} wn wn pn [5 on Es Do qn v1 =| v1 v1 qn qn {l pl M6 N3 &2 b9 Ap J2 :6 r9 3) E' 8< D; y} ]B JO.TK .5+E|.$F @B pE  W.]} Vr 5q 8r }r xH yq g) r1 F%.!).+5+@5+c4+Z/.p+._; x3 dD qC ~; ^1+&6.8w #5+J2.N[.!g *g :] `! {} ~} k~ |: Z6 ^( U6 69 +5 91 D; :] K) :] K) 4) 4& p] v< :{ p] v< Z~ R] {a ~^ @; LN 4I.K0 Ej.$5+%5+xl aB ;> M*.`m &5+zq xc h} ), $# Vy eF.WG t< )= R* .^ !~ f, f, h< K> @1 ;~ K> 0} s9 i< L> ^^ ^^ q~  6 }_ f, Q' Q' Q' )~ )~ h! +^ +^ f, !~ q4 ^[ }: Fo.[H.*5+=5+n~ !1+x' #> n0 EH &[ I~ O0 z& #++-5+H}+p..&y K& P' r~ !~ R* Q* .^ r~ f, Q' r~ r~ )~ Q' f,  $ (2 /: ## E4 >: _0 9M.c1 18 /& /& s; 5- M> E, D, N/ 62 f, ]B 8G V4 c6  3 19 f] h< I} C[ V; i] N| Dj 5j ;5+^/ u4 xw V- N' // // @; v_ B, O; M- ;g 3a Og '; @1 ]/ L> ]/ ]/ 6- !} P; Q* Q* #7 >( q9 #~ N- ~* C' o0 [5 P6 }1 e0  f NN 18 (/ >5+Fl ,5+ Q.'5+q] 5y >:.!^.d].^i n( U~ (q %q Up ds hn -p &s )5+`{+}) V~ H2 A+.31 E2  q en bH |C f3 Am KW 00 [5 95 E2 el 'l ,l r} 'l 'l 'l qn r} {l L6 :m Am 3^ vp =p =p wn xn xn yn on vm on Am 85 *2 4m (5 +4  _ p< ",
"P6 85 vm 85 |C zm zm vp un I2 vm P6 <I *4 ^8 ){ N3 EB N3 *2 |C >4 wq U[ wq [5 J2 i0 }> u} Z; L_ Y; Q5 hE Z7 og og EZ.!5+83 _y BD ~E )m II lr lr 9( <6 $J !6 Jw.!^.~5+U:+b4+F{.=C y1 =; mz B' S4 v; >u u@.yi.ze.{5+et D: e, ][ -' ~} *} l] U5 J/ H} +5 Y; H} 81 /( <3 |' S- K) '~ }] g!  ] d, k~ @~ @~ @~ // T2 lu Eb.lc.b* |$ #  o@ (; &u wt *q +t H~ 8: x8 !} CB V9 +7 a3 i/ &Z.6- i, O; +; r~ r~ Q' h< @1 ~u ^/ hf __  ~ 5} 0* j, B, f, +^ Q' Q' r~ Q' Q' f, f, Q' :_ t3 ^< S1 /h 6` >u Pi I{+]5+^5+j! ') Vl .E.Gv `P.t< 'h :p W@ =n bI V9 /~ 4& O; .^ i, U; R* O; h<  $  $  $  $ :] :]  $ :_ r~ i< ]/ ]/ c' L> j, D) T] g1 w_ 5} ,' M> ,' F, 62 `} ,6 13 q9 /& N8 N8 62 T- 6] 3) H> Y; I> J> u< h, 91 4( &2 f/ m^ k] ,; @; n] z, B, r- d~ O| 1| 4y ]/ L> L> L> ]/ i< Q* ): k. r3 q3 l~ l~ h] M_ S- f- 8( q: d: j^ `6 ~1 n[ B, K, `g.m,.JN FG AG p0 3a $g `T.XE -i J_ ~t AH -q %q Bu ,n -p *s Dp }p ;q W[ x< ~6 ~6 ~6 An km m| >4 >4 ym =p _q 4q :q V[ g3 *2 *2 75 P6 d: *2 75 *2 vm m| tz iq g_ iq :q :q un _q _q :q Am 3m g3 xn ym [m 2} L6 s! %2 !z ",
"75 *2 75 vm wp m| on xn ep wn wn tz 95 m| bH d: q| *4 :m P6 3^ p) |r |r 3} f/ k8 D7 T[ u9 q( 4| O8 pg ~h |h Gh $^ .Q.7G Pp  q j_ ,p cm 3r mr ^)+zp u9 JH ,[ .| ze.vv G@.$^+M{.2` l8  9 >6 l8 kH lI./5+3]+G9 qE YF MD I) k~ _( `! 'a :_ `} :] :_ ~* v] C2 f< U7 }0 Z6 s~ S- :] @; '~ P' '~ w/ @~ !^ v7 H} F: 34 Qg !i p#+&y JW (5+1-+[7 6r Bo Iq ^u 9r c*+^6 f9 r0 ,t +2 i> m_ 8- *  c' e( _( 4& r~ h< g, 0- ,( L^ 8e l5 f& N_ O2  ^ R* f, f2 Q' Q' Q' Q' Q' f, f, [_ =} z/ _4 A_ 6< >[ hg z; &  ]/ :~ f- _5+:5+P;+<5+zH wq ix sg bI 8g 8G pA i/ ~} 'a 7- 3> U; R* O; !~ Q'  $ :_  $  $ :_ >(  $ `} M_ )) )) 7= ~* `} ~{ 9- ^^ h: T; X6 /& /& M> P( S- Pn N6 5] <~ *^ E) T- P8 R, Q, iI |r }7 AG u9 :6 f3 k2 ~6 .G I- w/ '~ )~ D! x_ f( 0* h9 h9 :9 ^/ &_ >~ g: >~ %^ k1 4y @1 T4 r3 }v r| a} @1 .8 :] #) 2) 95 85 p) 9< C0 v_ %) [5+`m Mn |n bm fm m: D} g[ &i 9j ,8 *1 yt ms ms !t eo ,n -p pH Zo dp ;q a< Q| ,{ Y: Y5 g> K6 |q 6r Zn bo up vn _q vn yt xn I2 xn ep ep ep 05 yn yn xn V~ >4 >4 iq Co un ns 4q tn 00 un Bp 'm :m vp un =9 >l V2 >{ jl o0 ",
"wp *2 3m wp wp m| yn 95 yn wn xn xn 05 m| 85 P6 3m =2 Bm =9 05 00 *I 0q lq c9 U[ P/ }> (5 pA hx W4 h8 G8 >/ 9t.N< Lm.Q4 qq  q !p M=./n 3r lr }5+zp P/ J_ ,[ O=.9g.|5+h~+sI.#X.Yz o) J6 [5 }7 5= NJ Xn :4 cr u1 1v _5 D: B_ l< e( i, !~ !~ R* e( `} t< |1 D0 @4 c3 99 91 :] h! )~ )~ '~ {/ k~ %> =1 !^ I( |: Z6 93 0l I_ et BG _M f9 xH nr )v 2r 4r zp c*+!8 23 [1 #G M[ Qg l_ S* A@.j0 `- 7- 4& .8 R* k3 (& c& 66 7e ^9 Zd {= M/ c' g, Q' :_ :] Q' :_ Q' Q' r~ O; )~ |' U5 15+8] Z1 J_ /B p8 Yz >H (6 ]M 25+35+35+:@+8r 95 93 Y4 Y4 't +B _B b/ D/ 4} `! 1- ~{ Q* !~ u< .^ e( :~ O; .8 h< `} `} `} N- @( @( g~ S9 D; )= *  x' ,: B: U} p~ {=  ~ ,' 1' 9~. 1 f/ P8 O! 8( -; 2) b: IK Vl 5s [5 3^ [5 U~ 90 Hp &l im p} 8< :{ {} l! k! ,~ !: 9t.%: _0 )x L> 5[ 5[ g: ^/ w] V@ [' P* V6 4y [$ 9; P; .^ :~ M~ }> 85 g3 2q b: I- 4{  ' ^{ x@.45+Tp on g3 vm YM il !6 m( ok F2 :q /q /q ms 8p 2m =s Jr %Z.go 1r Y< V~ ;4 nJ |4 g> =2 kr UH z'+8r 3q eo eo eo eo #o xn xn wn xn %t yn on on yn xn up un vp wn un tn |q tn 4q fo g3 1o q| Ap pn g3 r} W2 d) AE a0 ",
"E7 YM *2 sm m| tz Co wn mB ds go yn Xv on 95 tz xn Bp |m g3 }n wn 4q *p bo Ap k8 9| v2 i| K_ 5| f} C: g, !: =8 ns.G4 A[ N6 Ip ,m Ep |m 3r P, zp zp P/ r< 6/ k( g| ,t Cq @2 d3 U[ J6 :6 J2 g- t9 w} o( #2 .F d) )6 xw L2 (( {* B, j! 9- h, i, R' :_ kk 4( @4 @4 Gt Z6 K) n] $] {} ~} :] :_ e, *} A/ l%.r$.91 D8 FB g^ 0l ;] E[ .G YM un Cr )v ^' ^' }s f: s< 71 jl 'i bi j( Z[ M/ 15 j) 55+G: <~ <~ N/ m7 (_ 9^ 66 0^ ^= }( u; Y9 .^ h< :_  $ >( Q' :_ Q' :_ h< !~ f, K) 91 (( 8] Z< 9~.jm dn N3 :m 85 1r P, :@+ew hs 7r b9 '6 `7 b%+D3 ~F d: 6^ -' `- `! M| E) !~ !~ 9- ~/ T] S' j, L' !~ A; >( h] N- P] L- I> )) Dz C, u-  3 -5 }* K  A: H# w- M> 1' w1 g^ 24 km q| 85 3^ Cr ;; <. X' c: I2 85 V~ 05 Y[ g> ,{ en I- Y{ qb Z& ]a >- 9} c1 @f !1 ]d i: V6 0- d~ _& X6 L< ,a (_ ^= /! N_ b; ]* g: ]/ `! M~  _ q| =4 =9 e} ){ *4 P#.W< w%.11+%t wn xn yn &2 mA g^ m( Y: Ix un Br Br /q un 2m *s LC 'o ds ]E J +Hl Dv m9 P6 Es ep P, .E.L&.=I II vn eo Bu Bu Tp %t go #o wn wn go yn on Cp wn :q :q wn wn :q up tn |q |q :q 95 95 00 jr Cr 85 `q h> )[ 5G m^ ",
"_6 I2 75 sm 95 Ap Ap vn #o go go go V[ yn tn Cr lq un on [n 4n go fo 4q ao kq D7 =[ n_ +4 j^ p0 1> P- f2 g1 %8 ;7 @< :_ B} >n (r !p 1m 3r P, 9( 9( F5 -8  1 !6 cj h^ m( m( g> Bm zm tz I2 B} g) I7 h| ~l U2 cj .2 $2 ]( J) {* q~ k! j! B, ~{ :~ ~* +5 4( Ql Z: W4 +5 :] E! e' 7^ `! :_ {* e, +] k~ j< A/ j< J- F[ l( m( ok g^ Y: ,{ hv :q ao 00 un #o Bp K6 r} +G U2 sk 65+Z[ 's 15 QI 75+]9 Hv z] ,s -7 5e 7e _^ Zd ]= u; 26 #7 >( :_ K) :_ :_ :_ >( :] Q' h< h< f,  $ ~* %> N' V- E2 m( h^ nk nk ;n cm 6q 9r nz 6r pn im qE 7u {7 U2 ok 73 `4 D6 K3 L; 'a 4& >( h< }' 62 b6 y- M/ C, Z} 3' A; h] #~ /~ a9 a9 l_ ;[ O* G5 4v 85+w+ 95+!0 n# U@ e0 >A i^ l: h^ ,{ <4 |l pm !r.pn JI o) wp 8l SF nl 2} (B Y: ok gm 3) Y{ qb 7^ *3 ^! jH b1 N& lx e] i: [$ 3z 4y P* hf 6, 8f 7) :* 19 u/ J; a; ]* ^^ <~ K8 o: 1v 2} 1v qn tk tk '{ R9 2m =2 ~m _m ^m 1o 24 ~6 m( l: nk Vr _q 8q _s Br _q =2 'o Uo ko xn &B Dj.J, &] C[ i0 f3 J2 EH s$+05+a5+x.+HG 1q fo #o mp yn #o vn tn 4q fo yn Bp [n xn wn <q wn xn xn wn un up un (q lq 6r ~I ND Zn on }l f) )[ 7l +z ",
"yq c9 m| |C tz [5 00 vn #o #o mB xn Sp wn lq }r <) Ar wn yn go go xn vn 4q 6q D7 H6 32 v2 r( j^ f9 C2 ft <_ s/ z] P> |: Xv -p fw *s kn 4r P, 9( gr |r J6 bH nB ok m( m( ok Hp B5 .G d: 75 AE em ml ~l kl 1} k( `( RA ye L- <_ 01 <9 k! h, g, @1 M_ C: $a !z t9 (] A4 :_ E! P( [# z, E| *} +] Q' +] *} Fh .] 6{ x;.,8 g^ qk ,{ Y: -n  J I2 <5 ~t go g3 1o r} <4 '{ '[ pk Qz +g a; v/ y- TG ~a !, ^I Iw b5+=7 c5+R& 7} v/ ^^ (; E; (2 :_ :] :_ :_ :_ >( >(  $ Q' Q' h< :_ |' S- @~ F} $2 g^ h^ ok h^ ]} Vr Co *I kr DE.Am e2 Y2 Z( Z( k( ok s! L2 {^ -' j8 ~}  $ f2 h< c' M/ b6 y- O2 C, Z} l~ k. LJ 5: +> A&.JW 38 G$ 1+ `2 =5.2c hG.}8 ]% &3 68 e0 1' V^ l: ok g^ vk }l pm vJ [o ZC ZC ^{.5l -l )l >l Qp ok ok M6 3) C/ qb 7^ 3- b6 XM.k' Q& oq.%: ,- J3 4y 0- }[ V{ &: {4 Q& 0^ 19 y_  & m~ (, *  8- X; n: YF oA J_ i^ '[ '[ ql E2 _m K6 gm fm +E.]l g> Y: l: l: ok nm Ap *I 3r _s tn =2 LC ,p Z5 yn &[ (a n, (/ M~ F} !z r9 f_ ^`.YH d5+y'+`C hr *p vn go go ds 00 lq {( Dq xn Bp on go wn <q :q xn xn xn wn :q (q Ar }r qI CD %B nu yn @p [4 )[ )[ dq ",
"(5 sn uq wq Ap 00 up #o yn wn xn yn 05 vn Ar }s )v Bo yt %t mp 4n 4n #o fo un 00 p) |r 3} 3^ q| P6 @4 W5 @5 W4 0' T2 v5 P6 +p 4o >p hn 3r nz x.+8r jr 3} tz E2 ~6 g^ .2 e[ An w1 il x+.dn XF s} i^ Q/ i^ WF Y8 Q/ n( e< l] K> D) 5- w] 4y _[ s9 +^ l] 99 Q[ 32 99 Z6 U5 !~ S' E! '_ =} *} :_ Q' ]< +] A_ e, F: <p 0F 9l f) !6 Y: Y: nB <I CI zt 90 A5 F2 r} W2 ql 1} ci _O.mR c  a* ~/ KE e5+ 4 u,.]9 wI T% b6 #] j, !} #7 k. z; g2 :_ :_ :_ `} >( :_ +] l< f, Q' f2 {* R- 91 _] H8 c_ Do ,{ g^ Q| g> @p =9 yn yn vm ^8 Q/ #4 #4 @7 ]5 :/ !5 81 p] $1 4) C/ Z9 4& `} ~{ x_ k, d0 g1 !} r| 5: q9 q9 =; sz *7.F/  7 =;  L t& _C <8 fx ]A P} C$ D> v/ R- kL @7 'l 'l An el en ;2 85 YM Am K7 ]l [4 24 [4 jm 9l ~p *2 rt }] qb p/ }a m6 b6 3{ 4> Xd 5}  ^ C, c' j, ^^ 0* (& s; ;} d] Se `l Fx (, >/ L> `! @) J| A} _5 s( +B t1 4_ u1 E2 en B5 @p Ip |l }l 7A vk g^ ok ,{ ^m pn Ss II _s tn =2 Jx %s ,p [n b: +~ $) M~ C[ w2 T[ yq xH xH 9( pq 2I f5+z'+}s (q yn Sp wn ao ^' ^' Bo ds Bp Bp yn wn wn V~ I2 yn on yn xn un 1r 4r }s 9r nz Zn ym hv [4 '{ nk em ",
"O[ s> xH gq *I 00 yn on yn #o #o ep 05 vn 4q W< W< 4q _q Up 8p #o #o pp pp xn 05 yn up Ap *2 g> Y: >{ u1 3s @2 03 H_ sn 85 4o 4o _r KQ .G.9r nr 6r jr |r O[ d: jm W2 d) V2 !6 Z( >{ ql d) )[ )[ 4< ]5 @B +B 83 c( 3| d( +^ N| D) ## w] }[ h: ,- d' R* J/ M2 M2 2| w} j/ P] f, O; `} |' :] h! h! l< l< *} e, v] NT C7 e3 oA 0F >s ok ~6 _< -G {v -r y;.An V2 )[ 7l tp 93 B9 _; )} u; j, gj t2 g5+#: e' T' .^ g, `} `} M_ N- V4 l~ (2 {* {* :_ :_  $ :_ h] :_ Q' Q' Q' {* 91 v] _] F: bd C7 [4 ~6 x< e) ;n An [p [p y;.W2 d) 6/ 'w.#V.@B -8 w2 k] C/ C/ Z9 R] .5 4& D; :_ Q' ~{ C| }' K. B' ]h ': @> z} lu ^B q0 AD Ml LJ 's ,4 qa ]% +} a; `& g] 0* :_ W4 8| H_ @4 QA V2 h> r} 2} L6 M6 `q [4 Qp An co B} q: g_ F5 *) Z~ u2 7^ wD Q> -0 O/ E! 3> 9- C| 3> 3> c' c' j, L> ]/ g: U] x' )_ U] k1 5[ c' A, e, C[ sr G> I) KN 6/ d| u1 [4 7A pE e) e) >m xp (B 2}  q ~p {l 85 kq 0q 0q II Ap [m io %s ,p :n %[ &) Z- =' U- F} r( U[ f/ r&.!z 8( gI aK.h5+nu W< %t 05 wn 00 lq /q _q %t Bp on zm I2 wn :q wn xn Xv yn wn un vn fo xn tn Cr kr un :m {l e[ ok f> ",
"iq MJ Hw z'+8r 2q }n g3 }n Tp }p 05 05 yt fo yt :q 00 Bo /q Bo _q fo pp Cp on g3 90 g3 tm 5o ,{ l: l: cj '{ 'l Z8 C} U[ on +p _r Nq 9m fG.6r Ss *I c: |r JI tz @I 9l '{ '[ ,8 m( m( cj m( ok cj cj !6 M3 z>.k| @u 2> :~ h, #7 6- #] p@ 0* 5- M8 T% k, E> h) 6] 0' 1> g/ t< i] `} ~* E> :] )~ h! +] :] S- e, 91 (] R[ J8 FB >{ l: cj ok g^ -n ,{ q#.-n -n Y: W2 e3 n) 33 Y6 u; {= D, x8 %5  {+L~+wD :( ~} {* K) i] {* ~* $> $~ V4 M_ S- *} :_ `} :_ {* :_ `} :_  $  $ L~ s~ J/ @) // 6] C} [l ,{ Y: Y: Y: Y: Y: -n Y: Y: g^ Z( Z( 6/ YF i0 A6 |a i~ e_ Hx rW.$1 @; E> |' 91 S- `}  $ )) d< z} 3y [H et Q8 cr nE D9  7 z; `& ,: `] +} 3+ -} `&  ^ j! e( #> A4 @> AD yw _7 tk tk qk '{ VF '{ cE Y: qk L6 :6 -; w2 P[ #) +; {} 7^ wD K< &5 <( z, ~} :~ :~ +; f, f, O; e( R* !~ >( >( Q* k1 P* ]/ j, $] <~ D/ v< 8< j~ C[ ,6 6/ 1} Y2 ql ;m h^ m( h^ h^ -n =l :m d: P6 85 >4 p) Ss Ss II Ap [m Ep %s ;s =9 dJ ]{ 7] x} 81 -] do J_ F7 e: o: a( :B R, Zn J2 tn fo ds wn un tn un xn yn on xn xn xn wn :q vp V~ 05 yn xn up wn P6 =2 Bp tn lq :q q| 7l >{ m( U2 ",
"wn ir <;+=t }s %q }n vr V[ }p }p Sp ep W- ep wn :q W< lq Cr lq 4q fo #o =p xn on (n Bm cm Es Q| l: l: _7 7l g) I6 7/ U[ :n Dp _r 'o lm 3q ar 8q 6q 3} Zn 3} O[ q< km =l ~6 ok ok ok ok ok ok ,8 m( >{ dn d: q< _5 I} E/ 3> U; r- k3  ^ w_ N> T> 2~ *3 `} H> L_ H> I- L_ X; `} &> ;> V; )~ )~ h! +] S- j< S- 91 `[ L2 Z< FB Z( m( ,8 ok Y: Y: >s q#.q#.,o ]} ~p Z: 6; t< Dz D, __ /, d' P3 #: i' pz.z, !~ <_ [_ +] l< '~ K) $~ q- #~ M_ K) :_ {* :_ {* :_ :_ [_ Q' ~* I> P- J) %> @; h) xm [l e[ e[ g^ _7 _7 ok Y: Y: g^ ,[ ]7 4_ @7 +B +4 k] {I |a &] i~ rW.R] S- )) E> 1' E> R- R- :^ .> 48 O8 6: et tp .: 93  | w9 l~ *  !: hf s; V{ #] 0* S' E! B, {* ,2 ,2  7 8u sk _7 _7 nk cj _7 tk qk tk qk il T[ S[ L2 g/ ,; D/ l, r@ wD wD pz.l! T' {} `! e( :~ Q' :_ Q' ~{ B, ~{ `} $> k. .$ ]/ j! S' :( `- R] v< n, (/ -~ ZJ F3 t1 s1 U2 ;m ;m h^ ;m >o -n pE km q| 85 q} O[ J6 p) Cr Cr Ap =2 Jx %s #N c} '^ P! b' I- 0' n9 oA y%.:/ m: 5n l8 l8 o: E7 :q tn ns ns :q :q wn wn xn wn un un yt wn xn wn Co un wn wn :q un 3^ yn g3 Bp wn :q Bp fm el Qp tk 4< ",
"xn ao ar ar Dq Tp :n bs }n $q $q %t xn tz wn wn wn _q Dq )t (q :q xn wn iq bo 2q yn !m >n !p ,{ m( m( u1 n: _~ F> Z- V- zt >p (r !p ~m |q *I kq kq JI 3} 3} _6 g_ wn *2  1 9l [l ]5 ]5 *| W2 ZK V2 co xm :6 j^ <^ V; `- c' i, r- i< i< *  b6 Z% e; q@ #) /6 /6 H- H- H> 9/ L~ i5+$7 v) P' :_ {* R- )) Q- $> ~* 4] L2 4| <p lY.v1 Y8 h> )[ g> g> pE y;.[p -G K7 T[ 6^ 2> I> L' D, 0* j, Hp.E, C$ G1 /g y, y, N] |: a] %) K8 @( '; ,2 $> i] `} `} `} :_ {* h] Q' |' Z6 }0 10 kk E> -> h) _5 k| d: J_ QA 4< U2 !6 '{ >{ 6/ .F dt ^F W1 #2 +4 F' |s Y& z7 A6 Hm C/ S- R- V; V; V; |' E> 1' T- :^ J/ Z6 W4 WG N6 13 +A !7 #> ~{ $] $] <~ <~ <~ T' Z& x_ ~} M_ 5: 5: M] HB yw 7l h> 0l '{ 1} [4 ml I< ml d3 {{ x} 81 Y; C;  [ V5 r@ ]a e' B] <( S' :( T' T' x= k, 7^ x_ ~{ )~ S- <3 +5 kk )) e( E! Z& E^ -' }] j~ k] F~ '' n9 5v g| ll f> ;n ;n e) e) xp dE `q :m d: f3 wm f/ J2 p) 6q 1r un Bm ko %s #N gn to  ' G} H8 >2 dq y>.fp QA (m I9 B=.Yz uq q} <q 4q tn ~t V~ ep yn yn wn tn 1r ao ~t yn P6 on ym up _q (q tn tn tn :q yn P6 Bp g3 'm ^l >l h> h> hl ",
"wn 00 00 un Cp }n :n bs bs V[ V[ Sp wn g_ <5 un :q yt fo fo %t yn I2 g_ c: gr 0< J2 e}  J {v ;n ,{ qk DB ^G e, {a Z{ `, Bp (r Nq Kq ~m |q *I JI o) _6 yq c: r9 5^ T[ :6 I6 &2 .G .G .G m: ){ dn M6 e: S[ m^ H> N' {a 7^ d' j, c' 6- P; /: q~ d' 8- |' o( f3 b9 q: k8 -; 17 8/ Ws |7 g/ 9/ T- P] P- I> Q- t3  $ -[ d< Q5 d5 MD Ql A} C} d: en km K7 -4 85 95 J2 I- 1a T2 .> )) -9 P; O| H& `/.j5+k5+-I.5h.w~.{p tt 7/ q: sn L9 l_ s| M_ $> K) {* `} {* E| <_  $ J/ Gt De.6| &~ #) %> H} Ej X^ P[ L| w4 F[ YF ;] ;H DB U8 Qg lg 89 Q5 n_ &~ w2 G} <6 i0 T[ H> @; K) ~* @; @; K) @; @; @; '~ @; e, @) _~ n) @5 4( 3y M2 +5 kk H} 5{ 5{ F: @; A, *^ $] ~{ M_ #~ g2 '; !7 c3 n: e: ;2 dn (m f3 _6 u9 j^ ]( <[ e, j< S- `! Z& r@ S] A3 qb :( e' #5 [# r@ [# M8 }b 1[ z] r~ Z6 v5 d5 n9 n) 6; 4) E^ :( p1 ][ X{ b] 1a k] v) w} et D[ o .<I 'm 3o B5 fm fn =2 m| wq f/ Z: Z: :6 :6 i0 p) lq <5 90 -r pB.%s gn /8 b' a' k/ n_ pA d3 r< l| YM wm K9 =[ _6 g_ vn vn wn %t Sp on V[ xn :q lq Zn ^' un m| q| 3m on tn z5 mu (u Ar ao un m| Bp e} e/ en M6 o, (m ;2 x0 ",
"xn tn un #o tm _n =9 2m zt x4 :n Bp I2 g_ ao [5 ~t #o yn V[ =9 e} k_ c: yp iI 0: J6 Bp 2} -G k2 el h> ,t }0 |' {a {a N! on zG ,m 3l ]m TH.~J.[E $U.sp u9 |r a( /8 a( D7 ,} 85 l| m| m| YM wp &2 (m 20 F- ,= ,= '= u2 x= O: j, 9- r- h< M_ $> :_ ~* k^ N6 r} r} L6 75 Ss  Q.ot D7 k8 t9 L_ 5; O- (' ': B' >(  $ K& d< 34 [: &~ L| v2 W~ k_ e} -4 ep <5 y8 1) 8( v) p] |' T2 )) N; Z} 8>+l5+m5+n5+o5+p5+%%+q5+r5+ *+I< el _m K9 $u 8; $> $> S- S- {* {* K) :_ :_ /~ E8 83 x;.s( w2 Y; 7; `; X; V; %) 32 8A C} e3 e3 Pn U1 Pg (' Q' f, :^ b3 }7 8D B} q< b( /6 V; i] ~* S- S- @; @; '~ e, 4) '~ 8< k] I- n) ]B Y1 O8 1> L2 <^ Z< 0I y+.G} q+.v< ~^ {} ~{ h] N- M_ N- m_ v} }> [5 vp Bp on lq /' H- 32 6] '~ p] +; h! z, T' p/ Z& qb D/  [ Vs ct }a G: 5} xc Ha rc n< `} sz 3x 71 xw >6 L2 w/ ~^ p1 `S N~ d, k] ,; b] V; 81 kE Gt D0 3^ 4n :n 2m =9 _n on J2 f: 2) 9| P/ (5 (5 _6 JI Cr (q #q |H M=.pB.gn /8 O! F} L| Z< Z: _5 _6 p) wm I6 o) xH s> qp :q go Bp x4 -4 -4 g3 on 3^ Cr ir kr g_ yn _m (m sm >4 p) ir 6r Ss [5 I2 sm =9 =9 P6 sm *2 P6 |C f3 p: ",
"xn ao ao un Sp on g3 zt x4 V[ :n V[ xn [5 J6 J6 tn :q yn P6 -4 85 g- yp Ws wr :6 3^ vm Bm en *4 <I E[ @w ,y t3 $] 0{ p} m| (r 3l el cC.iq ~J.sp K9 K9 =[ f: yp 9( yp hr [5 B} 95 vp 3^ I2 Am 75 m: 8D &[ s5+t5+C; `- S' ~/ j, L> i< @1 r| N- i] q9 d< a3 ;] co 1v wp yq u5+%u f: F5 +z K- /~ /~ ': /~ B' 2' R- .> Q5 34 j/ M2 F} v2 1) s: TP c} ep b} z5 F5 P[ V; 'a :] @~ k~ E) !~ z8 v5+w5+x5+y5+z5+A5+B5+C5+D5+E5+Ur _n ~I.n+.#> $> $> {* S- :_ >( Q' :_ Q' U5 W4 L3 z>.$J 2x ]( M2 81 X; ,; :^ `4 !z 7/ c_ -8 N6 U1 Ag !h +^ e( T- M2 pA c( %2 d: c( {{ w/ K) S- {* S- @; '~ '~ '~ 4) X{ Y{ w/ H> $a hx U6 (] C2 M2 a' f< <: U! X, E~ v< u2 E^ M| .^ @1 .$ K. g~ v} F5 Ap fo (o 4n Br P, ot X^ 2> 4) 1_ ~} ~} <~ T' p/ Z& {} :{  [ f' i' z] [# O2 N8 |b |b q& .8 W4 8| pA n9 R[ 6; @; D/ p1 ~^ N~ }] d, @; 4) @; 6; 6: +A K_ c9 mp 2m gn gn gn Bp 1r 2) |7 +4  _ j^ }7 (5 *I 3} W< ,n [D /!.p@.(n f: N! 32 d_ Z1 _5 sn jr jr g_ f3 f/ J@.6r /q vn %t Bp Bp g3 g3 e} Xv U~ mu |r ir J2 ym <m <m l| g_ 3} MJ MJ /8 J6 tz *2 [m 75 Am zm I2 I2 m| B} U[ ",
"4n ao )t ns %t }n zt zt zt :n }n x4 on >4 f/ J2 2q up yn 3m q| [o yq iI %9 (5 b( wp _n |m q| 85 b9 #2 t,+bh s3 D! :{ I- yn ,m XG -G ^m a++r&.r&.}7 P/ +4 -; pt rt F- ot m9 k_ D5 3^ >4 Co vp b9 |C sn 0( |6 |s Z9 8: }- d' |[ T} =  w_ C, P; !} U; 8; o( _B e3 d3 YM O[ 9( b: {{ pt b/ 1' 7= 7= Y6 Q] B' 8; P] %7 .z 5; -[ :^ j/ F} F5 k_ n| *2 3^ :6 q( R[ 0' E> Z~ @; 1a <[ ,; M' m+.F5+G5+H5+I5+J5+K5+L5+M5+N5+O5+hm >I r>.5= O- R- |' E| :_ Q' :_ Q' Q' :_ s~ M2 pA '6 YF %2 3x v}  5 L~ P' T- k^ |1 p0 c3 +: 8| sI OI Y7 Q- R- @> 33 Z: b( J_ I_ N6 L2 |' $> $> i] S- @; @; @; {/ g! 4) 4) b] K- ^( W4 3| (] v{ `[ +5 H} H} W, '' _] k~ g! n] R* r- J3 5[ P; R- b3 T[ [5 Dq up 4q mt I#.p} g/ <3 `! `- <~ <~ j! 01 S'  [ `! +; :{ ^, &b }a w_ 5} L< =8 =8 [- Q* I8 3| 99 `[ I} #) w/ v< {a {a 1_ Z~ Y{ }] Z~ 4) kk {' 3y Q[ yq |q }n =9 2m g3 xn lq 2) ]8 n) K_ t} U[ o) _6 p) Dq ,n -s /!.OA #q 0< N! B~ -; -] c9 q: pn kq Ap xn 3^ kq lq 4q fo ds Sp V[ ;4 x4 -4 ;4 xn b} (u Cr un 85 :m Bm m| >4 qp 3} yq a( <6 [5 Bp :m =2 }n wn 00 g_ wn 95 y8 ",
"Bp <5 un ds :n zt g3 x4 zt x4 x4 V[ Xv 3^ g_ J2 00 un zm sm sm uq yp G- `4 }> wq q} 95 95 ep >} !z <D P5+~h s3  6 v_ H) 05 ,m XG -G ^m [o I9 3I 3o.p: r9 {{ sr *t K8 *t O! 3} ao g_ J2 k8 T[ f: yp /6 sr F' W; D/ O: T] ## Q& ce 2& N& 5> {= {= X6 6- K& 48 AD 5| -8 on vn ir rt f- C; 7- R* P; Z} k. M_ l~ q3 q- #~ !~ c' i, ~* m_ w2 i0 P| P| !z &~ Z6 @> @( `} ~} Z~ d, F) o/  ' H- Q5+R5+S5+T5+U5+V5+W5+X5+5@+x-.Y5+<q nr 3| M] )) {* f2 h< +^ f2 +^ h< >( S- L- 3| 6| H3 Q8 Y4 1> 27 x= e- 3> i] B' K& I> I> /~ *f ~h Yh.'; P] O- @> b3 4( EG <p X1 M2 |' $> $> S- S- D; k~ S- K) 4) 4) '~ %> J/ `[ d< ]h y} *g %~ $> Q' Q' Q' K) <3 6; 99 +5 l] /: `& /, ,- u< kk &~ f: 0< 7r 8r Mh.A- w/ ,; O; e- [# [# t~ >- t~ q@ T' E/ P' @; p] $] x_ *  x' m} 7! ;e $_ ^/ #~ #> {* :~ B, +; :] {/ v< 1_ ][ ][ u2 u2  [ `! d( O- @( @( 6^ /8 00 fo un tn p) f: 32 v} p( }1 _5 U[ :6 _6 Cr 'P vr -s [D ^@+FH 5s w> 7] B~ *~ w< 4^ ep U~ |q un :q un W- E>.;q }K 4n x4 -4 zt zt x4 :n #z ;4 V[ c} A5 F2 'm on un W- <5 1) O! es 8( W- e/ C5 zt vn Br ^' b} g_ T[ ",
"en 61 e} *2 Bm :m Bm 90 90 e/ =2 -4 P6 |C b( k_ tz wn m| P6 g3 c9 G} z7 %) H> {{ /8 22 *Z *Z W~ F} Q5 ch -g y6 ~* A/ Jf Uy -G Qq XG K6 vJ wp dm I_ b( yq ot *) F' Y& A6 rt hr qp tn [5 F5 P[ b/ |v => m^ l^ P' K; L& T; C4 84 Z5+So Vc 19 =& /_ G* )} k: WC 3( j/ n: w1 Ip ,} sr 8< A7 S' *  a* g: 6- Q* P; i, !} 9- *  5} w_ R* #~ Z6 q( xw 13 3| I> #~ M_ >( :~ e( +; '~ C[ q_ pv %r >k.`5+ 6+.6++6+@6+#6+$6+%6+=G ^l Co hr |1 09 Q- {* Q' :_ h< @1 h< >( >( K) R- /~ !7 8| 93 HB d< M| Fd M8 P( 9- K. .^ i, i, Q* /: E; G8 N4 L- /~ s~ T2 n_ @u 8v X1 1> d( g2 R- $> S- S- L~ @; V; @; @; @; _] -~ m_ m_ O- %7 34 @( :~ q~ R' R' :~ J/ R[ @5 Pw A4 .$ p@ }( !: @] @( g/ P8 Ws 9( Q, uc ef.L; z, p/ m6 T% l7 l7 l7  ; P_ p/ v_ ,; M~ #) A8 l] .8 D, m} tc (^ 3~ M/ a} >( <~ p/ p/ `- 4& ,; @; r/ ][ 4} T' p/ H! k, z, >( f, >( g~ +z o) 00 kq D7 R, Ws M2 &~ u} i| dq U[ g- J6 Cr )t vr 'o -s ^@+$' 2] T5 Q! G} [> 22 W- W! yt _q ns go yn ;4 #z vr vr (n 90 h3 c/ 'm h3 Bm C5 R9 a< Ip ~v -G c< 'm ;4 Xv V~ (u sr f- H- g_ =4 1o mH Tp Os ^' Y< J6 F} ",
"sS y.+y.+ci.Eo :l $4 XF XF em em 5G jl z2 6m #2 qq hI aO ;2 <m xm |7 y7 a/ 0/ g~ 0' 9| g_ y8 22 Yz @n &6+of #6.'; ft 79 Pn el -G @z K6 sm 3m (m AE b( q( o0 A6 uc E' E' &t 0< J2 c9 U[ r9 G- a0 *>  5 2> 5; !~ u; -} a; 2{ x%+*6+]k >R.H  hA t5 S% Ga F; 8>+z; Q] pA qn W2 I6 F' {^ 8- T] g] #] h: ^^ 6- C, }' ~/ j, S* N/ t~ B, J> w} Z: ~5 EG %4 I> $~ l~ lz @1 .^ :~ :] K- V- =6+-6+`4 ;6+>6+,6+'6+)6+!6+~6+{6+&G hv |q wr v5 `< s~ {* Q' Q' +^ >( Q'  $  $ i] :_ D; :^ 3y W5 Ng /~ 7- F! [a Z$ U; Dz .8 l0 j8 !~ h< M_ J> L- |: g~ L~ i/ 3| D0 @u ZJ w} l] l] l] A/ 91 91 ,; ,; v) 91 s~ _] X; F: K- /~ O- .> 34 #~ c' O/ k! S' B, /~ U6 pA U6 ^h u< w_ 7} 4> 0* |' H> o0 {{ 0< gr *t $1 L; x_ e- Y} M8 m7 m7 kb j' z] u~ 1_ @~ '' -~ x^ ^h k9 `& m} Q& _^ 3~ E, @1 r~ `6 ;d [# Z& :] v] 91 :] `! 8- p/ x= e- k, j, U; /: h< E> !8 _6 [5 o) D7 wr +z w2 w2 X^ n) }7 _5 f/ g- 3} 1r x4 &s ;r p@.A5 1) b' w2 L| r9 o) J2 00 00 2q pn xm hI ]6+I3 I_ 6u 5G 5G h| jl Io jl h| W^ .: Uv i^ N[ =| N[ Uu H7 z2 03 Gx pJ.Ml Ga.v&+H7 oL ^m V[ #u ^' pn aD %4 ",
"'`.^6+'`.M5.:j./6+IT >f.AB.@8.}.+JR.@8.(6+G@.U`.%8.tw.@,+-k.gL G]._6+;A mq.:6+dd ]0 C{.x$.s< i| B9 Kn.<6+h'.h`.: +f1+>u NF .: Qp el km [m <m ){ I_ c( j^ F} L_ C[ A6 b/ O! q( U[ -8 20 P/ 5= 8J =; /5+KT ]H ;[ j1 o+.ro ]0 1A :H.9S.a) 5! ^| |$ w3 H& ]D Kg Y6 mz 13 *| Qp b9 C[ L; c' ,~ T] 0* h: ^^ K~ }' }' j! c' j! 0* T] R* Q] [H EG F[ 93 jE Ml G' y, }A t| N- #~ Q] L2 n9 P| 0| v5 ~:.[6+}6+|6+16+26+PQ r!+N[ 8l q: }> }0 Q5 @( N- {* i] {* d( |' R- |' 91 |' ,; T2 f< @5 QJ /~ &> M| K~ K. )) =; =; i/ I> t< i/ 34 v{ 0' 81 ^6 #[.u} i| @u |3 lu 3| g~ l] l] @~ v) ,; v) ,; s~ v] J/ T2 kk 4] 2> (' .> .z v{ #> 3> g] 0* }- Q' v{ >6 @4 n9 34 t3  ^ x] N/ i, L- 0' L9 Q[ q( 9| L_ E0 |- x_ k, v= b6  ;  ; <# c7 P_ p/ r/ -~ 81 +5 .> 09 #x /: T} ,a &8 w^  ^ J> )) ~{ }- O: B, ~* /~ L- R- .8 ~{ 9- K~ }- 8- C| #7 ): q3 I> aH K_ p: o: }7 u9 9| R[ t9 p( s< dq xw xw c9 g- ao yn A5 Y[ K7 uE lc.=, pD <E e9  l.o0 S[ $U.J%.=^.vv mg.x, 36+46+HT gx.9c.>f.[.+[.+Pu.wM.Mx.wM.7O.fz 56+Qh.Qh._e.f]+zi.yl.66+76+86+Mb 96+Ia.9`.-z vG Co J2 lR %A z-.",
"^'.![.06+a6+b6+52+s;.6b.c6+f'.K$.K$...+U{.}, d6+e6+HG.WM.yv }, nj f6+g6+h6+uY.i6+j6+k6+Q,.cK.wE pU.3E.l6+m6+n6+o6+p6+Hj.+0 ZF /7 W2 ~p pl 7l i^ QA s! %2 C} dq n9 !z n9 p< ~5 '6 +B %2 qq 8| +:  | Pg s0 c) 6g cg *h 'F -w.9L.f* v& R1 u7 E{.l.+HD /G `^ Fa.5F sz Pp d) e[ ){ 5| (] h8 Ow ': Mg Ow (' ]h %7 (' A4 %7 Ow /h ft ]h AD ZJ Q@+W^ +B 8v ix lF 6g )h Pt !w *y +A 8G Qg 83 q6+X4 sI.r6+s6+U].t6+u6+Ov 4i `s Y8 m: 93 @w UR.@5 d5 *y *y *y U6 ye n) 4| o( 4| n) Qw KN kL lu +: +A sz sz +A Pg Ag tg ix c3 c3 Y1 KH 4( z3 b' -; }> K_ dq 3x _B Pn 8| Pw W4 W4 $a v2 v2 ]( ]( Z< 5| n9 Qw pA pA W5 U9 U9 U9 ix O8 /~ d( ~* l] +5 +A <p H3 <p ]B 69 u4 %7 %7 v{ sz >6 n: X1 Y4 @4 Y1 f} .z A4 I> z/ A8 A/ |' S- S- *} _] 7; v2 J8 4( WH LN 8T.M] r| /: R* h] *g hE +A W4 f} (] 79 *y <D <D p0 U6 sz [H n8 AD AD AD 6[ iE 8g >g ]r I7 I_ F7 I7 i> qq n( n( C} ~5 r< J_ J_ E[ &2 q< B} q: j^ T9 r; v6+w6+x6+@W.I|+t+ M: E, >A y6+kH.z6+A6+B6+C6+D6+E6+g3+F6+X/.G6+@4.S;.<k c2+wA.H6+H6+eo.I6+J6+K6+EQ.z1+L6+M6+Dx N6+QS TW.w|+O6+~s.c{.b( J9 !' qq.:r.",
"P6+Q6+R6+S6+T6+U6+.>.T+.o).fK.eg.a%.T|.V6+i6+Tn.W6+X6+!L.C[.^V Y6+1b.sO.9L Z6+ M `6+3+.W:.HE ;S.cG. 7+.7+yK l*.9>.+7+@7+>$ Qh.O=.pk !6 U2 U2 pk '[ ,[ U2 r1 ~i .F ;i ll )q.]7 Z( R| t1 %i W8 !i -i di Ki Ki @i ki 3i bF F%.@k !g *i.JT @k `F qt  G #F #F 8W Q8  A v1 g^ tk 1} #B D3 5v Xt 8W %w #7+8W Xt Xt Xt Js ^F ^F $7+b%+Xt ^5.</ #4 4< 4< 7u #B S8 KC V8 V8 D3 $o  F *i %i t1 4_ #4 -i |i.Ab.rY.rY.|i.gi Li pk _7 U2 >8 >8 ;8 &i ll </ $G 'i g| X5 3s s} s} @B ~7 >q #4 F3 7u g| g| g| R8 g| qE ;i 'i g| 3s s} DB oH JH 05 yt 95 q< <m d: ;2 ){ ml 7l ~7 ~7 X5 X5 i^ E|+)6 )6 v1 @7 wx.F3 F3 F3 {7 `s &i `s 7u s} 83 .A kL Qg `7 dt rn BN.v1 i^ dt U8 bv bv Io Uu qE @7 nA {7 `s UE ^5.&w 8W 8u Z4 Q@+Q@+`7 .A .A kL `7 Io #B rn rn %7+>i  F 8W `J xg ]r Qg U8 'i qE X5 KC KC S8 $G e| W8 e| di ~i e| !i !i !i ;i !i -i ei $i ;8 t1 R| U2 Z( 4_ 4_ 6/ F3 #4 wx.b~.Z( !6 k( Fw f> F7 t} n8 ud &7+*7+=7+-7+;7+>7+,7+~| Nz '7+)7+`r.!7+~7+{7+]7+^7+/7+(7+_7+:7+<7+y}.[7+}7+|7+17+27+37+47+57+67+-3+77+87+97+07+TB.}N a7+b7+xT c7+c4+8]+d7+m@+`A +<+e7+",
"f7+g7+h7+i7+j7+k7+l7+9U m7+B)../.`U *].n7+o7+kK.p7+~o.K3+iK.q7+r7+8N.s7+t7+u7+v7+w7+x7+y7+z7+HT _W.A7+B7+A!.;T 4b.C7+J}.D7+(6+b_ 0j ,8 cj cj 8j 0j l: l: l: 8j 9j 9j 9j 9j l: l: l: l: 8j 9j 9j 9j 8j 8j 8j 9j 9j 9j ,8 ,8 +k k( k( k( +k x2 x2 ,8 x2 x2 pk k( k( ok Y: g^ ,8 ,8 ,8 ,8 +k Ni Ni Ni pk pk k( k( k( x2 x2 x2 L2.,8 ,8 ,8 ,8 ,8 cj ,8 ,8 ,8 ,8 ,8 ,8 ,8 ,8 ,8 9j 8j l: l: l: 8j 9j 9j ,8 ,8 9j 8j l: l: l: l: l: l: l: l: l: 8j 8j x2 x2 _7 k( g^ k( g^ ok `( ,8 x2 x2 ,8 ,8 ,8 ,8 ,8 +k k( k( k( k( tk g^ ~6 =l @p Ix Ix B5 B5 'm B5 hv nB pE e) ~6 .2 .2 ,{ g^ g^ ok m( l: l: ,8 cj 8j 8j 8j 8j l: 8j ,8 ,8 k( pk pk pk x2 ,8 ,8 ,8 ,8 ,8 _7 pk k( _7 ,8 ,8 ,8 9j 9j 8j ,8 ,8 ,8 x2 x2 +k L2.L2.L2.k( k( k( +k ,8 9j l: l: 9j 9j ,8 x2 k( k( pk k( ,8 ,8 ,8 ,8 ,8 ,8 9j 9j 8j 8j l: l: l: l: 8j 8j 8j 8j 8j 8j l: l: l: l: l: l: l: l: l: l: 8j 8j aF l: l: l: l: l: '[ k| B2 W9 E7+FC Rf F7+o9.G7+H7+I7+J7+_)+JB K7+L7+M7+N7+O7+P7+Q7+R7+S7+T7+U7+V7+W7+K!.X7+Y7+Z7+`7+ID. 8+.8++8+@8+#8+$8+%8+&8+*8+)=.=8+-8+ X |+.^K BV.g[ ;8+._+>8+,8+",
"'8+)8+!8+~8+{8+]8+@;.^8+#'.9>.|..4+./8+(8+_8+:8+<8+[8+}8+|8+18+yK 28+38+48+58+68+78+3=.88+98+08+n..!p.a8+0a.j8.h8.b8+c8+wB.d8+Ni 8j ,8 l: x2 8j 8j 8j l: l: l: l: l: l: l: l: l: l: 8j 8j 9j 8j 8j l: l: l: l: l: l: l: l: l: l: m( m( ,8 l: l: m( ok ok ok m( #s #s #s m( l: l: 9j ,8 k( Ni Ni +k Ni Ni +k +k +k ,8 9j 9j ,8 9j ,8 8j l: l: l: l: l: l: l: l: l: l: l: l: l: l: l: l: l: l: 9j ,8 ,8 ,8 l: l: l: l: l: l: l: l: l: l: l: l: l: 8j 8j ,8 ,8 ,8 cj x2 x2 cj 8j 8j 8j 9j 9j 9j 9j ,8 9j 8j ,8 ,8 ,8 cj _7 g^ ~6 T'.ko ko G%.G%.Kq -G Ep ;s ~E ~E g> g> 0F {6 >{ >{ Z( ,8 l: 8j ,8 8j 8j 8j 8j 8j 8j l: l: 8j 8j 0j 0j 8j 8j 8j 8j l: l: l: l: ,8 ,8 ,8 ,8 ,8 8j 8j l: 8j 8j 9j 9j +k +k ,8 L2.L2.L2.L2.x2 x2 x2 8j l: l: l: l: l: l: l: 8j l: l: l: l: l: l: l: l: l: l: l: l: l: l: l: l: l: l: 8j l: 8j l: l: l: l: l: l: l: l: l: l: l: l: l: l: l: 8j l: l: ,8 l: Z( Pp tE Qu.e8+f8+Rf g8+h8+i8+j8+k8+6k Qp.l8+m8+n8+o8+p8+q8+r8+s8+t8+u8+v8+Vc.%Y w8+y).x8+q7.y8+-B.z8+r(.A8++8+OX.t(.zC.B8+Bq.C8+D8+E8+F8+G8+H8+I8+UR &G {`.ui.J8+fK ",
"K8+L8+M8+N8+O8+P8+Q8+R8+S8+T8+U8+c<.&F.6y.V8+W8+X8+Y8+Z8+`8+~A.T=. 9+.9++9+@9+#9+$9+%9+&9+*9+Y( %[.'F.MB 4x.EW <U.=9+-9+;9+>9+Ni ,8 `( cj ,8 8j l: l: l: l: l: l: l: l: l: l: l: l: ,8 9j ,8 cj ,8 cj m( l: l: l: m( m( m( cj ok ok cj cj nk ok #s ok ok >s #s >s `( `( aF 9j L2.L2.aF k( x2 x2 +k ,[ ,[ ,[ k( +k ,8 ,8 ,8 cj 8j cj cj m( l: l: l: l: l: l: l: l: l: l: l: l: l: l: l: l: l: l: m( m( m( l: l: l: l: l: l: l: l: l: l: 8j pk Li pk _7 _7 _7 _7 g^ k( _7 pk +k x2 +k +k k( k( k( pk pk '[ g^ g^ ,{ qk >{ V2 An ko !p Nq 5F.cs cs cs _r #t Uo jo )p Cd.BD pE W2 *| 1} x2 9j l: l: l: l: l: l: l: 8j 8j cj ,8 0j 0j 8j 8j 8j 8j 8j l: l: l: l: l: cj cj m( l: l: l: l: l: l: l: l: 9j 9j cj l( ,8 l( ,8 ,8 cj 8j l: l: l: l: l: l: l: l: l: l: l: l: l: l: l: l: l: l: l: l: l: l: 8j 8j l: l: l: l: cj ,8 l: l: l: l: l: l: l: l: l: l: l: l: l: l: l: l: l: l: l: l: t1 93 U9 =Z ,!+Hj.,9+'9+)9+!9+~9+z*.ys IC Qe {9+]9+^9+/9+(9+_9+:9+<9+[9+1U [_.P^.;].}9++C.7,.|9+4y.33+19+29+39+0x.49++2+gk.59+K!.69+79+89+99+09+a9+OJ.vk <G /G %k ]:+",
"b9+c9+d9+e9+K(.Hu.f9+g9+h9+#9.Cj 8/.i9+]G NR UG.G1+<V <V >:.`{.=4.j9+k9+l9+m9+n9+o9+p9+Fs.Li R| kc.%(.^O.q9+bb.r9+s9+t9+_u gh x2 l: ,8 l: l: l: 8j l: l: l: l: k( 9s ,[ ,8 l: l: m( l: ,8 !6 e[ Qp vk ~6 ]} ,{ Y: Y: tk vk *| [4 [4 [l f) 7A An 7A An dE j2 pE V2 t1 s1 Ni Ni 9j 9j `( ok '[ e[ [l =| >l qn >l 9l =l [l f) *| *| *| <4 pE V2 Qp Qp Qp ql ql ql e[ e[ '{ '{ '{ !6 U2 U2 '{ '{ ~6 ~6 ~6 ~6 !6 g^ ok l: l: l: l: l: l: l: d| V^ h| em L6 <G {l 5l {l `q `q jm X2 jm jm jm jm jm `q co pl pl pl 2} 2} fm K6 _m q| =2 (n 2m <n [n dp Bu Bu zn _r :~.kp Ep hw hv dn  1 v1 pk l: l: l: l: l: l: l: l: l: _7 4< +2 qE Y8 y2 bl u1 al *| W2 W2 W2 W2 W2 <4 W2 pE V2 g> Qp ql Qp Qp V2 ql V2 V2 W2 pE <4 pE <4 V2 V2 e[ ql e[ ql 1} d) d) 6/ V2 V2 W2 *| *| *| W2 W2 <4 )[ V2 V2 V2 W2 *| f> >{ ,8 l: l: ok Qp V2 _7 l: l: l: l: l: l: l: l: l: l: l: l: l: l: l: l: l: l: l: O=.@2 WG o8 ig @A iD b..u9+2o.(p.Lk.v9+!y 2]+r&+w9+x9+y9+z9+A9+B9+C9+D9+9Q.4c.4c.E9+cQ.Ge.F9+Cb.xv G9+H9+NP.I9+I9+J9+C~+Vv.K9+L9+M9+N9+O9+P9+Q9+R9+Ni cj Y: h| !v.j; ",
"S9+T9+U9+2U.2E i}+sa.;K.Bg st eu i> x;.~5 ~5 L3 !5 ,} >4 w< g_ p: Y].V9+W9+X9+Y9+Z9+`9+uZ.m( m( qk CG  0+.0+Qe  K..,+F].;Z.T8 ,8 ,8 m( l: l: l: l: l: l: l: l( d) i^ jm d) ok m( ok m( Y: f) @p >n Ds Ur !p [p ~q dE dE el fm _m [m K7 en Vr Es >n Es >n Ip pl +0+@0+ct.fR.9J.Mi L2.#0+Y: !E ko Es .p .p .p lm ~m 4o 3o fn .p 2o fn 5o Vr Rp ^l ^l Rp ^l ^l ^l ^l 2} ^l ^l L6 gm L6 gm L6 gm Es Ix >n Ds }l el d) h^ l: l: l: l: l: ,8 Uu X1 dq wq =p 4n tm tm tm tm tm _n _n _n g3 g3 g3 g3 g3 g3 sm sm sm sm Bp on xn xn xn yn Cp mB <q 2q Br _s &q eo &p pV.Nq Rp 3m I2 ,} f3 Io r1 9j 9j 9j l: l: l: l: l: l: Z( 7l :1 F7 F7 <m _m ^m ^m 'm .p fn 3o B5 fm fn 3o Vr Ix Es 2} L6 gm gm 2} ^l 2} Es hv B5 B5 gm gm gm gm Es Vr Vr fm M6 hv hv hv B5 B5 B5 3o 3o 3o B5 B5 B5 B5 a< a< Ix Vr fn Es -G ]} Y5 >o )p y4 'm An m( l: l: l: ok g^ qk g^ l( l: cj l: l: l: l: l: l: 8j l: ,[ %2 7/ K_ dq 2` (g o+.o+.e7 Bo.$0+}o (m  q Qp Fe.%0+&0+*0+=0+8J.56+AG y8 2_ 7/ F8 F8 C} B7 B7 p< p0 O8 w} f`.-0+80 ;0+9' Un |E >0+,0+'0+)0+!0+-x l: l: m( m( 6m ~0+",
"{0+JE.&6+Fg QJ n)  _ H6 t9 Gt @4 B} 61 bH e} #I 05 yt Yr FJ FJ ~t  _ lE 96+<7.L(.H8.]0+;8 m( h^ ,{ wp >H h= E> z- l= L; 7h V8 ,8 l: l: l: l: l: l: l: l: l: ok 9l km hv =l Y: m( ;m h^ -n -G 3o ~o ~o Zo Dp _r $t #t Ep ^s /n tm }n :n (n ^o 4o 4o 4o 4o 3o Y5+^0+/0+(0+_0+h'+(x ,8 #s HT.Gp LC Zo 9o )o jn &p 8m 0o ]n 9o 9o 9m 9m ]n ~o ]o 2o 2o 2o 2o ]o lm lm !m ]n am gn cm /n /n gn cm #q )n jn ]n 4o Vr Qq ;m l: l: l: l: l: +k XF D0 s< J6 2q rq Eq ()+()+pp IG np op >I np op op op op nn nn op nn nn np np #o =p =p mB go }G up HG II hF.JN N'.$p cC <t cs Cp ao J6 k8 I7 #4 ,8 9j ,8 l: l: l: l: l: m( e[ L6 <m sm tm tm /o 1m 1m zn jn 9m 9m 9m am am 9m am ^n lm .p .p lm lm .p fn .p ^o !m !m !m ^o lm lm !m !m ]n am ]n !m !m !m {r ^o ^o ~o ]n ]n ]n ho ho ]n ]n ho ^o ~o ~o ~o .p Nq 4A HT.-n -s ~r x4 _y ok l: l: m( }4 [p -G ~q Q| m( m( l: l: l: l: l: l: ,8 l: '[ %2 n: K_ K_ Q[ a9 S9 S9 t< u} b9 y4 -2 _y BD &w ,k.:0+|K.%9.$9.{' V{+<0+@).x{+j9 [0+H2 p .}0+EI W~ +' /' S~ CD &t 9I &[ C2 9`.mu.J[.|0+10+20+&i l: l: l: l: =| p8 ",
"yV.30+mY.34 F} Z< Z1 &~ I8 .z 5g 9g V`.Xi.-z ;{ uE uq ~t 40+p9 q .~[ Re na aH.50+60+AA d| m( m( ,{ 75 q( &~ b] 70+80+`! qB.)6.,8 l: ,8 l: l: l: 8j l: l: l: Y: ~p Y[ y4 {v ]} h^ ;m ;m >m Ds ^o ~o 1H Yo +p Dp _r $t Nq Pq 2m 4n 4n }n 2m {r lt 4o ^o !m lm {m 90+00+a0+b0+c0+Sx L2.m( HT.^U LC Xo )o |o `o &p 9o 9o 8m 9o ~n ~n !n ^n ]o ~o ~o {o {o ^n ^n ^n ~o ]n ]n 9m !n jn /n /n !n zn in 3n |o &p Zo ^o zG ]} h^ ,8 l: l: l: pk h| W5 !z p) 2q 4F.Bu Bu pp mq pp IG op op np np op nn nn op nn (o nn 4n np np mB xn =p mB mB =p |q b.+0q r>.:s Gq d0+MH ws +p dp 1r kr _6 d3 BN.L2.,8 ,8 ,8 ,8 cj l: l: ,8 <4 o, q| sm tm tm KQ 1m in in an bn &p 0o 9m cn 8m 0o ^n {o ]o ]o ]o ]o ^o 4o .p ]n am ^o 9o ]n lm ^o ^o lm ]n ^n lm !m gn !m !m ]n ]n ~o ]n ]n 9o ]n ]n 9o ]n ho ~o ]n ]n 9m ]n _r ev xC $s us M)+)n 'o -n >s ,{ x< Iv fw Pq @p ;s Y: m( m( ,8 l: 8j l: l: ,8 l: ,[ k| t} K_ }1 n_ y7 D; D; #) S[ tz h3 y4 c< BD +F e0+f0+&k.$H.@h v5 g0+h0+Y! W- X1 Rg lu 7| aF.>g 10 H8 X~ Cv ]E X'  j.T5 I- _' kd.8_.i0+j0+k0+nA l: l: l: l: {l j| "};
