/* XPM */
static char * _EAST__xpm[] = {
"330 330 25032 3",
"   	c #100F13",
".  	c #131214",
"+  	c #161415",
"@  	c #2A2727",
"#  	c #4A4745",
"$  	c #575451",
"%  	c #534E4D",
"&  	c #504D4A",
"*  	c #403C3A",
"=  	c #2E2A2B",
"-  	c #1C181C",
";  	c #1A181B",
">  	c #272526",
",  	c #464544",
"'  	c #5A5855",
")  	c #62615A",
"!  	c #615F5A",
"~  	c #605D59",
"{  	c #4D4B48",
"]  	c #343231",
"^  	c #242223",
"/  	c #211E20",
"(  	c #1F1C1E",
"_  	c #22201F",
":  	c #2D2A28",
"<  	c #4A4642",
"[  	c #5F5B54",
"}  	c #656158",
"|  	c #676259",
"1  	c #6D6860",
"2  	c #6E6A64",
"3  	c #75726C",
"4  	c #65625F",
"5  	c #322F2F",
"6  	c #191718",
"7  	c #262426",
"8  	c #3E3D3D",
"9  	c #504E4C",
"0  	c #555350",
"a  	c #585652",
"b  	c #524F4D",
"c  	c #3C3836",
"d  	c #221F1F",
"e  	c #1B181B",
"f  	c #1D1A1C",
"g  	c #1D1A1B",
"h  	c #1C191A",
"i  	c #252323",
"j  	c #3A3737",
"k  	c #434040",
"l  	c #3F3C3C",
"m  	c #343232",
"n  	c #2C2A2B",
"o  	c #312F2F",
"p  	c #3C3A3B",
"q  	c #454344",
"r  	c #454343",
"s  	c #454444",
"t  	c #424240",
"u  	c #454442",
"v  	c #464743",
"w  	c #444241",
"x  	c #474644",
"y  	c #464442",
"z  	c #494746",
"A  	c #484544",
"B  	c #3E3C3A",
"C  	c #363533",
"D  	c #2F2F2F",
"E  	c #2E2E2E",
"F  	c #323232",
"G  	c #313231",
"H  	c #2F2E2F",
"I  	c #272727",
"J  	c #232223",
"K  	c #242424",
"L  	c #313130",
"M  	c #3A3A39",
"N  	c #383838",
"O  	c #2E2D2E",
"P  	c #211F21",
"Q  	c #141214",
"R  	c #111010",
"S  	c #121010",
"T  	c #1E1D1C",
"U  	c #2A2926",
"V  	c #292726",
"W  	c #2C2B2A",
"X  	c #292829",
"Y  	c #242425",
"Z  	c #121113",
"`  	c #070508",
" . 	c #06050A",
".. 	c #0C0B10",
"+. 	c #18171C",
"@. 	c #1D1B1F",
"#. 	c #1C1A1D",
"$. 	c #1E1C1D",
"%. 	c #363332",
"&. 	c #53504D",
"*. 	c #595652",
"=. 	c #5A5651",
"-. 	c #5C5852",
";. 	c #615C55",
">. 	c #615B53",
",. 	c #615B54",
"'. 	c #605B53",
"). 	c #5F5952",
"!. 	c #5C564F",
"~. 	c #59534B",
"{. 	c #59534C",
"]. 	c #565049",
"^. 	c #554E48",
"/. 	c #534D47",
"(. 	c #544E47",
"_. 	c #544E48",
":. 	c #57514B",
"<. 	c #59544C",
"[. 	c #5A554D",
"}. 	c #5E5A52",
"|. 	c #615C56",
"1. 	c #67635C",
"2. 	c #69645F",
"3. 	c #6B6761",
"4. 	c #6A6662",
"5. 	c #6A6764",
"6. 	c #666361",
"7. 	c #646360",
"8. 	c #5B5A5A",
"9. 	c #535252",
"0. 	c #3B3A3B",
"a. 	c #252426",
"b. 	c #1E1D1F",
"c. 	c #292628",
"d. 	c #393737",
"e. 	c #3C3B3B",
"f. 	c #373636",
"g. 	c #383737",
"h. 	c #3B3939",
"i. 	c #43413F",
"j. 	c #46433E",
"k. 	c #46413B",
"l. 	c #49443C",
"m. 	c #575047",
"n. 	c #625B51",
"o. 	c #625B52",
"p. 	c #514D45",
"q. 	c #3D3B35",
"r. 	c #353330",
"s. 	c #3C3936",
"t. 	c #413E3B",
"u. 	c #373431",
"v. 	c #201E1C",
"w. 	c #1A1817",
"x. 	c #222121",
"y. 	c #282728",
"z. 	c #3E3F3E",
"A. 	c #575755",
"B. 	c #474543",
"C. 	c #191918",
"D. 	c #000001",
"E. 	c #000000",
"F. 	c #030205",
"G. 	c #151418",
"H. 	c #202023",
"I. 	c #201F24",
"J. 	c #212025",
"K. 	c #212125",
"L. 	c #1E1E22",
"M. 	c #19191D",
"N. 	c #1B1C1D",
"O. 	c #1E1D1E",
"P. 	c #2D2B2C",
"Q. 	c #474445",
"R. 	c #565251",
"S. 	c #464343",
"T. 	c #282628",
"U. 	c #121114",
"V. 	c #0E0E11",
"W. 	c #423F41",
"X. 	c #5E5A5A",
"Y. 	c #67645F",
"Z. 	c #67625E",
"`. 	c #5C5753",
" + 	c #504B47",
".+ 	c #433E3B",
"++ 	c #3E3B37",
"@+ 	c #36332F",
"#+ 	c #36332E",
"$+ 	c #484440",
"%+ 	c #645F5B",
"&+ 	c #68645D",
"*+ 	c #66625A",
"=+ 	c #656058",
"-+ 	c #625C54",
";+ 	c #625B54",
">+ 	c #6F6A62",
",+ 	c #77716C",
"'+ 	c #7B7671",
")+ 	c #77746F",
"!+ 	c #666260",
"~+ 	c #454141",
"{+ 	c #312F2E",
"]+ 	c #3F3C3A",
"^+ 	c #474140",
"/+ 	c #453F3C",
"(+ 	c #38322F",
"_+ 	c #2B2726",
":+ 	c #201C1D",
"<+ 	c #1B1819",
"[+ 	c #141113",
"}+ 	c #131012",
"|+ 	c #1D1B1B",
"1+ 	c #2D2A2A",
"2+ 	c #322F2D",
"3+ 	c #35322F",
"4+ 	c #322F2C",
"5+ 	c #32302D",
"6+ 	c #3B3A37",
"7+ 	c #4B4A47",
"8+ 	c #4B4A46",
"9+ 	c #4B4944",
"0+ 	c #474541",
"a+ 	c #484844",
"b+ 	c #4A4946",
"c+ 	c #4B4846",
"d+ 	c #5A5752",
"e+ 	c #5D5A54",
"f+ 	c #58544E",
"g+ 	c #4B4741",
"h+ 	c #3E3B36",
"i+ 	c #3A3834",
"j+ 	c #393634",
"k+ 	c #3A3935",
"l+ 	c #393835",
"m+ 	c #3A3936",
"n+ 	c #3A3837",
"o+ 	c #343332",
"p+ 	c #292727",
"q+ 	c #242322",
"r+ 	c #222020",
"s+ 	c #262525",
"t+ 	c #2B2A2A",
"u+ 	c #323131",
"v+ 	c #2E2D2C",
"w+ 	c #0F0D0E",
"x+ 	c #0F0E0F",
"y+ 	c #212022",
"z+ 	c #2A282B",
"A+ 	c #232324",
"B+ 	c #151416",
"C+ 	c #0E0D10",
"D+ 	c #0E0D0F",
"E+ 	c #0A090C",
"F+ 	c #0B0A0D",
"G+ 	c #171517",
"H+ 	c #1E1B1D",
"I+ 	c #201D1E",
"J+ 	c #262424",
"K+ 	c #292627",
"L+ 	c #262323",
"M+ 	c #393736",
"N+ 	c #423F3D",
"O+ 	c #504D4C",
"P+ 	c #676462",
"Q+ 	c #6B6865",
"R+ 	c #6A6864",
"S+ 	c #64625E",
"T+ 	c #605E5A",
"U+ 	c #5A5853",
"V+ 	c #5E5C57",
"W+ 	c #63605C",
"X+ 	c #52504E",
"Y+ 	c #363433",
"Z+ 	c #2B2929",
"`+ 	c #211F20",
" @ 	c #222022",
".@ 	c #232224",
"+@ 	c #1E1C1E",
"@@ 	c #1C1B1C",
"#@ 	c #181619",
"$@ 	c #111012",
"%@ 	c #050306",
"&@ 	c #040304",
"*@ 	c #0D0B0B",
"=@ 	c #1D1A1A",
"-@ 	c #373433",
";@ 	c #383534",
">@ 	c #353230",
",@ 	c #5A5552",
"'@ 	c #726A66",
")@ 	c #736D67",
"!@ 	c #7B756E",
"~@ 	c #A59E97",
"{@ 	c #C3BFB6",
"]@ 	c #C4C1B8",
"^@ 	c #C2BEB5",
"/@ 	c #9A9591",
"(@ 	c #64615D",
"_@ 	c #525150",
":@ 	c #373637",
"<@ 	c #3A393B",
"[@ 	c #18171B",
"}@ 	c #18171A",
"|@ 	c #171618",
"1@ 	c #282525",
"2@ 	c #43403E",
"3@ 	c #52504D",
"4@ 	c #4E4C49",
"5@ 	c #484745",
"6@ 	c #2F2D2E",
"7@ 	c #222023",
"8@ 	c #202021",
"9@ 	c #2A2A29",
"0@ 	c #454543",
"a@ 	c #5B5A56",
"b@ 	c #63635D",
"c@ 	c #62615C",
"d@ 	c #5E5D59",
"e@ 	c #343331",
"f@ 	c #272626",
"g@ 	c #272527",
"h@ 	c #252325",
"i@ 	c #282726",
"j@ 	c #312F2C",
"k@ 	c #4D4B45",
"l@ 	c #636158",
"m@ 	c #69675D",
"n@ 	c #69655B",
"o@ 	c #6B6760",
"p@ 	c #6C6863",
"q@ 	c #6D6C67",
"r@ 	c #5D5B58",
"s@ 	c #32302F",
"t@ 	c #3E3C3C",
"u@ 	c #4D4D4A",
"v@ 	c #51514D",
"w@ 	c #575652",
"x@ 	c #51504C",
"y@ 	c #3E3C39",
"z@ 	c #252322",
"A@ 	c #1F1D1F",
"B@ 	c #201D1F",
"C@ 	c #252424",
"D@ 	c #343333",
"E@ 	c #3D3B3B",
"F@ 	c #3A3839",
"G@ 	c #313031",
"H@ 	c #393739",
"I@ 	c #403F40",
"J@ 	c #414040",
"K@ 	c #403F3F",
"L@ 	c #434342",
"M@ 	c #464644",
"N@ 	c #484846",
"O@ 	c #4A4846",
"P@ 	c #4C4A47",
"Q@ 	c #474542",
"R@ 	c #3D3C39",
"S@ 	c #373633",
"T@ 	c #31312F",
"U@ 	c #30302F",
"V@ 	c #2F302F",
"W@ 	c #333433",
"X@ 	c #323331",
"Y@ 	c #353634",
"Z@ 	c #272828",
"`@ 	c #232323",
" # 	c #252625",
".# 	c #282A29",
"+# 	c #343434",
"@# 	c #3A3A3A",
"## 	c #393939",
"$# 	c #2D2C2C",
"%# 	c #232321",
"&# 	c #1E1D1B",
"*# 	c #272524",
"=# 	c #2F2B2B",
"-# 	c #363331",
";# 	c #32312C",
"># 	c #31312B",
",# 	c #2C2B28",
"'# 	c #2F2F2D",
")# 	c #2B2B2A",
"!# 	c #252526",
"~# 	c #121213",
"{# 	c #070609",
"]# 	c #08070B",
"^# 	c #0F0D13",
"/# 	c #1A191E",
"(# 	c #1F1E22",
"_# 	c #1F1E1E",
":# 	c #383735",
"<# 	c #5D5B56",
"[# 	c #5C5953",
"}# 	c #5F5B55",
"|# 	c #646059",
"1# 	c #645F56",
"2# 	c #625C55",
"3# 	c #605A52",
"4# 	c #5B544D",
"5# 	c #58524A",
"6# 	c #565048",
"7# 	c #57514A",
"8# 	c #5B554D",
"9# 	c #5B564E",
"0# 	c #5C574F",
"a# 	c #5D5850",
"b# 	c #615C54",
"c# 	c #66615A",
"d# 	c #6C6861",
"e# 	c #6D6862",
"f# 	c #6D6963",
"g# 	c #696660",
"h# 	c #63605B",
"i# 	c #5A5755",
"j# 	c #575553",
"k# 	c #4F4D4C",
"l# 	c #494847",
"m# 	c #1E1E1F",
"n# 	c #282729",
"o# 	c #373536",
"p# 	c #3B3A3A",
"q# 	c #42413F",
"r# 	c #43413E",
"s# 	c #47443E",
"t# 	c #49443E",
"u# 	c #544F47",
"v# 	c #5E594F",
"w# 	c #5E5A51",
"x# 	c #504E48",
"y# 	c #3E3C38",
"z# 	c #373733",
"A# 	c #3E3D39",
"B# 	c #44423F",
"C# 	c #3E3B38",
"D# 	c #2D2B28",
"E# 	c #2B2B27",
"F# 	c #353532",
"G# 	c #393837",
"H# 	c #484947",
"I# 	c #3E3D3B",
"J# 	c #101110",
"K# 	c #020204",
"L# 	c #141418",
"M# 	c #202124",
"N# 	c #1F1F23",
"O# 	c #212126",
"P# 	c #1D1D20",
"Q# 	c #1D1D1F",
"R# 	c #1A1A1C",
"S# 	c #262526",
"T# 	c #454243",
"U# 	c #4C4A4A",
"V# 	c #434242",
"W# 	c #2A2A2B",
"X# 	c #131417",
"Y# 	c #101113",
"Z# 	c #1D1D1E",
"`# 	c #3D3A3B",
" $ 	c #585553",
".$ 	c #635F5B",
"+$ 	c #625E5A",
"@$ 	c #66615C",
"#$ 	c #5E5A55",
"$$ 	c #595550",
"%$ 	c #4F4B48",
"&$ 	c #4C4945",
"*$ 	c #43413D",
"=$ 	c #3E3C37",
"-$ 	c #484541",
";$ 	c #5F5C58",
">$ 	c #65625D",
",$ 	c #65635C",
"'$ 	c #615D55",
")$ 	c #605B55",
"!$ 	c #6E6A66",
"~$ 	c #696663",
"{$ 	c #615F5C",
"]$ 	c #595754",
"^$ 	c #4B4848",
"/$ 	c #42403F",
"($ 	c #45423E",
"_$ 	c #45403D",
":$ 	c #3D3834",
"<$ 	c #302C2A",
"[$ 	c #242020",
"}$ 	c #1F1D1D",
"|$ 	c #151214",
"1$ 	c #2F2C2C",
"2$ 	c #343230",
"3$ 	c #363330",
"4$ 	c #33302D",
"5$ 	c #33312E",
"6$ 	c #454542",
"7$ 	c #464642",
"8$ 	c #444440",
"9$ 	c #42413E",
"0$ 	c #434340",
"a$ 	c #484543",
"b$ 	c #514E4A",
"c$ 	c #5A5751",
"d$ 	c #56524C",
"e$ 	c #4C4842",
"f$ 	c #423F39",
"g$ 	c #3D3A35",
"h$ 	c #3A3835",
"i$ 	c #3B3A36",
"j$ 	c #353433",
"k$ 	c #282827",
"l$ 	c #292828",
"m$ 	c #2C2B2B",
"n$ 	c #302F2F",
"o$ 	c #2F2E2D",
"p$ 	c #201F1F",
"q$ 	c #141313",
"r$ 	c #171718",
"s$ 	c #2F2D2F",
"t$ 	c #3E3C3F",
"u$ 	c #323233",
"v$ 	c #181819",
"w$ 	c #0F0E10",
"x$ 	c #0D0C0E",
"y$ 	c #121013",
"z$ 	c #161315",
"A$ 	c #171416",
"B$ 	c #171516",
"C$ 	c #1A191A",
"D$ 	c #1B1A1A",
"E$ 	c #211F1F",
"F$ 	c #2D2C2B",
"G$ 	c #40403F",
"H$ 	c #4F504E",
"I$ 	c #535351",
"J$ 	c #535451",
"K$ 	c #4D4E4B",
"L$ 	c #494947",
"M$ 	c #4A4B48",
"N$ 	c #4B4C49",
"O$ 	c #444343",
"P$ 	c #353435",
"Q$ 	c #272628",
"R$ 	c #1F1E21",
"S$ 	c #1B1A1E",
"T$ 	c #1A191C",
"U$ 	c #161518",
"V$ 	c #111014",
"W$ 	c #060508",
"X$ 	c #050304",
"Y$ 	c #0E0C0B",
"Z$ 	c #1E1C1A",
"`$ 	c #383634",
" % 	c #393635",
".% 	c #353331",
"+% 	c #5B5754",
"@% 	c #77716B",
"#% 	c #767169",
"$% 	c #7C776E",
"%% 	c #A59F96",
"&% 	c #C3BEB3",
"*% 	c #C6C3B6",
"=% 	c #C4C1B4",
"-% 	c #9D9891",
";% 	c #52514F",
">% 	c #444443",
",% 	c #353535",
"'% 	c #1D1C21",
")% 	c #17161A",
"!% 	c #131113",
"~% 	c #242222",
"{% 	c #2B2928",
"]% 	c #1D1C1C",
"^% 	c #222124",
"/% 	c #212123",
"(% 	c #262627",
"_% 	c #393938",
":% 	c #4E4E4B",
"<% 	c #585853",
"[% 	c #565652",
"}% 	c #51524E",
"|% 	c #41413E",
"1% 	c #29282A",
"2% 	c #2B2A2C",
"3% 	c #2A292A",
"4% 	c #31302E",
"5% 	c #4B4945",
"6% 	c #625F59",
"7% 	c #68655C",
"8% 	c #5D5B55",
"9% 	c #54524E",
"0% 	c #4F4F4C",
"a% 	c #434240",
"b% 	c #2B292A",
"c% 	c #272528",
"d% 	c #3C3D3A",
"e% 	c #403F3D",
"f% 	c #444340",
"g% 	c #42413D",
"h% 	c #201E20",
"i% 	c #1D1B1E",
"j% 	c #1C1A1C",
"k% 	c #1B1A1B",
"l% 	c #1D1C1E",
"m% 	c #232325",
"n% 	c #282829",
"o% 	c #28272A",
"p% 	c #272729",
"q% 	c #252427",
"r% 	c #262528",
"s% 	c #28272B",
"t% 	c #2B2B2D",
"u% 	c #29282C",
"v% 	c #28282B",
"w% 	c #26272A",
"x% 	c #2B2B2F",
"y% 	c #2E2D30",
"z% 	c #313133",
"A% 	c #302F30",
"B% 	c #323132",
"C% 	c #333132",
"D% 	c #41403D",
"E% 	c #373632",
"F% 	c #303230",
"G% 	c #343533",
"H% 	c #313131",
"I% 	c #252627",
"J% 	c #202122",
"K% 	c #232425",
"L% 	c #272829",
"M% 	c #2A2C2D",
"N% 	c #28282A",
"O% 	c #242627",
"P% 	c #1C1D1C",
"Q% 	c #1D1C1A",
"R% 	c #302E2C",
"S% 	c #4C4947",
"T% 	c #575450",
"U% 	c #59554F",
"V% 	c #48463F",
"W% 	c #3A3933",
"X% 	c #2C2B27",
"Y% 	c #292826",
"Z% 	c #111011",
"`% 	c #08070A",
" & 	c #08060B",
".& 	c #110F15",
"+& 	c #1D1C20",
"@& 	c #1D1C1F",
"#& 	c #353333",
"$& 	c #53514E",
"%& 	c #5A5954",
"&& 	c #57554F",
"*& 	c #66625B",
"=& 	c #656057",
"-& 	c #656056",
";& 	c #645E55",
">& 	c #635C54",
",& 	c #5E574F",
"'& 	c #5B544C",
")& 	c #5A544C",
"!& 	c #5D574F",
"~& 	c #5F5951",
"{& 	c #5D5750",
"]& 	c #5E5952",
"^& 	c #69655D",
"/& 	c #6D6861",
"(& 	c #6F6A64",
"_& 	c #63605A",
":& 	c #524F4A",
"<& 	c #2D2B2B",
"[& 	c #242324",
"}& 	c #242326",
"|& 	c #2E2D2F",
"1& 	c #363434",
"2& 	c #3A3734",
"3& 	c #45423D",
"4& 	c #4D4943",
"5& 	c #4F4D47",
"6& 	c #464541",
"7& 	c #383736",
"8& 	c #353533",
"9& 	c #3B3937",
"0& 	c #3B3835",
"a& 	c #393733",
"b& 	c #43423E",
"c& 	c #4C4A48",
"d& 	c #484645",
"e& 	c #3A3937",
"f& 	c #211F1D",
"g& 	c #020203",
"h& 	c #010002",
"i& 	c #131216",
"j& 	c #1E1D22",
"k& 	c #1E1D23",
"l& 	c #1E1E21",
"m& 	c #1B1B1D",
"n& 	c #141517",
"o& 	c #121315",
"p& 	c #1A1A1B",
"q& 	c #221F22",
"r& 	c #2D2C2D",
"s& 	c #212023",
"t& 	c #131316",
"u& 	c #111114",
"v& 	c #302E2F",
"w& 	c #45413E",
"x& 	c #4A4542",
"y& 	c #56514C",
"z& 	c #5A5550",
"A& 	c #58544F",
"B& 	c #56534F",
"C& 	c #413F3C",
"D& 	c #3A3A36",
"E& 	c #484743",
"F& 	c #524F4C",
"G& 	c #55534F",
"H& 	c #4F4C48",
"I& 	c #504D47",
"J& 	c #514C48",
"K& 	c #4F4B49",
"L& 	c #454241",
"M& 	c #3E3C3B",
"N& 	c #373635",
"O& 	c #3A3938",
"P& 	c #3D3B3D",
"Q& 	c #403E3F",
"R& 	c #3C3937",
"S& 	c #3F3C38",
"T& 	c #3A3533",
"U& 	c #2F2A2A",
"V& 	c #231F1F",
"W& 	c #1E1B1B",
"X& 	c #120F11",
"Y& 	c #2B2828",
"Z& 	c #312D2B",
"`& 	c #312E2B",
" * 	c #2D2A27",
".* 	c #2B2926",
"+* 	c #2B2A29",
"@* 	c #2D2D2C",
"#* 	c #2A2A2A",
"$* 	c #292A29",
"%* 	c #282929",
"&* 	c #272726",
"** 	c #252324",
"=* 	c #383632",
"-* 	c #4D4A46",
";* 	c #514D47",
">* 	c #4A463F",
",* 	c #423E38",
"'* 	c #3B3935",
")* 	c #393734",
"!* 	c #393836",
"~* 	c #333331",
"{* 	c #2B2B2B",
"]* 	c #2C2C2C",
"^* 	c #1C1C1E",
"/* 	c #19191A",
"(* 	c #161616",
"_* 	c #151414",
":* 	c #212121",
"<* 	c #3F3F3F",
"[* 	c #515151",
"}* 	c #424243",
"|* 	c #0D0B0E",
"1* 	c #040306",
"2* 	c #030103",
"3* 	c #040203",
"4* 	c #020102",
"5* 	c #030203",
"6* 	c #030303",
"7* 	c #050505",
"8* 	c #0C0C0C",
"9* 	c #0C0D0D",
"0* 	c #121313",
"a* 	c #161818",
"b* 	c #1E2020",
"c* 	c #1E2121",
"d* 	c #1F2222",
"e* 	c #1C1F20",
"f* 	c #1C1E1F",
"g* 	c #1A1B1C",
"h* 	c #1E1F21",
"i* 	c #1F1F22",
"j* 	c #1B1B1F",
"k* 	c #16161B",
"l* 	c #141319",
"m* 	c #131219",
"n* 	c #121119",
"o* 	c #0E0D14",
"p* 	c #0E0E13",
"q* 	c #0C0B11",
"r* 	c #0A0A0E",
"s* 	c #060509",
"t* 	c #060608",
"u* 	c #040305",
"v* 	c #080608",
"w* 	c #0C0A0B",
"x* 	c #1C1A1A",
"y* 	c #5D5956",
"z* 	c #78736D",
"A* 	c #78726A",
"B* 	c #7E786F",
"C* 	c #A59E94",
"D* 	c #C3BDB0",
"E* 	c #C3BEB0",
"F* 	c #9D978E",
"G* 	c #635F59",
"H* 	c #4F4F4D",
"I* 	c #424241",
"J* 	c #141419",
"K* 	c #030307",
"L* 	c #080708",
"M* 	c #0B0A0B",
"N* 	c #090709",
"O* 	c #121014",
"P* 	c #222125",
"Q* 	c #232326",
"R* 	c #202022",
"S* 	c #282727",
"T* 	c #373634",
"U* 	c #3F3F3B",
"V* 	c #323230",
"W* 	c #29282B",
"X* 	c #464441",
"Y* 	c #615E59",
"Z* 	c #6A6760",
"`* 	c #615D57",
" = 	c #474440",
".= 	c #2F2D2B",
"+= 	c #272625",
"@= 	c #21201F",
"#= 	c #1C1B1D",
"$= 	c #1D1B1D",
"%= 	c #1E1D1D",
"&= 	c #252422",
"*= 	c #252421",
"== 	c #242321",
"-= 	c #1B191C",
";= 	c #171518",
">= 	c #161416",
",= 	c #141215",
"'= 	c #141315",
")= 	c #151517",
"!= 	c #171719",
"~= 	c #19181B",
"{= 	c #1B181D",
"]= 	c #19171B",
"^= 	c #17151A",
"/= 	c #151419",
"(= 	c #111116",
"_= 	c #131218",
":= 	c #151318",
"<= 	c #171619",
"[= 	c #19181A",
"}= 	c #373534",
"|= 	c #3C3A38",
"1= 	c #3B3936",
"2= 	c #393935",
"3= 	c #333431",
"4= 	c #313230",
"5= 	c #353734",
"6= 	c #373836",
"7= 	c #262727",
"8= 	c #27282A",
"9= 	c #222225",
"0= 	c #17171A",
"a= 	c #111112",
"b= 	c #3D3939",
"c= 	c #534F48",
"d= 	c #45433D",
"e= 	c #2B2A26",
"f= 	c #1D1C1B",
"g= 	c #141314",
"h= 	c #141415",
"i= 	c #0C0C0E",
"j= 	c #0B0A0E",
"k= 	c #0B090F",
"l= 	c #131117",
"m= 	c #1C1A1F",
"n= 	c #1E1D21",
"o= 	c #333131",
"p= 	c #4D4C4A",
"q= 	c #504E4A",
"r= 	c #484540",
"s= 	c #535049",
"t= 	c #69635A",
"u= 	c #686258",
"v= 	c #666157",
"w= 	c #655F56",
"x= 	c #605A50",
"y= 	c #5D564D",
"z= 	c #5C564D",
"A= 	c #5E5850",
"B= 	c #5E5951",
"C= 	c #5F5A53",
"D= 	c #5F5A52",
"E= 	c #5D5952",
"F= 	c #656059",
"G= 	c #6B675F",
"H= 	c #716D65",
"I= 	c #716D66",
"J= 	c #6F6B65",
"K= 	c #605C58",
"L= 	c #2F2C2A",
"M= 	c #201F1E",
"N= 	c #1A1819",
"O= 	c #201E21",
"P= 	c #242224",
"Q= 	c #222024",
"R= 	c #201F22",
"S= 	c #262423",
"T= 	c #393633",
"U= 	c #2B2B2C",
"V= 	c #262728",
"W= 	c #2C2C2A",
"X= 	c #33322F",
"Y= 	c #3C3A36",
"Z= 	c #514F4D",
"`= 	c #484845",
" - 	c #373736",
".- 	c #0A0909",
"+- 	c #212024",
"@- 	c #1F1E1F",
"#- 	c #171617",
"$- 	c #0E0F11",
"%- 	c #07070A",
"&- 	c #08080A",
"*- 	c #0B090B",
"=- 	c #131111",
"-- 	c #151415",
";- 	c #121215",
">- 	c #141416",
",- 	c #2A2827",
"'- 	c #292624",
")- 	c #2D2825",
"!- 	c #3F3A36",
"~- 	c #524C47",
"{- 	c #59544F",
"]- 	c #56514D",
"^- 	c #55514D",
"/- 	c #4D4A47",
"(- 	c #3F3E3C",
"_- 	c #30302D",
":- 	c #363632",
"<- 	c #484542",
"[- 	c #4A4744",
"}- 	c #44403E",
"|- 	c #232020",
"1- 	c #1C1B1B",
"2- 	c #33302E",
"3- 	c #322E2C",
"4- 	c #34302C",
"5- 	c #302B28",
"6- 	c #2A2424",
"7- 	c #211C1D",
"8- 	c #1A1618",
"9- 	c #110E10",
"0- 	c #0E0A0D",
"a- 	c #151113",
"b- 	c #241F20",
"c- 	c #292423",
"d- 	c #2A2624",
"e- 	c #252120",
"f- 	c #23201F",
"g- 	c #1E1C1C",
"h- 	c #191819",
"i- 	c #131315",
"j- 	c #131215",
"k- 	c #0D0B0D",
"l- 	c #0E0B0B",
"m- 	c #24211F",
"n- 	c #44403D",
"o- 	c #4F4B46",
"p- 	c #4A473F",
"q- 	c #423F38",
"r- 	c #3F3C36",
"s- 	c #2C2C2D",
"t- 	c #0C0B0E",
"u- 	c #060406",
"v- 	c #090808",
"w- 	c #0B090A",
"x- 	c #444445",
"y- 	c #535354",
"z- 	c #4A494B",
"A- 	c #100F11",
"B- 	c #0C0B0D",
"C- 	c #0A0A0C",
"D- 	c #010103",
"E- 	c #010101",
"F- 	c #010203",
"G- 	c #030405",
"H- 	c #020304",
"I- 	c #030505",
"J- 	c #020305",
"K- 	c #030507",
"L- 	c #050509",
"M- 	c #08080C",
"N- 	c #0A0A0F",
"O- 	c #08080F",
"P- 	c #090910",
"Q- 	c #06060E",
"R- 	c #06050E",
"S- 	c #03030A",
"T- 	c #030309",
"U- 	c #010105",
"V- 	c #030306",
"W- 	c #07070B",
"X- 	c #101014",
"Y- 	c #0D0D10",
"Z- 	c #0E0E10",
"`- 	c #363636",
" ; 	c #615E5B",
".; 	c #7E7972",
"+; 	c #817B72",
"@; 	c #A7A196",
"#; 	c #C5C0B0",
"$; 	c #C5BFB0",
"%; 	c #9E998D",
"&; 	c #646058",
"*; 	c #514F4A",
"=; 	c #535350",
"-; 	c #464543",
";; 	c #343334",
">; 	c #1E1C21",
",; 	c #020206",
"'; 	c #020205",
"); 	c #0A080A",
"!; 	c #070708",
"~; 	c #060507",
"{; 	c #141216",
"]; 	c #222122",
"^; 	c #2E2E2B",
"/; 	c #252425",
"(; 	c #2A2927",
"_; 	c #5E5B57",
":; 	c #67635E",
"<; 	c #423F3B",
"[; 	c #181617",
"}; 	c #1A1818",
"|; 	c #1B1818",
"1; 	c #1F1E1C",
"2; 	c #22211F",
"3; 	c #1A181A",
"4; 	c #151215",
"5; 	c #161517",
"6; 	c #1A171B",
"7; 	c #19171A",
"8; 	c #18161A",
"9; 	c #141317",
"0; 	c #0F0F14",
"a; 	c #141217",
"b; 	c #3C3A37",
"c; 	c #343531",
"d; 	c #32322F",
"e; 	c #353633",
"f; 	c #373735",
"g; 	c #262726",
"h; 	c #252527",
"i; 	c #111214",
"j; 	c #252224",
"k; 	c #373133",
"l; 	c #504D48",
"m; 	c #54504A",
"n; 	c #56504A",
"o; 	c #443F3B",
"p; 	c #252220",
"q; 	c #151312",
"r; 	c #0A090B",
"s; 	c #0B0B0D",
"t; 	c #121117",
"u; 	c #1C1B20",
"v; 	c #1C1B1E",
"w; 	c #2E2C2D",
"x; 	c #43403F",
"y; 	c #464341",
"z; 	c #3C3934",
"A; 	c #49453F",
"B; 	c #676056",
"C; 	c #676156",
"D; 	c #686257",
"E; 	c #625C52",
"F; 	c #5D574D",
"G; 	c #5A554C",
"H; 	c #5C5750",
"I; 	c #5C5751",
"J; 	c #5C5952",
"K; 	c #5B5852",
"L; 	c #5B5752",
"M; 	c #625F58",
"N; 	c #67645D",
"O; 	c #6C6A62",
"P; 	c #6D6A63",
"Q; 	c #5B5853",
"R; 	c #474340",
"S; 	c #1F1D21",
"T; 	c #1E1B1F",
"U; 	c #1F1D20",
"V; 	c #232124",
"W; 	c #221F24",
"X; 	c #201F23",
"Y; 	c #222224",
"Z; 	c #222123",
"`; 	c #232222",
" > 	c #373533",
".> 	c #28292A",
"+> 	c #242527",
"@> 	c #262828",
"#> 	c #2E2F2B",
"$> 	c #3E3D3C",
"%> 	c #020202",
"&> 	c #0F0E12",
"*> 	c #161516",
"=> 	c #0D0D0F",
"-> 	c #0A0A0B",
";> 	c #100F0F",
">> 	c #121112",
",> 	c #282526",
"'> 	c #24201F",
")> 	c #25211E",
"!> 	c #38332F",
"~> 	c #4E4944",
"{> 	c #554F4B",
"]> 	c #524D4A",
"^> 	c #4B4844",
"/> 	c #3E3A38",
"(> 	c #454440",
"_> 	c #3F3D3B",
":> 	c #2D2C2A",
"<> 	c #1B1B1A",
"[> 	c #1C1C1D",
"}> 	c #282826",
"|> 	c #2A2726",
"1> 	c #2C2926",
"2> 	c #2F2A25",
"3> 	c #2E2723",
"4> 	c #282220",
"5> 	c #20191A",
"6> 	c #1A1516",
"7> 	c #130E11",
"8> 	c #0E0A0C",
"9> 	c #211B1D",
"0> 	c #272121",
"a> 	c #272221",
"b> 	c #262020",
"c> 	c #252020",
"d> 	c #101012",
"e> 	c #111113",
"f> 	c #100F12",
"g> 	c #110F13",
"h> 	c #0B090D",
"i> 	c #0B080A",
"j> 	c #221E1D",
"k> 	c #4B4743",
"l> 	c #47443D",
"m> 	c #3E3A35",
"n> 	c #3B3834",
"o> 	c #32312F",
"p> 	c #2A2928",
"q> 	c #2B2A2B",
"r> 	c #2B292B",
"s> 	c #0B0A0A",
"t> 	c #0C0A0C",
"u> 	c #3C3B3D",
"v> 	c #49494A",
"w> 	c #444345",
"x> 	c #0B0A0C",
"y> 	c #010000",
"z> 	c #010102",
"A> 	c #050508",
"B> 	c #08080B",
"C> 	c #07070C",
"D> 	c #09090E",
"E> 	c #070710",
"F> 	c #070811",
"G> 	c #03030B",
"H> 	c #010106",
"I> 	c #000003",
"J> 	c #000004",
"K> 	c #121317",
"L> 	c #111115",
"M> 	c #0F0F13",
"N> 	c #0E0E12",
"O> 	c #0C0C10",
"P> 	c #363637",
"Q> 	c #3B3B3D",
"R> 	c #383738",
"S> 	c #605E5C",
"T> 	c #7E7974",
"U> 	c #7B766E",
"V> 	c #807A71",
"W> 	c #A59F94",
"X> 	c #C2BCAE",
"Y> 	c #C3BDAE",
"Z> 	c #C2BCAD",
"`> 	c #9D978B",
" , 	c #625E57",
"., 	c #52504B",
"+, 	c #565653",
"@, 	c #474645",
"#, 	c #333133",
"$, 	c #323133",
"%, 	c #1C1A1E",
"&, 	c #121116",
"*, 	c #07080C",
"=, 	c #07060B",
"-, 	c #0B0B0E",
";, 	c #100F10",
">, 	c #212124",
",, 	c #222324",
"', 	c #1E1F20",
"), 	c #242423",
"!, 	c #3F3F3C",
"~, 	c #3D3C3A",
"{, 	c #2D2D2D",
"], 	c #2E2D2D",
"^, 	c #303030",
"/, 	c #323130",
"(, 	c #333330",
"_, 	c #5F5C57",
":, 	c #484641",
"<, 	c #222222",
"[, 	c #1C1A1B",
"}, 	c #201E1D",
"|, 	c #211F1E",
"1, 	c #262422",
"2, 	c #272523",
"3, 	c #1F1C1D",
"4, 	c #1B181A",
"5, 	c #181618",
"6, 	c #181718",
"7, 	c #1B191B",
"8, 	c #191719",
"9, 	c #101013",
"0, 	c #121115",
"a, 	c #161419",
"b, 	c #201E22",
"c, 	c #1F1C1F",
"d, 	c #262425",
"e, 	c #353332",
"f, 	c #3E3D3A",
"g, 	c #3D3C38",
"h, 	c #363733",
"i, 	c #373834",
"j, 	c #363734",
"k, 	c #383936",
"l, 	c #343432",
"m, 	c #201F20",
"n, 	c #222223",
"o, 	c #1A1A1D",
"p, 	c #272425",
"q, 	c #312D2C",
"r, 	c #605C54",
"s, 	c #57534C",
"t, 	c #403C38",
"u, 	c #23211E",
"v, 	c #131211",
"w, 	c #09080A",
"x, 	c #0C0B0F",
"y, 	c #0D0B11",
"z, 	c #141218",
"A, 	c #403F3C",
"B, 	c #383531",
"C, 	c #47433D",
"D, 	c #635F56",
"E, 	c #655E52",
"F, 	c #665F54",
"G, 	c #676055",
"H, 	c #60594F",
"I, 	c #565047",
"J, 	c #4A453C",
"K, 	c #45413A",
"L, 	c #423E39",
"M, 	c #423F3C",
"N, 	c #45423F",
"O, 	c #494742",
"P, 	c #4E4A46",
"Q, 	c #54514C",
"R, 	c #55514B",
"S, 	c #54514B",
"T, 	c #4A4743",
"U, 	c #272525",
"V, 	c #1B1B1C",
"W, 	c #1F1C20",
"X, 	c #1E1C1F",
"Y, 	c #1F1E20",
"Z, 	c #232126",
"`, 	c #262629",
" ' 	c #262628",
".' 	c #242323",
"+' 	c #3C3B39",
"@' 	c #3D3D3B",
"#' 	c #353635",
"$' 	c #2B2D2E",
"%' 	c #26282A",
"&' 	c #282A2B",
"*' 	c #292929",
"=' 	c #2D2D2B",
"-' 	c #363634",
";' 	c #363535",
">' 	c #191A19",
",' 	c #0D0E0F",
"'' 	c #0C0D0E",
")' 	c #171616",
"!' 	c #191717",
"~' 	c #1E1E20",
"{' 	c #272423",
"]' 	c #2B2723",
"^' 	c #3E3934",
"/' 	c #524D48",
"(' 	c #54504B",
"_' 	c #47433F",
":' 	c #34312E",
"<' 	c #302F2B",
"[' 	c #333230",
"}' 	c #353432",
"|' 	c #3A3A37",
"1' 	c #242523",
"2' 	c #262625",
"3' 	c #282725",
"4' 	c #282624",
"5' 	c #2C2925",
"6' 	c #342D28",
"7' 	c #332B26",
"8' 	c #2D2522",
"9' 	c #231C1B",
"0' 	c #1F1A1A",
"a' 	c #171214",
"b' 	c #120E10",
"c' 	c #231E1E",
"d' 	c #292422",
"e' 	c #282322",
"f' 	c #282423",
"g' 	c #201D1D",
"h' 	c #0F0E11",
"i' 	c #0C0A0E",
"j' 	c #0F0D0F",
"k' 	c #413E3C",
"l' 	c #494641",
"m' 	c #3B3934",
"n' 	c #3A3833",
"o' 	c #383631",
"p' 	c #3A3934",
"q' 	c #2B2A28",
"r' 	c #121212",
"s' 	c #131213",
"t' 	c #2C2D2D",
"u' 	c #333334",
"v' 	c #343436",
"w' 	c #0F0F11",
"x' 	c #040407",
"y' 	c #030305",
"z' 	c #040303",
"A' 	c #050504",
"B' 	c #050404",
"C' 	c #080706",
"D' 	c #0F100E",
"E' 	c #1A1A17",
"F' 	c #1E1E1A",
"G' 	c #21211C",
"H' 	c #1B1B17",
"I' 	c #151511",
"J' 	c #100F0C",
"K' 	c #19191B",
"L' 	c #18191C",
"M' 	c #131419",
"N' 	c #121319",
"O' 	c #101118",
"P' 	c #111219",
"Q' 	c #0A0B11",
"R' 	c #020207",
"S' 	c #010104",
"T' 	c #121318",
"U' 	c #0C0D11",
"V' 	c #0D0D11",
"W' 	c #1C1C1F",
"X' 	c #363738",
"Y' 	c #3C3C3D",
"Z' 	c #373837",
"`' 	c #5F5D5B",
" ) 	c #7F796F",
".) 	c #A59F93",
"+) 	c #C1BBAD",
"@) 	c #C2BDAD",
"#) 	c #C1BDAC",
"$) 	c #9E9A8C",
"%) 	c #636058",
"&) 	c #53524E",
"*) 	c #585957",
"=) 	c #484847",
"-) 	c #18161B",
";) 	c #131217",
">) 	c #0C0C11",
",) 	c #1D1E20",
"') 	c #4A4A46",
")) 	c #4C4C48",
"!) 	c #494946",
"~) 	c #40403E",
"{) 	c #3B3B3B",
"]) 	c #3F3E3E",
"^) 	c #3F3F3E",
"/) 	c #434241",
"() 	c #444341",
"_) 	c #4F4D4A",
":) 	c #5F5E58",
"<) 	c #66655E",
"[) 	c #62605A",
"}) 	c #4B4845",
"|) 	c #302F2E",
"1) 	c #252321",
"2) 	c #282524",
"3) 	c #181517",
"4) 	c #1A171A",
"5) 	c #161417",
"6) 	c #19181C",
"7) 	c #1D1B20",
"8) 	c #1E1C20",
"9) 	c #1D1A1F",
"0) 	c #232023",
"a) 	c #333031",
"b) 	c #3B3938",
"c) 	c #3C3B37",
"d) 	c #373734",
"e) 	c #363633",
"f) 	c #343431",
"g) 	c #393936",
"h) 	c #212021",
"i) 	c #1E1B1E",
"j) 	c #35312F",
"k) 	c #4A4641",
"l) 	c #4F4C46",
"m) 	c #363430",
"n) 	c #1B1917",
"o) 	c #0F0D10",
"p) 	c #0D0B10",
"q) 	c #0F0D12",
"r) 	c #131118",
"s) 	c #1E1C22",
"t) 	c #282627",
"u) 	c #332F2C",
"v) 	c #433E3A",
"w) 	c #5F584D",
"x) 	c #60594D",
"y) 	c #665D54",
"z) 	c #615950",
"A) 	c #544D45",
"B) 	c #3F3A33",
"C) 	c #322D29",
"D) 	c #282626",
"E) 	c #292729",
"F) 	c #34322F",
"G) 	c #3E3A37",
"H) 	c #373332",
"I) 	c #302D2C",
"J) 	c #222021",
"K) 	c #1B191E",
"L) 	c #1A191F",
"M) 	c #262429",
"N) 	c #272629",
"O) 	c #242325",
"P) 	c #3D3C3B",
"Q) 	c #3C3C3B",
"R) 	c #363737",
"S) 	c #2C2E30",
"T) 	c #26292B",
"U) 	c #27292B",
"V) 	c #292A2B",
"W) 	c #2C2D2C",
"X) 	c #2A292C",
"Y) 	c #151617",
"Z) 	c #232226",
"`) 	c #1F1E23",
" ! 	c #211F24",
".! 	c #0B0B0C",
"+! 	c #101011",
"@! 	c #1C1C1C",
"#! 	c #1D1B1A",
"$! 	c #302C29",
"%! 	c #47413E",
"&! 	c #56504C",
"*! 	c #58524E",
"=! 	c #544F4B",
"-! 	c #433F3B",
";! 	c #2E2C28",
">! 	c #3F3D3A",
",! 	c #3C3B38",
"'! 	c #3F3E3B",
")! 	c #282828",
"!! 	c #242525",
"~! 	c #242524",
"{! 	c #252423",
"]! 	c #282625",
"^! 	c #272522",
"/! 	c #2C2924",
"(! 	c #352F29",
"_! 	c #3A312B",
":! 	c #372E28",
"<! 	c #2E2522",
"[! 	c #201A1A",
"}! 	c #1A1517",
"|! 	c #181416",
"1! 	c #221C1D",
"2! 	c #251F1F",
"3! 	c #25201F",
"4! 	c #262121",
"5! 	c #1F1B1B",
"6! 	c #09080B",
"7! 	c #07060A",
"8! 	c #09080C",
"9! 	c #08070C",
"0! 	c #09070B",
"a! 	c #100E11",
"b! 	c #282426",
"c! 	c #3E3A3A",
"d! 	c #443F3C",
"e! 	c #433F3A",
"f! 	c #413D37",
"g! 	c #3F3B35",
"h! 	c #3B3833",
"i! 	c #3A3732",
"j! 	c #3A3733",
"k! 	c #2A2829",
"l! 	c #121214",
"m! 	c #131115",
"n! 	c #1B1A1D",
"o! 	c #19191C",
"p! 	c #0F0F12",
"q! 	c #0E0D0E",
"r! 	c #121111",
"s! 	c #121312",
"t! 	c #121211",
"u! 	c #191917",
"v! 	c #191816",
"w! 	c #5C5B55",
"x! 	c #68665F",
"y! 	c #6D6A61",
"z! 	c #605C53",
"A! 	c #4E4A41",
"B! 	c #3D3A32",
"C! 	c #3B3832",
"D! 	c #3E3D38",
"E! 	c #303132",
"F! 	c #25262A",
"G! 	c #222328",
"H! 	c #1F2127",
"I! 	c #1D1F25",
"J! 	c #111217",
"K! 	c #0D0E13",
"L! 	c #0A0A10",
"M! 	c #0D0E12",
"N! 	c #1B1C1F",
"O! 	c #363638",
"P! 	c #3B3C3D",
"Q! 	c #5B5957",
"R! 	c #7A7470",
"S! 	c #777069",
"T! 	c #7B746A",
"U! 	c #A1998E",
"V! 	c #BFB7A9",
"W! 	c #C0BAA9",
"X! 	c #C1BCAB",
"Y! 	c #9D988C",
"Z! 	c #625E58",
"`! 	c #51504D",
" ~ 	c #575856",
".~ 	c #464646",
"+~ 	c #302F31",
"@~ 	c #2F2F32",
"#~ 	c #1A181D",
"$~ 	c #17171B",
"%~ 	c #101015",
"&~ 	c #100F14",
"*~ 	c #151417",
"=~ 	c #1B1B1E",
"-~ 	c #1F2021",
";~ 	c #262626",
">~ 	c #4B4C48",
",~ 	c #4E4E4A",
"'~ 	c #444442",
")~ 	c #3E3E3E",
"!~ 	c #424342",
"~~ 	c #434443",
"{~ 	c #474846",
"]~ 	c #4F4E4B",
"^~ 	c #565752",
"/~ 	c #5A5B56",
"(~ 	c #565651",
"_~ 	c #272627",
":~ 	c #232022",
"<~ 	c #201E1E",
"[~ 	c #22201E",
"}~ 	c #2A2825",
"|~ 	c #2B2826",
"1~ 	c #292725",
"2~ 	c #151315",
"3~ 	c #151316",
"4~ 	c #141318",
"5~ 	c #19161C",
"6~ 	c #1A171C",
"7~ 	c #242124",
"8~ 	c #343233",
"9~ 	c #3B3A39",
"0~ 	c #3B3A38",
"a~ 	c #383835",
"b~ 	c #383935",
"c~ 	c #1F1F1F",
"d~ 	c #1D1D21",
"e~ 	c #1B1A1F",
"f~ 	c #1A191D",
"g~ 	c #413D3A",
"h~ 	c #2E2D29",
"i~ 	c #242327",
"j~ 	c #0E0D13",
"k~ 	c #0C0A11",
"l~ 	c #141219",
"m~ 	c #312E2A",
"n~ 	c #5F5C53",
"o~ 	c #5E584E",
"p~ 	c #5E584C",
"q~ 	c #655F53",
"r~ 	c #635D53",
"s~ 	c #575148",
"t~ 	c #403B35",
"u~ 	c #312D29",
"v~ 	c #2C2B2C",
"w~ 	c #343330",
"x~ 	c #3D3B38",
"y~ 	c #3D3937",
"z~ 	c #332F2E",
"A~ 	c #302D2B",
"B~ 	c #201D21",
"C~ 	c #1E1A1E",
"D~ 	c #161519",
"E~ 	c #19181E",
"F~ 	c #25252A",
"G~ 	c #252525",
"H~ 	c #3E3E3C",
"I~ 	c #353736",
"J~ 	c #2D3030",
"K~ 	c #282B2C",
"L~ 	c #272B2C",
"M~ 	c #2A2C2C",
"N~ 	c #2C2E2E",
"O~ 	c #2D2E2F",
"P~ 	c #323334",
"Q~ 	c #2D2D2F",
"R~ 	c #18191A",
"S~ 	c #252528",
"T~ 	c #252428",
"U~ 	c #232225",
"V~ 	c #131312",
"W~ 	c #0B0C0C",
"X~ 	c #111213",
"Y~ 	c #242121",
"Z~ 	c #262222",
"`~ 	c #211E1D",
" { 	c #201D1C",
".{ 	c #201D20",
"+{ 	c #4C4743",
"@{ 	c #534F4B",
"#{ 	c #302E29",
"${ 	c #363532",
"%{ 	c #4B4B48",
"&{ 	c #4D4C48",
"*{ 	c #494944",
"={ 	c #3C3C3A",
"-{ 	c #2D2E2E",
";{ 	c #292B2A",
">{ 	c #272927",
",{ 	c #272624",
"'{ 	c #292723",
"){ 	c #2E2A24",
"!{ 	c #37322A",
"~{ 	c #3E362E",
"{{ 	c #3A322B",
"]{ 	c #322A25",
"^{ 	c #26201E",
"/{ 	c #211C1C",
"({ 	c #1D191B",
"_{ 	c #1B171A",
":{ 	c #191418",
"<{ 	c #1E191A",
"[{ 	c #211D1C",
"}{ 	c #201C1B",
"|{ 	c #211D1D",
"1{ 	c #1D1919",
"2{ 	c #110E0F",
"3{ 	c #050407",
"4{ 	c #040206",
"5{ 	c #050307",
"6{ 	c #040307",
"7{ 	c #050408",
"8{ 	c #070509",
"9{ 	c #131014",
"0{ 	c #2A2729",
"a{ 	c #3F3C39",
"b{ 	c #413D39",
"c{ 	c #3F3B36",
"d{ 	c #3C3A35",
"e{ 	c #363431",
"f{ 	c #1B1A1C",
"g{ 	c #201F21",
"h{ 	c #1F1F20",
"i{ 	c #050406",
"j{ 	c #030204",
"k{ 	c #151518",
"l{ 	c #1D1C1D",
"m{ 	c #232122",
"n{ 	c #252524",
"o{ 	c #2E2E2D",
"p{ 	c #5E5C58",
"q{ 	c #908E87",
"r{ 	c #9E9B92",
"s{ 	c #A4A094",
"t{ 	c #968F85",
"u{ 	c #7D786C",
"v{ 	c #615D51",
"w{ 	c #59564B",
"x{ 	c #5B5950",
"y{ 	c #5A5952",
"z{ 	c #41413F",
"A{ 	c #313233",
"B{ 	c #2B2C2F",
"C{ 	c #27282D",
"D{ 	c #25262C",
"E{ 	c #131418",
"F{ 	c #010003",
"G{ 	c #000002",
"H{ 	c #0E0F13",
"I{ 	c #0B0B10",
"J{ 	c #0D0D12",
"K{ 	c #1C1D1F",
"L{ 	c #373839",
"M{ 	c #3C3D3E",
"N{ 	c #79746D",
"O{ 	c #767066",
"P{ 	c #797266",
"Q{ 	c #9F9789",
"R{ 	c #C0B9A7",
"S{ 	c #C4BEAA",
"T{ 	c #C4BEAC",
"U{ 	c #9F9A8D",
"V{ 	c #626058",
"W{ 	c #51534E",
"X{ 	c #565A58",
"Y{ 	c #454545",
"Z{ 	c #1A171D",
"`{ 	c #17171C",
" ] 	c #0E0D12",
".] 	c #211F22",
"+] 	c #181719",
"@] 	c #373535",
"#] 	c #4C4D4A",
"$] 	c #494B49",
"%] 	c #404040",
"&] 	c #383A3A",
"*] 	c #3B3C3C",
"=] 	c #3E3F3F",
"-] 	c #3D3F3E",
";] 	c #404240",
">] 	c #3E403F",
",] 	c #3B3C3B",
"'] 	c #343535",
")] 	c #262527",
"!] 	c #292625",
"~] 	c #282424",
"{] 	c #161316",
"]] 	c #151216",
"^] 	c #0E0C10",
"/] 	c #131116",
"(] 	c #141118",
"_] 	c #17151B",
":] 	c #17141A",
"<] 	c #201C22",
"[] 	c #322F33",
"}] 	c #363635",
"|] 	c #393937",
"1] 	c #1B1B20",
"2] 	c #16151C",
"3] 	c #14141A",
"4] 	c #18181D",
"5] 	c #19181D",
"6] 	c #2C2A29",
"7] 	c #2A2A27",
"8] 	c #3A3B3D",
"9] 	c #3A3A3E",
"0] 	c #2E2F33",
"a] 	c #16161C",
"b] 	c #0C0C12",
"c] 	c #0A0910",
"d] 	c #121118",
"e] 	c #1F1E24",
"f] 	c #2C2A2A",
"g] 	c #2D2B2A",
"h] 	c #2B2825",
"i] 	c #403B38",
"j] 	c #5E584F",
"k] 	c #615B4F",
"l] 	c #645D53",
"m] 	c #676257",
"n] 	c #615A51",
"o] 	c #554F47",
"p] 	c #3F3A35",
"q] 	c #2F2B28",
"r] 	c #262427",
"s] 	c #2A282A",
"t] 	c #302E2D",
"u] 	c #44433F",
"v] 	c #2F2D2C",
"w] 	c #2A2828",
"x] 	c #262326",
"y] 	c #211E22",
"z] 	c #211D21",
"A] 	c #201C20",
"B] 	c #232329",
"C] 	c #252529",
"D] 	c #383938",
"E] 	c #393A39",
"F] 	c #323433",
"G] 	c #2C2E2F",
"H] 	c #282A2C",
"I] 	c #292C2D",
"J] 	c #282B2D",
"K] 	c #2A2C2E",
"L] 	c #2D2F30",
"M] 	c #303133",
"N] 	c #323235",
"O] 	c #2C2D30",
"P] 	c #131313",
"Q] 	c #0A0C0C",
"R] 	c #221E1F",
"S] 	c #252221",
"T] 	c #262220",
"U] 	c #2A2524",
"V] 	c #262122",
"W] 	c #342F2F",
"X] 	c #4A4543",
"Y] 	c #55514E",
"Z] 	c #4D4946",
"`] 	c #2C2826",
" ^ 	c #52514D",
".^ 	c #514F4B",
"+^ 	c #4D4C49",
"@^ 	c #454443",
"#^ 	c #323332",
"$^ 	c #2B2C2C",
"%^ 	c #292A2A",
"&^ 	c #282521",
"*^ 	c #302B26",
"=^ 	c #36302A",
"-^ 	c #3A332B",
";^ 	c #383029",
">^ 	c #312A24",
",^ 	c #272220",
"'^ 	c #221E1E",
")^ 	c #1D191C",
"!^ 	c #211D1F",
"~^ 	c #201C1E",
"{^ 	c #231F20",
"]^ 	c #252121",
"^^ 	c #131011",
"/^ 	c #0A0709",
"(^ 	c #0A070A",
"_^ 	c #0B090C",
":^ 	c #0B090E",
"<^ 	c #141116",
"[^ 	c #272427",
"}^ 	c #343131",
"|^ 	c #393532",
"1^ 	c #3A3633",
"2^ 	c #3F3B37",
"3^ 	c #3E3A36",
"4^ 	c #020103",
"5^ 	c #121016",
"6^ 	c #1E1E23",
"7^ 	c #19191E",
"8^ 	c #111013",
"9^ 	c #2B2829",
"0^ 	c #383633",
"a^ 	c #645E5C",
"b^ 	c #9C968F",
"c^ 	c #AAA49A",
"d^ 	c #AEA99A",
"e^ 	c #A29A8D",
"f^ 	c #878173",
"g^ 	c #696356",
"h^ 	c #5F594E",
"i^ 	c #615C52",
"j^ 	c #605D53",
"k^ 	c #54524C",
"l^ 	c #28272C",
"m^ 	c #26262B",
"n^ 	c #131317",
"o^ 	c #09070C",
"p^ 	c #121217",
"q^ 	c #09090F",
"r^ 	c #383839",
"s^ 	c #3D3C3E",
"t^ 	c #353434",
"u^ 	c #575551",
"v^ 	c #777068",
"w^ 	c #796F65",
"x^ 	c #7E7266",
"y^ 	c #A39687",
"z^ 	c #C6B9A7",
"A^ 	c #CBC0AD",
"B^ 	c #C9BEAC",
"C^ 	c #A19A8C",
"D^ 	c #615D56",
"E^ 	c #50514D",
"F^ 	c #515654",
"G^ 	c #3E4041",
"H^ 	c #2B2B2E",
"I^ 	c #1C191E",
"J^ 	c #1A191B",
"K^ 	c #1F1D1E",
"L^ 	c #2A2B2A",
"M^ 	c #333332",
"N^ 	c #41423F",
"O^ 	c #424341",
"P^ 	c #333535",
"Q^ 	c #292B2B",
"R^ 	c #262829",
"S^ 	c #2E2F30",
"T^ 	c #313334",
"U^ 	c #303233",
"V^ 	c #303232",
"W^ 	c #2B2D2D",
"X^ 	c #27292A",
"Y^ 	c #252729",
"Z^ 	c #262729",
"`^ 	c #211D1E",
" / 	c #242120",
"./ 	c #272323",
"+/ 	c #211E1F",
"@/ 	c #191618",
"#/ 	c #181519",
"$/ 	c #1C191D",
"%/ 	c #161319",
"&/ 	c #201D23",
"*/ 	c #28262A",
"=/ 	c #2A292B",
"-/ 	c #292728",
";/ 	c #30302E",
">/ 	c #2F2F2C",
",/ 	c #222226",
"'/ 	c #1C1D21",
")/ 	c #16171D",
"!/ 	c #15171D",
"~/ 	c #1A1B21",
"{/ 	c #1B1B21",
"]/ 	c #292927",
"^/ 	c #48494B",
"// 	c #44474A",
"(/ 	c #33363B",
"_/ 	c #0B0C12",
":/ 	c #111017",
"</ 	c #232227",
"[/ 	c #2B282A",
"}/ 	c #2C2929",
"|/ 	c #2A2625",
"1/ 	c #3D3936",
"2/ 	c #57534D",
"3/ 	c #575146",
"4/ 	c #5C554B",
"5/ 	c #514C45",
"6/ 	c #3D3935",
"7/ 	c #2F2B29",
"8/ 	c #242122",
"9/ 	c #221F20",
"0/ 	c #221F21",
"a/ 	c #242123",
"b/ 	c #2E2B2C",
"c/ 	c #33312F",
"d/ 	c #484642",
"e/ 	c #46453F",
"f/ 	c #383533",
"g/ 	c #353130",
"h/ 	c #2D292C",
"i/ 	c #231F23",
"j/ 	c #221E22",
"k/ 	c #18181C",
"l/ 	c #24242A",
"m/ 	c #26272B",
"n/ 	c #2E2E2F",
"o/ 	c #2D2E2D",
"p/ 	c #292B2D",
"q/ 	c #2A2D2E",
"r/ 	c #282C2D",
"s/ 	c #2B2E2F",
"t/ 	c #2C2F30",
"u/ 	c #2E3033",
"v/ 	c #353638",
"w/ 	c #2E3032",
"x/ 	c #030302",
"y/ 	c #010204",
"z/ 	c #030407",
"A/ 	c #181717",
"B/ 	c #131414",
"C/ 	c #1A1A19",
"D/ 	c #201C1C",
"E/ 	c #312C2A",
"F/ 	c #36302E",
"G/ 	c #302A2A",
"H/ 	c #252223",
"I/ 	c #272728",
"J/ 	c #403D3C",
"K/ 	c #494544",
"L/ 	c #363531",
"M/ 	c #292724",
"N/ 	c #444240",
"O/ 	c #484643",
"P/ 	c #41403F",
"Q/ 	c #303131",
"R/ 	c #252522",
"S/ 	c #262421",
"T/ 	c #2D2925",
"U/ 	c #332D28",
"V/ 	c #312B25",
"W/ 	c #2B2725",
"X/ 	c #312D2D",
"Y/ 	c #33302F",
"Z/ 	c #2A2725",
"`/ 	c #151211",
" ( 	c #161312",
".( 	c #191716",
"+( 	c #161418",
"@( 	c #252227",
"#( 	c #2A272A",
"$( 	c #292626",
"%( 	c #36322F",
"&( 	c #35322E",
"*( 	c #33302C",
"=( 	c #34322E",
"-( 	c #2E2C2A",
";( 	c #262524",
">( 	c #1C1C21",
",( 	c #1B1C21",
"'( 	c #16171C",
")( 	c #141519",
"!( 	c #2E2B2B",
"~( 	c #3B3735",
"{( 	c #37322F",
"]( 	c #3C3831",
"^( 	c #605951",
"/( 	c #8F8579",
"(( 	c #9E9384",
"_( 	c #A69C89",
":( 	c #9B907D",
"<( 	c #827966",
"[( 	c #645B4B",
"}( 	c #5B5245",
"|( 	c #605B50",
"1( 	c #56534A",
"2( 	c #494741",
"3( 	c #010001",
"4( 	c #101016",
"5( 	c #3C3C3C",
"6( 	c #414141",
"7( 	c #585550",
"8( 	c #736B62",
"9( 	c #75685E",
"0( 	c #766559",
"a( 	c #897868",
"b( 	c #9B8876",
"c( 	c #9C8A79",
"d( 	c #9B8C79",
"e( 	c #857C6C",
"f( 	c #505452",
"g( 	c #3C3E3E",
"h( 	c #171418",
"i( 	c #151317",
"j( 	c #312E2E",
"k( 	c #2C292A",
"l( 	c #232121",
"m( 	c #232123",
"n( 	c #29292A",
"o( 	c #2C2D2E",
"p( 	c #202123",
"q( 	c #292B2C",
"r( 	c #323435",
"s( 	c #2D2E30",
"t( 	c #232527",
"u( 	c #232528",
"v( 	c #1A1719",
"w( 	c #211E1E",
"x( 	c #252222",
"y( 	c #221E21",
"z( 	c #2C2B2D",
"A( 	c #2D2C2E",
"B( 	c #2D2A29",
"C( 	c #211E21",
"D( 	c #151217",
"E( 	c #1C181F",
"F( 	c #1E1B21",
"G( 	c #222221",
"H( 	c #212020",
"I( 	c #222120",
"J( 	c #21211F",
"K( 	c #202024",
"L( 	c #12131A",
"M( 	c #16191F",
"N( 	c #181A20",
"O( 	c #3D3F3F",
"P( 	c #47494C",
"Q( 	c #46484C",
"R( 	c #32353B",
"S( 	c #14151D",
"T( 	c #0A0B12",
"U( 	c #07070E",
"V( 	c #0F0E16",
"W( 	c #1F1D24",
"X( 	c #2E2B2D",
"Y( 	c #282527",
"Z( 	c #262221",
"`( 	c #2D2724",
" _ 	c #2B2621",
"._ 	c #37312B",
"+_ 	c #47413B",
"@_ 	c #453F3B",
"#_ 	c #3E3936",
"$_ 	c #292525",
"%_ 	c #232021",
"&_ 	c #262223",
"*_ 	c #2C2829",
"=_ 	c #302C2B",
"-_ 	c #34312F",
";_ 	c #3D3A37",
">_ 	c #3D3B36",
",_ 	c #393632",
"'_ 	c #3D3933",
")_ 	c #3D3832",
"!_ 	c #3C3733",
"~_ 	c #302B2C",
"{_ 	c #241F21",
"]_ 	c #221C1F",
"^_ 	c #282325",
"/_ 	c #2C282A",
"(_ 	c #29272A",
"__ 	c #2A2B2C",
":_ 	c #292A2C",
"<_ 	c #2A2D2F",
"[_ 	c #2E3133",
"}_ 	c #313336",
"|_ 	c #313236",
"1_ 	c #2F3134",
"2_ 	c #1F2023",
"3_ 	c #080808",
"4_ 	c #090909",
"5_ 	c #080809",
"6_ 	c #040508",
"7_ 	c #212222",
"8_ 	c #2C2726",
"9_ 	c #37302E",
"0_ 	c #393230",
"a_ 	c #332E2C",
"b_ 	c #242225",
"c_ 	c #29292C",
"d_ 	c #2E2E30",
"e_ 	c #393738",
"f_ 	c #31302F",
"g_ 	c #2F3031",
"h_ 	c #252523",
"i_ 	c #272320",
"j_ 	c #282420",
"k_ 	c #292521",
"l_ 	c #2D2926",
"m_ 	c #2A2929",
"n_ 	c #343336",
"o_ 	c #373737",
"p_ 	c #3A3635",
"q_ 	c #221F1C",
"r_ 	c #1A1712",
"s_ 	c #1D1A16",
"t_ 	c #24201D",
"u_ 	c #262322",
"v_ 	c #252127",
"w_ 	c #2B2728",
"x_ 	c #2D292A",
"y_ 	c #231F1D",
"z_ 	c #211D1A",
"A_ 	c #23201D",
"B_ 	c #221F1E",
"C_ 	c #201E1F",
"D_ 	c #242426",
"E_ 	c #16151A",
"F_ 	c #131318",
"G_ 	c #262324",
"H_ 	c #413B36",
"I_ 	c #423832",
"J_ 	c #41342D",
"K_ 	c #524236",
"L_ 	c #6A5644",
"M_ 	c #765F4D",
"N_ 	c #836C56",
"O_ 	c #7F6953",
"P_ 	c #6D5B45",
"Q_ 	c #554531",
"R_ 	c #4C3E2E",
"S_ 	c #564A3D",
"T_ 	c #5D5448",
"U_ 	c #565046",
"V_ 	c #4A453E",
"W_ 	c #3B3734",
"X_ 	c #2F2D2D",
"Y_ 	c #0A080B",
"Z_ 	c #18171D",
"`_ 	c #1A1A20",
" : 	c #19191F",
".: 	c #151519",
"+: 	c #3F3C3B",
"@: 	c #56524D",
"#: 	c #665C55",
"$: 	c #5F4F47",
"%: 	c #544136",
"&: 	c #543F31",
"*: 	c #584132",
"=: 	c #5A4434",
"-: 	c #634E3E",
";: 	c #746559",
">: 	c #6C645F",
",: 	c #5A5A55",
"': 	c #515552",
"): 	c #312F30",
"!: 	c #1F1F21",
"~: 	c #3A3B3B",
"{: 	c #343636",
"]: 	c #2D2F2F",
"^: 	c #252829",
"/: 	c #28292C",
"(: 	c #29292B",
"_: 	c #171315",
":: 	c #151013",
"<: 	c #191516",
"[: 	c #1D191A",
"}: 	c #262225",
"|: 	c #333233",
"1: 	c #353334",
"2: 	c #1E1A1C",
"3: 	c #2F2B2A",
"4: 	c #2D2929",
"5: 	c #16131A",
"6: 	c #19161B",
"7: 	c #1D1B1C",
"8: 	c #1B1919",
"9: 	c #1B1A19",
"0: 	c #111117",
"a: 	c #0F0F17",
"b: 	c #13141B",
"c: 	c #1C1D20",
"d: 	c #3C3D3D",
"e: 	c #484A4C",
"f: 	c #47494D",
"g: 	c #32343A",
"h: 	c #14161C",
"i: 	c #08070E",
"j: 	c #0F0E14",
"k: 	c #312D2F",
"l: 	c #322F30",
"m: 	c #1E1A1A",
"n: 	c #1A1616",
"o: 	c #1A1615",
"p: 	c #191413",
"q: 	c #171312",
"r: 	c #282422",
"s: 	c #403A39",
"t: 	c #413C3A",
"u: 	c #373333",
"v: 	c #272426",
"w: 	c #46423C",
"x: 	c #413E37",
"y: 	c #403C36",
"z: 	c #413B35",
"A: 	c #423D36",
"B: 	c #403A33",
"C: 	c #423D34",
"D: 	c #403933",
"E: 	c #322B2B",
"F: 	c #251E20",
"G: 	c #231D1D",
"H: 	c #2B2525",
"I: 	c #342E2F",
"J: 	c #363233",
"K: 	c #353234",
"L: 	c #2C2A2C",
"M: 	c #2A2E2E",
"N: 	c #2B2F2F",
"O: 	c #2F3233",
"P: 	c #303235",
"Q: 	c #333438",
"R: 	c #303134",
"S: 	c #222325",
"T: 	c #080909",
"U: 	c #09090A",
"V: 	c #080709",
"W: 	c #232221",
"X: 	c #2D2827",
"Y: 	c #38312F",
"Z: 	c #302B2A",
"`: 	c #272424",
" < 	c #262428",
".< 	c #2E2D31",
"+< 	c #323336",
"@< 	c #2C2C2E",
"#< 	c #3A3939",
"$< 	c #252728",
"%< 	c #212325",
"&< 	c #27282B",
"*< 	c #2E2F32",
"=< 	c #353639",
"-< 	c #363838",
";< 	c #1F1D1C",
">< 	c #221F1D",
",< 	c #242220",
"'< 	c #2C2A28",
")< 	c #37373B",
"!< 	c #3C3B3C",
"~< 	c #383433",
"{< 	c #302C28",
"]< 	c #221E1A",
"^< 	c #1A1611",
"/< 	c #1E1A14",
"(< 	c #24201C",
"_< 	c #272321",
":< 	c #242023",
"<< 	c #1D1A1E",
"[< 	c #1B181E",
"}< 	c #2B282B",
"|< 	c #2C282B",
"1< 	c #1E1B18",
"2< 	c #1C1916",
"3< 	c #1E1B19",
"4< 	c #1E1B1A",
"5< 	c #252326",
"6< 	c #111016",
"7< 	c #333030",
"8< 	c #2D2927",
"9< 	c #2D2824",
"0< 	c #3E3832",
"a< 	c #4F463F",
"b< 	c #51433A",
"c< 	c #4D3A2F",
"d< 	c #523A28",
"e< 	c #543821",
"f< 	c #583921",
"g< 	c #66462C",
"h< 	c #6A4A31",
"i< 	c #654931",
"j< 	c #4F3923",
"k< 	c #463420",
"l< 	c #504232",
"m< 	c #5D5245",
"n< 	c #585146",
"o< 	c #4B463D",
"p< 	c #3B3836",
"q< 	c #161414",
"r< 	c #1A1A1E",
"s< 	c #1C1C23",
"t< 	c #1A1A21",
"u< 	c #15161B",
"v< 	c #414140",
"w< 	c #5D544C",
"x< 	c #4F4239",
"y< 	c #412F26",
"z< 	c #402B20",
"A< 	c #412A1F",
"B< 	c #432C1E",
"C< 	c #553F30",
"D< 	c #7B6A5F",
"E< 	c #7C756D",
"F< 	c #686962",
"G< 	c #585C58",
"H< 	c #3F4040",
"I< 	c #2B2A2D",
"J< 	c #2D2D30",
"K< 	c #0D0B0C",
"L< 	c #302D2D",
"M< 	c #363536",
"N< 	c #383939",
"O< 	c #353636",
"P< 	c #28292B",
"Q< 	c #181518",
"R< 	c #1F1B1D",
"S< 	c #272326",
"T< 	c #282427",
"U< 	c #1C191B",
"V< 	c #2C2727",
"W< 	c #2E2A2A",
"X< 	c #1E1B1C",
"Y< 	c #161217",
"Z< 	c #171419",
"`< 	c #151218",
" [ 	c #19161A",
".[ 	c #1C1B1A",
"+[ 	c #161618",
"@[ 	c #0E0F12",
"#[ 	c #131518",
"$[ 	c #16171B",
"%[ 	c #302F2D",
"&[ 	c #414344",
"*[ 	c #3F4044",
"=[ 	c #2B2E32",
"-[ 	c #101218",
";[ 	c #07080E",
">[ 	c #06060C",
",[ 	c #2D292B",
"'[ 	c #252021",
")[ 	c #1F1A1B",
"![ 	c #1B1516",
"~[ 	c #1D1717",
"{[ 	c #1B1515",
"][ 	c #191414",
"^[ 	c #3C3738",
"/[ 	c #3C3939",
"([ 	c #343132",
"_[ 	c #1C1919",
":[ 	c #312C2B",
"<[ 	c #322D2C",
"[[ 	c #32302C",
"}[ 	c #403E39",
"|[ 	c #403D37",
"1[ 	c #3E3932",
"2[ 	c #3D3830",
"3[ 	c #3F3931",
"4[ 	c #403931",
"5[ 	c #423B32",
"6[ 	c #3E3630",
"7[ 	c #312A29",
"8[ 	c #241D1E",
"9[ 	c #2A2323",
"0[ 	c #332D2D",
"a[ 	c #353032",
"b[ 	c #332F32",
"c[ 	c #151213",
"d[ 	c #141112",
"e[ 	c #181516",
"f[ 	c #1E1A1B",
"g[ 	c #272929",
"h[ 	c #282B2B",
"i[ 	c #2C2F2E",
"j[ 	c #2E3130",
"k[ 	c #2E2F31",
"l[ 	c #313134",
"m[ 	c #2F2E32",
"n[ 	c #020104",
"o[ 	c #1E1D20",
"p[ 	c #1F1C1B",
"q[ 	c #292523",
"r[ 	c #342E2C",
"s[ 	c #352F2D",
"t[ 	c #2E2928",
"u[ 	c #2E2E32",
"v[ 	c #343539",
"w[ 	c #343438",
"x[ 	c #2A2A2D",
"y[ 	c #353436",
"z[ 	c #3A383A",
"A[ 	c #3D3C3C",
"B[ 	c #2E2F2F",
"C[ 	c #242728",
"D[ 	c #212427",
"E[ 	c #27282C",
"F[ 	c #343638",
"G[ 	c #36383A",
"H[ 	c #393B3C",
"I[ 	c #252626",
"J[ 	c #38383A",
"K[ 	c #424042",
"L[ 	c #423F40",
"M[ 	c #3A3736",
"N[ 	c #2C2825",
"O[ 	c #25211D",
"P[ 	c #1E1A15",
"Q[ 	c #201D17",
"R[ 	c #221F1B",
"S[ 	c #242022",
"T[ 	c #19171D",
"U[ 	c #1C1B21",
"V[ 	c #282523",
"W[ 	c #24221F",
"X[ 	c #231F1E",
"Y[ 	c #110F14",
"Z[ 	c #0F0E13",
"`[ 	c #0D0C11",
" } 	c #121216",
".} 	c #34302F",
"+} 	c #312A28",
"@} 	c #342E29",
"#} 	c #48403A",
"$} 	c #534740",
"%} 	c #54443A",
"&} 	c #523B2E",
"*} 	c #593D29",
"=} 	c #57361F",
"-} 	c #55331A",
";} 	c #5D3D21",
">} 	c #604026",
",} 	c #654930",
"'} 	c #574029",
")} 	c #473623",
"!} 	c #4E4232",
"~} 	c #5A5144",
"{} 	c #554E44",
"]} 	c #4A443D",
"^} 	c #3E3935",
"/} 	c #3A3735",
"(} 	c #151313",
"_} 	c #191920",
":} 	c #18181F",
"<} 	c #15151A",
"[} 	c #585149",
"}} 	c #493E36",
"|} 	c #3C2D26",
"1} 	c #3B2B23",
"2} 	c #3B2921",
"3} 	c #3C2A1E",
"4} 	c #4C3B2D",
"5} 	c #7C766F",
"6} 	c #696963",
"7} 	c #5A5D59",
"8} 	c #2C2B2E",
"9} 	c #141213",
"0} 	c #2F2E30",
"a} 	c #343234",
"b} 	c #303031",
"c} 	c #2F2F30",
"d} 	c #333434",
"e} 	c #1C191C",
"f} 	c #343433",
"g} 	c #2B2827",
"h} 	c #1B191D",
"i} 	c #333231",
"j} 	c #201F1D",
"k} 	c #292928",
"l} 	c #272826",
"m} 	c #2D2E2C",
"n} 	c #3B3B38",
"o} 	c #393A37",
"p} 	c #303130",
"q} 	c #2D2F32",
"r} 	c #202226",
"s} 	c #0C0E13",
"t} 	c #06070B",
"u} 	c #040408",
"v} 	c #18181B",
"w} 	c #282528",
"x} 	c #252123",
"y} 	c #252122",
"z} 	c #211B1B",
"A} 	c #1F1919",
"B} 	c #1C1616",
"C} 	c #191515",
"D} 	c #373435",
"E} 	c #383536",
"F} 	c #302D30",
"G} 	c #252327",
"H} 	c #292524",
"I} 	c #34332F",
"J} 	c #35342F",
"K} 	c #383832",
"L} 	c #373630",
"M} 	c #3B3831",
"N} 	c #3D3932",
"O} 	c #3F3B32",
"P} 	c #3E3830",
"Q} 	c #403930",
"R} 	c #423A31",
"S} 	c #3D362F",
"T} 	c #322B29",
"U} 	c #27201F",
"V} 	c #261F1F",
"W} 	c #2B2425",
"X} 	c #232024",
"Y} 	c #151314",
"Z} 	c #161213",
"`} 	c #191617",
" | 	c #272223",
".| 	c #2B2727",
"+| 	c #302E2E",
"@| 	c #2B2D2C",
"#| 	c #343634",
"$| 	c #323533",
"%| 	c #2E302F",
"&| 	c #1F201E",
"*| 	c #1D1E1E",
"=| 	c #060506",
"-| 	c #232120",
";| 	c #352E2C",
">| 	c #37312E",
",| 	c #2F2A29",
"'| 	c #2A2B2F",
")| 	c #2F3135",
"!| 	c #323236",
"~| 	c #2D2C31",
"{| 	c #26262A",
"]| 	c #2D2B2E",
"^| 	c #202324",
"/| 	c #1F2225",
"(| 	c #25272A",
"_| 	c #282B2E",
":| 	c #2C2F32",
"<| 	c #232426",
"[| 	c #30312F",
"}| 	c #2F2B27",
"|| 	c #2C2722",
"1| 	c #2C2822",
"2| 	c #282522",
"3| 	c #2E2B2A",
"4| 	c #302D2A",
"5| 	c #302E2B",
"6| 	c #2B2927",
"7| 	c #383836",
"8| 	c #121316",
"9| 	c #332C29",
"0| 	c #37302B",
"a| 	c #4B443D",
"b| 	c #534B42",
"c| 	c #4E4236",
"d| 	c #534031",
"e| 	c #634A38",
"f| 	c #694D39",
"g| 	c #664B35",
"h| 	c #664F37",
"i| 	c #624C37",
"j| 	c #64503C",
"k| 	c #5D4C3B",
"l| 	c #544739",
"m| 	c #554C40",
"n| 	c #565248",
"o| 	c #4C4941",
"p| 	c #3E3B39",
"q| 	c #17171E",
"r| 	c #17161B",
"s| 	c #42403E",
"t| 	c #56524E",
"u| 	c #605952",
"v| 	c #554D46",
"w| 	c #4E453D",
"x| 	c #50453D",
"y| 	c #53463F",
"z| 	c #55483F",
"A| 	c #5B4F44",
"B| 	c #746A61",
"C| 	c #76716A",
"D| 	c #676762",
"E| 	c #595C58",
"F| 	c #414241",
"G| 	c #221E20",
"H| 	c #272325",
"I| 	c #0B080C",
"J| 	c #131114",
"K| 	c #242629",
"L| 	c #26282B",
"M| 	c #313030",
"N| 	c #333232",
"O| 	c #201C1F",
"P| 	c #2A2628",
"Q| 	c #2C292B",
"R| 	c #242221",
"S| 	c #363432",
"T| 	c #43423F",
"U| 	c #32312D",
"V| 	c #31302B",
"W| 	c #33322D",
"X| 	c #3A3A34",
"Y| 	c #403F3A",
"Z| 	c #42403C",
"`| 	c #232424",
" 1 	c #17191C",
".1 	c #090A0E",
"+1 	c #1C1819",
"@1 	c #1C1617",
"#1 	c #1D1718",
"$1 	c #1D1617",
"%1 	c #181414",
"&1 	c #292629",
"*1 	c #252226",
"=1 	c #312E2C",
"-1 	c #32332F",
";1 	c #32342E",
">1 	c #34342E",
",1 	c #393731",
"'1 	c #413D36",
")1 	c #453F37",
"!1 	c #443C34",
"~1 	c #433C32",
"{1 	c #40372E",
"]1 	c #3F362D",
"^1 	c #3D342D",
"/1 	c #322927",
"(1 	c #292121",
"_1 	c #2A2122",
":1 	c #2B2324",
"<1 	c #272122",
"[1 	c #161317",
"}1 	c #100E12",
"|1 	c #110F11",
"11 	c #120E11",
"21 	c #161314",
"31 	c #181314",
"41 	c #1D1818",
"51 	c #282927",
"61 	c #2C2E2C",
"71 	c #3A3B39",
"81 	c #363735",
"91 	c #2E2F2E",
"01 	c #171818",
"a1 	c #363435",
"b1 	c #3E3B3B",
"c1 	c #393535",
"d1 	c #2F2C2B",
"e1 	c #191616",
"f1 	c #272322",
"g1 	c #212226",
"h1 	c #232429",
"i1 	c #24252A",
"j1 	c #222127",
"k1 	c #1F1F24",
"l1 	c #1A1A1F",
"m1 	c #191A1E",
"n1 	c #17191D",
"o1 	c #1F2125",
"p1 	c #202125",
"q1 	c #232629",
"r1 	c #222327",
"s1 	c #242428",
"t1 	c #27262A",
"u1 	c #373434",
"v1 	c #383532",
"w1 	c #383431",
"x1 	c #3C3834",
"y1 	c #3C3732",
"z1 	c #38342F",
"A1 	c #2E2A27",
"B1 	c #0C0A0F",
"C1 	c #100D0F",
"D1 	c #3A3634",
"E1 	c #3B3B39",
"F1 	c #3E3E3B",
"G1 	c #40403C",
"H1 	c #3D3D39",
"I1 	c #0F1013",
"J1 	c #1E1A19",
"K1 	c #322C29",
"L1 	c #2F2724",
"M1 	c #312925",
"N1 	c #413A34",
"O1 	c #48433A",
"P1 	c #463E34",
"Q1 	c #4C4034",
"R1 	c #6C5E50",
"S1 	c #877A69",
"T1 	c #8A7E6C",
"U1 	c #897E6D",
"V1 	c #7F7566",
"W1 	c #7A7162",
"X1 	c #726A5F",
"Y1 	c #6E685F",
"Z1 	c #666259",
"`1 	c #5A5750",
" 2 	c #484741",
".2 	c #383635",
"+2 	c #15151B",
"@2 	c #18181E",
"#2 	c #5C5A55",
"$2 	c #76706A",
"%2 	c #736E67",
"&2 	c #716C64",
"*2 	c #79756C",
"=2 	c #837B71",
"-2 	c #898176",
";2 	c #817A71",
">2 	c #67655F",
",2 	c #5B5C57",
"'2 	c #555754",
")2 	c #343133",
"!2 	c #383537",
"~2 	c #1C1B1F",
"{2 	c #030104",
"]2 	c #050206",
"^2 	c #1C1E20",
"/2 	c #1E2124",
"(2 	c #222326",
"_2 	c #1E1F22",
":2 	c #1B1C1E",
"<2 	c #2F2C2D",
"[2 	c #323030",
"}2 	c #1C1918",
"|2 	c #42403D",
"12 	c #373532",
"22 	c #302E2A",
"32 	c #2E2D27",
"42 	c #2D2C26",
"52 	c #302F29",
"62 	c #393933",
"72 	c #42423C",
"82 	c #1F2020",
"92 	c #161819",
"02 	c #090A0C",
"a2 	c #0F0F10",
"b2 	c #191415",
"c2 	c #1A1515",
"d2 	c #181313",
"e2 	c #181212",
"f2 	c #171112",
"g2 	c #141011",
"h2 	c #343430",
"i2 	c #353632",
"j2 	c #323430",
"k2 	c #32352F",
"l2 	c #33352E",
"m2 	c #3B3B33",
"n2 	c #45433A",
"o2 	c #4A4339",
"p2 	c #474136",
"q2 	c #423A30",
"r2 	c #40382D",
"s2 	c #322A27",
"t2 	c #2B2322",
"u2 	c #2E2525",
"v2 	c #2C2525",
"w2 	c #262021",
"x2 	c #110E11",
"y2 	c #08060A",
"z2 	c #080507",
"A2 	c #0D090B",
"B2 	c #0E090B",
"C2 	c #140F0F",
"D2 	c #292B28",
"E2 	c #2E322E",
"F2 	c #393A38",
"G2 	c #3D3E3C",
"H2 	c #2B2B29",
"I2 	c #40403D",
"J2 	c #3F403E",
"K2 	c #1A1C1C",
"L2 	c #060809",
"M2 	c #413F41",
"N2 	c #514E4E",
"O2 	c #4E4B49",
"P2 	c #161615",
"Q2 	c #342F2D",
"R2 	c #36312E",
"S2 	c #211F23",
"T2 	c #1A1C21",
"U2 	c #1C1C22",
"V2 	c #141316",
"W2 	c #14171A",
"X2 	c #1B1D20",
"Y2 	c #202224",
"Z2 	c #1D1E21",
"`2 	c #1A1B1D",
" 3 	c #1A1B1E",
".3 	c #2C2D2B",
"+3 	c #403E3C",
"@3 	c #2D2B29",
"#3 	c #343130",
"$3 	c #413D38",
"%3 	c #322F2B",
"&3 	c #262522",
"*3 	c #070809",
"=3 	c #0F0D0D",
"-3 	c #32302E",
";3 	c #3E3E3A",
">3 	c #3C3C38",
",3 	c #32312E",
"'3 	c #141417",
")3 	c #101114",
"!3 	c #1B1816",
"~3 	c #312B28",
"{3 	c #2E2622",
"]3 	c #423C36",
"^3 	c #48433C",
"/3 	c #4E483E",
"(3 	c #6D675D",
"_3 	c #8F897D",
":3 	c #989387",
"<3 	c #99948A",
"[3 	c #8F8C82",
"}3 	c #838076",
"|3 	c #76746C",
"13 	c #75736C",
"23 	c #6D6C65",
"33 	c #5B5A55",
"43 	c #54534F",
"53 	c #434441",
"63 	c #2D2D2E",
"73 	c #111110",
"83 	c #7C7870",
"93 	c #7A766D",
"03 	c #79756B",
"a3 	c #878178",
"b3 	c #978F85",
"c3 	c #A0978B",
"d3 	c #A2998D",
"e3 	c #8B857C",
"f3 	c #605F57",
"g3 	c #52524E",
"h3 	c #525450",
"i3 	c #363335",
"j3 	c #393637",
"k3 	c #2C292C",
"l3 	c #1A181C",
"m3 	c #19171C",
"n3 	c #040205",
"o3 	c #0D0A0D",
"p3 	c #202325",
"q3 	c #242427",
"r3 	c #1D1E22",
"s3 	c #1A1C1F",
"t3 	c #3A3A38",
"u3 	c #1B1817",
"v3 	c #41403E",
"w3 	c #31302A",
"x3 	c #3B3A35",
"y3 	c #41403A",
"z3 	c #42413C",
"A3 	c #161619",
"B3 	c #181213",
"C3 	c #161011",
"D3 	c #171213",
"E3 	c #161214",
"F3 	c #191517",
"G3 	c #181417",
"H3 	c #191619",
"I3 	c #272529",
"J3 	c #353430",
"K3 	c #333531",
"L3 	c #32342F",
"M3 	c #3A3A33",
"N3 	c #434039",
"O3 	c #47433A",
"P3 	c #484139",
"Q3 	c #463E36",
"R3 	c #413830",
"S3 	c #3E362D",
"T3 	c #352C28",
"U3 	c #302726",
"V3 	c #2A2222",
"W3 	c #2B2323",
"X3 	c #2A2223",
"Y3 	c #231D1F",
"Z3 	c #181316",
"`3 	c #0F0C0F",
" 4 	c #060407",
".4 	c #050203",
"+4 	c #0C0709",
"@4 	c #100A0B",
"#4 	c #191315",
"$4 	c #2B2C2B",
"%4 	c #2E302E",
"&4 	c #3B3C3A",
"*4 	c #373738",
"=4 	c #060709",
"-4 	c #040506",
";4 	c #0E0E0F",
">4 	c #413E40",
",4 	c #545150",
"'4 	c #534F4D",
")4 	c #413D3B",
"!4 	c #131112",
"~4 	c #1A1717",
"{4 	c #272324",
"]4 	c #201E23",
"^4 	c #18191F",
"/4 	c #111315",
"(4 	c #111317",
"_4 	c #1F2022",
":4 	c #333130",
"<4 	c #363232",
"[4 	c #282724",
"}4 	c #3D3D3A",
"|4 	c #16161A",
"14 	c #0C0C0D",
"24 	c #191513",
"34 	c #2F2926",
"44 	c #322C26",
"54 	c #45413B",
"64 	c #4E4B46",
"74 	c #4D4945",
"84 	c #524C46",
"94 	c #6F6861",
"04 	c #918D83",
"a4 	c #9C9790",
"b4 	c #9D9992",
"c4 	c #95918B",
"d4 	c #86827C",
"e4 	c #75736D",
"f4 	c #73726C",
"g4 	c #6E6C68",
"h4 	c #5B5856",
"i4 	c #575453",
"j4 	c #100F0E",
"k4 	c #18171E",
"l4 	c #3C3D3B",
"m4 	c #5E5B56",
"n4 	c #7F7972",
"o4 	c #7A746B",
"p4 	c #767167",
"q4 	c #888278",
"r4 	c #9D958B",
"s4 	c #A69D90",
"t4 	c #A89F92",
"u4 	c #8D867D",
"v4 	c #5D5B54",
"w4 	c #50524F",
"x4 	c #3E3E3D",
"y4 	c #2F2C2E",
"z4 	c #09070A",
"A4 	c #1C1E21",
"B4 	c #212326",
"C4 	c #232427",
"D4 	c #1D2024",
"E4 	c #191D20",
"F4 	c #1E2023",
"G4 	c #282928",
"H4 	c #1E1E1E",
"I4 	c #242320",
"J4 	c #403F3E",
"K4 	c #2E2D2B",
"L4 	c #373631",
"M4 	c #383630",
"N4 	c #413F39",
"O4 	c #45443E",
"P4 	c #020101",
"Q4 	c #070607",
"R4 	c #1E1819",
"S4 	c #1C1717",
"T4 	c #1E191C",
"U4 	c #2C2C2B",
"V4 	c #31302D",
"W4 	c #33322E",
"X4 	c #313430",
"Y4 	c #35352F",
"Z4 	c #37342E",
"`4 	c #39352E",
" 5 	c #38312B",
".5 	c #372F29",
"+5 	c #373029",
"@5 	c #312A27",
"#5 	c #292222",
"$5 	c #211B1C",
"%5 	c #130F12",
"&5 	c #0B070A",
"*5 	c #0C080A",
"=5 	c #0D080B",
"-5 	c #120D0E",
";5 	c #150F11",
">5 	c #130D0E",
",5 	c #2A2627",
"'5 	c #2F2E2E",
")5 	c #333633",
"!5 	c #373835",
"~5 	c #403E3B",
"{5 	c #46443F",
"]5 	c #4F4E4C",
"^5 	c #0E0F0F",
"/5 	c #383637",
"(5 	c #484444",
"_5 	c #474341",
":5 	c #1A1919",
"<5 	c #131212",
"[5 	c #2C2828",
"}5 	c #2E2A29",
"|5 	c #191A20",
"15 	c #0C0C0F",
"25 	c #0B0C0F",
"35 	c #131416",
"45 	c #191A1C",
"55 	c #353232",
"65 	c #3D3B37",
"75 	c #0F0F0F",
"85 	c #0B0A09",
"95 	c #161514",
"05 	c #2F2E2C",
"a5 	c #3C3C39",
"b5 	c #3E3F3A",
"c5 	c #3D3E3A",
"d5 	c #1B1815",
"e5 	c #352F2B",
"f5 	c #342D27",
"g5 	c #3A342D",
"h5 	c #595853",
"i5 	c #56544F",
"j5 	c #59564E",
"k5 	c #746F66",
"l5 	c #949187",
"m5 	c #A09D94",
"n5 	c #A19F96",
"o5 	c #99968F",
"p5 	c #87857D",
"q5 	c #77766E",
"r5 	c #76746E",
"s5 	c #706E68",
"t5 	c #5D5A56",
"u5 	c #17171D",
"v5 	c #615E58",
"w5 	c #878177",
"x5 	c #817B70",
"y5 	c #7E786D",
"z5 	c #968F83",
"A5 	c #AFA69A",
"B5 	c #B5AC9E",
"C5 	c #B4AC9D",
"D5 	c #958F83",
"E5 	c #605E56",
"F5 	c #51514C",
"G5 	c #535551",
"H5 	c #40413E",
"I5 	c #2C2B29",
"J5 	c #262325",
"K5 	c #171519",
"L5 	c #15161A",
"M5 	c #1F2326",
"N5 	c #1B1F23",
"O5 	c #191D22",
"P5 	c #15191E",
"Q5 	c #15191C",
"R5 	c #16191A",
"S5 	c #171A19",
"T5 	c #171919",
"U5 	c #151516",
"V5 	c #131314",
"W5 	c #0A090E",
"X5 	c #0B0A0F",
"Y5 	c #2E2D2A",
"Z5 	c #454541",
"`5 	c #3B3C39",
" 6 	c #383837",
".6 	c #3C3B36",
"+6 	c #403F39",
"@6 	c #464540",
"#6 	c #151618",
"$6 	c #050608",
"%6 	c #161718",
"&6 	c #2D2C2F",
"*6 	c #2D2B2D",
"=6 	c #282324",
"-6 	c #211C1F",
";6 	c #34342F",
">6 	c #33332F",
",6 	c #303330",
"'6 	c #2F312E",
")6 	c #2D2E29",
"!6 	c #282622",
"~6 	c #231F1B",
"{6 	c #201A17",
"]6 	c #221C19",
"^6 	c #27201D",
"/6 	c #2A2321",
"(6 	c #1E181B",
"_6 	c #191416",
":6 	c #1A1417",
"<6 	c #1A1617",
"[6 	c #1B1618",
"}6 	c #1E181A",
"|6 	c #1B1517",
"16 	c #151011",
"26 	c #2B2E2C",
"36 	c #2A2C2B",
"46 	c #2D2F2C",
"56 	c #2E302D",
"66 	c #363833",
"76 	c #52504A",
"86 	c #55524B",
"96 	c #5C5A53",
"06 	c #5C5C57",
"a6 	c #101112",
"b6 	c #131415",
"c6 	c #303032",
"d6 	c #151515",
"e6 	c #383733",
"f6 	c #181A18",
"g6 	c #0D0C0C",
"h6 	c #3C3D39",
"i6 	c #0A0B0E",
"j6 	c #0C0D10",
"k6 	c #1C1817",
"l6 	c #38332E",
"m6 	c #3D3732",
"n6 	c #5E5E5A",
"o6 	c #5C5C58",
"p6 	c #5C5A54",
"q6 	c #94928A",
"r6 	c #A19F97",
"s6 	c #A2A098",
"t6 	c #999790",
"u6 	c #86847C",
"v6 	c #77756F",
"w6 	c #75736E",
"x6 	c #17161D",
"y6 	c #424242",
"z6 	c #8B847A",
"A6 	c #888275",
"B6 	c #A7A093",
"C6 	c #C4BBAE",
"D6 	c #C6BDAD",
"E6 	c #BEB6A6",
"F6 	c #989185",
"G6 	c #605C55",
"H6 	c #504F4B",
"I6 	c #555753",
"J6 	c #42423F",
"K6 	c #2A2826",
"L6 	c #100D10",
"M6 	c #121012",
"N6 	c #15141A",
"O6 	c #0F1014",
"P6 	c #0E0F14",
"Q6 	c #242529",
"R6 	c #292A2E",
"S6 	c #1F2025",
"T6 	c #1C1F23",
"U6 	c #16191D",
"V6 	c #13171B",
"W6 	c #0F1218",
"X6 	c #0E1115",
"Y6 	c #0D0F11",
"Z6 	c #0D0F10",
"`6 	c #0D0D0E",
" 7 	c #09080D",
".7 	c #272827",
"+7 	c #343532",
"@7 	c #323330",
"#7 	c #333430",
"$7 	c #31312D",
"%7 	c #31302C",
"&7 	c #444541",
"*7 	c #3F3E3D",
"=7 	c #3D3C37",
"-7 	c #41403B",
";7 	c #484742",
">7 	c #141518",
",7 	c #040507",
"'7 	c #353538",
")7 	c #312E31",
"!7 	c #2A2527",
"~7 	c #1F1B1F",
"{7 	c #353531",
"]7 	c #313330",
"^7 	c #303430",
"/7 	c #2E302C",
"(7 	c #2B2C29",
"_7 	c #16100F",
":7 	c #181211",
"<7 	c #1F1918",
"[7 	c #241D1D",
"}7 	c #171216",
"|7 	c #110D10",
"17 	c #120D11",
"27 	c #150F13",
"37 	c #161215",
"47 	c #221D1F",
"57 	c #231D1E",
"67 	c #241E1E",
"77 	c #1D1819",
"87 	c #130E10",
"97 	c #151112",
"07 	c #262825",
"a7 	c #292A26",
"b7 	c #41413C",
"c7 	c #504F4A",
"d7 	c #57544E",
"e7 	c #5E5A53",
"f7 	c #615F57",
"g7 	c #61605B",
"h7 	c #50504E",
"i7 	c #111212",
"j7 	c #39393B",
"k7 	c #100E10",
"l7 	c #161515",
"m7 	c #121011",
"n7 	c #110F10",
"o7 	c #100E0F",
"p7 	c #383834",
"q7 	c #161715",
"r7 	c #333432",
"s7 	c #3F3F3D",
"t7 	c #0A0A0D",
"u7 	c #1D1B19",
"v7 	c #3B3632",
"w7 	c #3A342E",
"x7 	c #413C37",
"y7 	c #5C5B57",
"z7 	c #646663",
"A7 	c #60615D",
"B7 	c #61605A",
"C7 	c #797770",
"D7 	c #96958E",
"E7 	c #A2A199",
"F7 	c #A3A29A",
"G7 	c #9B9990",
"H7 	c #76746F",
"I7 	c #4F4D49",
"J7 	c #090809",
"K7 	c #3E403E",
"L7 	c #3D3B39",
"M7 	c #625F57",
"N7 	c #8A847A",
"O7 	c #878175",
"P7 	c #878075",
"Q7 	c #A9A196",
"R7 	c #C7BEB1",
"S7 	c #C9C1B1",
"T7 	c #C3BBAB",
"U7 	c #9D9589",
"V7 	c #595B57",
"W7 	c #464643",
"X7 	c #151319",
"Y7 	c #110F12",
"Z7 	c #0E0D11",
"`7 	c #28282C",
" 8 	c #16191C",
".8 	c #14161A",
"+8 	c #0F1216",
"@8 	c #0E1014",
"#8 	c #0D0E10",
"$8 	c #33332E",
"%8 	c #444441",
"&8 	c #3D3A38",
"*8 	c #3F3E39",
"=8 	c #43423D",
"-8 	c #45433F",
";8 	c #474641",
">8 	c #040406",
",8 	c #141516",
"'8 	c #2B2D31",
")8 	c #2D2E34",
"!8 	c #333339",
"~8 	c #36363B",
"{8 	c #363539",
"]8 	c #2E2C2F",
"^8 	c #272224",
"/8 	c #30322F",
"(8 	c #262321",
"_8 	c #1F1B19",
":8 	c #1A1412",
"<8 	c #1A1513",
"[8 	c #211C1A",
"}8 	c #130F11",
"|8 	c #1E191B",
"18 	c #221D1D",
"28 	c #221B1B",
"38 	c #140F10",
"48 	c #282825",
"58 	c #262622",
"68 	c #282823",
"78 	c #43423C",
"88 	c #514F48",
"98 	c #5A574F",
"08 	c #292827",
"a8 	c #101010",
"b8 	c #141515",
"c8 	c #343235",
"d8 	c #0A090A",
"e8 	c #141414",
"f8 	c #383734",
"g8 	c #3B3B3A",
"h8 	c #1A1B1B",
"i8 	c #090A0A",
"j8 	c #0D0D0D",
"k8 	c #212221",
"l8 	c #0C0D0F",
"m8 	c #0A0B0C",
"n8 	c #3A3530",
"o8 	c #39322D",
"p8 	c #403B36",
"q8 	c #676A67",
"r8 	c #636461",
"s8 	c #66645F",
"t8 	c #7D7A73",
"u8 	c #99978F",
"v8 	c #A4A29A",
"w8 	c #A6A49B",
"x8 	c #9B988F",
"y8 	c #86837B",
"z8 	c #77746E",
"A8 	c #706D68",
"B8 	c #55524E",
"C8 	c #060505",
"D8 	c #605D57",
"E8 	c #89837A",
"F8 	c #857F75",
"G8 	c #857E74",
"H8 	c #C5BCB0",
"I8 	c #C7BEB0",
"J8 	c #C3B9AC",
"K8 	c #9E958B",
"L8 	c #635E58",
"M8 	c #54524F",
"N8 	c #5C5D59",
"O8 	c #141114",
"P8 	c #303033",
"Q8 	c #252628",
"R8 	c #1F2124",
"S8 	c #1C1F21",
"T8 	c #1A1C1D",
"U8 	c #1A1A1A",
"V8 	c #191A1A",
"W8 	c #202120",
"X8 	c #2B2C2A",
"Y8 	c #3B3B36",
"Z8 	c #3E3F3C",
"`8 	c #45443F",
" 9 	c #050506",
".9 	c #161617",
"+9 	c #2C2E32",
"@9 	c #2D2F34",
"#9 	c #323439",
"$9 	c #34353A",
"%9 	c #353338",
"&9 	c #2B292C",
"*9 	c #262123",
"=9 	c #1F1B1E",
"-9 	c #353534",
";9 	c #31322F",
">9 	c #2F302D",
",9 	c #2D2D2A",
"'9 	c #26221F",
")9 	c #221C1A",
"!9 	c #221D1B",
"~9 	c #181315",
"{9 	c #171314",
"]9 	c #272020",
"^9 	c #251E1C",
"/9 	c #1F1817",
"(9 	c #1B1514",
"_9 	c #2F2F2B",
":9 	c #2F2E29",
"<9 	c #2D2D27",
"[9 	c #36352F",
"}9 	c #45443C",
"|9 	c #525048",
"19 	c #58554D",
"29 	c #615C53",
"39 	c #63615A",
"49 	c #151616",
"59 	c #333435",
"69 	c #1A1918",
"79 	c #0D0C0D",
"89 	c #202020",
"99 	c #212122",
"09 	c #1B1B1B",
"a9 	c #3B3B37",
"b9 	c #1A1D1B",
"c9 	c #050706",
"d9 	c #080A09",
"e9 	c #1F2120",
"f9 	c #363836",
"g9 	c #16171A",
"h9 	c #1F1C1A",
"i9 	c #3C342E",
"j9 	c #44403A",
"k9 	c #63655F",
"l9 	c #6E736F",
"m9 	c #6B6C69",
"n9 	c #6D6B65",
"o9 	c #827F77",
"p9 	c #9D9A91",
"q9 	c #A7A49B",
"r9 	c #A9A69C",
"s9 	c #9C988F",
"t9 	c #78756E",
"u9 	c #73716A",
"v9 	c #5F5A55",
"w9 	c #54514D",
"x9 	c #070608",
"y9 	c #1C1C20",
"z9 	c #888279",
"A9 	c #837E72",
"B9 	c #A39D92",
"C9 	c #C3BBAF",
"D9 	c #C6BFB1",
"E9 	c #C2BBAD",
"F9 	c #A0998E",
"G9 	c #65625B",
"H9 	c #555551",
"I9 	c #5E5F5D",
"J9 	c #313033",
"K9 	c #2F3032",
"L9 	c #3D3E3B",
"M9 	c #3F3D38",
"N9 	c #292B2F",
"O9 	c #2B2D32",
"P9 	c #2E2F35",
"Q9 	c #302F36",
"R9 	c #302E33",
"S9 	c #1C181B",
"T9 	c #31312E",
"U9 	c #2A2422",
"V9 	c #27211F",
"W9 	c #201B1B",
"X9 	c #221D1E",
"Y9 	c #221C1B",
"Z9 	c #282020",
"`9 	c #2D2623",
" 0 	c #292120",
".0 	c #26201F",
"+0 	c #2B2524",
"@0 	c #383331",
"#0 	c #393732",
"$0 	c #33322B",
"%0 	c #37352E",
"&0 	c #514E46",
"*0 	c #56524B",
"=0 	c #625D54",
"-0 	c #645F57",
";0 	c #65625C",
">0 	c #55524F",
",0 	c #2A2728",
"'0 	c #1B191A",
")0 	c #18181A",
"!0 	c #212120",
"~0 	c #41403C",
"{0 	c #42423E",
"]0 	c #424340",
"^0 	c #40413F",
"/0 	c #383A38",
"(0 	c #202221",
"_0 	c #0A0D0B",
":0 	c #0E100F",
"<0 	c #222323",
"[0 	c #313032",
"}0 	c #09090B",
"|0 	c #0B0C0E",
"10 	c #3D3632",
"20 	c #3D332F",
"30 	c #47413C",
"40 	c #696A66",
"50 	c #757977",
"60 	c #72716F",
"70 	c #726E68",
"80 	c #868179",
"90 	c #A19C93",
"00 	c #A8A49B",
"a0 	c #A9A69B",
"b0 	c #9C988D",
"c0 	c #868279",
"d0 	c #78746E",
"e0 	c #79756F",
"f0 	c #74716A",
"g0 	c #615B56",
"h0 	c #57514D",
"i0 	c #4B4644",
"j0 	c #454546",
"k0 	c #3D3B3A",
"l0 	c #605C56",
"m0 	c #888179",
"n0 	c #847D74",
"o0 	c #817B71",
"p0 	c #A19990",
"q0 	c #C1B8AE",
"r0 	c #C2B9AD",
"s0 	c #65615C",
"t0 	c #545350",
"u0 	c #605F5E",
"v0 	c #4D4D4C",
"w0 	c #1B181C",
"x0 	c #323134",
"y0 	c #302E31",
"z0 	c #2F2E31",
"A0 	c #313132",
"B0 	c #373838",
"C0 	c #413F3B",
"D0 	c #060606",
"E0 	c #27292C",
"F0 	c #292B30",
"G0 	c #2A2A2F",
"H0 	c #373732",
"I0 	c #353431",
"J0 	c #2E2E2C",
"K0 	c #2B2724",
"L0 	c #292321",
"M0 	c #2C2725",
"N0 	c #201B1A",
"O0 	c #211E1C",
"P0 	c #221E1C",
"Q0 	c #2F2827",
"R0 	c #332C2A",
"S0 	c #2E2826",
"T0 	c #302A28",
"U0 	c #43413C",
"V0 	c #45433E",
"W0 	c #393830",
"X0 	c #43413A",
"Y0 	c #4F4C45",
"Z0 	c #56534C",
"`0 	c #5F5B53",
" a 	c #65625A",
".a 	c #67645E",
"+a 	c #181817",
"@a 	c #43433E",
"#a 	c #454540",
"$a 	c #434442",
"%a 	c #3D3F3C",
"&a 	c #222422",
"*a 	c #232523",
"=a 	c #3E3F3B",
"-a 	c #3D3D3C",
";a 	c #323234",
">a 	c #0A0B0D",
",a 	c #1F1D1A",
"'a 	c #3F3A34",
")a 	c #6F716C",
"!a 	c #7C807F",
"~a 	c #777875",
"{a 	c #76756D",
"]a 	c #86837A",
"^a 	c #A29E94",
"/a 	c #A8A69C",
"(a 	c #AAA89B",
"_a 	c #9B978C",
":a 	c #868278",
"<a 	c #78756D",
"[a 	c #7B7872",
"}a 	c #76736C",
"|a 	c #625C56",
"1a 	c #56504B",
"2a 	c #4D4844",
"3a 	c #2C2827",
"4a 	c #050405",
"5a 	c #17161C",
"6a 	c #847E73",
"7a 	c #807A70",
"8a 	c #9E988E",
"9a 	c #BEB7AB",
"0a 	c #C3BCAE",
"aa 	c #C1B9AD",
"ba 	c #A09890",
"ca 	c #66635C",
"da 	c #60615E",
"ea 	c #171417",
"fa 	c #1D1A1D",
"ga 	c #282629",
"ha 	c #393A3A",
"ia 	c #3A3B3A",
"ja 	c #3F3E3A",
"ka 	c #18191B",
"la 	c #272422",
"ma 	c #2E2B29",
"na 	c #353231",
"oa 	c #252022",
"pa 	c #302929",
"qa 	c #2D2626",
"ra 	c #2B2625",
"sa 	c #403D39",
"ta 	c #373430",
"ua 	c #44423D",
"va 	c #514D48",
"wa 	c #56534D",
"xa 	c #454340",
"ya 	c #1F1F1D",
"za 	c #060707",
"Aa 	c #41413D",
"Ba 	c #3C3E3C",
"Ca 	c #393B39",
"Da 	c #393B38",
"Ea 	c #3F403C",
"Fa 	c #2F2F31",
"Ga 	c #090B0D",
"Ha 	c #08090B",
"Ia 	c #403A36",
"Ja 	c #433B37",
"Ka 	c #757774",
"La 	c #868A89",
"Ma 	c #80807D",
"Na 	c #7D7C73",
"Oa 	c #8B877E",
"Pa 	c #A7A197",
"Qa 	c #ADA99E",
"Ra 	c #AEA99D",
"Sa 	c #9C968B",
"Ta 	c #858176",
"Ua 	c #77746D",
"Va 	c #7C7973",
"Wa 	c #625B55",
"Xa 	c #554E49",
"Ya 	c #4B4642",
"Za 	c #212223",
"`a 	c #030304",
" b 	c #14141B",
".b 	c #14131A",
"+b 	c #3C3E3D",
"@b 	c #444444",
"#b 	c #3C3A39",
"$b 	c #847D73",
"%b 	c #7F786E",
"&b 	c #9A948A",
"*b 	c #B9B1A6",
"=b 	c #BEB5AA",
"-b 	c #BAB1A6",
";b 	c #9A9189",
">b 	c #5D5D5A",
",b 	c #2C2A2D",
"'b 	c #312F31",
")b 	c #0D0C0F",
"!b 	c #080609",
"~b 	c #2F2F2E",
"{b 	c #3F3D39",
"]b 	c #040404",
"^b 	c #090A0B",
"/b 	c #292526",
"(b 	c #313332",
"_b 	c #383A37",
":b 	c #2C2E2B",
"<b 	c #161719",
"[b 	c #3C3B35",
"}b 	c #332E2B",
"|b 	c #0E0D0C",
"1b 	c #050507",
"2b 	c #202121",
"3b 	c #40423F",
"4b 	c #3E3F3D",
"5b 	c #3E403C",
"6b 	c #111215",
"7b 	c #3F3733",
"8b 	c #403632",
"9b 	c #4B453D",
"0b 	c #6B6962",
"ab 	c #807E7A",
"bb 	c #7F7A74",
"cb 	c #7F786C",
"db 	c #898074",
"eb 	c #A2988A",
"fb 	c #AAA092",
"gb 	c #ACA294",
"hb 	c #9B9285",
"ib 	c #878376",
"jb 	c #7C7A71",
"kb 	c #807E77",
"lb 	c #7B7770",
"mb 	c #645D56",
"nb 	c #4B4641",
"ob 	c #2C2927",
"pb 	c #242526",
"qb 	c #111015",
"rb 	c #3C3D3C",
"sb 	c #847E74",
"tb 	c #7E796E",
"ub 	c #999288",
"vb 	c #B5ACA2",
"wb 	c #B5ACA1",
"xb 	c #AAA196",
"yb 	c #5F5A54",
"zb 	c #4F4E4A",
"Ab 	c #151619",
"Bb 	c #030206",
"Cb 	c #333534",
"Db 	c #3A3C3A",
"Eb 	c #3C3E3B",
"Fb 	c #050305",
"Gb 	c #0C090B",
"Hb 	c #282425",
"Ib 	c #231E1F",
"Jb 	c #211C1B",
"Kb 	c #3B3837",
"Lb 	c #3E3B3A",
"Mb 	c #2E2C2C",
"Nb 	c #2A2B2B",
"Ob 	c #333635",
"Pb 	c #373938",
"Qb 	c #2A2B29",
"Rb 	c #454544",
"Sb 	c #3A3836",
"Tb 	c #35343A",
"Ub 	c #313034",
"Vb 	c #262320",
"Wb 	c #080707",
"Xb 	c #060609",
"Yb 	c #0E0C0F",
"Zb 	c #393A35",
"`b 	c #3C3B3A",
" c 	c #232322",
".c 	c #3F403D",
"+c 	c #323231",
"@c 	c #101115",
"#c 	c #050609",
"$c 	c #020306",
"%c 	c #1C1514",
"&c 	c #382A26",
"*c 	c #37231E",
"=c 	c #39261C",
"-c 	c #4B3B2E",
";c 	c #5C4D42",
">c 	c #5F4D40",
",c 	c #604B39",
"'c 	c #644E39",
")c 	c #745D46",
"!c 	c #77604A",
"~c 	c #7D6752",
"{c 	c #806D5C",
"]c 	c #897F71",
"^c 	c #878279",
"/c 	c #85817C",
"(c 	c #7C7770",
"_c 	c #645A53",
":c 	c #544B44",
"<c 	c #4A433D",
"[c 	c #2F2A27",
"}c 	c #0F0F15",
"|c 	c #100E14",
"1c 	c #1D1E1F",
"2c 	c #424142",
"3c 	c #5E5953",
"4c 	c #868077",
"5c 	c #837E74",
"6c 	c #7D776E",
"7c 	c #968F87",
"8c 	c #B0A79D",
"9c 	c #ADA498",
"0c 	c #9A9085",
"ac 	c #7C736A",
"bc 	c #5B554F",
"cc 	c #544F4C",
"dc 	c #5D5B57",
"ec 	c #0F0D11",
"fc 	c #020106",
"gc 	c #0C0A0D",
"hc 	c #1D1D1D",
"ic 	c #343534",
"jc 	c #424141",
"kc 	c #383937",
"lc 	c #403F3B",
"mc 	c #40403B",
"nc 	c #29292D",
"oc 	c #0D0C10",
"pc 	c #0C0A0A",
"qc 	c #2B2627",
"rc 	c #211D1B",
"sc 	c #413D3C",
"tc 	c #433F3F",
"uc 	c #2F3030",
"vc 	c #2D302E",
"wc 	c #06060A",
"xc 	c #09090D",
"yc 	c #25262D",
"zc 	c #36373D",
"Ac 	c #333337",
"Bc 	c #2C2928",
"Cc 	c #0C0B0A",
"Dc 	c #070709",
"Ec 	c #1B1A20",
"Fc 	c #27272B",
"Gc 	c #2C2B2F",
"Hc 	c #3F3E3F",
"Ic 	c #393B36",
"Jc 	c #393A36",
"Kc 	c #1A1B1A",
"Lc 	c #3A3838",
"Mc 	c #414240",
"Nc 	c #42433F",
"Oc 	c #474743",
"Pc 	c #1B1413",
"Qc 	c #382622",
"Rc 	c #3B1F18",
"Sc 	c #3D1F12",
"Tc 	c #472B1A",
"Uc 	c #533826",
"Vc 	c #583A25",
"Wc 	c #57371C",
"Xc 	c #573519",
"Yc 	c #5C3A1D",
"Zc 	c #5A391B",
"`c 	c #604224",
" d 	c #6C533C",
".d 	c #8A7B6C",
"+d 	c #918B82",
"@d 	c #8D8982",
"#d 	c #7F7B73",
"$d 	c #645A52",
"%d 	c #544A42",
"&d 	c #4C443D",
"*d 	c #312C28",
"=d 	c #070606",
"-d 	c #393B3A",
";d 	c #414041",
">d 	c #5E5A54",
",d 	c #857F76",
"'d 	c #847E75",
")d 	c #7E776F",
"!d 	c #958F86",
"~d 	c #AFA79B",
"{d 	c #AAA194",
"]d 	c #958C7F",
"^d 	c #776F64",
"/d 	c #57534E",
"(d 	c #575651",
"_d 	c #0F0E15",
":d 	c #353337",
"<d 	c #2F2D32",
"[d 	c #242727",
"}d 	c #252828",
"|d 	c #07050A",
"1d 	c #343633",
"2d 	c #3B3C38",
"3d 	c #454441",
"4d 	c #43433F",
"5d 	c #292425",
"6d 	c #241F1E",
"7d 	c #3E3A39",
"8d 	c #2D302F",
"9d 	c #312F2D",
"0d 	c #18161C",
"ad 	c #23232A",
"bd 	c #2F3036",
"cd 	c #2D2D31",
"dd 	c #302F2C",
"ed 	c #2E2C29",
"fd 	c #454341",
"gd 	c #211F26",
"hd 	c #222227",
"id 	c #252429",
"jd 	c #232327",
"kd 	c #2C2C2F",
"ld 	c #353536",
"md 	c #383739",
"nd 	c #454642",
"od 	c #474844",
"pd 	c #494A46",
"qd 	c #474643",
"rd 	c #1A1312",
"sd 	c #36231F",
"td 	c #3D1E16",
"ud 	c #421E0F",
"vd 	c #4C2815",
"wd 	c #573520",
"xd 	c #5A361D",
"yd 	c #5D3719",
"zd 	c #5C3416",
"Ad 	c #623A1A",
"Bd 	c #603919",
"Cd 	c #5F3C1D",
"Dd 	c #694D35",
"Ed 	c #897969",
"Fd 	c #938D84",
"Gd 	c #8E8A84",
"Hd 	c #7F7971",
"Id 	c #635950",
"Jd 	c #51473E",
"Kd 	c #4B433C",
"Ld 	c #313234",
"Md 	c #070707",
"Nd 	c #5D5953",
"Od 	c #837D74",
"Pd 	c #7B756C",
"Qd 	c #938D82",
"Rd 	c #B2A99C",
"Sd 	c #B3A99B",
"Td 	c #A2978A",
"Ud 	c #837A6D",
"Vd 	c #595651",
"Wd 	c #393735",
"Xd 	c #27272A",
"Yd 	c #302E32",
"Zd 	c #2A2B2D",
"`d 	c #3A3C39",
" e 	c #3D3F3B",
".e 	c #2E2E2A",
"+e 	c #484744",
"@e 	c #4B4B47",
"#e 	c #010100",
"$e 	c #2B2626",
"%e 	c #241F1F",
"&e 	c #211B1A",
"*e 	c #3D3E3E",
"=e 	c #363938",
"-e 	c #313432",
";e 	c #313331",
">e 	c #2F302E",
",e 	c #1C1D1E",
"'e 	c #1E1D24",
")e 	c #232328",
"!e 	c #1F1E1D",
"~e 	c #292825",
"{e 	c #383636",
"]e 	c #322F31",
"^e 	c #0D0E11",
"/e 	c #1D1D22",
"(e 	c #1B1C20",
"_e 	c #3B3A3C",
":e 	c #0F0E0E",
"<e 	c #363736",
"[e 	c #2E2C2B",
"}e 	c #2C2C29",
"|e 	c #4D4D49",
"1e 	c #4F4F4B",
"2e 	c #494945",
"3e 	c #34221D",
"4e 	c #3C1E15",
"5e 	c #421D0D",
"6e 	c #4C2711",
"7e 	c #553119",
"8e 	c #573317",
"9e 	c #5B3615",
"0e 	c #5C3515",
"ae 	c #633C1A",
"be 	c #613A19",
"ce 	c #603C1D",
"de 	c #684E33",
"ee 	c #847662",
"fe 	c #8E887C",
"ge 	c #89857C",
"he 	c #777168",
"ie 	c #60574C",
"je 	c #4F463D",
"ke 	c #4A443B",
"le 	c #2E2B28",
"me 	c #3D3D3D",
"ne 	c #7F7970",
"oe 	c #777268",
"pe 	c #928D80",
"qe 	c #B9B2A4",
"re 	c #C5BBAC",
"se 	c #BEB3A3",
"te 	c #A19788",
"ue 	c #6E6859",
"ve 	c #5F574C",
"we 	c #6A655B",
"xe 	c #5E5B53",
"ye 	c #2F3033",
"ze 	c #323436",
"Ae 	c #2F3133",
"Be 	c #323335",
"Ce 	c #333436",
"De 	c #2E2E31",
"Ee 	c #121015",
"Fe 	c #333533",
"Ge 	c #333333",
"He 	c #191818",
"Ie 	c #2B2B28",
"Je 	c #4C4B47",
"Ke 	c #20201F",
"Le 	c #2A2425",
"Me 	c #2E292A",
"Ne 	c #474747",
"Oe 	c #404142",
"Pe 	c #1B1A21",
"Qe 	c #1D1B21",
"Re 	c #23211F",
"Se 	c #171515",
"Te 	c #0B0B0F",
"Ue 	c #3C3A3D",
"Ve 	c #403F41",
"We 	c #403E3E",
"Xe 	c #434141",
"Ye 	c #292926",
"Ze 	c #50504D",
"`e 	c #504F4C",
" f 	c #160F10",
".f 	c #2F1E1A",
"+f 	c #391B12",
"@f 	c #3E1A0C",
"#f 	c #46220E",
"$f 	c #4D2A14",
"%f 	c #502C12",
"&f 	c #532D10",
"*f 	c #5A3313",
"=f 	c #5F3717",
"-f 	c #633D1E",
";f 	c #65472D",
">f 	c #76644E",
",f 	c #766C5D",
"'f 	c #70675C",
")f 	c #63584D",
"!f 	c #564A3E",
"~f 	c #4C4137",
"{f 	c #484038",
"]f 	c #0A090F",
"^f 	c #3A3A3B",
"/f 	c #757067",
"(f 	c #706B61",
"_f 	c #8F8B7E",
":f 	c #BCB6A7",
"<f 	c #CCC4B3",
"[f 	c #CEC4B3",
"}f 	c #BAAE9F",
"|f 	c #837A6C",
"1f 	c #6A6155",
"2f 	c #766F65",
"3f 	c #646057",
"4f 	c #353738",
"5f 	c #393C3C",
"6f 	c #343738",
"7f 	c #2F3232",
"8f 	c #353838",
"9f 	c #363739",
"0f 	c #2A2A2C",
"af 	c #3B3D3B",
"bf 	c #171717",
"cf 	c #191919",
"df 	c #3D3D38",
"ef 	c #4C4B49",
"ff 	c #4C4C49",
"gf 	c #474744",
"hf 	c #3A3B38",
"if 	c #1F201F",
"jf 	c #08090D",
"kf 	c #231F22",
"lf 	c #2B2628",
"mf 	c #2E2829",
"nf 	c #2C2526",
"of 	c #2E2728",
"pf 	c #302B2B",
"qf 	c #2F2A2B",
"rf 	c #2F2B2C",
"sf 	c #2D2A2B",
"tf 	c #2D2A2C",
"uf 	c #414242",
"vf 	c #3F4041",
"wf 	c #232423",
"xf 	c #19171E",
"yf 	c #1A181F",
"zf 	c #1D1D1C",
"Af 	c #1E1E1D",
"Bf 	c #0C0B0B",
"Cf 	c #100F15",
"Df 	c #17181A",
"Ef 	c #2B2C2D",
"Ff 	c #3A3A3C",
"Gf 	c #414142",
"Hf 	c #424140",
"If 	c #2C2D2A",
"Jf 	c #2D2E2B",
"Kf 	c #52534F",
"Lf 	c #535450",
"Mf 	c #4E4F4C",
"Nf 	c #030406",
"Of 	c #161111",
"Pf 	c #2E201B",
"Qf 	c #361D13",
"Rf 	c #3C1D0F",
"Sf 	c #412210",
"Tf 	c #492A14",
"Uf 	c #4B2911",
"Vf 	c #4F2C10",
"Wf 	c #563111",
"Xf 	c #603916",
"Yf 	c #623A18",
"Zf 	c #67411F",
"`f 	c #664428",
" g 	c #6A563D",
".g 	c #5F513F",
"+g 	c #564A3B",
"@g 	c #4D3F33",
"#g 	c #4C3E30",
"$g 	c #4C3F34",
"%g 	c #4C453A",
"&g 	c #262929",
"*g 	c #0B0B0A",
"=g 	c #736E64",
"-g 	c #6E6960",
";g 	c #908A7E",
">g 	c #BDB7A8",
",g 	c #CCC5B5",
"'g 	c #CEC5B5",
")g 	c #C0B6A7",
"!g 	c #90887A",
"~g 	c #787064",
"{g 	c #6A675E",
"]g 	c #100E13",
"^g 	c #36393A",
"/g 	c #333537",
"(g 	c #2E3132",
"_g 	c #303333",
":g 	c #353537",
"<g 	c #333335",
"[g 	c #353737",
"}g 	c #3D3E3D",
"|g 	c #464545",
"1g 	c #484746",
"2g 	c #262226",
"3g 	c #262125",
"4g 	c #2C2729",
"5g 	c #2E2729",
"6g 	c #2E2628",
"7g 	c #2F2728",
"8g 	c #2D2628",
"9g 	c #2D2829",
"0g 	c #2B272A",
"ag 	c #343435",
"bg 	c #373739",
"cg 	c #39393A",
"dg 	c #1B171D",
"eg 	c #1A171E",
"fg 	c #1A181E",
"gg 	c #060607",
"hg 	c #3E3D3F",
"ig 	c #3D3D3F",
"jg 	c #302E30",
"kg 	c #4D4C4C",
"lg 	c #4F4F4E",
"mg 	c #51514F",
"ng 	c #4B4A4A",
"og 	c #08090C",
"pg 	c #271F1B",
"qg 	c #2E1E17",
"rg 	c #352015",
"sg 	c #392115",
"tg 	c #402818",
"ug 	c #442814",
"vg 	c #492B11",
"wg 	c #512D10",
"xg 	c #5D3716",
"yg 	c #623918",
"zg 	c #663C1C",
"Ag 	c #694529",
"Bg 	c #715941",
"Cg 	c #665543",
"Dg 	c #594B3B",
"Eg 	c #4B3D2E",
"Fg 	c #4E3F30",
"Gg 	c #4E4035",
"Hg 	c #4E463C",
"Ig 	c #343536",
"Jg 	c #312E2D",
"Kg 	c #777169",
"Lg 	c #746F67",
"Mg 	c #6E6961",
"Ng 	c #8E897D",
"Og 	c #CAC3B4",
"Pg 	c #CCC4B4",
"Qg 	c #BCB5A7",
"Rg 	c #8D877C",
"Sg 	c #766F66",
"Tg 	c #827C74",
"Ug 	c #69665F",
"Vg 	c #212224",
"Wg 	c #212225",
"Xg 	c #232428",
"Yg 	c #242429",
"Zg 	c #292B2E",
"`g 	c #292A2D",
" h 	c #191A1D",
".h 	c #090A0D",
"+h 	c #241F23",
"@h 	c #2C2629",
"#h 	c #2D2629",
"$h 	c #2A2325",
"%h 	c #2B2426",
"&h 	c #2A2626",
"*h 	c #2B2729",
"=h 	c #2A2629",
"-h 	c #1C191F",
";h 	c #1D1A20",
">h 	c #413F3E",
",h 	c #252629",
"'h 	c #17181B",
")h 	c #111216",
"!h 	c #06070A",
"~h 	c #2F2928",
"{h 	c #362D28",
"]h 	c #392E28",
"^h 	c #3F3229",
"/h 	c #443426",
"(h 	c #4D3723",
"_h 	c #55381F",
":h 	c #5F3A1D",
"<h 	c #663E1D",
"[h 	c #69411E",
"}h 	c #704D2F",
"|h 	c #8B735C",
"1h 	c #928471",
"2h 	c #847969",
"3h 	c #746B5A",
"4h 	c #695D4E",
"5h 	c #584C41",
"6h 	c #504A40",
"7h 	c #2D3031",
"8h 	c #322F2E",
"9h 	c #7A756D",
"0h 	c #77736B",
"ah 	c #706B63",
"bh 	c #8F8A7E",
"ch 	c #BBB5A6",
"dh 	c #C9C2B2",
"eh 	c #C9C1B3",
"fh 	c #B5AFA3",
"gh 	c #838075",
"hh 	c #6D6961",
"ih 	c #7B7771",
"jh 	c #65635D",
"kh 	c #393639",
"lh 	c #1A1B20",
"mh 	c #262529",
"nh 	c #2F2D30",
"oh 	c #323033",
"ph 	c #2C2A2E",
"qh 	c #0A0B0F",
"rh 	c #42423D",
"sh 	c #0C0B12",
"th 	c #09080E",
"uh 	c #08070D",
"vh 	c #07060C",
"wh 	c #050607",
"xh 	c #080908",
"yh 	c #0A0A0A",
"zh 	c #2A272B",
"Ah 	c #1F1A1F",
"Bh 	c #272025",
"Ch 	c #262023",
"Dh 	c #211C1E",
"Eh 	c #201A1D",
"Fh 	c #252023",
"Gh 	c #252124",
"Hh 	c #252225",
"Ih 	c #1B181F",
"Jh 	c #1C1A20",
"Kh 	c #1D1A21",
"Lh 	c #37373A",
"Mh 	c #222025",
"Nh 	c #222126",
"Oh 	c #211F25",
"Ph 	c #403D3D",
"Qh 	c #403E3D",
"Rh 	c #252328",
"Sh 	c #06050C",
"Th 	c #0A080C",
"Uh 	c #010205",
"Vh 	c #05060A",
"Wh 	c #36373B",
"Xh 	c #3C3C40",
"Yh 	c #404041",
"Zh 	c #5C4533",
"`h 	c #614127",
" i 	c #653D20",
".i 	c #673F1E",
"+i 	c #724F30",
"@i 	c #9B866D",
"#i 	c #B6AD9B",
"$i 	c #B7AFA3",
"%i 	c #B0A99B",
"&i 	c #948A7D",
"*i 	c #4D483F",
"=i 	c #030408",
"-i 	c #08080D",
";i 	c #5D5854",
">i 	c #78726B",
",i 	c #8E887D",
"'i 	c #B9B3A5",
")i 	c #C6BFB0",
"!i 	c #C5BDB0",
"~i 	c #ACA89D",
"{i 	c #747269",
"]i 	c #6E6B66",
"^i 	c #0B0A10",
"/i 	c #434044",
"(i 	c #474548",
"_i 	c #3A383B",
":i 	c #302F32",
"<i 	c #221F25",
"[i 	c #0F1015",
"}i 	c #14131B",
"|i 	c #13131A",
"1i 	c #15141B",
"2i 	c #302D31",
"3i 	c #2E2C30",
"4i 	c #333134",
"5i 	c #0D0B13",
"6i 	c #0C0B13",
"7i 	c #09080F",
"8i 	c #07060D",
"9i 	c #05040B",
"0i 	c #04030A",
"ai 	c #020107",
"bi 	c #1F1F25",
"ci 	c #1A1B1F",
"di 	c #1C181D",
"ei 	c #1D181D",
"fi 	c #221D22",
"gi 	c #201B1F",
"hi 	c #1A1619",
"ii 	c #1C1920",
"ji 	c #1B1920",
"ki 	c #1C1A21",
"li 	c #1D1B22",
"mi 	c #040409",
"ni 	c #414044",
"oi 	c #26252A",
"pi 	c #1B191F",
"qi 	c #1E1C23",
"ri 	c #1E1C24",
"si 	c #1D1B23",
"ti 	c #212026",
"ui 	c #363334",
"vi 	c #413E3E",
"wi 	c #08070F",
"xi 	c #020109",
"yi 	c #030209",
"zi 	c #020105",
"Ai 	c #09090C",
"Bi 	c #3D3F42",
"Ci 	c #434447",
"Di 	c #434547",
"Ei 	c #444648",
"Fi 	c #4B4D4D",
"Gi 	c #585147",
"Hi 	c #5A4835",
"Ii 	c #5F4228",
"Ji 	c #643E22",
"Ki 	c #643C1D",
"Li 	c #9A866D",
"Mi 	c #B7AE9E",
"Ni 	c #C2BBB0",
"Oi 	c #C7BFB1",
"Pi 	c #A4998C",
"Qi 	c #625B4D",
"Ri 	c #4B473E",
"Si 	c #2E3134",
"Ti 	c #151615",
"Ui 	c #322E2D",
"Vi 	c #5E5853",
"Wi 	c #7B756D",
"Xi 	c #79736B",
"Yi 	c #716B62",
"Zi 	c #B8B2A4",
"`i 	c #C5BEAF",
" j 	c #C3BCAF",
".j 	c #A9A499",
"+j 	c #706D65",
"@j 	c #686561",
"#j 	c #0A080F",
"$j 	c #3F3D40",
"%j 	c #454345",
"&j 	c #373538",
"*j 	c #343335",
"=j 	c #0F1016",
"-j 	c #111118",
";j 	c #13121A",
">j 	c #201E24",
",j 	c #2B292E",
"'j 	c #2A292D",
")j 	c #2F2D31",
"!j 	c #131319",
"~j 	c #16151B",
"{j 	c #0B0A12",
"]j 	c #0A0911",
"^j 	c #090810",
"/j 	c #05030A",
"(j 	c #040309",
"_j 	c #030208",
":j 	c #1E1E24",
"<j 	c #090A09",
"[j 	c #1A161B",
"}j 	c #19151A",
"|j 	c #1E1A1F",
"1j 	c #15131A",
"2j 	c #06070C",
"3j 	c #232125",
"4j 	c #393838",
"5j 	c #110F16",
"6j 	c #100E15",
"7j 	c #2A282D",
"8j 	c #1D1C22",
"9j 	c #1D1C23",
"0j 	c #1A1922",
"aj 	c #1C1B22",
"bj 	c #212027",
"cj 	c #27262B",
"dj 	c #353335",
"ej 	c #3F3D3C",
"fj 	c #1F1D22",
"gj 	c #17151C",
"hj 	c #09070F",
"ij 	c #04020B",
"jj 	c #040308",
"kj 	c #040207",
"lj 	c #050308",
"mj 	c #383A3E",
"nj 	c #414245",
"oj 	c #4B4C4C",
"pj 	c #4F4C4A",
"qj 	c #564D43",
"rj 	c #56422F",
"sj 	c #5B3B22",
"tj 	c #673F21",
"uj 	c #643A19",
"vj 	c #734E2E",
"wj 	c #9D856D",
"xj 	c #B8AE9B",
"yj 	c #C1B9AA",
"zj 	c #BFB5A5",
"Aj 	c #978B7A",
"Bj 	c #5D5345",
"Cj 	c #484239",
"Dj 	c #5D5650",
"Ej 	c #7A726A",
"Fj 	c #777067",
"Gj 	c #706960",
"Hj 	c #8C857A",
"Ij 	c #B8B0A3",
"Jj 	c #C4BCAE",
"Kj 	c #C2BAAD",
"Lj 	c #716D67",
"Mj 	c #585552",
"Nj 	c #65635F",
"Oj 	c #555351",
"Pj 	c #29272B",
"Qj 	c #16141A",
"Rj 	c #101117",
"Sj 	c #111119",
"Tj 	c #121219",
"Uj 	c #252329",
"Vj 	c #242227",
"Wj 	c #0C0A10",
"Xj 	c #06040B",
"Yj 	c #050309",
"Zj 	c #040209",
"`j 	c #07050B",
" k 	c #212127",
".k 	c #16161D",
"+k 	c #242226",
"@k 	c #0D0B0F",
"#k 	c #07050C",
"$k 	c #06050B",
"%k 	c #08060C",
"&k 	c #09070D",
"*k 	c #0B0B11",
"=k 	c #0B0A11",
"-k 	c #0D0D13",
";k 	c #2D2C30",
">k 	c #303034",
",k 	c #0F0D14",
"'k 	c #1A1920",
")k 	c #191820",
"!k 	c #17161F",
"~k 	c #181720",
"{k 	c #16151E",
"]k 	c #1D1B24",
"^k 	c #26252B",
"/k 	c #17151D",
"(k 	c #0B0911",
"_k 	c #0B0912",
":k 	c #0D0B12",
"<k 	c #343739",
"[k 	c #37383B",
"}k 	c #4B4B4A",
"|k 	c #563F2A",
"1k 	c #5C3A21",
"2k 	c #673F1F",
"3k 	c #673D19",
"4k 	c #795631",
"5k 	c #A38D70",
"6k 	c #B3A690",
"7k 	c #ADA28F",
"8k 	c #A0937E",
"9k 	c #7E6E59",
"0k 	c #574A39",
"ak 	c #4B4439",
"bk 	c #181816",
"ck 	c #020201",
"dk 	c #5D554F",
"ek 	c #787168",
"fk 	c #70685F",
"gk 	c #8C8478",
"hk 	c #B7B0A2",
"ik 	c #C2BBAE",
"jk 	c #ABA69B",
"kk 	c #736F69",
"lk 	c #595653",
"mk 	c #64625F",
"nk 	c #545351",
"ok 	c #18161E",
"pk 	c #14121A",
"qk 	c #0D0C13",
"rk 	c #0E0C11",
"sk 	c #100F17",
"tk 	c #15141C",
"uk 	c #16141B",
"vk 	c #19171F",
"wk 	c #040208",
"xk 	c #030107",
"yk 	c #222128",
"zk 	c #1D1D24",
"Ak 	c #211E23",
"Bk 	c #0A090D",
"Ck 	c #030207",
"Dk 	c #050409",
"Ek 	c #05040A",
"Fk 	c #09070E",
"Gk 	c #07070D",
"Hk 	c #05050C",
"Ik 	c #05050B",
"Jk 	c #04040A",
"Kk 	c #0B0B12",
"Lk 	c #0E0C0E",
"Mk 	c #2B2A2E",
"Nk 	c #2E2D33",
"Ok 	c #242328",
"Pk 	c #100D14",
"Qk 	c #18161D",
"Rk 	c #19181F",
"Sk 	c #17151E",
"Tk 	c #14131C",
"Uk 	c #13121B",
"Vk 	c #1C1B23",
"Wk 	c #26252C",
"Xk 	c #29282E",
"Yk 	c #27262C",
"Zk 	c #312E2F",
"`k 	c #302D2F",
" l 	c #0A0810",
".l 	c #0A0811",
"+l 	c #100E16",
"@l 	c #333235",
"#l 	c #464546",
"$l 	c #4B4543",
"%l 	c #534438",
"&l 	c #553B25",
"*l 	c #5D381F",
"=l 	c #653C1E",
"-l 	c #663C17",
";l 	c #7E5935",
">l 	c #A58D6F",
",l 	c #A99980",
"'l 	c #97896F",
")l 	c #806F56",
"!l 	c #6B5840",
"~l 	c #584736",
"{l 	c #564B3E",
"]l 	c #191815",
"^l 	c #030101",
"/l 	c #322C2A",
"(l 	c #5A524C",
"_l 	c #766D65",
":l 	c #766C65",
"<l 	c #6E645D",
"[l 	c #898075",
"}l 	c #B6AEA0",
"|l 	c #C3BBAD",
"1l 	c #C2BAAE",
"2l 	c #AAA49B",
"3l 	c #706C67",
"4l 	c #55514F",
"5l 	c #625F5E",
"6l 	c #535150",
"7l 	c #0D0C14",
"8l 	c #121218",
"9l 	c #030106",
"0l 	c #0D0C12",
"al 	c #222229",
"bl 	c #07080B",
"cl 	c #06060B",
"dl 	c #08090E",
"el 	c #020308",
"fl 	c #0B0C11",
"gl 	c #29292E",
"hl 	c #27272C",
"il 	c #25242A",
"jl 	c #1D1D23",
"kl 	c #121017",
"ll 	c #4C4640",
"ml 	c #524133",
"nl 	c #543A23",
"ol 	c #5E3C1F",
"pl 	c #653C17",
"ql 	c #826038",
"rl 	c #AE997A",
"sl 	c #AFA288",
"tl 	c #9B8E75",
"ul 	c #82715A",
"vl 	c #6E5C45",
"wl 	c #604F3D",
"xl 	c #5F5646",
"yl 	c #4D4942",
"zl 	c #1D1C19",
"Al 	c #040201",
"Bl 	c #574F49",
"Cl 	c #726861",
"Dl 	c #736963",
"El 	c #6A6059",
"Fl 	c #877E72",
"Gl 	c #B7AFA1",
"Hl 	c #ABA59A",
"Il 	c #2D2A2D",
"Jl 	c #101017",
"Kl 	c #0C0A12",
"Ll 	c #060408",
"Ml 	c #010202",
"Nl 	c #0E0E14",
"Ol 	c #3F3D3E",
"Pl 	c #484545",
"Ql 	c #4F3C2C",
"Rl 	c #4F341D",
"Sl 	c #5B391E",
"Tl 	c #623A1D",
"Ul 	c #633A16",
"Vl 	c #82633C",
"Wl 	c #B9AA8F",
"Xl 	c #C7C0AD",
"Yl 	c #BBB2A1",
"Zl 	c #9E937F",
"`l 	c #7D6F5A",
" m 	c #645644",
".m 	c #5F5547",
"+m 	c #1F1F1C",
"@m 	c #040202",
"#m 	c #514943",
"$m 	c #645B54",
"%m 	c #625953",
"&m 	c #5B524B",
"*m 	c #81786D",
"=m 	c #B9B0A3",
"-m 	c #C4BCAF",
";m 	c #ABA69C",
">m 	c #514E4B",
",m 	c #504E4D",
"'m 	c #030308",
")m 	c #0D0A0F",
"!m 	c #030102",
"~m 	c #030202",
"{m 	c #090908",
"]m 	c #010004",
"^m 	c #040405",
"/m 	c #040204",
"(m 	c #3B3738",
"_m 	c #45403E",
":m 	c #473C33",
"<m 	c #4F3A27",
"[m 	c #50341B",
"}m 	c #59381C",
"|m 	c #5D361A",
"1m 	c #603B17",
"2m 	c #856943",
"3m 	c #C4B9A2",
"4m 	c #D6D4C7",
"5m 	c #D1CEC0",
"6m 	c #B8B29F",
"7m 	c #908771",
"8m 	c #6B604D",
"9m 	c #5F5749",
"0m 	c #514F49",
"am 	c #21221F",
"bm 	c #050403",
"cm 	c #4E4540",
"dm 	c #5C534B",
"em 	c #564F47",
"fm 	c #514A42",
"gm 	c #7F766C",
"hm 	c #BBB2A5",
"im 	c #C8C0B1",
"jm 	c #C3BDAF",
"km 	c #AEA99E",
"lm 	c #726F68",
"mm 	c #4E4D4A",
"nm 	c #0E0C12",
"om 	c #070507",
"pm 	c #322C2B",
"qm 	c #3B3330",
"rm 	c #403128",
"sm 	c #4B321F",
"tm 	c #513117",
"um 	c #5C3819",
"vm 	c #5B3314",
"wm 	c #5F3A14",
"xm 	c #866943",
"ym 	c #C8BBA5",
"zm 	c #D6D5C8",
"Am 	c #D0CFC1",
"Bm 	c #BCB7A6",
"Cm 	c #968C79",
"Dm 	c #6F6452",
"Em 	c #5E5648",
"Fm 	c #23221F",
"Gm 	c #2F2927",
"Hm 	c #4D4540",
"Im 	c #5B534C",
"Jm 	c #585049",
"Km 	c #534C45",
"Lm 	c #80776D",
"Mm 	c #BBB3A6",
"Nm 	c #C5BEB0",
"Om 	c #B0AAA0",
"Pm 	c #74706A",
"Qm 	c #575552",
"Rm 	c #322E2E",
"Sm 	c #000100",
"Tm 	c #000101",
"Um 	c #020100",
"Vm 	c #030201",
"Wm 	c #191A1B",
"Xm 	c #312B2C",
"Ym 	c #2B2624",
"Zm 	c #382F2B",
"`m 	c #3E2C24",
" n 	c #50341F",
".n 	c #5D391A",
"+n 	c #694019",
"@n 	c #663912",
"#n 	c #6C4315",
"$n 	c #907144",
"%n 	c #CAB89D",
"&n 	c #D4D0BD",
"*n 	c #C9C7B5",
"=n 	c #B8B39E",
"-n 	c #988D78",
";n 	c #716553",
">n 	c #5E5547",
",n 	c #4E4A42",
"'n 	c #24221E",
")n 	c #060403",
"!n 	c #2E2926",
"~n 	c #5C554E",
"{n 	c #837B70",
"]n 	c #BBB4A6",
"^n 	c #C8C1B2",
"/n 	c #B1ABA0",
"(n 	c #76726B",
"_n 	c #53504C",
":n 	c #020001",
"<n 	c #322C2D",
"[n 	c #3E3430",
"}n 	c #443129",
"|n 	c #573A25",
"1n 	c #6A4420",
"2n 	c #815422",
"3n 	c #865520",
"4n 	c #8F6028",
"5n 	c #9B7643",
"6n 	c #AF9976",
"7n 	c #ABA18A",
"8n 	c #A39C87",
"9n 	c #958D75",
"0n 	c #7E745C",
"an 	c #645947",
"bn 	c #564F3F",
"cn 	c #46433B",
"dn 	c #33312D",
"en 	c #21201C",
"fn 	c #4B4540",
"gn 	c #5D5550",
"hn 	c #827C70",
"in 	c #B9B2A5",
"jn 	c #C8C1B3",
"kn 	c #AEA89D",
"ln 	c #75726A",
"mn 	c #53504B",
"nn 	c #010201",
"on 	c #020303",
"pn 	c #000102",
"qn 	c #030100",
"rn 	c #020200",
"sn 	c #393534",
"tn 	c #4B423F",
"un 	c #534338",
"vn 	c #674E31",
"wn 	c #7D592A",
"xn 	c #9F7333",
"yn 	c #AE7936",
"zn 	c #B6833E",
"An 	c #9F7439",
"Bn 	c #7B5F36",
"Cn 	c #605035",
"Dn 	c #544934",
"En 	c #4D412B",
"Fn 	c #4A3C27",
"Gn 	c #433624",
"Hn 	c #3F3628",
"In 	c #2E2821",
"Jn 	c #1D1A19",
"Kn 	c #1D1B18",
"Ln 	c #22201B",
"Mn 	c #171512",
"Nn 	c #040403",
"On 	c #5D5651",
"Pn 	c #5D5751",
"Qn 	c #857E73",
"Rn 	c #BBB4A7",
"Sn 	c #C8C2B3",
"Tn 	c #C5C0B1",
"Un 	c #ADA89C",
"Vn 	c #757269",
"Wn 	c #55524D",
"Xn 	c #52524F",
"Yn 	c #3D3738",
"Zn 	c #514F4E",
"`n 	c #58504C",
" o 	c #5B483E",
".o 	c #6C5033",
"+o 	c #825A29",
"@o 	c #A97834",
"#o 	c #BD853A",
"$o 	c #C2883C",
"%o 	c #A06D2E",
"&o 	c #664219",
"*o 	c #3D2610",
"=o 	c #332312",
"-o 	c #301E0C",
";o 	c #382412",
">o 	c #3A2819",
",o 	c #372B1D",
"'o 	c #231B14",
")o 	c #15100F",
"!o 	c #171211",
"~o 	c #1B1713",
"{o 	c #130F0D",
"]o 	c #4B4643",
"^o 	c #5D5752",
"/o 	c #5A534D",
"(o 	c #867E74",
"_o 	c #BCB4A7",
":o 	c #C4BEB0",
"<o 	c #56534E",
"[o 	c #3A3738",
"}o 	c #040402",
"|o 	c #060503",
"1o 	c #040302",
"2o 	c #060304",
"3o 	c #090506",
"4o 	c #070404",
"5o 	c #050303",
"6o 	c #050302",
"7o 	c #030200",
"8o 	c #050201",
"9o 	c #040200",
"0o 	c #040301",
"ao 	c #050301",
"bo 	c #060402",
"co 	c #060302",
"do 	c #050202",
"eo 	c #413C3B",
"fo 	c #53534F",
"go 	c #5B524D",
"ho 	c #5C463C",
"io 	c #705031",
"jo 	c #885E29",
"ko 	c #AB7931",
"lo 	c #BE8536",
"mo 	c #C28938",
"no 	c #9F6B27",
"oo 	c #664116",
"po 	c #3F2811",
"qo 	c #372512",
"ro 	c #372310",
"so 	c #3E2814",
"to 	c #402D1B",
"uo 	c #3C2E1F",
"vo 	c #271F18",
"wo 	c #1B1716",
"xo 	c #1E1A18",
"yo 	c #201C18",
"zo 	c #16120F",
"Ao 	c #5D5853",
"Bo 	c #5D5852",
"Co 	c #888176",
"Do 	c #BDB6A8",
"Eo 	c #C6C0B1",
"Fo 	c #B0AB9F",
"Go 	c #79766D",
"Ho 	c #565552",
"Io 	c #393636",
"Jo 	c #171514",
"Ko 	c #13110E",
"Lo 	c #0E0D0A",
"Mo 	c #0C0B08",
"No 	c #0A0907",
"Oo 	c #090907",
"Po 	c #0B0909",
"Qo 	c #100E0E",
"Ro 	c #161413",
"So 	c #141312",
"To 	c #0E0E0D",
"Uo 	c #070706",
"Vo 	c #060504",
"Wo 	c #090807",
"Xo 	c #121210",
"Yo 	c #181715",
"Zo 	c #181616",
"`o 	c #0D0D0C",
" p 	c #090706",
".p 	c #161513",
"+p 	c #24211E",
"@p 	c #23211D",
"#p 	c #211F1B",
"$p 	c #201D1A",
"%p 	c #1C1A17",
"&p 	c #171613",
"*p 	c #100E0C",
"=p 	c #0B0807",
"-p 	c #0A0706",
";p 	c #120F0C",
">p 	c #13100E",
",p 	c #14120F",
"'p 	c #0F0C0B",
")p 	c #0E0D0B",
"!p 	c #272623",
"~p 	c #151412",
"{p 	c #181813",
"]p 	c #21201A",
"^p 	c #25241D",
"/p 	c #24231D",
"(p 	c #22211C",
"_p 	c #1F1D18",
":p 	c #1B1A15",
"<p 	c #171712",
"[p 	c #151510",
"}p 	c #12120D",
"|p 	c #11110C",
"1p 	c #0F0F0B",
"2p 	c #10100B",
"3p 	c #0F100C",
"4p 	c #141410",
"5p 	c #1A1A16",
"6p 	c #1D1D19",
"7p 	c #1E1E1B",
"8p 	c #20201D",
"9p 	c #222320",
"0p 	c #110F0F",
"ap 	c #0D0C0B",
"bp 	c #0F0E0C",
"cp 	c #141311",
"dp 	c #1E1D1A",
"ep 	c #262420",
"fp 	c #292622",
"gp 	c #2A2623",
"hp 	c #2A2723",
"ip 	c #292722",
"jp 	c #2B2824",
"kp 	c #332E25",
"lp 	c #342F26",
"mp 	c #342E27",
"np 	c #312D28",
"op 	c #312C29",
"pp 	c #2F2A28",
"qp 	c #373131",
"rp 	c #3B3636",
"sp 	c #353030",
"tp 	c #0E0E0E",
"up 	c #0D0B09",
"vp 	c #0B0A07",
"wp 	c #0B0907",
"xp 	c #0E0C0C",
"yp 	c #0E0D0D",
"zp 	c #100D0E",
"Ap 	c #100E0D",
"Bp 	c #131010",
"Cp 	c #1A1715",
"Dp 	c #1C1A16",
"Ep 	c #1D1A14",
"Fp 	c #1F1C16",
"Gp 	c #201C17",
"Hp 	c #211E18",
"Ip 	c #201D18",
"Jp 	c #1D1B15",
"Kp 	c #15120F",
"Lp 	c #110F0C",
"Mp 	c #0D0C0A",
"Np 	c #0D0C09",
"Op 	c #0C0A08",
"Pp 	c #0C0A09",
"Qp 	c #0A0908",
"Rp 	c #0F0D0B",
"Sp 	c #1D1A17",
"Tp 	c #1D1916",
"Up 	c #191612",
"Vp 	c #0A0807",
"Wp 	c #171614",
"Xp 	c #201E1B",
"Yp 	c #23211C",
"Zp 	c #26231E",
"`p 	c #292621",
" q 	c #282421",
".q 	c #26231F",
"+q 	c #24221D",
"@q 	c #24211C",
"#q 	c #23201B",
"$q 	c #221F1A",
"%q 	c #211E19",
"&q 	c #221D18",
"*q 	c #211D18",
"=q 	c #211D17",
"-q 	c #221E18",
";q 	c #231F1A",
">q 	c #24201B",
",q 	c #25201B",
"'q 	c #26211B",
")q 	c #27221B",
"!q 	c #27221C",
"~q 	c #26221C",
"{q 	c #27221D",
"]q 	c #28231D",
"^q 	c #28241D",
"/q 	c #28251E",
"(q 	c #29251F",
"_q 	c #2A2620",
":q 	c #2B2620",
"<q 	c #2A251F",
"[q 	c #26221D",
"}q 	c #191614",
"|q 	c #131110",
"1q 	c #0B0808",
"2q 	c #0C0907",
"3q 	c #0C0909",
"4q 	c #0A0808",
"5q 	c #0F0C0E",
"6q 	c #120F14",
"7q 	c #403938",
"8q 	c #3D3636",
"9q 	c #564842",
"0q 	c #604536",
"aq 	c #7F5933",
"bq 	c #996C34",
"cq 	c #AD7B35",
"dq 	c #B0782F",
"eq 	c #B0782C",
"fq 	c #8E5B1C",
"gq 	c #59350F",
"hq 	c #38210D",
"iq 	c #342110",
"jq 	c #311D0B",
"kq 	c #3A2310",
"lq 	c #3E2918",
"mq 	c #372A1C",
"nq 	c #251E19",
"oq 	c #231E1C",
"pq 	c #15110F",
"qq 	c #8A8377",
"rq 	c #C0B8AA",
"sq 	c #CDC5B6",
"tq 	c #C9C2B3",
"uq 	c #B4AEA2",
"vq 	c #7D7870",
"wq 	c #666360",
"xq 	c #565452",
"yq 	c #363333",
"zq 	c #2D2A26",
"Aq 	c #282520",
"Bq 	c #3D3A39",
"Cq 	c #171714",
"Dq 	c #1A1917",
"Eq 	c #474746",
"Fq 	c #0C0C0B",
"Gq 	c #43403D",
"Hq 	c #5B5753",
"Iq 	c #585651",
"Jq 	c #494642",
"Kq 	c #1A1613",
"Lq 	c #1A1612",
"Mq 	c #656562",
"Nq 	c #767672",
"Oq 	c #757470",
"Pq 	c #757370",
"Qq 	c #6C6A68",
"Rq 	c #5F5D5C",
"Sq 	c #070605",
"Tq 	c #363530",
"Uq 	c #4B4942",
"Vq 	c #504F46",
"Wq 	c #4F4D45",
"Xq 	c #4C4A42",
"Yq 	c #46433C",
"Zq 	c #413F37",
"`q 	c #3D3C34",
" r 	c #3B3A32",
".r 	c #393730",
"+r 	c #37362F",
"@r 	c #35332C",
"#r 	c #34332B",
"$r 	c #34332C",
"%r 	c #3E3C36",
"&r 	c #4B4A44",
"*r 	c #51504A",
"=r 	c #55534E",
"-r 	c #575550",
";r 	c #595752",
">r 	c #5A5854",
",r 	c #5B5956",
"'r 	c #5B5955",
")r 	c #151411",
"!r 	c #181614",
"~r 	c #56544E",
"{r 	c #59554E",
"]r 	c #656055",
"^r 	c #676157",
"/r 	c #676159",
"(r 	c #666059",
"_r 	c #66605A",
":r 	c #655E5A",
"<r 	c #655F59",
"[r 	c #635E59",
"}r 	c #66605C",
"|r 	c #6A6561",
"1r 	c #6F6865",
"2r 	c #67625F",
"3r 	c #494745",
"4r 	c #1F201D",
"5r 	c #141513",
"6r 	c #1E1F1F",
"7r 	c #1C1B19",
"8r 	c #1B1A18",
"9r 	c #4F4B43",
"0r 	c #524E45",
"ar 	c #534E47",
"br 	c #534F47",
"cr 	c #524E47",
"dr 	c #514D46",
"er 	c #504C44",
"fr 	c #4F4B44",
"gr 	c #4E4A43",
"hr 	c #4D4A43",
"ir 	c #49463F",
"jr 	c #35312C",
"kr 	c #1F1E1B",
"lr 	c #1E1C19",
"mr 	c #1C1A18",
"nr 	c #1D1A18",
"or 	c #504C48",
"pr 	c #5F5C55",
"qr 	c #4D4A44",
"rr 	c #5B5954",
"sr 	c #5B5751",
"tr 	c #5C5850",
"ur 	c #5D5851",
"vr 	c #5B564D",
"wr 	c #544E46",
"xr 	c #544E45",
"yr 	c #534D44",
"zr 	c #524C44",
"Ar 	c #534C44",
"Br 	c #534D45",
"Cr 	c #585249",
"Dr 	c #59534A",
"Er 	c #5A544A",
"Fr 	c #59544A",
"Gr 	c #59544B",
"Hr 	c #5A544B",
"Ir 	c #5B554C",
"Jr 	c #605A51",
"Kr 	c #4F4A43",
"Lr 	c #46433D",
"Mr 	c #141212",
"Nr 	c #282221",
"Or 	c #3E3633",
"Pr 	c #423733",
"Qr 	c #433732",
"Rr 	c #564A3F",
"Sr 	c #5E493C",
"Tr 	c #6B4B32",
"Ur 	c #91683A",
"Vr 	c #B38849",
"Wr 	c #BA8B46",
"Xr 	c #AC7A31",
"Yr 	c #A26E24",
"Zr 	c #7B4C13",
"`r 	c #4A2909",
" s 	c #2C1609",
".s 	c #28180C",
"+s 	c #281609",
"@s 	c #301B0C",
"#s 	c #372315",
"$s 	c #31261C",
"%s 	c #231E1B",
"&s 	c #25211F",
"*s 	c #161211",
"=s 	c #090606",
"-s 	c #020000",
";s 	c #4C4844",
">s 	c #8D857A",
",s 	c #CFC8B9",
"'s 	c #CCC6B6",
")s 	c #B8B1A5",
"!s 	c #817C73",
"~s 	c #302D2E",
"{s 	c #35312E",
"]s 	c #35312D",
"^s 	c #332F2B",
"/s 	c #322E2A",
"(s 	c #4E4C4B",
"_s 	c #363534",
":s 	c #1C1D1B",
"<s 	c #474847",
"[s 	c #515150",
"}s 	c #454645",
"|s 	c #2F2F33",
"1s 	c #2A2A2E",
"2s 	c #0A0B0B",
"3s 	c #645F5A",
"4s 	c #655F5A",
"5s 	c #645E59",
"6s 	c #65605B",
"7s 	c #68625D",
"8s 	c #67625D",
"9s 	c #524E4A",
"0s 	c #15110C",
"as 	c #1A1512",
"bs 	c #312D2A",
"cs 	c #141514",
"ds 	c #111311",
"es 	c #6C6B6A",
"fs 	c #7D7D7A",
"gs 	c #7A7976",
"hs 	c #7A7A76",
"is 	c #73726F",
"js 	c #686866",
"ks 	c #1B1B19",
"ls 	c #524E49",
"ms 	c #514E48",
"ns 	c #494640",
"os 	c #44423B",
"ps 	c #44433C",
"qs 	c #42403A",
"rs 	c #414039",
"ss 	c #3D3C35",
"ts 	c #3E3D36",
"us 	c #63615B",
"vs 	c #66635E",
"ws 	c #686660",
"xs 	c #696661",
"ys 	c #6A6762",
"zs 	c #6B6863",
"As 	c #524F4B",
"Bs 	c #161614",
"Cs 	c #514F4C",
"Ds 	c #595753",
"Es 	c #5F5D58",
"Fs 	c #5F5D59",
"Gs 	c #5C5956",
"Hs 	c #58554F",
"Is 	c #625D55",
"Js 	c #6C665D",
"Ks 	c #706860",
"Ls 	c #6F6860",
"Ms 	c #6E6760",
"Ns 	c #6F6862",
"Os 	c #706962",
"Ps 	c #716964",
"Qs 	c #6F6963",
"Rs 	c #746D67",
"Ss 	c #726C66",
"Ts 	c #78716D",
"Us 	c #76706C",
"Vs 	c #565351",
"Ws 	c #252624",
"Xs 	c #262624",
"Ys 	c #0C0E10",
"Zs 	c #5C5851",
"`s 	c #5B5750",
" t 	c #504C47",
".t 	c #1F1B1A",
"+t 	c #6C685F",
"@t 	c #6A645C",
"#t 	c #5E5851",
"$t 	c #69645B",
"%t 	c #6A645A",
"&t 	c #6C645A",
"*t 	c #6D655B",
"=t 	c #6B6359",
"-t 	c #696258",
";t 	c #686156",
">t 	c #686055",
",t 	c #675F54",
"'t 	c #665E54",
")t 	c #655E54",
"!t 	c #655D54",
"~t 	c #665E55",
"{t 	c #675F56",
"]t 	c #686057",
"^t 	c #686157",
"/t 	c #696158",
"(t 	c #676057",
"_t 	c #676058",
":t 	c #686158",
"<t 	c #6C655A",
"[t 	c #70685C",
"}t 	c #736B5F",
"|t 	c #71695D",
"1t 	c #696156",
"2t 	c #4E4A44",
"3t 	c #242422",
"4t 	c #232220",
"5t 	c #100D13",
"6t 	c #2C2321",
"7t 	c #463833",
"8t 	c #473630",
"9t 	c #49352B",
"0t 	c #5F4939",
"at 	c #6C4F39",
"bt 	c #77512D",
"ct 	c #9B703A",
"dt 	c #B98E50",
"et 	c #BE9051",
"ft 	c #AA7936",
"gt 	c #996A24",
"ht 	c #704511",
"it 	c #46270B",
"jt 	c #29160B",
"kt 	c #24150C",
"lt 	c #24150A",
"mt 	c #2B1A0E",
"nt 	c #302115",
"ot 	c #2A211A",
"pt 	c #151111",
"qt 	c #090607",
"rt 	c #322E2B",
"st 	c #4E4945",
"tt 	c #5E5B55",
"ut 	c #8D867B",
"vt 	c #C3BBAE",
"wt 	c #CEC6B8",
"xt 	c #B9B2A6",
"yt 	c #827B73",
"zt 	c #676460",
"At 	c #545250",
"Bt 	c #302B27",
"Ct 	c #2C2824",
"Dt 	c #2D2A25",
"Et 	c #34302E",
"Ft 	c #524F4E",
"Gt 	c #4D4B49",
"Ht 	c #434444",
"It 	c #4E4F4F",
"Jt 	c #444645",
"Kt 	c #404141",
"Lt 	c #333437",
"Mt 	c #0D0B0A",
"Nt 	c #4E4A47",
"Ot 	c #625D58",
"Pt 	c #635D57",
"Qt 	c #645D57",
"Rt 	c #665F5A",
"St 	c #4F4A45",
"Tt 	c #140F08",
"Ut 	c #1D1712",
"Vt 	c #352F2C",
"Wt 	c #171615",
"Xt 	c #6C6C69",
"Yt 	c #757471",
"Zt 	c #747471",
"`t 	c #6F6E6C",
" u 	c #666765",
".u 	c #0F1011",
"+u 	c #1F1F1E",
"@u 	c #48453F",
"#u 	c #47453E",
"$u 	c #45423C",
"%u 	c #403D38",
"&u 	c #4D4B44",
"*u 	c #64615B",
"=u 	c #66635D",
"-u 	c #6A6661",
";u 	c #6B6762",
">u 	c #6A6660",
",u 	c #6B6661",
"'u 	c #6C6762",
")u 	c #504D49",
"!u 	c #373330",
"~u 	c #5A5753",
"{u 	c #565450",
"]u 	c #54524D",
"^u 	c #524F49",
"/u 	c #686159",
"(u 	c #70675F",
"_u 	c #6D665D",
":u 	c #6A625A",
"<u 	c #6C645D",
"[u 	c #6F665F",
"}u 	c #706861",
"|u 	c #6E6560",
"1u 	c #6F6760",
"2u 	c #6D6560",
"3u 	c #716963",
"4u 	c #706964",
"5u 	c #756F69",
"6u 	c #746E69",
"7u 	c #181815",
"8u 	c #191817",
"9u 	c #5B554E",
"0u 	c #5B564F",
"au 	c #504C49",
"bu 	c #3C3835",
"cu 	c #1D1918",
"du 	c #524D47",
"eu 	c #69625A",
"fu 	c #696159",
"gu 	c #5D554E",
"hu 	c #363029",
"iu 	c #0F0B07",
"ju 	c #0A0805",
"ku 	c #080605",
"lu 	c #1B1712",
"mu 	c #4D4841",
"nu 	c #696359",
"ou 	c #696257",
"pu 	c #6C6458",
"qu 	c #6D6559",
"ru 	c #6B6357",
"su 	c #6A6357",
"tu 	c #686155",
"uu 	c #675F55",
"vu 	c #665F55",
"wu 	c #665E56",
"xu 	c #696259",
"yu 	c #675F57",
"zu 	c #686058",
"Au 	c #696157",
"Bu 	c #70675B",
"Cu 	c #756B5E",
"Du 	c #72685C",
"Eu 	c #675F53",
"Fu 	c #544E44",
"Gu 	c #49453E",
"Hu 	c #302621",
"Iu 	c #4F3A30",
"Ju 	c #53392A",
"Ku 	c #563825",
"Lu 	c #6E4F33",
"Mu 	c #7C5734",
"Nu 	c #875A2A",
"Ou 	c #A27432",
"Pu 	c #B1833F",
"Qu 	c #BB8C4B",
"Ru 	c #AB7939",
"Su 	c #9E702D",
"Tu 	c #754D1A",
"Uu 	c #492C0F",
"Vu 	c #2D1A0D",
"Wu 	c #25170E",
"Xu 	c #24160B",
"Yu 	c #2B1C10",
"Zu 	c #2F2218",
"`u 	c #29231D",
" v 	c #0C080B",
".v 	c #0B080B",
"+v 	c #4F4B47",
"@v 	c #605C57",
"#v 	c #5F5C56",
"$v 	c #8E877C",
"%v 	c #D0C9BB",
"&v 	c #BAB3A8",
"*v 	c #2E2925",
"=v 	c #2D2723",
"-v 	c #302A25",
";v 	c #342F2A",
">v 	c #39342E",
",v 	c #4A4644",
"'v 	c #5F5B56",
")v 	c #635D56",
"!v 	c #645E58",
"~v 	c #645E57",
"{v 	c #57504A",
"]v 	c #3D3730",
"^v 	c #2E2822",
"/v 	c #322B26",
"(v 	c #3C3631",
"_v 	c #696965",
":v 	c #74726F",
"<v 	c #6E6D6A",
"[v 	c #6C6967",
"}v 	c #6B6967",
"|v 	c #646362",
"1v 	c #494743",
"2v 	c #46433F",
"3v 	c #45413C",
"4v 	c #4C4742",
"5v 	c #504E47",
"6v 	c #4C4943",
"7v 	c #48443F",
"8v 	c #44403B",
"9v 	c #645F59",
"0v 	c #66625C",
"av 	c #69645E",
"bv 	c #6A655E",
"cv 	c #6A655F",
"dv 	c #6B655F",
"ev 	c #6A645F",
"fv 	c #65605A",
"gv 	c #4C4843",
"hv 	c #44413D",
"iv 	c #44403C",
"jv 	c #4A4742",
"kv 	c #514D49",
"lv 	c #635B53",
"mv 	c #6B625A",
"nv 	c #675E57",
"ov 	c #6A605A",
"pv 	c #6A615B",
"qv 	c #635B54",
"rv 	c #605851",
"sv 	c #5E5751",
"tv 	c #655E59",
"uv 	c #69625D",
"vv 	c #4F4D48",
"wv 	c #2D2C28",
"xv 	c #23231F",
"yv 	c #312E29",
"zv 	c #1C1A19",
"Av 	c #323031",
"Bv 	c #59534D",
"Cv 	c #5B5650",
"Dv 	c #585450",
"Ev 	c #494540",
"Fv 	c #585148",
"Gv 	c #413B33",
"Hv 	c #28251F",
"Iv 	c #1F1B18",
"Jv 	c #191715",
"Kv 	c #080504",
"Lv 	c #0B0806",
"Mv 	c #13100D",
"Nv 	c #15120E",
"Ov 	c #504A43",
"Pv 	c #68625B",
"Qv 	c #686259",
"Rv 	c #6B6358",
"Sv 	c #6D655A",
"Tv 	c #6C6459",
"Uv 	c #666057",
"Vv 	c #665F57",
"Wv 	c #665F56",
"Xv 	c #6A6359",
"Yv 	c #6C655D",
"Zv 	c #6B655D",
"`v 	c #645D55",
" w 	c #635D55",
".w 	c #645E56",
"+w 	c #736A5D",
"@w 	c #776D60",
"#w 	c #665E51",
"$w 	c #504A3F",
"%w 	c #433F36",
"&w 	c #33251D",
"*w 	c #513627",
"=w 	c #573420",
"-w 	c #5E371B",
";w 	c #754D26",
">w 	c #895D2C",
",w 	c #946125",
"'w 	c #A47124",
")w 	c #AE7930",
"!w 	c #AB732F",
"~w 	c #A97934",
"{w 	c #815822",
"]w 	c #4C2D0E",
"^w 	c #2B170A",
"/w 	c #25160D",
"(w 	c #25170C",
"_w 	c #291A0F",
":w 	c #2B1F16",
"<w 	c #1F1D23",
"[w 	c #100D11",
"}w 	c #8F887C",
"|w 	c #D1C9BB",
"1w 	c #CFC7B9",
"2w 	c #BAB2A6",
"3w 	c #66635F",
"4w 	c #302C27",
"5w 	c #2E2A23",
"6w 	c #36312A",
"7w 	c #49433C",
"8w 	c #58514B",
"9w 	c #554F48",
"0w 	c #34312D",
"aw 	c #423E3C",
"bw 	c #635C56",
"cw 	c #655F57",
"dw 	c #655F58",
"ew 	c #5C554F",
"fw 	c #575753",
"gw 	c #6B6A65",
"hw 	c #74726E",
"iw 	c #706E6A",
"jw 	c #716F6C",
"kw 	c #6D6C68",
"lw 	c #666764",
"mw 	c #514C46",
"nw 	c #5E5B52",
"ow 	c #5D5A52",
"pw 	c #5A564E",
"qw 	c #5B574F",
"rw 	c #5A554E",
"sw 	c #605D54",
"tw 	c #635E57",
"uw 	c #67625A",
"vw 	c #6A645D",
"ww 	c #6C665F",
"xw 	c #6A655D",
"yw 	c #6B655E",
"zw 	c #69645D",
"Aw 	c #67615A",
"Bw 	c #635F58",
"Cw 	c #5A5754",
"Dw 	c #544F4A",
"Ew 	c #4F4B45",
"Fw 	c #504C46",
"Gw 	c #545049",
"Hw 	c #58534D",
"Iw 	c #59544D",
"Jw 	c #5C564C",
"Kw 	c #635C52",
"Lw 	c #655E55",
"Mw 	c #4D443D",
"Nw 	c #49413B",
"Ow 	c #3F3831",
"Pw 	c #3A332D",
"Qw 	c #423C38",
"Rw 	c #48413E",
"Sw 	c #48423E",
"Tw 	c #46443E",
"Uw 	c #47453F",
"Vw 	c #4D4944",
"Ww 	c #4F4A44",
"Xw 	c #413F3D",
"Yw 	c #1B1C1C",
"Zw 	c #151514",
"`w 	c #403D3A",
" x 	c #4C4944",
".x 	c #4B4740",
"+x 	c #4F4943",
"@x 	c #57524B",
"#x 	c #5C5853",
"$x 	c #403C39",
"%x 	c #332F2F",
"&x 	c #48433D",
"*x 	c #48433B",
"=x 	c #4F4941",
"-x 	c #0F0E0B",
";x 	c #444139",
">x 	c #69645C",
",x 	c #6B6459",
"'x 	c #696358",
")x 	c #676358",
"!x 	c #676158",
"~x 	c #676258",
"{x 	c #6A6258",
"]x 	c #686054",
"^x 	c #686056",
"/x 	c #5D5950",
"(x 	c #59554C",
"_x 	c #58534A",
":x 	c #57524A",
"<x 	c #645F58",
"[x 	c #69635C",
"}x 	c #696256",
"|x 	c #71685C",
"1x 	c #797162",
"2x 	c #7F7666",
"3x 	c #696154",
"4x 	c #514B40",
"5x 	c #433E36",
"6x 	c #3C3A34",
"7x 	c #171012",
"8x 	c #35241A",
"9x 	c #533522",
"0x 	c #593019",
"ax 	c #633714",
"bx 	c #7A4D1D",
"cx 	c #946425",
"dx 	c #9F6820",
"ex 	c #A9711E",
"fx 	c #A16918",
"gx 	c #A66C1E",
"hx 	c #AD7427",
"ix 	c #B07E35",
"jx 	c #8A6027",
"kx 	c #533411",
"lx 	c #2E1A0B",
"mx 	c #25160B",
"nx 	c #26170B",
"ox 	c #2C2117",
"px 	c #251F1A",
"qx 	c #0D0A0E",
"rx 	c #0D0A0C",
"sx 	c #383330",
"tx 	c #91897C",
"ux 	c #C4BDAE",
"vx 	c #D1CABB",
"wx 	c #B9B1A5",
"xx 	c #827B72",
"yx 	c #686562",
"zx 	c #575454",
"Ax 	c #4F4E4D",
"Bx 	c #4C4A49",
"Cx 	c #24201E",
"Dx 	c #2C2724",
"Ex 	c #28231F",
"Fx 	c #544D46",
"Gx 	c #6B625B",
"Hx 	c #534B45",
"Ix 	c #37302D",
"Jx 	c #54514E",
"Kx 	c #68605A",
"Lx 	c #6A6159",
"Mx 	c #59524D",
"Nx 	c #494542",
"Ox 	c #464242",
"Px 	c #53514F",
"Qx 	c #575452",
"Rx 	c #706B68",
"Sx 	c #7B7772",
"Tx 	c #797470",
"Ux 	c #7C7874",
"Vx 	c #777470",
"Wx 	c #696967",
"Xx 	c #272222",
"Yx 	c #37322E",
"Zx 	c #66635A",
"`x 	c #666058",
" y 	c #665F58",
".y 	c #605A53",
"+y 	c #68615B",
"@y 	c #6A635C",
"#y 	c #6C665E",
"$y 	c #6C655E",
"%y 	c #6C6760",
"&y 	c #696561",
"*y 	c #686460",
"=y 	c #6B6660",
"-y 	c #66605B",
";y 	c #5C5551",
">y 	c #504A44",
",y 	c #5A554F",
"'y 	c #4C443F",
")y 	c #2B241F",
"!y 	c #241D19",
"~y 	c #1B1512",
"{y 	c #17110E",
"]y 	c #17120F",
"^y 	c #1D1816",
"/y 	c #221E1B",
"(y 	c #282320",
"_y 	c #3F3C37",
":y 	c #67635B",
"<y 	c #655E58",
"[y 	c #6B655C",
"}y 	c #6E675F",
"|y 	c #68605B",
"1y 	c #1C1C1B",
"2y 	c #3F3B3A",
"3y 	c #44413E",
"4y 	c #565149",
"5y 	c #615B55",
"6y 	c #5D5955",
"7y 	c #514D4A",
"8y 	c #3F3B39",
"9y 	c #373334",
"0y 	c #333032",
"ay 	c #312E30",
"by 	c #181515",
"cy 	c #2D2922",
"dy 	c #13110F",
"ey 	c #5A5551",
"fy 	c #666159",
"gy 	c #6A635A",
"hy 	c #6E665B",
"iy 	c #6B655A",
"jy 	c #686359",
"ky 	c #676359",
"ly 	c #68625A",
"my 	c #6A6259",
"ny 	c #6B6257",
"oy 	c #6C6357",
"py 	c #6C6256",
"qy 	c #645D52",
"ry 	c #504D45",
"sy 	c #4C4841",
"ty 	c #55504A",
"uy 	c #65615B",
"vy 	c #716A5E",
"wy 	c #7B7366",
"xy 	c #81786A",
"yy 	c #7E7668",
"zy 	c #716A5D",
"Ay 	c #5A554A",
"By 	c #4C4840",
"Cy 	c #150D0F",
"Dy 	c #342117",
"Ey 	c #52321D",
"Fy 	c #572E14",
"Gy 	c #633410",
"Hy 	c #7B4918",
"Iy 	c #956020",
"Jy 	c #A0651C",
"Ky 	c #A86C1A",
"Ly 	c #9F6316",
"My 	c #A26519",
"Ny 	c #A56B1F",
"Oy 	c #A7742F",
"Py 	c #895D29",
"Qy 	c #523011",
"Ry 	c #2E180A",
"Sy 	c #221409",
"Ty 	c #2A1B10",
"Uy 	c #2B2016",
"Vy 	c #241E1A",
"Wy 	c #1A1718",
"Xy 	c #0F0B0D",
"Yy 	c #0B080D",
"Zy 	c #141117",
"`y 	c #393430",
" z 	c #544E49",
".z 	c #625950",
"+z 	c #90877B",
"@z 	c #C4BBAD",
"#z 	c #D1C9BA",
"$z 	c #CEC6B9",
"%z 	c #B7AEA3",
"&z 	c #7F776F",
"*z 	c #676361",
"=z 	c #565253",
"-z 	c #4A4949",
";z 	c #27231F",
">z 	c #332E28",
",z 	c #514B44",
"'z 	c #5C534D",
")z 	c #39322E",
"!z 	c #241E1B",
"~z 	c #201B19",
"{z 	c #4C4A46",
"]z 	c #4A4847",
"^z 	c #3D3A3A",
"/z 	c #444544",
"(z 	c #5A5956",
"_z 	c #625D57",
":z 	c #655E57",
"<z 	c #6A6158",
"[z 	c #5E5750",
"}z 	c #484843",
"|z 	c #4A4947",
"1z 	c #585753",
"2z 	c #5F5F5A",
"3z 	c #716D69",
"4z 	c #787670",
"5z 	c #777570",
"6z 	c #7D7A75",
"7z 	c #6C6B69",
"8z 	c #0B0D0E",
"9z 	c #5F5953",
"0z 	c #605B54",
"az 	c #5C5650",
"bz 	c #635F57",
"cz 	c #68635B",
"dz 	c #69625B",
"ez 	c #6C6963",
"fz 	c #6A6763",
"gz 	c #696662",
"hz 	c #57524D",
"iz 	c #514C47",
"jz 	c #55524C",
"kz 	c #342E2B",
"lz 	c #25201E",
"mz 	c #151210",
"nz 	c #141111",
"oz 	c #161412",
"pz 	c #141210",
"qz 	c #64625D",
"rz 	c #6C6C64",
"sz 	c #69655F",
"tz 	c #726A61",
"uz 	c #635B56",
"vz 	c #54524B",
"wz 	c #4A4944",
"xz 	c #262523",
"yz 	c #403D3B",
"zz 	c #504B42",
"Az 	c #554F46",
"Bz 	c #625D53",
"Cz 	c #625C59",
"Dz 	c #54504D",
"Ez 	c #423E3D",
"Fz 	c #383535",
"Gz 	c #201C16",
"Hz 	c #58534C",
"Iz 	c #625E56",
"Jz 	c #14110F",
"Kz 	c #55504B",
"Lz 	c #544F48",
"Mz 	c #6B655B",
"Nz 	c #6B645A",
"Oz 	c #6D665B",
"Pz 	c #68645A",
"Qz 	c #67635A",
"Rz 	c #70665A",
"Sz 	c #73695A",
"Tz 	c #736A5B",
"Uz 	c #686255",
"Vz 	c #4D4A41",
"Wz 	c #413E3A",
"Xz 	c #4A4740",
"Yz 	c #4E4C44",
"Zz 	c #545149",
"`z 	c #625F5A",
" A 	c #635F5A",
".A 	c #635F55",
"+A 	c #716A5F",
"@A 	c #787265",
"#A 	c #7F776A",
"$A 	c #7D766A",
"%A 	c #756F63",
"&A 	c #5A5951",
"*A 	c #1D1E1D",
"=A 	c #150D0D",
"-A 	c #332016",
";A 	c #4F2F1C",
">A 	c #552D14",
",A 	c #613412",
"'A 	c #774719",
")A 	c #8F5D21",
"!A 	c #996420",
"~A 	c #A26B21",
"{A 	c #9D661E",
"]A 	c #A06821",
"^A 	c #9B6621",
"/A 	c #A07431",
"(A 	c #85602D",
"_A 	c #503416",
":A 	c #291609",
"<A 	c #22150A",
"[A 	c #21150A",
"}A 	c #2B1F14",
"|A 	c #2D241C",
"1A 	c #27221E",
"2A 	c #373432",
"3A 	c #3B3531",
"4A 	c #67625B",
"5A 	c #635A50",
"6A 	c #8E8477",
"7A 	c #C1B7A8",
"8A 	c #CFC6B6",
"9A 	c #CBC2B4",
"0A 	c #AEA79C",
"aA 	c #756F67",
"bA 	c #5D5A58",
"cA 	c #4E4B4C",
"dA 	c #2F2A26",
"eA 	c #4C4741",
"fA 	c #695F58",
"gA 	c #5D524D",
"hA 	c #443C37",
"iA 	c #332D29",
"jA 	c #4E4A48",
"kA 	c #565350",
"lA 	c #444141",
"mA 	c #494844",
"nA 	c #4A4844",
"oA 	c #645D54",
"pA 	c #5E564E",
"qA 	c #60605A",
"rA 	c #5B5553",
"sA 	c #656361",
"tA 	c #575654",
"uA 	c #040609",
"vA 	c #1B1918",
"wA 	c #4D4947",
"xA 	c #57544F",
"yA 	c #59564F",
"zA 	c #5A5650",
"AA 	c #55514C",
"BA 	c #534F4A",
"CA 	c #55504C",
"DA 	c #605B56",
"EA 	c #68635C",
"FA 	c #605D5A",
"GA 	c #5C5A58",
"HA 	c #5D5B59",
"IA 	c #63605D",
"JA 	c #625F5C",
"KA 	c #494A47",
"LA 	c #464742",
"MA 	c #171415",
"NA 	c #201F1C",
"OA 	c #605E59",
"PA 	c #64635D",
"QA 	c #625A55",
"RA 	c #69605A",
"SA 	c #655C55",
"TA 	c #57534F",
"UA 	c #46413E",
"VA 	c #524C41",
"WA 	c #625C58",
"XA 	c #413C3C",
"YA 	c #2A2724",
"ZA 	c #312C27",
"`A 	c #57524E",
" B 	c #4F4947",
".B 	c #110D0B",
"+B 	c #524E4B",
"@B 	c #48423F",
"#B 	c #443E3A",
"$B 	c #443D38",
"%B 	c #514B45",
"&B 	c #5F5751",
"*B 	c #6B645C",
"=B 	c #6C655B",
"-B 	c #6D665C",
";B 	c #676459",
">B 	c #67645A",
",B 	c #6A635B",
"'B 	c #706658",
")B 	c #756B59",
"!B 	c #776D5C",
"~B 	c #6D6658",
"{B 	c #4B4841",
"]B 	c #514F47",
"^B 	c #5A5852",
"/B 	c #625B53",
"(B 	c #57534A",
"_B 	c #4C4A44",
":B 	c #2C2E2D",
"<B 	c #120B0C",
"[B 	c #2E1F16",
"}B 	c #462D1E",
"|B 	c #4E2C19",
"1B 	c #593318",
"2B 	c #663F1C",
"3B 	c #785124",
"4B 	c #7E5322",
"5B 	c #865A23",
"6B 	c #855822",
"7B 	c #8C5E28",
"8B 	c #885B29",
"9B 	c #856131",
"0B 	c #725731",
"aB 	c #4E3921",
"bB 	c #312218",
"cB 	c #2B231B",
"dB 	c #2B231C",
"eB 	c #322A24",
"fB 	c #0A070C",
"gB 	c #0C0910",
"hB 	c #3D3835",
"iB 	c #3B3530",
"jB 	c #544D47",
"kB 	c #61584E",
"lB 	c #82786A",
"mB 	c #ABA192",
"nB 	c #B6AC9E",
"oB 	c #AEA598",
"pB 	c #8C867B",
"qB 	c #57524C",
"rB 	c #403B39",
"sB 	c #615953",
"tB 	c #625852",
"uB 	c #5A514C",
"vB 	c #58504B",
"wB 	c #58524D",
"xB 	c #5B5550",
"yB 	c #464443",
"zB 	c #575554",
"AB 	c #585756",
"BB 	c #4E4D4B",
"CB 	c #41423E",
"DB 	c #484646",
"EB 	c #434140",
"FB 	c #08090A",
"GB 	c #20211F",
"HB 	c #615C57",
"IB 	c #5E544D",
"JB 	c #554B43",
"KB 	c #4E463D",
"LB 	c #4C463E",
"MB 	c #443F3D",
"NB 	c #524C49",
"OB 	c #39322F",
"PB 	c #66645E",
"QB 	c #595751",
"RB 	c #4D4A45",
"SB 	c #6A665E",
"TB 	c #5B5854",
"UB 	c #444140",
"VB 	c #454140",
"WB 	c #4B4A45",
"XB 	c #42403B",
"YB 	c #4D4541",
"ZB 	c #5B524E",
"`B 	c #5A514B",
" C 	c #46413D",
".C 	c #4D4B46",
"+C 	c #4C4946",
"@C 	c #3E3A34",
"#C 	c #443F36",
"$C 	c #554F44",
"%C 	c #504B45",
"&C 	c #3E3939",
"*C 	c #3C3933",
"=C 	c #524D49",
"-C 	c #0F0C0A",
";C 	c #120F0F",
">C 	c #3C3833",
",C 	c #39342F",
"'C 	c #39332E",
")C 	c #4C463F",
"!C 	c #5F5851",
"~C 	c #6C655C",
"{C 	c #6E665D",
"]C 	c #6A645B",
"^C 	c #69645A",
"/C 	c #68645B",
"(C 	c #6F6656",
"_C 	c #756A57",
":C 	c #7A705D",
"<C 	c #756E5E",
"[C 	c #3E3D37",
"}C 	c #403E38",
"|C 	c #4B4840",
"1C 	c #4D4A42",
"2C 	c #4C4942",
"3C 	c #635D54",
"4C 	c #5F5950",
"5C 	c #575149",
"6C 	c #2B2822",
"7C 	c #22201D",
"8C 	c #1C1E1D",
"9C 	c #171819",
"0C 	c #0D090C",
"aC 	c #261C16",
"bC 	c #37271D",
"cC 	c #3D261B",
"dC 	c #472E1C",
"eC 	c #492C17",
"fC 	c #4E2F17",
"gC 	c #502F14",
"hC 	c #563416",
"iC 	c #593617",
"jC 	c #603A1B",
"kC 	c #613D1E",
"lC 	c #6B4F32",
"mC 	c #726148",
"nC 	c #6B5D4E",
"oC 	c #5C534C",
"pC 	c #44413B",
"qC 	c #433F39",
"rC 	c #363639",
"sC 	c #34363A",
"tC 	c #2C2E31",
"uC 	c #3F3936",
"vC 	c #3D3531",
"wC 	c #514A43",
"xC 	c #615A52",
"yC 	c #625A51",
"zC 	c #574D43",
"AC 	c #6A6052",
"BC 	c #8A7F70",
"CC 	c #918778",
"DC 	c #887E71",
"EC 	c #181A19",
"FC 	c #534C47",
"GC 	c #685E58",
"HC 	c #726862",
"IC 	c #736A64",
"JC 	c #6B645F",
"KC 	c #6C6A67",
"LC 	c #71706C",
"MC 	c #656360",
"NC 	c #272621",
"OC 	c #605953",
"PC 	c #564E46",
"QC 	c #483F36",
"RC 	c #41382F",
"SC 	c #453F38",
"TC 	c #423D3A",
"UC 	c #453E38",
"VC 	c #4F4740",
"WC 	c #584F47",
"XC 	c #4F433D",
"YC 	c #2F221F",
"ZC 	c #1E1413",
"`C 	c #1E1616",
" D 	c #211A1A",
".D 	c #1B1617",
"+D 	c #4F4E4E",
"@D 	c #6E6C69",
"#D 	c #6B6965",
"$D 	c #484442",
"%D 	c #1B1D1D",
"&D 	c #656159",
"*D 	c #242528",
"=D 	c #202223",
"-D 	c #1E2021",
";D 	c #1D1F20",
">D 	c #1D1F21",
",D 	c #3A3534",
"'D 	c #4F4842",
")D 	c #4A4643",
"!D 	c #3F3B38",
"~D 	c #282623",
"{D 	c #403E3A",
"]D 	c #494643",
"^D 	c #43403B",
"/D 	c #2F2D2A",
"(D 	c #332F2A",
"_D 	c #423C34",
":D 	c #3C3731",
"<D 	c #393432",
"[D 	c #393435",
"}D 	c #332F31",
"|D 	c #5B5A57",
"1D 	c #585653",
"2D 	c #4C4C47",
"3D 	c #464240",
"4D 	c #2D2B26",
"5D 	c #2A2622",
"6D 	c #443E39",
"7D 	c #5E5852",
"8D 	c #6E675E",
"9D 	c #686459",
"0D 	c #6C6354",
"aD 	c #746A58",
"bD 	c #7C7360",
"cD 	c #787162",
"dD 	c #47433C",
"eD 	c #47443C",
"fD 	c #3F3B34",
"gD 	c #58524C",
"hD 	c #201816",
"iD 	c #2C211B",
"jD 	c #2F1E18",
"kD 	c #352217",
"lD 	c #3A2416",
"mD 	c #3C2516",
"nD 	c #3E2415",
"oD 	c #432715",
"pD 	c #472917",
"qD 	c #4C2D19",
"rD 	c #4D3018",
"sD 	c #624D35",
"tD 	c #827765",
"uD 	c #8A8179",
"vD 	c #64625C",
"wD 	c #3D3A36",
"xD 	c #363538",
"yD 	c #323338",
"zD 	c #323537",
"AD 	c #060409",
"BD 	c #39312C",
"CD 	c #584F46",
"DD 	c #584E45",
"ED 	c #4E443A",
"FD 	c #625649",
"GD 	c #85796A",
"HD 	c #8D8173",
"ID 	c #82776B",
"JD 	c #615951",
"KD 	c #3B3633",
"LD 	c #1C1E1E",
"MD 	c #1A1C1B",
"ND 	c #58524B",
"OD 	c #69615A",
"PD 	c #756C66",
"QD 	c #6C6560",
"RD 	c #6F6D67",
"SD 	c #4F4C49",
"TD 	c #191A17",
"UD 	c #2A2924",
"VD 	c #373530",
"WD 	c #514E49",
"XD 	c #544C44",
"YD 	c #433B32",
"ZD 	c #3E372E",
"`D 	c #463F38",
" E 	c #4A4039",
".E 	c #514139",
"+E 	c #543E37",
"@E 	c #5B443C",
"#E 	c #5F483E",
"$E 	c #523A32",
"%E 	c #331D19",
"&E 	c #231010",
"*E 	c #221213",
"=E 	c #231315",
"-E 	c #1C1213",
";E 	c #504F4F",
">E 	c #4B4946",
",E 	c #151718",
"'E 	c #68655D",
")E 	c #636059",
"!E 	c #2A2B2E",
"~E 	c #1F2123",
"{E 	c #262826",
"]E 	c #272928",
"^E 	c #5A524F",
"/E 	c #433D39",
"(E 	c #211E1B",
"_E 	c #26221E",
":E 	c #413E38",
"<E 	c #3B3732",
"[E 	c #4B4742",
"}E 	c #5E5955",
"|E 	c #55504D",
"1E 	c #4B4744",
"2E 	c #443F3E",
"3E 	c #302D28",
"4E 	c #423D37",
"5E 	c #69655C",
"6E 	c #464645",
"7E 	c #5C5C59",
"8E 	c #0B0A08",
"9E 	c #1E1918",
"0E 	c #413C38",
"aE 	c #6B645E",
"bE 	c #6D675E",
"cE 	c #6E665E",
"dE 	c #696459",
"eE 	c #6C645B",
"fE 	c #6C6559",
"gE 	c #6C6455",
"hE 	c #756C5B",
"iE 	c #807766",
"jE 	c #7C7568",
"kE 	c #5F5C54",
"lE 	c #413F3A",
"mE 	c #4A4842",
"nE 	c #48443D",
"oE 	c #4E4942",
"pE 	c #625E59",
"qE 	c #5C5954",
"rE 	c #1F1917",
"sE 	c #2C231C",
"tE 	c #2D2019",
"uE 	c #322418",
"vE 	c #362616",
"wE 	c #3E2B1B",
"xE 	c #412B1C",
"yE 	c #48301E",
"zE 	c #492F1B",
"AE 	c #4D301A",
"BE 	c #4C321A",
"CE 	c #634F38",
"DE 	c #827664",
"EE 	c #857B72",
"FE 	c #746C64",
"GE 	c #474239",
"HE 	c #423C33",
"IE 	c #342C27",
"JE 	c #423A32",
"KE 	c #534A40",
"LE 	c #53493F",
"ME 	c #4C4035",
"NE 	c #695C4F",
"OE 	c #95887A",
"PE 	c #A19486",
"QE 	c #958A7D",
"RE 	c #71695F",
"SE 	c #46423D",
"TE 	c #3D3C3D",
"UE 	c #1E1F1E",
"VE 	c #605A55",
"WE 	c #66645D",
"XE 	c #6E6B63",
"YE 	c #0E0B0E",
"ZE 	c #1A1B18",
"`E 	c #2A2A25",
" F 	c #393631",
".F 	c #635C55",
"+F 	c #534A43",
"@F 	c #3C332A",
"#F 	c #463A33",
"$F 	c #4C3630",
"%F 	c #522C28",
"&F 	c #5A2A27",
"*F 	c #5E2C25",
"=F 	c #5C2A24",
"-F 	c #4C211B",
";F 	c #371210",
">F 	c #2D0E0F",
",F 	c #2B1112",
"'F 	c #281112",
")F 	c #1D0E0F",
"!F 	c #110C0D",
"~F 	c #5F5F5D",
"{F 	c #5E5F5A",
"]F 	c #3F3F40",
"^F 	c #686762",
"/F 	c #696861",
"(F 	c #1E1F23",
"_F 	c #1F2024",
":F 	c #232524",
"<F 	c #645E5B",
"[F 	c #57514C",
"}F 	c #46403B",
"|F 	c #2E2825",
"1F 	c #241F1B",
"2F 	c #24211D",
"3F 	c #201B16",
"4F 	c #36342F",
"5F 	c #4E4B47",
"6F 	c #4E4B48",
"7F 	c #2F2E2B",
"8F 	c #52504C",
"9F 	c #4C4D4B",
"0F 	c #4C4C4A",
"aF 	c #474745",
"bF 	c #6B645D",
"cF 	c #6C665C",
"dF 	c #6B645B",
"eF 	c #6D655C",
"fF 	c #6B6557",
"gF 	c #70695C",
"hF 	c #767063",
"iF 	c #726E63",
"jF 	c #595851",
"kF 	c #3F3F3A",
"lF 	c #4F4D46",
"mF 	c #4A463D",
"nF 	c #1F1A19",
"oF 	c #2B231E",
"pF 	c #2A1F17",
"qF 	c #2E2114",
"rF 	c #362818",
"sF 	c #443524",
"tF 	c #483526",
"uF 	c #493221",
"vF 	c #503823",
"wF 	c #5E452C",
"xF 	c #644B32",
"yF 	c #745F49",
"zF 	c #7D6E5B",
"AF 	c #716455",
"BF 	c #5A4D42",
"CF 	c #4B3F34",
"DF 	c #3D3328",
"EF 	c #42382E",
"FF 	c #453D35",
"GF 	c #3E3933",
"HF 	c #342C28",
"IF 	c #433A33",
"JF 	c #554A41",
"KF 	c #53483D",
"LF 	c #4E4133",
"MF 	c #726454",
"NF 	c #A59887",
"OF 	c #B0A593",
"PF 	c #A59B8D",
"QF 	c #81776E",
"RF 	c #3B3B3C",
"SF 	c #33342F",
"TF 	c #4A4843",
"UF 	c #5E5E57",
"VF 	c #66655D",
"WF 	c #464340",
"XF 	c #030404",
"YF 	c #1B1C19",
"ZF 	c #625D56",
"`F 	c #635E56",
" G 	c #554C44",
".G 	c #423A2F",
"+G 	c #3D352A",
"@G 	c #473931",
"#G 	c #482A24",
"$G 	c #461110",
"%G 	c #4B0B0B",
"&G 	c #4C0E0A",
"*G 	c #450B08",
"=G 	c #3F0C09",
"-G 	c #35090A",
";G 	c #300B0D",
">G 	c #2C0C0D",
",G 	c #280C0D",
"'G 	c #1D0C0C",
")G 	c #110C0C",
"!G 	c #030506",
"~G 	c #16181A",
"{G 	c #3D3D40",
"]G 	c #38393B",
"^G 	c #303231",
"/G 	c #67615D",
"(G 	c #5C5652",
"_G 	c #49443F",
":G 	c #413C36",
"<G 	c #413C34",
"[G 	c #46423B",
"}G 	c #4A4640",
"|G 	c #4B4843",
"1G 	c #3A3A35",
"2G 	c #2A2A28",
"3G 	c #060605",
"4G 	c #3B3733",
"5G 	c #6C6359",
"6G 	c #6E655A",
"7G 	c #6F665C",
"8G 	c #6F655B",
"9G 	c #6E665C",
"0G 	c #686256",
"aG 	c #5A564B",
"bG 	c #433F38",
"cG 	c #756E66",
"dG 	c #534E4A",
"eG 	c #302923",
"fG 	c #30261E",
"gG 	c #3C3021",
"hG 	c #493C2D",
"iG 	c #5C4E40",
"jG 	c #645546",
"kG 	c #5E4E3D",
"lG 	c #65533F",
"mG 	c #827056",
"nG 	c #907B64",
"oG 	c #9A8870",
"pG 	c #887760",
"qG 	c #645541",
"rG 	c #453628",
"sG 	c #3E3023",
"tG 	c #3D3124",
"uG 	c #483E32",
"vG 	c #4E463B",
"wG 	c #14151A",
"xG 	c #352F2A",
"yG 	c #463F37",
"zG 	c #5A5046",
"AG 	c #574B3F",
"BG 	c #514435",
"CG 	c #776857",
"DG 	c #AA9C8A",
"EG 	c #B5A997",
"FG 	c #AFA494",
"GG 	c #92897E",
"HG 	c #67605A",
"IG 	c #54504C",
"JG 	c #535250",
"KG 	c #32332E",
"LG 	c #4F4E48",
"MG 	c #615E57",
"NG 	c #181214",
"OG 	c #080405",
"PG 	c #1C1C19",
"QG 	c #2F2C27",
"RG 	c #615A55",
"SG 	c #645D58",
"TG 	c #645C55",
"UG 	c #615A53",
"VG 	c #40382E",
"WG 	c #383226",
"XG 	c #443730",
"YG 	c #472623",
"ZG 	c #3E0707",
"`G 	c #3D0202",
" H 	c #3C0302",
".H 	c #330201",
"+H 	c #300503",
"@H 	c #2C0606",
"#H 	c #2C080A",
"$H 	c #280608",
"%H 	c #260809",
"&H 	c #190608",
"*H 	c #0D0708",
"=H 	c #0E1011",
"-H 	c #0F1012",
";H 	c #0F1113",
">H 	c #4F4A47",
",H 	c #504B46",
"'H 	c #423E3A",
")H 	c #181918",
"!H 	c #6D665E",
"~H 	c #6A6358",
"{H 	c #6D6459",
"]H 	c #6F655A",
"^H 	c #72675D",
"/H 	c #746961",
"(H 	c #655E56",
"_H 	c #46423A",
":H 	c #33302B",
"<H 	c #766E67",
"[H 	c #746E67",
"}H 	c #69635E",
"|H 	c #342E28",
"1H 	c #393027",
"2H 	c #4D4334",
"3H 	c #5E5445",
"4H 	c #756C5E",
"5H 	c #645848",
"6H 	c #6C5F4E",
"7H 	c #91816D",
"8H 	c #A2907C",
"9H 	c #A5947E",
"0H 	c #877561",
"aH 	c #5C4B38",
"bH 	c #3A2B1D",
"cH 	c #34271B",
"dH 	c #362A1F",
"eH 	c #473C32",
"fH 	c #50463D",
"gH 	c #282321",
"hH 	c #141413",
"iH 	c #47403A",
"jH 	c #5B5248",
"kH 	c #574A3F",
"lH 	c #514335",
"mH 	c #796A59",
"nH 	c #AB9C8B",
"oH 	c #B3A595",
"pH 	c #AEA193",
"qH 	c #998E84",
"rH 	c #746C66",
"sH 	c #635C59",
"tH 	c #666261",
"uH 	c #534F4F",
"vH 	c #373233",
"wH 	c #262827",
"xH 	c #2B2C28",
"yH 	c #2F302B",
"zH 	c #262724",
"AH 	c #484842",
"BH 	c #55534D",
"CH 	c #6D6960",
"DH 	c #595551",
"EH 	c #393834",
"FH 	c #130E0E",
"GH 	c #211D19",
"HH 	c #322F27",
"IH 	c #343027",
"JH 	c #3E3931",
"KH 	c #635B55",
"LH 	c #574E47",
"MH 	c #443C32",
"NH 	c #3B372C",
"OH 	c #452B25",
"PH 	c #3A0A09",
"QH 	c #360202",
"RH 	c #350303",
"SH 	c #2E0302",
"TH 	c #2A0604",
"UH 	c #270605",
"VH 	c #290607",
"WH 	c #2A0707",
"XH 	c #270708",
"YH 	c #190606",
"ZH 	c #0C0708",
"`H 	c #131516",
" I 	c #101214",
".I 	c #373331",
"+I 	c #25231E",
"@I 	c #2E2B26",
"#I 	c #666158",
"$I 	c #4E4B45",
"%I 	c #373531",
"&I 	c #30312D",
"*I 	c #2E2F2D",
"=I 	c #262725",
"-I 	c #222321",
";I 	c #030403",
">I 	c #64605B",
",I 	c #6B665F",
"'I 	c #6E6860",
")I 	c #716960",
"!I 	c #70695F",
"~I 	c #6F685D",
"{I 	c #70675E",
"]I 	c #71685E",
"^I 	c #73695F",
"/I 	c #746B61",
"(I 	c #776E66",
"_I 	c #6D6962",
":I 	c #615D58",
"<I 	c #35322B",
"[I 	c #3B322B",
"}I 	c #52473A",
"|I 	c #63584C",
"1I 	c #787063",
"2I 	c #726B5E",
"3I 	c #645B4C",
"4I 	c #706555",
"5I 	c #978977",
"6I 	c #A69783",
"7I 	c #A79C84",
"8I 	c #8C7D68",
"9I 	c #615240",
"0I 	c #3C2F21",
"aI 	c #362B1E",
"bI 	c #392F23",
"cI 	c #493F34",
"dI 	c #50473D",
"eI 	c #3E3A31",
"fI 	c #25221F",
"gI 	c #21201E",
"hI 	c #36322E",
"iI 	c #5F584E",
"jI 	c #5A5045",
"kI 	c #574A3C",
"lI 	c #7D6F5F",
"mI 	c #AA9D8B",
"nI 	c #B2A595",
"oI 	c #ADA192",
"pI 	c #9D9387",
"qI 	c #7D766E",
"rI 	c #6E6762",
"sI 	c #736F6C",
"tI 	c #5C5857",
"uI 	c #2D2F2D",
"vI 	c #2B2D2B",
"wI 	c #2B2D2A",
"xI 	c #2B2E2B",
"yI 	c #3B3D3A",
"zI 	c #242625",
"AI 	c #5E5E58",
"BI 	c #0E0809",
"CI 	c #090403",
"DI 	c #281A14",
"EI 	c #392B22",
"FI 	c #3A2C23",
"GI 	c #3E332B",
"HI 	c #4C453D",
"II 	c #59534F",
"JI 	c #5B5652",
"KI 	c #605B57",
"LI 	c #5E5954",
"MI 	c #443F38",
"NI 	c #3C3A32",
"OI 	c #412E28",
"PI 	c #330D0C",
"QI 	c #2E0304",
"RI 	c #2F0504",
"SI 	c #280503",
"TI 	c #240502",
"UI 	c #230403",
"VI 	c #290605",
"WI 	c #2A0504",
"XI 	c #280405",
"YI 	c #1A0505",
"ZI 	c #0C0608",
"`I 	c #605D56",
" J 	c #635E5B",
".J 	c #6E6862",
"+J 	c #6E665F",
"@J 	c #6F675F",
"#J 	c #736B63",
"$J 	c #716A62",
"%J 	c #6B665E",
"&J 	c #6E6861",
"*J 	c #6F6962",
"=J 	c #706A64",
"-J 	c #35332F",
";J 	c #5A5653",
">J 	c #362E29",
",J 	c #463C31",
"'J 	c #594F43",
")J 	c #5F564B",
"!J 	c #6D6256",
"~J 	c #938878",
"{J 	c #A29685",
"]J 	c #A39985",
"^J 	c #8E8170",
"/J 	c #6B5E4F",
"(J 	c #493D33",
"_J 	c #3F352B",
":J 	c #473E35",
"<J 	c #3B3730",
"[J 	c #423F3E",
"}J 	c #655B51",
"|J 	c #83776A",
"1J 	c #A09485",
"2J 	c #A19688",
"3J 	c #9A9084",
"4J 	c #928A7F",
"5J 	c #67615B",
"6J 	c #716A68",
"7J 	c #5D5756",
"8J 	c #3A3434",
"9J 	c #3B3736",
"0J 	c #292B29",
"aJ 	c #292C2A",
"bJ 	c #363937",
"cJ 	c #434542",
"dJ 	c #50514E",
"eJ 	c #555651",
"fJ 	c #444543",
"gJ 	c #2E3031",
"hJ 	c #242626",
"iJ 	c #030000",
"jJ 	c #040000",
"kJ 	c #160301",
"lJ 	c #341009",
"mJ 	c #441B0F",
"nJ 	c #41180E",
"oJ 	c #3E1B12",
"pJ 	c #40261E",
"qJ 	c #46332D",
"rJ 	c #3F322E",
"sJ 	c #3D3731",
"tJ 	c #625D5B",
"uJ 	c #342826",
"vJ 	c #290F0E",
"wJ 	c #250404",
"xJ 	c #260705",
"yJ 	c #220704",
"zJ 	c #200704",
"AJ 	c #200604",
"BJ 	c #270705",
"CJ 	c #280605",
"DJ 	c #1C0505",
"EJ 	c #100909",
"FJ 	c #1A1C1E",
"GJ 	c #2D2F2E",
"HJ 	c #323032",
"IJ 	c #292A28",
"JJ 	c #252420",
"KJ 	c #2B2B26",
"LJ 	c #58554E",
"MJ 	c #1A1B19",
"NJ 	c #46423E",
"OJ 	c #726B64",
"PJ 	c #706760",
"QJ 	c #716860",
"RJ 	c #726961",
"SJ 	c #6C655F",
"TJ 	c #524F48",
"UJ 	c #474540",
"VJ 	c #474642",
"WJ 	c #4A4845",
"XJ 	c #4D4B47",
"YJ 	c #362F28",
"ZJ 	c #3E362B",
"`J 	c #4D4439",
" K 	c #61594E",
".K 	c #989080",
"+K 	c #A59C8C",
"@K 	c #AAA291",
"#K 	c #A09787",
"$K 	c #887F73",
"%K 	c #696058",
"&K 	c #5A534B",
"*K 	c #504C43",
"=K 	c #726E66",
"-K 	c #757068",
";K 	c #776F67",
">K 	c #867D72",
",K 	c #8B8275",
"'K 	c #7F7669",
")K 	c #766D63",
"!K 	c #736C63",
"~K 	c #59514D",
"{K 	c #67605D",
"]K 	c #5A5352",
"^K 	c #3B3534",
"/K 	c #3D3938",
"(K 	c #282A2A",
"_K 	c #292C2B",
":K 	c #2B2C2E",
"<K 	c #313433",
"[K 	c #323536",
"}K 	c #2D2F33",
"|K 	c #1B1E20",
"1K 	c #111515",
"2K 	c #090B0C",
"3K 	c #060000",
"4K 	c #120000",
"5K 	c #2B0100",
"6K 	c #480401",
"7K 	c #570801",
"8K 	c #540400",
"9K 	c #4C0301",
"0K 	c #480C08",
"aK 	c #451918",
"bK 	c #331716",
"cK 	c #271C18",
"dK 	c #46403F",
"eK 	c #605A5A",
"fK 	c #5E5A59",
"gK 	c #272A29",
"hK 	c #2C2626",
"iK 	c #210E0F",
"jK 	c #1B0303",
"kK 	c #190503",
"lK 	c #170402",
"mK 	c #190603",
"nK 	c #180302",
"oK 	c #1F0403",
"pK 	c #210301",
"qK 	c #210302",
"rK 	c #1A0404",
"sK 	c #10080A",
"tK 	c #242421",
"uK 	c #383731",
"vK 	c #30312E",
"wK 	c #2D2928",
"xK 	c #110F0E",
"yK 	c #736A62",
"zK 	c #6F665E",
"AK 	c #6F655E",
"BK 	c #69615B",
"CK 	c #433F3C",
"DK 	c #393128",
"EK 	c #484137",
"FK 	c #5E5950",
"GK 	c #59524B",
"HK 	c #6E655C",
"IK 	c #9A9287",
"JK 	c #ABA599",
"KK 	c #AFA99E",
"LK 	c #9B968D",
"MK 	c #6C6A63",
"NK 	c #5F5D57",
"OK 	c #595552",
"PK 	c #565550",
"QK 	c #76726C",
"RK 	c #7A756E",
"SK 	c #7A736C",
"TK 	c #837C71",
"UK 	c #837B6F",
"VK 	c #736A5F",
"WK 	c #655C54",
"XK 	c #534B48",
"YK 	c #4B4340",
"ZK 	c #5E5754",
"`K 	c #564E4C",
" L 	c #393232",
".L 	c #3D3837",
"+L 	c #2C2F2F",
"@L 	c #2F3132",
"#L 	c #313335",
"$L 	c #2C2F31",
"%L 	c #262A2C",
"&L 	c #181C1C",
"*L 	c #0C1010",
"=L 	c #030001",
"-L 	c #060001",
";L 	c #0C0000",
">L 	c #200000",
",L 	c #3F0301",
"'L 	c #580300",
")L 	c #660300",
"!L 	c #620100",
"~L 	c #580100",
"{L 	c #580602",
"]L 	c #4F120E",
"^L 	c #360F0D",
"/L 	c #261714",
"(L 	c #605F5D",
"_L 	c #545452",
":L 	c #242827",
"<L 	c #211313",
"[L 	c #180504",
"}L 	c #150301",
"|L 	c #120100",
"1L 	c #150200",
"2L 	c #160100",
"3L 	c #1D0100",
"4L 	c #210000",
"5L 	c #220100",
"6L 	c #1A0201",
"7L 	c #11080A",
"8L 	c #323432",
"9L 	c #34312C",
"0L 	c #35332E",
"aL 	c #2E2F2C",
"bL 	c #433E3D",
"cL 	c #3C3736",
"dL 	c #272725",
"eL 	c #12100F",
"fL 	c #3A3631",
"gL 	c #655F5B",
"hL 	c #79706B",
"iL 	c #736A63",
"jL 	c #716862",
"kL 	c #6A645E",
"lL 	c #5E5854",
"mL 	c #222426",
"nL 	c #222527",
"oL 	c #222427",
"pL 	c #494339",
"qL 	c #5D5951",
"rL 	c #585349",
"sL 	c #6F675E",
"tL 	c #A0998F",
"uL 	c #B6B1A6",
"vL 	c #BBB6AC",
"wL 	c #B7B3A9",
"xL 	c #A09C96",
"yL 	c #7E7B76",
"zL 	c #64605D",
"AL 	c #5E5D58",
"BL 	c #464542",
"CL 	c #413E3D",
"DL 	c #7A766F",
"EL 	c #847D72",
"FL 	c #8A8277",
"GL 	c #7F766B",
"HL 	c #6E675D",
"IL 	c #4F4945",
"JL 	c #5A5452",
"KL 	c #534D4C",
"LL 	c #383232",
"ML 	c #3D3838",
"NL 	c #2F3131",
"OL 	c #111312",
"PL 	c #060305",
"QL 	c #260000",
"RL 	c #4B0301",
"SL 	c #630300",
"TL 	c #6E0300",
"UL 	c #660100",
"VL 	c #610200",
"WL 	c #580401",
"XL 	c #4C0A07",
"YL 	c #320907",
"ZL 	c #21110F",
"`L 	c #5D5C5B",
" M 	c #5D5D5C",
".M 	c #545553",
"+M 	c #272A2C",
"@M 	c #211214",
"#M 	c #190302",
"$M 	c #190100",
"%M 	c #160000",
"&M 	c #1F0200",
"*M 	c #270200",
"=M 	c #340401",
"-M 	c #3A0501",
";M 	c #370602",
">M 	c #270602",
",M 	c #170A07",
"'M 	c #3A3739",
")M 	c #4B4A49",
"!M 	c #383530",
"~M 	c #33312C",
"{M 	c #2F2E2A",
"]M 	c #30302B",
"^M 	c #31312C",
"/M 	c #3C3938",
"(M 	c #363231",
"_M 	c #615B57",
":M 	c #756E69",
"<M 	c #766E68",
"[M 	c #706963",
"}M 	c #6D6761",
"|M 	c #1E2123",
"1M 	c #202225",
"2M 	c #25282A",
"3M 	c #171817",
"4M 	c #352D27",
"5M 	c #575048",
"6M 	c #514A41",
"7M 	c #A1988E",
"8M 	c #BBB3A7",
"9M 	c #C2BDAF",
"0M 	c #BBB5AA",
"aM 	c #A19D94",
"bM 	c #7A7770",
"cM 	c #68655E",
"dM 	c #605D58",
"eM 	c #5C5A56",
"fM 	c #534F4C",
"gM 	c #716C67",
"hM 	c #736E66",
"iM 	c #958D83",
"jM 	c #958E83",
"kM 	c #6D675F",
"lM 	c #514B47",
"mM 	c #46403E",
"nM 	c #565150",
"oM 	c #504C4B",
"pM 	c #363131",
"qM 	c #3B3737",
"rM 	c #2E3030",
"sM 	c #313434",
"tM 	c #050101",
"uM 	c #0F0000",
"vM 	c #290200",
"wM 	c #4F0602",
"xM 	c #6A0801",
"yM 	c #740700",
"zM 	c #6B0300",
"AM 	c #670400",
"BM 	c #560401",
"CM 	c #440A06",
"DM 	c #280604",
"EM 	c #1A0E0C",
"FM 	c #5B5B5A",
"GM 	c #5D5D5D",
"HM 	c #555655",
"IM 	c #1C2020",
"JM 	c #261614",
"KM 	c #290905",
"LM 	c #2F0601",
"MM 	c #300400",
"NM 	c #3B0801",
"OM 	c #4C0C05",
"PM 	c #63130B",
"QM 	c #68150B",
"RM 	c #5B140B",
"SM 	c #3A0D05",
"TM 	c #200D08",
"UM 	c #292220",
"VM 	c #413D3D",
"WM 	c #575756",
"XM 	c #3A3B37",
"YM 	c #444039",
"ZM 	c #3F3C35",
"`M 	c #34322C",
" N 	c #3B3A34",
".N 	c #43413B",
"+N 	c #30302C",
"@N 	c #110F0D",
"#N 	c #47423E",
"$N 	c #534E49",
"%N 	c #534C48",
"&N 	c #4E4844",
"*N 	c #4A4441",
"=N 	c #17191B",
"-N 	c #2C2D2F",
";N 	c #1F1C1C",
">N 	c #2F2B25",
",N 	c #312B23",
"'N 	c #3D352C",
")N 	c #504940",
"!N 	c #514A40",
"~N 	c #4E453B",
"{N 	c #635A4D",
"]N 	c #928A79",
"^N 	c #AA9F91",
"/N 	c #ABA295",
"(N 	c #58534B",
"_N 	c #6E6B64",
":N 	c #807B71",
"<N 	c #9E988D",
"[N 	c #A6A094",
"}N 	c #9A9489",
"|N 	c #7F7A71",
"1N 	c #595450",
"2N 	c #494442",
"3N 	c #575351",
"4N 	c #323333",
"5N 	c #171816",
"6N 	c #11110F",
"7N 	c #040101",
"8N 	c #0B0000",
"9N 	c #230100",
"0N 	c #490602",
"aN 	c #680901",
"bN 	c #710500",
"cN 	c #6A0300",
"dN 	c #630400",
"eN 	c #510401",
"fN 	c #3A0403",
"gN 	c #1C0101",
"hN 	c #110605",
"iN 	c #515152",
"jN 	c #4D4E4D",
"kN 	c #404242",
"lN 	c #181A1C",
"mN 	c #1A1D1F",
"nN 	c #2A1612",
"oN 	c #370D08",
"pN 	c #450B03",
"qN 	c #4A0901",
"rN 	c #580E04",
"sN 	c #69130A",
"tN 	c #7C180E",
"uN 	c #7B190D",
"vN 	c #65150A",
"wN 	c #400D06",
"xN 	c #2A2320",
"yN 	c #333234",
"zN 	c #3C3A3C",
"AN 	c #525151",
"BN 	c #3D3B3C",
"CN 	c #4A443C",
"DN 	c #48423B",
"EN 	c #443F37",
"FN 	c #3D3931",
"GN 	c #3C3931",
"HN 	c #524E48",
"IN 	c #2F2E28",
"JN 	c #2E2D28",
"KN 	c #302F2A",
"LN 	c #484644",
"MN 	c #2D2F2B",
"NN 	c #2C2622",
"ON 	c #2C251F",
"PN 	c #342B24",
"QN 	c #453B33",
"RN 	c #463A31",
"SN 	c #534639",
"TN 	c #716452",
"UN 	c #817163",
"VN 	c #928372",
"WN 	c #8D8072",
"XN 	c #7A7264",
"YN 	c #5A5249",
"ZN 	c #504942",
"`N 	c #66615B",
" O 	c #7D786F",
".O 	c #A09A90",
"+O 	c #AAA599",
"@O 	c #A5A094",
"#O 	c #88827C",
"$O 	c #5E5855",
"%O 	c #494342",
"&O 	c #4F4C4C",
"*O 	c #343032",
"=O 	c #2F3130",
"-O 	c #313232",
";O 	c #323434",
">O 	c #1D1D1B",
",O 	c #070504",
"'O 	c #160200",
")O 	c #3A0904",
"!O 	c #5A0A02",
"~O 	c #680700",
"{O 	c #660700",
"]O 	c #600701",
"^O 	c #4F0601",
"/O 	c #390702",
"(O 	c #120504",
"_O 	c #191C1C",
":O 	c #321C16",
"<O 	c #46140E",
"[O 	c #5A150A",
"}O 	c #5D1004",
"|O 	c #651106",
"1O 	c #6E1108",
"2O 	c #7B150A",
"3O 	c #781609",
"4O 	c #651509",
"5O 	c #3E0E06",
"6O 	c #200E09",
"7O 	c #2A2421",
"8O 	c #44413F",
"9O 	c #3B393A",
"0O 	c #4B4E4D",
"aO 	c #545857",
"bO 	c #515451",
"cO 	c #292A27",
"dO 	c #20201E",
"eO 	c #393839",
"fO 	c #323431",
"gO 	c #47413A",
"hO 	c #474139",
"iO 	c #403C34",
"jO 	c #413F38",
"kO 	c #4A4942",
"lO 	c #4C4A43",
"mO 	c #161716",
"nO 	c #292925",
"oO 	c #181716",
"pO 	c #121110",
"qO 	c #141211",
"rO 	c #0C0B0C",
"sO 	c #0E0F10",
"tO 	c #141616",
"uO 	c #2C2723",
"vO 	c #2E2721",
"wO 	c #383028",
"xO 	c #42382C",
"yO 	c #4B3E30",
"zO 	c #60533F",
"AO 	c #675946",
"BO 	c #776A56",
"CO 	c #796C5E",
"DO 	c #746C60",
"EO 	c #59544E",
"FO 	c #4E4A45",
"GO 	c #7C776F",
"HO 	c #A19C91",
"IO 	c #AEAA9C",
"JO 	c #A8A598",
"KO 	c #8E8882",
"LO 	c #635E5A",
"MO 	c #4B4745",
"NO 	c #565252",
"OO 	c #504D4D",
"PO 	c #353033",
"QO 	c #383638",
"RO 	c #2E3131",
"SO 	c #080100",
"TO 	c #250602",
"UO 	c #470902",
"VO 	c #5D0A01",
"WO 	c #5B0400",
"XO 	c #580500",
"YO 	c #4F0801",
"ZO 	c #3B0702",
"`O 	c #200100",
" P 	c #130403",
".P 	c #181714",
"+P 	c #3E221C",
"@P 	c #4F1811",
"#P 	c #5E150B",
"$P 	c #631309",
"%P 	c #651107",
"&P 	c #681006",
"*P 	c #711208",
"=P 	c #721409",
"-P 	c #601309",
";P 	c #3B0D06",
">P 	c #1D0C09",
",P 	c #2A2C29",
"'P 	c #393B3B",
")P 	c #3E4040",
"!P 	c #333634",
"~P 	c #3C3730",
"{P 	c #464037",
"]P 	c #454038",
"^P 	c #403B34",
"/P 	c #38352F",
"(P 	c #3B3B35",
"_P 	c #474640",
":P 	c #222322",
"<P 	c #292522",
"[P 	c #2B2622",
"}P 	c #27211E",
"|P 	c #28231E",
"1P 	c #27201A",
"2P 	c #372D23",
"3P 	c #45352A",
"4P 	c #544433",
"5P 	c #534333",
"6P 	c #5C4B3C",
"7P 	c #726558",
"8P 	c #807D76",
"9P 	c #7D7B76",
"0P 	c #6E6D69",
"aP 	c #5E5A56",
"bP 	c #78746D",
"cP 	c #A09B90",
"dP 	c #A9A599",
"eP 	c #908B85",
"fP 	c #635F5D",
"gP 	c #4A4646",
"hP 	c #524F50",
"iP 	c #4C4A4B",
"jP 	c #272A2A",
"kP 	c #51504F",
"lP 	c #101212",
"mP 	c #180502",
"nP 	c #3B0B04",
"oP 	c #530D02",
"pP 	c #560801",
"qP 	c #550801",
"rP 	c #520C02",
"sP 	c #3F0A03",
"tP 	c #270402",
"uP 	c #160603",
"vP 	c #120D07",
"wP 	c #0B0906",
"xP 	c #070705",
"yP 	c #10100F",
"zP 	c #232422",
"AP 	c #392E29",
"BP 	c #4C2921",
"CP 	c #602017",
"DP 	c #6E1E14",
"EP 	c #6D170D",
"FP 	c #6C160B",
"GP 	c #6D1409",
"HP 	c #72140A",
"IP 	c #71170C",
"JP 	c #5F160C",
"KP 	c #3B1008",
"LP 	c #1E0E0B",
"MP 	c #27221F",
"NP 	c #444040",
"OP 	c #323534",
"PP 	c #53514D",
"QP 	c #504E4B",
"RP 	c #36322B",
"SP 	c #403B33",
"TP 	c #464038",
"UP 	c #30312C",
"VP 	c #494943",
"WP 	c #52524C",
"XP 	c #2D2C29",
"YP 	c #07080A",
"ZP 	c #060708",
"`P 	c #0F1010",
" Q 	c #282926",
".Q 	c #393B37",
"+Q 	c #4A4B47",
"@Q 	c #2B2823",
"#Q 	c #1E1913",
"$Q 	c #2F261E",
"%Q 	c #3F3225",
"&Q 	c #4A3A29",
"*Q 	c #4D3E2D",
"=Q 	c #716658",
"-Q 	c #989288",
";Q 	c #9C9B94",
">Q 	c #9D9D97",
",Q 	c #8D8D88",
"'Q 	c #71706D",
")Q 	c #454644",
"!Q 	c #5D5A55",
"~Q 	c #77746C",
"{Q 	c #9F9A90",
"]Q 	c #AEAA9D",
"^Q 	c #AAA69A",
"/Q 	c #928E87",
"(Q 	c #64615E",
"_Q 	c #4C4C4C",
":Q 	c #464547",
"<Q 	c #413F3F",
"[Q 	c #130503",
"}Q 	c #350B05",
"|Q 	c #490A02",
"1Q 	c #4F0902",
"2Q 	c #4E0A02",
"3Q 	c #430A03",
"4Q 	c #2B0402",
"5Q 	c #150401",
"6Q 	c #0C0602",
"7Q 	c #3E2F29",
"8Q 	c #512921",
"9Q 	c #652017",
"0Q 	c #721D12",
"aQ 	c #741A10",
"bQ 	c #751B10",
"cQ 	c #70150C",
"dQ 	c #74160B",
"eQ 	c #6F170C",
"fQ 	c #5D160D",
"gQ 	c #3D1009",
"hQ 	c #1F0D08",
"iQ 	c #27201E",
"jQ 	c #221919",
"kQ 	c #281F1E",
"lQ 	c #4D4A48",
"mQ 	c #37322C",
"nQ 	c #454039",
"oQ 	c #2F322F",
"pQ 	c #595955",
"qQ 	c #4E4D48",
"rQ 	c #2D2D29",
"sQ 	c #0F0E0D",
"tQ 	c #2C2B26",
"uQ 	c #191410",
"vQ 	c #16100C",
"wQ 	c #251C16",
"xQ 	c #2D2117",
"yQ 	c #342617",
"zQ 	c #2F2112",
"AQ 	c #3A2B1C",
"BQ 	c #65594E",
"CQ 	c #958F89",
"DQ 	c #9E9C98",
"EQ 	c #A1A19C",
"FQ 	c #908E8B",
"GQ 	c #51504E",
"HQ 	c #474443",
"IQ 	c #5C5854",
"JQ 	c #77726B",
"KQ 	c #9E998E",
"LQ 	c #ACA79A",
"MQ 	c #938E86",
"NQ 	c #65605D",
"OQ 	c #4A4A48",
"PQ 	c #140705",
"QQ 	c #360E08",
"RQ 	c #440500",
"SQ 	c #470801",
"TQ 	c #4D0B02",
"UQ 	c #4B0D05",
"VQ 	c #330703",
"WQ 	c #190400",
"XQ 	c #0C0300",
"YQ 	c #080200",
"ZQ 	c #070200",
"`Q 	c #0D0804",
" R 	c #181510",
".R 	c #2F2C28",
"+R 	c #35302C",
"@R 	c #40302A",
"#R 	c #4E261E",
"$R 	c #5C1A11",
"%R 	c #6A190E",
"&R 	c #6B170D",
"*R 	c #68150D",
"=R 	c #601308",
"-R 	c #53140A",
";R 	c #380E07",
">R 	c #200E07",
",R 	c #28201D",
"'R 	c #443F3F",
")R 	c #1E1614",
"!R 	c #291A17",
"~R 	c #31201E",
"{R 	c #2E2321",
"]R 	c #474848",
"^R 	c #474945",
"/R 	c #444642",
"(R 	c #434341",
"_R 	c #1E1E1C",
":R 	c #5B5855",
"<R 	c #54514F",
"[R 	c #4B4947",
"}R 	c #403C37",
"|R 	c #2F312F",
"1R 	c #2C2A27",
"2R 	c #2B2925",
"3R 	c #2D2B27",
"4R 	c #272622",
"5R 	c #21211E",
"6R 	c #131210",
"7R 	c #545552",
"8R 	c #1E1C1B",
"9R 	c #26211D",
"0R 	c #1C1612",
"aR 	c #19130F",
"bR 	c #271E17",
"cR 	c #32271C",
"dR 	c #3A2D1E",
"eR 	c #392B1C",
"fR 	c #433527",
"gR 	c #65594D",
"hR 	c #98938B",
"iR 	c #9D9A92",
"jR 	c #87847C",
"kR 	c #77736C",
"lR 	c #9D988D",
"mR 	c #AAA698",
"nR 	c #65615D",
"oR 	c #150505",
"pR 	c #310905",
"qR 	c #3C0701",
"rR 	c #380200",
"sR 	c #3E0400",
"tR 	c #4B0A02",
"uR 	c #4F0C05",
"vR 	c #3B0503",
"wR 	c #230501",
"xR 	c #1B0902",
"yR 	c #1F110A",
"zR 	c #22150E",
"AR 	c #342B26",
"BR 	c #3E3431",
"CR 	c #3D3431",
"DR 	c #3A3330",
"ER 	c #3E3734",
"FR 	c #43332F",
"GR 	c #45211A",
"HR 	c #4C1109",
"IR 	c #570D05",
"JR 	c #570B03",
"KR 	c #530D06",
"LR 	c #4E0A06",
"MR 	c #4D0B05",
"NR 	c #460902",
"OR 	c #3D0A03",
"PR 	c #2C0803",
"QR 	c #190905",
"RR 	c #231B19",
"SR 	c #403B3B",
"TR 	c #201212",
"UR 	c #2E1413",
"VR 	c #371B18",
"WR 	c #311E1C",
"XR 	c #2D3132",
"YR 	c #37393A",
"ZR 	c #373937",
"`R 	c #2F2C29",
" S 	c #32302B",
".S 	c #464846",
"+S 	c #26211C",
"@S 	c #37312C",
"#S 	c #39332C",
"$S 	c #4C433B",
"%S 	c #696153",
"&S 	c #7E7565",
"*S 	c #817568",
"=S 	c #817567",
"-S 	c #766A5C",
";S 	c #746A5A",
">S 	c #776C60",
",S 	c #7F7569",
"'S 	c #706759",
")S 	c #4D453C",
"!S 	c #75726B",
"~S 	c #9B958C",
"{S 	c #A9A498",
"]S 	c #908C84",
"^S 	c #464342",
"/S 	c #3D3F3D",
"(S 	c #484946",
"_S 	c #0B0809",
":S 	c #190807",
"<S 	c #300602",
"[S 	c #3A0400",
"}S 	c #370100",
"|S 	c #3C0300",
"1S 	c #4C0B02",
"2S 	c #560E06",
"3S 	c #480703",
"4S 	c #390B03",
"5S 	c #39190E",
"6S 	c #42281E",
"7S 	c #4B342C",
"8S 	c #53433C",
"9S 	c #504641",
"0S 	c #534A46",
"aS 	c #4C4342",
"bS 	c #47413F",
"cS 	c #483C36",
"dS 	c #43231C",
"eS 	c #450C05",
"fS 	c #4D0702",
"gS 	c #4C0701",
"hS 	c #440803",
"iS 	c #3A0301",
"jS 	c #360201",
"kS 	c #330200",
"lS 	c #300301",
"mS 	c #230301",
"nS 	c #180906",
"oS 	c #1E1815",
"pS 	c #3A3636",
"qS 	c #393536",
"rS 	c #1D1E23",
"sS 	c #181A1F",
"tS 	c #200E0D",
"uS 	c #300F0E",
"vS 	c #3A1512",
"wS 	c #361B19",
"xS 	c #2B1F1E",
"yS 	c #212424",
"zS 	c #12110F",
"AS 	c #23201C",
"BS 	c #2B2722",
"CS 	c #57544B",
"DS 	c #AAA497",
"ES 	c #ACA497",
"FS 	c #A89C8D",
"GS 	c #837664",
"HS 	c #5D503C",
"IS 	c #514432",
"JS 	c #5A4D3B",
"KS 	c #574938",
"LS 	c #463B2D",
"MS 	c #443D32",
"NS 	c #38342E",
"OS 	c #1F1C18",
"PS 	c #3A3B3C",
"QS 	c #62605C",
"RS 	c #75736B",
"SS 	c #989389",
"TS 	c #A7A297",
"US 	c #8E8B83",
"VS 	c #62605B",
"WS 	c #434343",
"XS 	c #2C2C26",
"YS 	c #2A2A26",
"ZS 	c #4D4E4A",
"`S 	c #1C1D1D",
" T 	c #0E0B0D",
".T 	c #1B0606",
"+T 	c #310301",
"@T 	c #3C0200",
"#T 	c #3D0100",
"$T 	c #410400",
"%T 	c #4A0801",
"&T 	c #530A03",
"*T 	c #4E0702",
"=T 	c #470C03",
"-T 	c #4E1F14",
";T 	c #532E25",
">T 	c #573C35",
",T 	c #5D4D46",
"'T 	c #574E4C",
")T 	c #565050",
"!T 	c #524C4D",
"~T 	c #4E4C4A",
"{T 	c #483F3A",
"]T 	c #43241D",
"^T 	c #460D06",
"/T 	c #4D0803",
"(T 	c #4B0702",
"_T 	c #3F0601",
":T 	c #340201",
"<T 	c #2E0100",
"[T 	c #2D0000",
"}T 	c #2E0201",
"|T 	c #240302",
"1T 	c #160503",
"2T 	c #1A1211",
"3T 	c #2C2728",
"4T 	c #363134",
"5T 	c #17181E",
"6T 	c #171113",
"7T 	c #200C0B",
"8T 	c #310C0B",
"9T 	c #3A110F",
"0T 	c #371617",
"aT 	c #2C1B1D",
"bT 	c #373537",
"cT 	c #312F2B",
"dT 	c #6B6560",
"eT 	c #8E8881",
"fT 	c #A6A197",
"gT 	c #A7A195",
"hT 	c #A49989",
"iT 	c #817261",
"jT 	c #574733",
"kT 	c #473823",
"lT 	c #51412C",
"mT 	c #4F4030",
"nT 	c #3E3226",
"oT 	c #1E1A16",
"pT 	c #1C1917",
"qT 	c #615F5D",
"rT 	c #73716B",
"sT 	c #9C978E",
"tT 	c #9E9990",
"uT 	c #88857E",
"vT 	c #413F40",
"wT 	c #444540",
"xT 	c #0F0A0C",
"yT 	c #1E0706",
"zT 	c #370603",
"AT 	c #450400",
"BT 	c #460300",
"CT 	c #490802",
"DT 	c #4C0901",
"ET 	c #530A02",
"FT 	c #530501",
"GT 	c #510D04",
"HT 	c #572014",
"IT 	c #5B3126",
"JT 	c #52352E",
"KT 	c #55453E",
"LT 	c #504B49",
"MT 	c #534E51",
"NT 	c #514E51",
"OT 	c #484A48",
"PT 	c #494C4B",
"QT 	c #49433F",
"RT 	c #432620",
"ST 	c #460E08",
"TT 	c #500903",
"UT 	c #4E0902",
"VT 	c #410702",
"WT 	c #350200",
"XT 	c #310100",
"YT 	c #300100",
"ZT 	c #300401",
"`T 	c #270401",
" U 	c #1A1110",
".U 	c #2A2526",
"+U 	c #322D31",
"@U 	c #2F2B2F",
"#U 	c #191A1F",
"$U 	c #201719",
"%U 	c #291111",
"&U 	c #370F0E",
"*U 	c #3D1210",
"=U 	c #3A1818",
"-U 	c #2E1D1E",
";U 	c #1F2122",
">U 	c #3B393B",
",U 	c #060404",
"'U 	c #494744",
")U 	c #404140",
"!U 	c #272420",
"~U 	c #2F2B26",
"{U 	c #666561",
"]U 	c #64605E",
"^U 	c #706A65",
"/U 	c #8F8980",
"(U 	c #A8A297",
"_U 	c #A9A295",
":U 	c #A59C8B",
"<U 	c #857663",
"[U 	c #60503B",
"}U 	c #53442E",
"|U 	c #5C4C38",
"1U 	c #534536",
"2U 	c #403529",
"3U 	c #3A362E",
"4U 	c #666560",
"5U 	c #656462",
"6U 	c #73716D",
"7U 	c #848179",
"8U 	c #8B887E",
"9U 	c #8C887F",
"0U 	c #817D76",
"aU 	c #44423E",
"bU 	c #33322C",
"cU 	c #0E090A",
"dU 	c #1E0605",
"eU 	c #3C0704",
"fU 	c #4C0601",
"gU 	c #4C0400",
"hU 	c #480400",
"iU 	c #4B0901",
"jU 	c #530903",
"kU 	c #4E0301",
"lU 	c #500C04",
"mU 	c #531A11",
"nU 	c #532720",
"oU 	c #51332C",
"pU 	c #52403B",
"qU 	c #514B4B",
"rU 	c #535255",
"sU 	c #4C4B51",
"tU 	c #4B4C4E",
"uU 	c #474B4B",
"vU 	c #494B4D",
"wU 	c #412520",
"xU 	c #460D07",
"yU 	c #500802",
"zU 	c #4F0802",
"AU 	c #430601",
"BU 	c #390200",
"CU 	c #350000",
"DU 	c #320000",
"EU 	c #160201",
"FU 	c #231F21",
"GU 	c #29252A",
"HU 	c #242126",
"IU 	c #1D1F23",
"JU 	c #1B1D22",
"KU 	c #1D1F24",
"LU 	c #291F23",
"MU 	c #32181A",
"NU 	c #3C1313",
"OU 	c #3C1212",
"PU 	c #381617",
"QU 	c #2F1C1E",
"RU 	c #312B26",
"SU 	c #6D6967",
"TU 	c #726D6A",
"UU 	c #77706B",
"VU 	c #8B837B",
"WU 	c #A39E91",
"XU 	c #A49C91",
"YU 	c #A09687",
"ZU 	c #8A7D6B",
"`U 	c #756754",
" V 	c #716451",
".V 	c #7B6D5C",
"+V 	c #665B4E",
"@V 	c #474034",
"#V 	c #46413A",
"$V 	c #5C544A",
"%V 	c #676564",
"&V 	c #757371",
"*V 	c #807C78",
"=V 	c #807C75",
"-V 	c #7B766F",
";V 	c #433D3A",
">V 	c #464440",
",V 	c #393530",
"'V 	c #0F0A0B",
")V 	c #200705",
"!V 	c #3C0905",
"~V 	c #4C0803",
"{V 	c #4C0500",
"]V 	c #470601",
"^V 	c #460801",
"/V 	c #4D0A04",
"(V 	c #4D0502",
"_V 	c #4F0D05",
":V 	c #551D13",
"<V 	c #51251D",
"[V 	c #4C2D26",
"}V 	c #503D37",
"|V 	c #504A49",
"1V 	c #545356",
"2V 	c #515357",
"3V 	c #4F5455",
"4V 	c #4A4F50",
"5V 	c #494D50",
"6V 	c #454240",
"7V 	c #402720",
"8V 	c #460F08",
"9V 	c #510903",
"0V 	c #490803",
"aV 	c #410300",
"bV 	c #3C0100",
"cV 	c #390000",
"dV 	c #350100",
"eV 	c #170503",
"fV 	c #140D0E",
"gV 	c #1E1B20",
"hV 	c #18191E",
"iV 	c #1E2025",
"jV 	c #1D2026",
"kV 	c #1F2228",
"lV 	c #1E2128",
"mV 	c #231F24",
"nV 	c #29191B",
"oV 	c #331516",
"pV 	c #331A1A",
"qV 	c #2C1E20",
"rV 	c #1E1A1D",
"sV 	c #474342",
"tV 	c #322F2A",
"uV 	c #37312A",
"vV 	c #797671",
"wV 	c #7B746F",
"xV 	c #90887F",
"yV 	c #A8A496",
"zV 	c #A7A095",
"AV 	c #A59D90",
"BV 	c #948A7B",
"CV 	c #887E6E",
"DV 	c #877E6E",
"EV 	c #8C8677",
"FV 	c #716D61",
"GV 	c #3D332B",
"HV 	c #605445",
"IV 	c #6F6759",
"JV 	c #787875",
"KV 	c #817F7A",
"LV 	c #7E7D76",
"MV 	c #7D7B73",
"NV 	c #777369",
"OV 	c #574F48",
"PV 	c #403833",
"QV 	c #3E3733",
"RV 	c #3C3935",
"SV 	c #34322D",
"TV 	c #393531",
"UV 	c #413B38",
"VV 	c #4A4340",
"WV 	c #0F090B",
"XV 	c #1F0605",
"YV 	c #380703",
"ZV 	c #470501",
"`V 	c #470401",
" W 	c #410501",
".W 	c #3E0601",
"+W 	c #460804",
"@W 	c #490603",
"#W 	c #4B0903",
"$W 	c #4E140B",
"%W 	c #4C1B14",
"&W 	c #421C15",
"*W 	c #412822",
"=W 	c #463938",
"-W 	c #4D494C",
";W 	c #4C4E53",
">W 	c #4A5152",
",W 	c #454C4E",
"'W 	c #444A4D",
")W 	c #3C2520",
"!W 	c #430E07",
"~W 	c #500902",
"{W 	c #470300",
"]W 	c #480200",
"^W 	c #270100",
"/W 	c #160202",
"(W 	c #110A0B",
"_W 	c #100F16",
":W 	c #110E12",
"<W 	c #1B1D23",
"[W 	c #1E2026",
"}W 	c #1D2127",
"|W 	c #141920",
"1W 	c #241416",
"2W 	c #2D1A1C",
"3W 	c #2B1B1D",
"4W 	c #241C1F",
"5W 	c #1C2022",
"6W 	c #1B1E1F",
"7W 	c #1D191D",
"8W 	c #4F4A46",
"9W 	c #4C4745",
"0W 	c #332E2A",
"aW 	c #595351",
"bW 	c #72706E",
"cW 	c #726F6D",
"dW 	c #716B68",
"eW 	c #8A827B",
"fW 	c #A69E95",
"gW 	c #ACA69A",
"hW 	c #A8A396",
"iW 	c #988F85",
"jW 	c #91897D",
"kW 	c #8B8479",
"lW 	c #8C867D",
"mW 	c #747069",
"nW 	c #433123",
"oW 	c #67523D",
"pW 	c #786753",
"qW 	c #746B60",
"rW 	c #6E6C67",
"sW 	c #757672",
"tW 	c #7D7E79",
"uW 	c #7D7D77",
"vW 	c #7B7A75",
"wW 	c #726B65",
"xW 	c #52473F",
"yW 	c #3E322A",
"zW 	c #3E332D",
"AW 	c #3A3430",
"BW 	c #3C3734",
"CW 	c #413B39",
"DW 	c #4B4341",
"EW 	c #574E4B",
"FW 	c #554F4C",
"GW 	c #433F40",
"HW 	c #10090C",
"IW 	c #1F0706",
"JW 	c #350703",
"KW 	c #400601",
"LW 	c #3E0401",
"MW 	c #440B07",
"NW 	c #460502",
"OW 	c #4B0A04",
"PW 	c #4D0E07",
"QW 	c #4A0D09",
"RW 	c #400B06",
"SW 	c #3E140E",
"TW 	c #3E231D",
"UW 	c #3E3132",
"VW 	c #39373C",
"WW 	c #383D41",
"XW 	c #363D3F",
"YW 	c #363E3F",
"ZW 	c #38221D",
"`W 	c #45100A",
" X 	c #510B04",
".X 	c #540A03",
"+X 	c #510A03",
"@X 	c #510801",
"#X 	c #580902",
"$X 	c #5A0B03",
"%X 	c #480702",
"&X 	c #140201",
"*X 	c #0C090F",
"=X 	c #1D2126",
"-X 	c #1A1F25",
";X 	c #0C1318",
">X 	c #03080B",
",X 	c #241C1D",
"'X 	c #191C1D",
")X 	c #181C1D",
"!X 	c #1B1E1E",
"~X 	c #484340",
"{X 	c #111111",
"]X 	c #0F0F0E",
"^X 	c #474845",
"/X 	c #36312D",
"(X 	c #575350",
"_X 	c #706E6C",
":X 	c #6B6966",
"<X 	c #79736A",
"[X 	c #9F978E",
"}X 	c #AAA499",
"|X 	c #9D968D",
"1X 	c #968F84",
"2X 	c #959085",
"3X 	c #918C84",
"4X 	c #1C1716",
"5X 	c #3B332D",
"6X 	c #49392E",
"7X 	c #4A301C",
"8X 	c #6E4E31",
"9X 	c #7E6245",
"0X 	c #776755",
"aX 	c #6B685E",
"bX 	c #6F716B",
"cX 	c #7B7E79",
"dX 	c #80827E",
"eX 	c #80817C",
"fX 	c #726D67",
"gX 	c #51463D",
"hX 	c #413127",
"iX 	c #45362E",
"jX 	c #2D2826",
"kX 	c #322A28",
"lX 	c #372D2B",
"mX 	c #352B26",
"nX 	c #362C27",
"oX 	c #3C3330",
"pX 	c #48403E",
"qX 	c #4B4343",
"rX 	c #554E4C",
"sX 	c #433E41",
"tX 	c #1D0605",
"uX 	c #2F0502",
"vX 	c #370200",
"wX 	c #340200",
"xX 	c #330603",
"yX 	c #390A06",
"zX 	c #420B08",
"AX 	c #450402",
"BX 	c #4A0501",
"CX 	c #510703",
"DX 	c #4B0401",
"EX 	c #490903",
"FX 	c #46120C",
"GX 	c #3F211F",
"HX 	c #34292B",
"IX 	c #2C3132",
"JX 	c #2D3233",
"KX 	c #361E1A",
"LX 	c #440E08",
"MX 	c #520B04",
"NX 	c #520901",
"OX 	c #580A02",
"PX 	c #650E05",
"QX 	c #6A1107",
"RX 	c #2C0200",
"SX 	c #110100",
"TX 	c #120809",
"UX 	c #161012",
"VX 	c #100C0F",
"WX 	c #110D12",
"XX 	c #120F13",
"YX 	c #181A1D",
"ZX 	c #191C20",
"`X 	c #1B1E23",
" Y 	c #171D21",
".Y 	c #0B1114",
"+Y 	c #04080A",
"@Y 	c #080A0C",
"#Y 	c #151819",
"$Y 	c #534D48",
"%Y 	c #4F4944",
"&Y 	c #48433E",
"*Y 	c #37332F",
"=Y 	c #161717",
"-Y 	c #514D4B",
";Y 	c #676563",
">Y 	c #625E5C",
",Y 	c #92897D",
"'Y 	c #A79E93",
")Y 	c #A7A096",
"!Y 	c #979088",
"~Y 	c #96948B",
"{Y 	c #94908A",
"]Y 	c #393028",
"^Y 	c #483527",
"/Y 	c #4B2A13",
"(Y 	c #795330",
"_Y 	c #735A42",
":Y 	c #685F52",
"<Y 	c #6A6B65",
"[Y 	c #7A807C",
"}Y 	c #848886",
"|Y 	c #868985",
"1Y 	c #52453B",
"2Y 	c #453329",
"3Y 	c #4E3C32",
"4Y 	c #463C36",
"5Y 	c #352825",
"6Y 	c #392622",
"7Y 	c #39241F",
"8Y 	c #3A261F",
"9Y 	c #37241C",
"0Y 	c #382821",
"aY 	c #3E302D",
"bY 	c #493F3C",
"cY 	c #4A4140",
"dY 	c #4F4946",
"eY 	c #444042",
"fY 	c #221F23",
"gY 	c #110A0D",
"hY 	c #1D0606",
"iY 	c #2E0603",
"jY 	c #350501",
"kY 	c #2E0300",
"lY 	c #2D0503",
"mY 	c #360A06",
"nY 	c #440B08",
"oY 	c #4A0703",
"pY 	c #560601",
"qY 	c #5A0501",
"rY 	c #5A0301",
"sY 	c #5A0601",
"tY 	c #580F07",
"uY 	c #4A1C17",
"vY 	c #3A2525",
"wY 	c #343030",
"xY 	c #36211B",
"yY 	c #421008",
"zY 	c #510C04",
"AY 	c #520A01",
"BY 	c #590B01",
"CY 	c #6A1004",
"DY 	c #701306",
"EY 	c #2D0200",
"FY 	c #110101",
"GY 	c #160B0C",
"HY 	c #221A1B",
"IY 	c #221B1E",
"JY 	c #201A1C",
"KY 	c #1A1D1D",
"LY 	c #131411",
"MY 	c #100E0B",
"NY 	c #151512",
"OY 	c #1C1816",
"PY 	c #241D1C",
"QY 	c #221D20",
"RY 	c #47413D",
"SY 	c #4A453F",
"TY 	c #48443C",
"UY 	c #403C35",
"VY 	c #1B1C1B",
"WY 	c #181818",
"XY 	c #5F5B57",
"YY 	c #554D47",
"ZY 	c #645A4F",
"`Y 	c #8C8372",
" Z 	c #A1998B",
".Z 	c #A29C92",
"+Z 	c #A19B92",
"@Z 	c #9E9C93",
"#Z 	c #9B9A93",
"$Z 	c #7F7E78",
"%Z 	c #1B161A",
"&Z 	c #1E1917",
"*Z 	c #393228",
"=Z 	c #473626",
"-Z 	c #4B2B11",
";Z 	c #673D18",
">Z 	c #764D25",
",Z 	c #755638",
"'Z 	c #6A5D4D",
")Z 	c #696B65",
"!Z 	c #798280",
"~Z 	c #87908F",
"{Z 	c #8A8F8B",
"]Z 	c #54483E",
"^Z 	c #4A372C",
"/Z 	c #544035",
"(Z 	c #4A3F37",
"_Z 	c #362F2D",
":Z 	c #3C2B27",
"<Z 	c #3F231E",
"[Z 	c #421F19",
"}Z 	c #411A13",
"|Z 	c #411A12",
"1Z 	c #3D1810",
"2Z 	c #3E1F16",
"3Z 	c #3D2521",
"4Z 	c #433431",
"5Z 	c #473C3B",
"6Z 	c #4E4744",
"7Z 	c #4F4949",
"8Z 	c #403C3F",
"9Z 	c #1C0606",
"0Z 	c #2E0604",
"aZ 	c #340300",
"bZ 	c #280200",
"cZ 	c #340703",
"dZ 	c #470B08",
"eZ 	c #520805",
"fZ 	c #540300",
"gZ 	c #580200",
"hZ 	c #620301",
"iZ 	c #620401",
"jZ 	c #5E0903",
"kZ 	c #511512",
"lZ 	c #432524",
"mZ 	c #33201A",
"nZ 	c #3D0F08",
"oZ 	c #4C0A03",
"pZ 	c #520902",
"qZ 	c #530B02",
"rZ 	c #570901",
"sZ 	c #680E02",
"tZ 	c #701104",
"uZ 	c #580901",
"vZ 	c #2C0100",
"wZ 	c #180C0D",
"xZ 	c #292325",
"yZ 	c #1C181A",
"zZ 	c #1F1717",
"AZ 	c #231915",
"BZ 	c #22140D",
"CZ 	c #221109",
"DZ 	c #201008",
"EZ 	c #1E110A",
"FZ 	c #1C0F09",
"GZ 	c #1E100B",
"HZ 	c #210F0C",
"IZ 	c #271310",
"JZ 	c #281411",
"KZ 	c #2A1714",
"LZ 	c #291A18",
"MZ 	c #241F22",
"NZ 	c #433D37",
"OZ 	c #3A3531",
"PZ 	c #302D29",
"QZ 	c #191B1B",
"RZ 	c #212323",
"SZ 	c #464444",
"TZ 	c #312A26",
"UZ 	c #544943",
"VZ 	c #63564B",
"WZ 	c #8B7F6E",
"XZ 	c #9B9284",
"YZ 	c #A29A94",
"ZZ 	c #A6A099",
"`Z 	c #A29F99",
" ` 	c #A09E99",
".` 	c #81807B",
"+` 	c #090707",
"@` 	c #363128",
"#` 	c #433427",
"$` 	c #472A14",
"%` 	c #623917",
"&` 	c #754B24",
"*` 	c #735133",
"=` 	c #695747",
"-` 	c #6A6964",
";` 	c #7A8382",
">` 	c #858F8F",
",` 	c #8B908E",
"'` 	c #77736D",
")` 	c #53463C",
"!` 	c #4C372B",
"~` 	c #554035",
"{` 	c #3A2E2B",
"]` 	c #452722",
"^` 	c #4F1F19",
"/` 	c #541308",
"(` 	c #501208",
"_` 	c #4F170C",
":` 	c #471F15",
"<` 	c #442C25",
"[` 	c #403231",
"}` 	c #463D3C",
"|` 	c #4A4645",
"1` 	c #1D0807",
"2` 	c #300704",
"3` 	c #370501",
"4` 	c #2B0200",
"5` 	c #380702",
"6` 	c #4F0D08",
"7` 	c #5B0B06",
"8` 	c #5E0400",
"9` 	c #630401",
"0` 	c #630301",
"a` 	c #640602",
"b` 	c #5D0A02",
"c` 	c #54160E",
"d` 	c #452220",
"e` 	c #362F2E",
"f` 	c #303335",
"g` 	c #2F3435",
"h` 	c #31201B",
"i` 	c #3A120A",
"j` 	c #4A0C04",
"k` 	c #510C03",
"l` 	c #510B02",
"m` 	c #560A01",
"n` 	c #660E02",
"o` 	c #6E1103",
"p` 	c #580A01",
"q` 	c #2A0100",
"r` 	c #2B2223",
"s` 	c #2D2527",
"t` 	c #292426",
"u` 	c #1E171A",
"v` 	c #1E1415",
"w` 	c #231613",
"x` 	c #2A140E",
"y` 	c #39190C",
"z` 	c #461B09",
"A` 	c #4C1E0A",
"B` 	c #491B09",
"C` 	c #45190A",
"D` 	c #421608",
"E` 	c #421408",
"F` 	c #421109",
"G` 	c #43130D",
"H` 	c #40130E",
"I` 	c #3C1511",
"J` 	c #301717",
"K` 	c #271E20",
"L` 	c #535550",
"M` 	c #3A352F",
"N` 	c #423C35",
"O` 	c #1D1F1F",
"P` 	c #353530",
"Q` 	c #343530",
"R` 	c #070505",
"S` 	c #444242",
"T` 	c #3C383A",
"U` 	c #312A25",
"V` 	c #48423D",
"W` 	c #5A544E",
"X` 	c #534941",
"Y` 	c #63564A",
"Z` 	c #8C816F",
"`` 	c #9E9687",
"  .	c #A49E95",
". .	c #A8A49A",
"+ .	c #A39F98",
"@ .	c #A19F98",
"# .	c #83827B",
"$ .	c #52514C",
"% .	c #433A2F",
"& .	c #46311E",
"* .	c #5F3D1F",
"= .	c #744C25",
"- .	c #74512E",
"; .	c #6B5740",
"> .	c #6B685D",
", .	c #79817F",
"' .	c #869290",
") .	c #8B918D",
"! .	c #75716B",
"~ .	c #4C382D",
"{ .	c #544236",
"] .	c #4A3F35",
"^ .	c #3B2927",
"/ .	c #471E18",
"( .	c #561810",
"_ .	c #60170C",
": .	c #651508",
"< .	c #681507",
"[ .	c #651507",
"} .	c #63180A",
"| .	c #521A0F",
"1 .	c #3E1F18",
"2 .	c #33211F",
"3 .	c #362B2B",
"4 .	c #3E393A",
"5 .	c #343134",
"6 .	c #190504",
"7 .	c #2F0703",
"8 .	c #3B0501",
"9 .	c #370300",
"0 .	c #3F0501",
"a .	c #550B05",
"b .	c #5F0A04",
"c .	c #5E0701",
"d .	c #5B0401",
"e .	c #5A0403",
"f .	c #570301",
"g .	c #580702",
"h .	c #560B05",
"i .	c #4E120E",
"j .	c #3E1B1B",
"k .	c #1F252A",
"l .	c #1F272D",
"m .	c #1F2328",
"n .	c #291B1B",
"o .	c #36110C",
"p .	c #480F06",
"q .	c #4E0D04",
"r .	c #4E0901",
"s .	c #550B01",
"t .	c #630C01",
"u .	c #6B0F02",
"v .	c #15090B",
"w .	c #281F20",
"x .	c #282327",
"y .	c #1D181B",
"z .	c #25191B",
"A .	c #281312",
"B .	c #2F100B",
"C .	c #390D04",
"D .	c #511503",
"E .	c #6A2105",
"F .	c #782708",
"G .	c #792509",
"H .	c #75240B",
"I .	c #6F1E09",
"J .	c #6F1A08",
"K .	c #6A1509",
"L .	c #60120B",
"M .	c #560F0B",
"N .	c #49110F",
"O .	c #361517",
"P .	c #261C1F",
"Q .	c #1E201F",
"R .	c #222425",
"S .	c #363837",
"T .	c #2F2925",
"U .	c #514A44",
"V .	c #4F453B",
"W .	c #605345",
"X .	c #8A7D6D",
"Y .	c #A09889",
"Z .	c #A19A92",
"` .	c #9F998C",
" ..	c #938D83",
"...	c #7D7770",
"+..	c #23201E",
"@..	c #413324",
"#..	c #583C23",
"$..	c #714A26",
"%..	c #754E2A",
"&..	c #6C4F35",
"*..	c #6B5F51",
"=..	c #7A7D78",
"-..	c #888F8C",
";..	c #8A8C86",
">..	c #4F4138",
",..	c #4A362C",
"'..	c #513F35",
")..	c #463C33",
"!..	c #0B0D0D",
"~..	c #090B0A",
"{..	c #332E2D",
"]..	c #3B2723",
"^..	c #42160F",
"/..	c #541108",
"(..	c #69180C",
"_..	c #731A0A",
":..	c #771B09",
"<..	c #731B09",
"[..	c #6E1D0D",
"}..	c #571A0E",
"|..	c #3A1810",
"1..	c #291712",
"2..	c #2B2220",
"3..	c #2E2B2E",
"4..	c #0B0507",
"5..	c #180503",
"6..	c #2F0803",
"7..	c #410701",
"8..	c #440401",
"9..	c #430502",
"0..	c #490501",
"a..	c #5C0B04",
"b..	c #620A04",
"c..	c #5E0C04",
"d..	c #4F0904",
"e..	c #460705",
"f..	c #3E0503",
"g..	c #410804",
"h..	c #460C07",
"i..	c #491511",
"j..	c #3A1A19",
"k..	c #21191C",
"l..	c #10131A",
"m..	c #0C121B",
"n..	c #0E1118",
"o..	c #1F1215",
"p..	c #35100F",
"q..	c #48110B",
"r..	c #4C0D05",
"s..	c #540A01",
"t..	c #610B01",
"u..	c #6A0F03",
"v..	c #570902",
"w..	c #290100",
"x..	c #110607",
"y..	c #1F1718",
"z..	c #231B1D",
"A..	c #231C1E",
"B..	c #241E20",
"C..	c #301E1F",
"D..	c #361512",
"E..	c #3D0C05",
"F..	c #480801",
"G..	c #611100",
"H..	c #842401",
"I..	c #982E03",
"J..	c #9A2D05",
"K..	c #942A08",
"L..	c #8C2206",
"M..	c #8B1F06",
"N..	c #841806",
"O..	c #78160A",
"P..	c #65100B",
"Q..	c #501010",
"R..	c #38161A",
"S..	c #271F23",
"T..	c #1E2120",
"U..	c #3F403F",
"V..	c #434543",
"W..	c #171716",
"X..	c #2F2C2F",
"Y..	c #433E37",
"Z..	c #504C45",
"`..	c #4A4A45",
" +.	c #50504A",
".+.	c #353631",
"++.	c #232525",
"@+.	c #252727",
"#+.	c #373939",
"$+.	c #333532",
"%+.	c #423D38",
"&+.	c #4C4236",
"*+.	c #635546",
"=+.	c #897C6B",
"-+.	c #9F9687",
";+.	c #A8A194",
">+.	c #9F978B",
",+.	c #92897B",
"'+.	c #7E7669",
")+.	c #3D3529",
"!+.	c #564028",
"~+.	c #704C2A",
"{+.	c #774B26",
"]+.	c #714A28",
"^+.	c #735B42",
"/+.	c #7E7566",
"(+.	c #8B897F",
"_+.	c #8A897C",
":+.	c #48382E",
"<+.	c #4C3F35",
"[+.	c #433B31",
"}+.	c #0C0E0F",
"|+.	c #312B2A",
"1+.	c #382421",
"2+.	c #360F09",
"3+.	c #4A0C05",
"4+.	c #68180E",
"5+.	c #72190B",
"6+.	c #741808",
"7+.	c #711908",
"8+.	c #68190A",
"9+.	c #501509",
"0+.	c #33110A",
"a+.	c #22110D",
"b+.	c #221A1A",
"c+.	c #0A0506",
"d+.	c #2C0501",
"e+.	c #3D0300",
"f+.	c #420200",
"g+.	c #410100",
"h+.	c #630A04",
"i+.	c #590B05",
"j+.	c #420905",
"k+.	c #2F0806",
"l+.	c #230604",
"m+.	c #250704",
"n+.	c #320C08",
"o+.	c #3F1411",
"p+.	c #3A1717",
"q+.	c #211315",
"r+.	c #06070F",
"s+.	c #1A0B0D",
"t+.	c #300C0D",
"u+.	c #450F0C",
"v+.	c #4B0D07",
"w+.	c #520801",
"x+.	c #5F0A01",
"y+.	c #680D02",
"z+.	c #560802",
"A+.	c #290000",
"B+.	c #080101",
"C+.	c #0E0708",
"D+.	c #11090C",
"E+.	c #100A0C",
"F+.	c #110C0E",
"G+.	c #292123",
"H+.	c #351F20",
"I+.	c #3F1512",
"J+.	c #470803",
"K+.	c #500500",
"L+.	c #670E00",
"M+.	c #8A2301",
"N+.	c #9F2E03",
"O+.	c #9D2B04",
"P+.	c #972806",
"Q+.	c #912306",
"R+.	c #8F1D06",
"S+.	c #881807",
"T+.	c #7B150B",
"U+.	c #66110D",
"V+.	c #4D1112",
"W+.	c #34171C",
"X+.	c #251F25",
"Y+.	c #202127",
"Z+.	c #2C2A25",
"`+.	c #322E29",
" @.	c #4C4740",
".@.	c #53534D",
"+@.	c #51504B",
"@@.	c #4C4B46",
"#@.	c #1B1C1A",
"$@.	c #3D3D3E",
"%@.	c #322D2A",
"&@.	c #2E2722",
"*@.	c #493F37",
"=@.	c #4A3D31",
"-@.	c #605041",
";@.	c #867766",
">@.	c #9A8F7F",
",@.	c #A1978A",
"'@.	c #9C9184",
")@.	c #8E8072",
"!@.	c #776A5C",
"~@.	c #756A5B",
"{@.	c #675D51",
"]@.	c #534A42",
"^@.	c #38332B",
"/@.	c #53412D",
"(@.	c #6D4B2C",
"_@.	c #774923",
":@.	c #79451F",
"<@.	c #7A4F2B",
"[@.	c #86694D",
"}@.	c #8F806C",
"|@.	c #897D6C",
"1@.	c #6A5E50",
"2@.	c #4C4036",
"3@.	c #453A31",
"4@.	c #473E36",
"5@.	c #403A32",
"6@.	c #121314",
"7@.	c #36302F",
"8@.	c #392825",
"9@.	c #2E0E09",
"0@.	c #3D0C06",
"a@.	c #5D170F",
"b@.	c #68180C",
"c@.	c #681407",
"d@.	c #631306",
"e@.	c #5D1607",
"f@.	c #4B1307",
"g@.	c #39130C",
"h@.	c #2C1410",
"i@.	c #261B1A",
"j@.	c #170604",
"k@.	c #2C0502",
"l@.	c #3B0200",
"m@.	c #3B0000",
"n@.	c #3A0000",
"o@.	c #490200",
"p@.	c #620A05",
"q@.	c #670C07",
"r@.	c #580D07",
"s@.	c #3A0B06",
"t@.	c #220A08",
"u@.	c #120806",
"v@.	c #150906",
"w@.	c #240D09",
"x@.	c #391611",
"y@.	c #3B1815",
"z@.	c #261111",
"A@.	c #12070B",
"B@.	c #0C040A",
"C@.	c #0F0509",
"D@.	c #1B0709",
"E@.	c #2D0B0B",
"F@.	c #410F0B",
"G@.	c #490C07",
"H@.	c #4F0B04",
"I@.	c #520800",
"J@.	c #600A00",
"K@.	c #660D01",
"L@.	c #550901",
"M@.	c #060202",
"N@.	c #311F21",
"O@.	c #3D1412",
"P@.	c #550600",
"Q@.	c #6A1000",
"R@.	c #862302",
"S@.	c #962B06",
"T@.	c #912807",
"U@.	c #862509",
"V@.	c #7F1F0A",
"W@.	c #7F1D0C",
"X@.	c #78180F",
"Y@.	c #6C1712",
"Z@.	c #591412",
"`@.	c #441617",
" #.	c #2F1B21",
".#.	c #242026",
"+#.	c #212228",
"@#.	c #33302A",
"##.	c #3B362F",
"$#.	c #49443D",
"%#.	c #4F504B",
"&#.	c #474742",
"*#.	c #2E2F2A",
"=#.	c #232421",
"-#.	c #272724",
";#.	c #0D0E0E",
">#.	c #3F3630",
",#.	c #4F453E",
"'#.	c #4A3E35",
")#.	c #4B3D30",
"!#.	c #615140",
"~#.	c #978B78",
"{#.	c #9D9382",
"]#.	c #988D7C",
"^#.	c #8E806E",
"/#.	c #786A5A",
"(#.	c #6F6253",
"_#.	c #605547",
":#.	c #4F463B",
"<#.	c #111316",
"[#.	c #131519",
"}#.	c #534535",
"|#.	c #6C5034",
"1#.	c #764D28",
"2#.	c #7D451B",
"3#.	c #86491C",
"4#.	c #925F33",
"5#.	c #97724F",
"6#.	c #8B7057",
"7#.	c #6C5A49",
"8#.	c #51453B",
"9#.	c #4B423A",
"0#.	c #1B1D1C",
"a#.	c #393533",
"b#.	c #3F3A38",
"c#.	c #3C2F2C",
"d#.	c #260F0B",
"e#.	c #2D0B06",
"f#.	c #4A1610",
"g#.	c #53140C",
"h#.	c #571308",
"i#.	c #551104",
"j#.	c #561607",
"k#.	c #541B0D",
"l#.	c #4F2116",
"m#.	c #43201A",
"n#.	c #120302",
"o#.	c #270301",
"p#.	c #360100",
"q#.	c #340000",
"r#.	c #360000",
"s#.	c #470200",
"t#.	c #600804",
"u#.	c #650A05",
"v#.	c #560C06",
"w#.	c #380B08",
"x#.	c #1E0B0B",
"y#.	c #0E0808",
"z#.	c #0E0707",
"A#.	c #1C0B08",
"B#.	c #31130E",
"C#.	c #38130F",
"D#.	c #280C0A",
"E#.	c #180506",
"F#.	c #150508",
"G#.	c #1B070A",
"H#.	c #20070A",
"I#.	c #290706",
"J#.	c #360904",
"K#.	c #3F0702",
"L#.	c #520500",
"M#.	c #5E0901",
"N#.	c #510701",
"O#.	c #0D0000",
"P#.	c #050001",
"Q#.	c #191B1F",
"R#.	c #27191C",
"S#.	c #381210",
"T#.	c #4F0D06",
"U#.	c #5C0A02",
"V#.	c #6E1401",
"W#.	c #7E1F02",
"X#.	c #852205",
"Y#.	c #7E2109",
"Z#.	c #711F0C",
"`#.	c #661A0D",
" $.	c #641C12",
".$.	c #5E1A17",
"+$.	c #511A18",
"@$.	c #441818",
"#$.	c #371A1D",
"$$.	c #2A1E24",
"%$.	c #202027",
"&$.	c #33312B",
"*$.	c #36322D",
"=$.	c #3C3932",
"-$.	c #43403C",
";$.	c #2E2927",
">$.	c #2B2522",
",$.	c #3C342F",
"'$.	c #4C443C",
")$.	c #493E35",
"!$.	c #493C2F",
"~$.	c #776956",
"{$.	c #867966",
"]$.	c #8D836F",
"^$.	c #887B6A",
"/$.	c #827461",
"($.	c #6F604F",
"_$.	c #665847",
":$.	c #544839",
"<$.	c #453A2E",
"[$.	c #4D4339",
"}$.	c #473E37",
"|$.	c #2A241E",
"1$.	c #101216",
"2$.	c #54493E",
"3$.	c #69533C",
"4$.	c #734F2C",
"5$.	c #7D461D",
"6$.	c #8E4818",
"7$.	c #954F1D",
"8$.	c #94592C",
"9$.	c #875B39",
"0$.	c #6D523E",
"a$.	c #5B4C42",
"b$.	c #3D3331",
"c$.	c #21110D",
"d$.	c #230B07",
"e$.	c #3B1611",
"f$.	c #44150E",
"g$.	c #4A150B",
"h$.	c #4D1507",
"i$.	c #541708",
"j$.	c #5C1F10",
"k$.	c #5C2314",
"l$.	c #502218",
"m$.	c #3C1F18",
"n$.	c #221713",
"o$.	c #110402",
"p$.	c #330301",
"q$.	c #3B0100",
"r$.	c #610904",
"s$.	c #650A06",
"t$.	c #390C08",
"u$.	c #210C0B",
"v$.	c #130807",
"w$.	c #130706",
"x$.	c #1D0A07",
"y$.	c #2D110A",
"z$.	c #34100A",
"A$.	c #2B0A08",
"B$.	c #1E0404",
"C$.	c #1B0304",
"D$.	c #1F0406",
"E$.	c #250607",
"F$.	c #270202",
"G$.	c #2F0300",
"H$.	c #470701",
"I$.	c #520601",
"J$.	c #5B0901",
"K$.	c #4E0601",
"L$.	c #110000",
"M$.	c #080000",
"N$.	c #080102",
"O$.	c #050000",
"P$.	c #070302",
"Q$.	c #241718",
"R$.	c #3B120E",
"S$.	c #5B140C",
"T$.	c #6D1608",
"U$.	c #771C05",
"V$.	c #781D02",
"W$.	c #781E04",
"X$.	c #701C07",
"Y$.	c #621D0E",
"Z$.	c #541A12",
"`$.	c #4D1C18",
" %.	c #461C1C",
".%.	c #3C1F1F",
"+%.	c #321D1E",
"@%.	c #2C1E21",
"#%.	c #262026",
"$%.	c #212324",
"%%.	c #32312B",
"&%.	c #383833",
"*%.	c #393833",
"=%.	c #3D3630",
"-%.	c #453B2F",
";%.	c #54493A",
">%.	c #594D3E",
",%.	c #5E5243",
"'%.	c #5B4E40",
")%.	c #574B3B",
"!%.	c #45382B",
"~%.	c #3A2F23",
"{%.	c #31261D",
"]%.	c #362D25",
"^%.	c #1F1914",
"/%.	c #191512",
"(%.	c #1A1716",
"_%.	c #0D0A0A",
":%.	c #0F1115",
"<%.	c #101217",
"[%.	c #101116",
"}%.	c #544D44",
"|%.	c #675742",
"1%.	c #6F5232",
"2%.	c #7D4920",
"3%.	c #924918",
"4%.	c #8D4C1C",
"5%.	c #7F4C27",
"6%.	c #6D4D37",
"7%.	c #5F4F43",
"8%.	c #5D534C",
"9%.	c #2C2A26",
"0%.	c #1A100E",
"a%.	c #180907",
"b%.	c #2E1411",
"c%.	c #35150F",
"d%.	c #3B130C",
"e%.	c #401209",
"f%.	c #4C1509",
"g%.	c #591C0D",
"h%.	c #5E1D0F",
"i%.	c #561C12",
"j%.	c #431710",
"k%.	c #290F0A",
"l%.	c #190B09",
"m%.	c #0F0708",
"n%.	c #080307",
"o%.	c #040105",
"p%.	c #050204",
"q%.	c #0D0201",
"r%.	c #1B0502",
"s%.	c #250302",
"t%.	c #330100",
"u%.	c #470502",
"v%.	c #620C07",
"w%.	c #620906",
"x%.	c #570B06",
"y%.	c #3C0A06",
"z%.	c #270907",
"A%.	c #1C0705",
"B%.	c #1C0704",
"C%.	c #220602",
"D%.	c #2C0903",
"E%.	c #330903",
"F%.	c #2E0502",
"G%.	c #240101",
"H%.	c #250101",
"I%.	c #240000",
"J%.	c #2A0000",
"K%.	c #430400",
"L%.	c #4D0401",
"M%.	c #530601",
"N%.	c #510600",
"O%.	c #450300",
"P%.	c #2B0000",
"Q%.	c #140000",
"R%.	c #0A0000",
"S%.	c #090101",
"T%.	c #181B1F",
"U%.	c #181A1E",
"V%.	c #231517",
"W%.	c #3C1310",
"X%.	c #5E1811",
"Y%.	c #6F1A0C",
"Z%.	c #741D06",
"`%.	c #701A02",
" &.	c #6F1A03",
".&.	c #641605",
"+&.	c #56190D",
"@&.	c #471B15",
"#&.	c #40201D",
"$&.	c #351E20",
"%&.	c #2F2123",
"&&.	c #291F22",
"*&.	c #241E22",
"=&.	c #232025",
"-&.	c #242228",
";&.	c #363537",
">&.	c #2A292F",
",&.	c #2F2E34",
"'&.	c #262328",
")&.	c #201F25",
"!&.	c #25201C",
"~&.	c #2D251F",
"{&.	c #2F261F",
"]&.	c #2C231D",
"^&.	c #2C221B",
"/&.	c #261B15",
"(&.	c #241A14",
"_&.	c #1D1310",
":&.	c #170E0B",
"<&.	c #18110E",
"[&.	c #100B09",
"}&.	c #100C0A",
"|&.	c #13100F",
"1&.	c #110E0D",
"2&.	c #080606",
"3&.	c #615445",
"4&.	c #695138",
"5&.	c #764B29",
"6&.	c #85481F",
"7&.	c #89481D",
"8&.	c #854B20",
"9&.	c #774928",
"0&.	c #684A36",
"a&.	c #5C4A3E",
"b&.	c #5C5047",
"c&.	c #5F5850",
"d&.	c #181514",
"e&.	c #0B0505",
"f&.	c #1B100E",
"g&.	c #20100C",
"h&.	c #230E09",
"i&.	c #290C05",
"j&.	c #3A1208",
"k&.	c #531B0E",
"l&.	c #5B1C0B",
"m&.	c #5B190B",
"n&.	c #50160B",
"o&.	c #421209",
"p&.	c #37120C",
"q&.	c #270F0D",
"r&.	c #120606",
"s&.	c #060102",
"t&.	c #080201",
"u&.	c #0B0200",
"v&.	c #0F0100",
"w&.	c #100000",
"x&.	c #1D0000",
"y&.	c #5A0B06",
"z&.	c #5F0704",
"A&.	c #560A04",
"B&.	c #470B05",
"C&.	c #3C0B07",
"D&.	c #360A04",
"E&.	c #350B03",
"F&.	c #380801",
"G&.	c #3D0900",
"H&.	c #420800",
"I&.	c #410601",
"J&.	c #3C0301",
"K&.	c #390300",
"L&.	c #3E0200",
"M&.	c #470301",
"N&.	c #400100",
"O&.	c #190101",
"P&.	c #090102",
"Q&.	c #181C1F",
"R&.	c #16181C",
"S&.	c #221416",
"T&.	c #37110E",
"U&.	c #52120B",
"V&.	c #5E1106",
"W&.	c #661503",
"X&.	c #651201",
"Y&.	c #5E1606",
"Z&.	c #4C160B",
"`&.	c #3A1813",
" *.	c #331F1E",
".*.	c #2C2223",
"+*.	c #242024",
"@*.	c #44433E",
"#*.	c #323237",
"$*.	c #333137",
"%*.	c #312F34",
"&*.	c #262327",
"**.	c #18151A",
"=*.	c #202025",
"-*.	c #1B1616",
";*.	c #1C1715",
">*.	c #0D0909",
",*.	c #0B0708",
"'*.	c #090505",
")*.	c #0E1013",
"!*.	c #0F1114",
"~*.	c #5D564A",
"{*.	c #625542",
"]*.	c #694F36",
"^*.	c #775031",
"/*.	c #825936",
"(*.	c #845F3D",
"_*.	c #7A5C42",
":*.	c #6C5645",
"<*.	c #605143",
"[*.	c #5D5046",
"}*.	c #62594F",
"|*.	c #56514A",
"1*.	c #403E40",
"2*.	c #090708",
"3*.	c #090507",
"4*.	c #090303",
"5*.	c #0A0100",
"6*.	c #240803",
"7*.	c #47160D",
"8*.	c #591708",
"9*.	c #5C1507",
"0*.	c #5F180A",
"a*.	c #611B0E",
"b*.	c #5E2117",
"c*.	c #441B17",
"d*.	c #1B0707",
"e*.	c #020002",
"f*.	c #4E0402",
"g*.	c #550301",
"h*.	c #550C06",
"i*.	c #57100A",
"j*.	c #571006",
"k*.	c #571004",
"l*.	c #580D03",
"m*.	c #5D0D01",
"n*.	c #5E0D01",
"o*.	c #610E03",
"p*.	c #600D03",
"q*.	c #5F0D03",
"r*.	c #5C0B02",
"s*.	c #5C0B01",
"t*.	c #590901",
"u*.	c #560901",
"v*.	c #530902",
"w*.	c #4C0602",
"x*.	c #2E0000",
"y*.	c #2F0000",
"z*.	c #280000",
"A*.	c #1B0101",
"B*.	c #0F0101",
"C*.	c #070000",
"D*.	c #181B1E",
"E*.	c #17181C",
"F*.	c #211013",
"G*.	c #300908",
"H*.	c #450602",
"I*.	c #500501",
"J*.	c #5A0900",
"K*.	c #5E0A00",
"L*.	c #600C01",
"M*.	c #430E05",
"N*.	c #2D0F09",
"O*.	c #281818",
"P*.	c #272022",
"Q*.	c #242125",
"R*.	c #353437",
"S*.	c #4A4A47",
"T*.	c #323034",
"U*.	c #201F26",
"V*.	c #24242B",
"W*.	c #27272E",
"X*.	c #2A2A31",
"Y*.	c #2A2930",
"Z*.	c #28272D",
"`*.	c #060405",
" =.	c #302A29",
".=.	c #0E0A0A",
"+=.	c #0F0B0B",
"@=.	c #0F0C0C",
"#=.	c #0D0F13",
"$=.	c #5C5245",
"%=.	c #6B5B49",
"&=.	c #8A7761",
"*=.	c #998974",
"==.	c #968979",
"-=.	c #897C70",
";=.	c #746A5F",
">=.	c #3F3E40",
",=.	c #434143",
"'=.	c #434344",
")=.	c #1B0803",
"!=.	c #45180F",
"~=.	c #57170A",
"{=.	c #5D1507",
"]=.	c #67190A",
"^=.	c #6F1E0D",
"/=.	c #6F2417",
"(=.	c #4F1B16",
"_=.	c #1C0605",
":=.	c #510200",
"<=.	c #510400",
"[=.	c #5A0C05",
"}=.	c #651108",
"|=.	c #6A1103",
"1=.	c #6D1102",
"2=.	c #6D0F01",
"3=.	c #711101",
"4=.	c #711202",
"5=.	c #731403",
"6=.	c #751402",
"7=.	c #761403",
"8=.	c #741203",
"9=.	c #721103",
"0=.	c #6E0F02",
"a=.	c #691002",
"b=.	c #5F0C02",
"c=.	c #4E0803",
"d=.	c #1D0201",
"e=.	c #100101",
"f=.	c #191B1E",
"g=.	c #1A1518",
"h=.	c #231112",
"i=.	c #310807",
"j=.	c #450401",
"k=.	c #4F0200",
"l=.	c #5A0400",
"m=.	c #600700",
"n=.	c #620B01",
"o=.	c #580C03",
"p=.	c #3E0B04",
"q=.	c #240A05",
"r=.	c #201314",
"s=.	c #1A1921",
"t=.	c #242329",
"u=.	c #3E3836",
"v=.	c #433D3B",
"w=.	c #57504D",
"x=.	c #4C443A",
"y=.	c #4E4539",
"z=.	c #544A3F",
"A=.	c #544B40",
"B=.	c #5A5146",
"C=.	c #5A5147",
"D=.	c #61574D",
"E=.	c #60574E",
"F=.	c #080A0E",
"G=.	c #0B0E11",
"H=.	c #0C0E12",
"I=.	c #0E1015",
"J=.	c #3A3832",
"K=.	c #575751",
"L=.	c #55534B",
"M=.	c #655F54",
"N=.	c #8D8578",
"O=.	c #A69F92",
"P=.	c #A7A295",
"Q=.	c #9B9489",
"R=.	c #797267",
"S=.	c #777167",
"T=.	c #5C5B54",
"U=.	c #07050D",
"V=.	c #08060D",
"W=.	c #373639",
"X=.	c #38373A",
"Y=.	c #1A0905",
"Z=.	c #431911",
"`=.	c #52150A",
" -.	c #5B1407",
".-.	c #681809",
"+-.	c #731D0C",
"@-.	c #732013",
"#-.	c #541711",
"$-.	c #1C0201",
"%-.	c #4D0301",
"&-.	c #510300",
"*-.	c #5A0902",
"=-.	c #670F06",
"--.	c #6D0E02",
";-.	c #6E0D00",
">-.	c #700E00",
",-.	c #740F01",
"'-.	c #751001",
")-.	c #761101",
"!-.	c #771101",
"~-.	c #771102",
"{-.	c #750E01",
"]-.	c #6E0A00",
"^-.	c #680A00",
"/-.	c #310000",
"(-.	c #220000",
"_-.	c #270000",
":-.	c #080001",
"<-.	c #191417",
"[-.	c #210F10",
"}-.	c #300806",
"|-.	c #520301",
"1-.	c #5D0600",
"2-.	c #5F0600",
"3-.	c #600801",
"4-.	c #3A0A04",
"5-.	c #1E0804",
"6-.	c #1A1113",
"7-.	c #202126",
"8-.	c #2A2C2F",
"9-.	c #0E0D15",
"0-.	c #0E0C15",
"a-.	c #17161E",
"b-.	c #35302F",
"c-.	c #504A47",
"d-.	c #58514C",
"e-.	c #76685B",
"f-.	c #7D6C59",
"g-.	c #6D5B42",
"h-.	c #6E573E",
"i-.	c #755D44",
"j-.	c #735B44",
"k-.	c #78614A",
"l-.	c #7E6754",
"m-.	c #897362",
"n-.	c #816E60",
"o-.	c #7B6D62",
"p-.	c #766E66",
"q-.	c #67635F",
"r-.	c #595856",
"s-.	c #555453",
"t-.	c #454342",
"u-.	c #342F2C",
"v-.	c #090B0F",
"w-.	c #0B0D11",
"x-.	c #0D0F14",
"y-.	c #504D4B",
"z-.	c #555451",
"A-.	c #8B8278",
"B-.	c #A69D91",
"C-.	c #83796F",
"D-.	c #786D63",
"E-.	c #373638",
"F-.	c #180C08",
"G-.	c #3A1B14",
"H-.	c #46170E",
"I-.	c #51140A",
"J-.	c #63190C",
"K-.	c #711D0D",
"L-.	c #742013",
"M-.	c #5B170E",
"N-.	c #290201",
"O-.	c #530602",
"P-.	c #560300",
"Q-.	c #530300",
"R-.	c #680F05",
"S-.	c #6F0D00",
"T-.	c #6F0C00",
"U-.	c #730D00",
"V-.	c #771202",
"W-.	c #761102",
"X-.	c #771103",
"Y-.	c #760F02",
"Z-.	c #700B01",
"`-.	c #6A0B00",
" ;.	c #620A01",
".;.	c #4D0300",
"+;.	c #330000",
"@;.	c #231111",
"#;.	c #320A08",
"$;.	c #560501",
"%;.	c #600901",
"&;.	c #600800",
"*;.	c #610C02",
"=;.	c #570C04",
"-;.	c #3A0C06",
";;.	c #1F0C08",
">;.	c #212227",
",;.	c #24262B",
"';.	c #24262A",
");.	c #5E534A",
"!;.	c #856C4E",
"~;.	c #80603C",
"{;.	c #8A6540",
"];.	c #916B46",
"^;.	c #8B6540",
"/;.	c #8C6944",
"(;.	c #927051",
"_;.	c #9D8066",
":;.	c #957D69",
"<;.	c #8A796A",
"[;.	c #80776B",
"};.	c #6E6963",
"|;.	c #575655",
"1;.	c #0A0C10",
"2;.	c #565451",
"3;.	c #8D8477",
"4;.	c #A99F90",
"5;.	c #ABA091",
"6;.	c #998D82",
"7;.	c #7E7166",
"8;.	c #70635A",
"9;.	c #6B6159",
"0;.	c #534F49",
"a;.	c #05050A",
"b;.	c #0F0808",
"c;.	c #1D0F0B",
"d;.	c #230803",
"e;.	c #320903",
"f;.	c #68180B",
"g;.	c #6C190D",
"h;.	c #60170E",
"i;.	c #440C08",
"j;.	c #330905",
"k;.	c #0E0000",
"l;.	c #340100",
"m;.	c #530401",
"n;.	c #5D0901",
"o;.	c #660B02",
"p;.	c #6C0D01",
"q;.	c #6F0B00",
"r;.	c #750F01",
"s;.	c #781202",
"t;.	c #761103",
"u;.	c #771304",
"v;.	c #751102",
"w;.	c #721303",
"x;.	c #6B1306",
"y;.	c #520903",
"z;.	c #250000",
"A;.	c #1C0100",
"B;.	c #080403",
"C;.	c #181013",
"D;.	c #200D0E",
"E;.	c #310806",
"F;.	c #580601",
"G;.	c #5E0600",
"H;.	c #5E0700",
"I;.	c #5B0600",
"J;.	c #550C03",
"K;.	c #3B0E07",
"L;.	c #1D0B08",
"M;.	c #141115",
"N;.	c #1B1C22",
"O;.	c #0E0C13",
"P;.	c #433E3C",
"Q;.	c #463F3D",
"R;.	c #4C453F",
"S;.	c #50443B",
"T;.	c #665240",
"U;.	c #7E5F40",
"V;.	c #835C35",
"W;.	c #9A7049",
"X;.	c #A17954",
"Y;.	c #9B7651",
"Z;.	c #967650",
"`;.	c #8B6E4D",
" >.	c #8E755B",
".>.	c #86715F",
"+>.	c #817364",
"@>.	c #7E756A",
"#>.	c #6A6560",
"$>.	c #575352",
"%>.	c #302B29",
"&>.	c #080A0D",
"*>.	c #52504F",
"=>.	c #52514E",
"->.	c #8B8175",
";>.	c #AA9C8E",
">>.	c #988A7D",
",>.	c #7B6E61",
"'>.	c #6E6057",
")>.	c #695F56",
"!>.	c #070506",
"~>.	c #060303",
"{>.	c #150100",
"]>.	c #3A0A05",
"^>.	c #58130A",
"/>.	c #61160A",
"(>.	c #5E150C",
"_>.	c #5C1510",
":>.	c #53140F",
"<>.	c #3F110A",
"[>.	c #1E0501",
"}>.	c #130000",
"|>.	c #390402",
"1>.	c #590702",
"2>.	c #5D0300",
"3>.	c #5C0500",
"4>.	c #610902",
"5>.	c #670D03",
"6>.	c #6F0E01",
"7>.	c #720E01",
"8>.	c #731001",
"9>.	c #751202",
"0>.	c #771303",
"a>.	c #791504",
"b>.	c #771505",
"c>.	c #781505",
"d>.	c #791706",
"e>.	c #791B0A",
"f>.	c #721B0D",
"g>.	c #570F06",
"h>.	c #3A0100",
"i>.	c #300000",
"j>.	c #090000",
"k>.	c #090100",
"l>.	c #0A0505",
"m>.	c #090305",
"n>.	c #090304",
"o>.	c #080203",
"p>.	c #0A0304",
"q>.	c #0B0204",
"r>.	c #150203",
"s>.	c #2A0402",
"t>.	c #4A0803",
"u>.	c #5C0902",
"v>.	c #5F0800",
"w>.	c #5B0500",
"x>.	c #570500",
"y>.	c #510902",
"z>.	c #370903",
"A>.	c #160402",
"B>.	c #110F17",
"C>.	c #010005",
"D>.	c #3A3435",
"E>.	c #362F31",
"F>.	c #3A322F",
"G>.	c #4B4037",
"H>.	c #5E4A3B",
"I>.	c #735539",
"J>.	c #7F5C38",
"K>.	c #9D7F5C",
"L>.	c #A89275",
"M>.	c #A18F77",
"N>.	c #9D8C76",
"O>.	c #8F7F6B",
"P>.	c #827563",
"Q>.	c #73685B",
"R>.	c #6B6862",
"S>.	c #07090D",
"T>.	c #4E4C48",
"U>.	c #8B8376",
"V>.	c #ABA191",
"W>.	c #AEA090",
"X>.	c #9D8E7F",
"Y>.	c #837567",
"Z>.	c #786A5E",
"`>.	c #2E0806",
" ,.	c #450B06",
".,.	c #520B05",
"+,.	c #59110B",
"@,.	c #551009",
"#,.	c #460E07",
"$,.	c #250401",
"%,.	c #3C0201",
"&,.	c #580502",
"*,.	c #5D0301",
"=,.	c #5C0501",
"-,.	c #660D04",
";,.	c #670C02",
">,.	c #6B0E02",
",,.	c #700F02",
"',.	c #701204",
"),.	c #711203",
"!,.	c #721304",
"~,.	c #761607",
"{,.	c #751505",
"],.	c #761908",
"^,.	c #711A0C",
"/,.	c #570D06",
"(,.	c #2C0000",
"_,.	c #1B0000",
":,.	c #280201",
"<,.	c #4A0802",
"[,.	c #5D0700",
"},.	c #550300",
"|,.	c #520400",
"1,.	c #4B0601",
"2,.	c #340802",
"3,.	c #120200",
"4,.	c #080607",
"5,.	c #201A1E",
"6,.	c #342E31",
"7,.	c #332E2F",
"8,.	c #342D2D",
"9,.	c #4D423C",
"0,.	c #604F43",
"a,.	c #69503C",
"b,.	c #71583D",
"c,.	c #8C7B66",
"d,.	c #9B9688",
"e,.	c #9B9B91",
"f,.	c #9F9D95",
"g,.	c #99958D",
"h,.	c #838178",
"i,.	c #6A6963",
"j,.	c #757270",
"k,.	c #4F4D4B",
"l,.	c #4D4B4C",
"m,.	c #4C4B4B",
"n,.	c #4C4847",
"o,.	c #5B544E",
"p,.	c #8C8277",
"q,.	c #ADA293",
"r,.	c #B1A393",
"s,.	c #A29383",
"t,.	c #8A7A6C",
"u,.	c #7E7064",
"v,.	c #756B62",
"w,.	c #230805",
"x,.	c #380805",
"y,.	c #400904",
"z,.	c #420702",
"A,.	c #4A0A04",
"B,.	c #4B0904",
"C,.	c #470C05",
"D,.	c #2E0401",
"E,.	c #180000",
"F,.	c #400402",
"G,.	c #590703",
"H,.	c #5D0602",
"I,.	c #5C0802",
"J,.	c #5C0B03",
"K,.	c #5E0E06",
"L,.	c #5E0E04",
"M,.	c #5F1005",
"N,.	c #5F0F04",
"O,.	c #601105",
"P,.	c #611106",
"Q,.	c #611105",
"R,.	c #641306",
"S,.	c #651307",
"T,.	c #6A1609",
"U,.	c #6C1608",
"V,.	c #6F1B0B",
"W,.	c #68190C",
"X,.	c #500D06",
"Y,.	c #340101",
"Z,.	c #2B0101",
"`,.	c #2A0201",
" '.	c #4D0A02",
".'.	c #5E0C01",
"+'.	c #5B0A00",
"@'.	c #500601",
"#'.	c #420802",
"$'.	c #300A04",
"%'.	c #110401",
"&'.	c #0B0C0D",
"*'.	c #040505",
"='.	c #302C2E",
"-'.	c #383230",
";'.	c #524A44",
">'.	c #62503E",
",'.	c #695642",
"''.	c #827868",
")'.	c #94948B",
"!'.	c #949992",
"~'.	c #9CA099",
"{'.	c #9B9C96",
"]'.	c #868882",
"^'.	c #6A6D68",
"/'.	c #686A68",
"('.	c #71726F",
"_'.	c #63625F",
":'.	c #06080A",
"<'.	c #272421",
"['.	c #3F3D3D",
"}'.	c #5A534E",
"|'.	c #857D73",
"1'.	c #A39B8F",
"2'.	c #A59C8F",
"3'.	c #978C80",
"4'.	c #82776C",
"5'.	c #796E64",
"6'.	c #6E6660",
"7'.	c #130201",
"8'.	c #260504",
"9'.	c #2F0302",
"0'.	c #390100",
"a'.	c #400200",
"b'.	c #440400",
"c'.	c #360200",
"d'.	c #150000",
"e'.	c #540402",
"f'.	c #570502",
"g'.	c #530701",
"h'.	c #4B0602",
"i'.	c #440601",
"j'.	c #440701",
"k'.	c #3E0501",
"l'.	c #3B0502",
"m'.	c #3C0503",
"n'.	c #3D0502",
"o'.	c #3F0602",
"p'.	c #400602",
"q'.	c #470804",
"r'.	c #4C0904",
"s'.	c #540E06",
"t'.	c #500E06",
"u'.	c #3C0502",
"v'.	c #230002",
"w'.	c #230001",
"x'.	c #1E0000",
"y'.	c #190000",
"z'.	c #2B0301",
"A'.	c #600D01",
"B'.	c #570B01",
"C'.	c #3F0400",
"D'.	c #2F0201",
"E'.	c #2A0301",
"F'.	c #1F0503",
"G'.	c #090201",
"H'.	c #1B1718",
"I'.	c #2A2528",
"J'.	c #49413F",
"K'.	c #544B43",
"L'.	c #55473A",
"M'.	c #5B4A3B",
"N'.	c #766B60",
"O'.	c #8F8D87",
"P'.	c #919390",
"Q'.	c #979A95",
"R'.	c #979894",
"S'.	c #848683",
"T'.	c #6A6B6A",
"U'.	c #656766",
"V'.	c #6E6F6D",
"W'.	c #05070A",
"X'.	c #595553",
"Y'.	c #66625D",
"Z'.	c #5F5A56",
"`'.	c #3C0000",
" ).	c #440200",
".).	c #420400",
"+).	c #410803",
"@).	c #3E0A03",
"#).	c #3A0903",
"$).	c #360401",
"%).	c #4E0200",
"&).	c #4C0501",
"*).	c #3D0200",
"=).	c #320100",
"-).	c #2F0200",
";).	c #1C0000",
">).	c #310201",
",).	c #380301",
"').	c #370201",
")).	c #170001",
"!).	c #170000",
"~).	c #140001",
"{).	c #130102",
"]).	c #090001",
"^).	c #120001",
"/).	c #2D0301",
"().	c #500B02",
"_).	c #641203",
":).	c #550F03",
"<).	c #2D0100",
"[).	c #3F3836",
"}).	c #453C37",
"|).	c #43342C",
"1).	c #4A3A2E",
"2).	c #695F53",
"3).	c #88847C",
"4).	c #8F8F89",
"5).	c #92938D",
"6).	c #93948E",
"7).	c #83837F",
"8).	c #696A68",
"9).	c #656664",
"0).	c #6D6E6B",
"a).	c #5C5D5A",
"b).	c #1A0000",
"c).	c #420100",
"d).	c #4B0500",
"e).	c #4F0701",
"f).	c #550D04",
"g).	c #540F05",
"h).	c #4A0300",
"i).	c #4C0502",
"j).	c #480804",
"k).	c #2D0201",
"l).	c #280100",
"m).	c #2C0402",
"n).	c #2A0302",
"o).	c #220200",
"p).	c #2A0203",
"q).	c #2D0302",
"r).	c #2B0201",
"s).	c #0F0001",
"t).	c #110001",
"u).	c #2C0301",
"v).	c #500C03",
"w).	c #641303",
"x).	c #550E02",
"y).	c #201B1E",
"z).	c #272024",
"A).	c #282123",
"B).	c #3F3736",
"C).	c #473E3A",
"D).	c #3F312B",
"E).	c #403025",
"F).	c #5C5144",
"G).	c #7D776D",
"H).	c #87857C",
"I).	c #8C8A81",
"J).	c #8D8D83",
"K).	c #7E7D77",
"L).	c #666563",
"M).	c #636361",
"N).	c #6A6967",
"O).	c #595855",
"P).	c #2F2D29",
"Q).	c #3E0603",
"R).	c #480301",
"S).	c #4B0300",
"T).	c #4B0400",
"U).	c #500901",
"V).	c #500A01",
"W).	c #510C02",
"X).	c #400400",
"Y).	c #420602",
"Z).	c #420502",
"`).	c #420805",
" !.	c #370403",
".!.	c #2F0402",
"+!.	c #2D0602",
"@!.	c #350C07",
"#!.	c #340B07",
"$!.	c #2B0703",
"%!.	c #200200",
"&!.	c #1D0101",
"*!.	c #1E0101",
"=!.	c #200203",
"-!.	c #1F0203",
";!.	c #250405",
">!.	c #310A08",
",!.	c #380E09",
"'!.	c #350D0A",
")!.	c #220403",
"!!.	c #300300",
"~!.	c #661403",
"{!.	c #5B1303",
"]!.	c #300200",
"^!.	c #100C0B",
"/!.	c #120D0C",
"(!.	c #0E0909",
"_!.	c #0D0805",
":!.	c #0D0704",
"<!.	c #0D0603",
"[!.	c #0D0602",
"}!.	c #0E0702",
"|!.	c #0A0601",
"1!.	c #040100",
"2!.	c #050200",
"3!.	c #070301",
"4!.	c #060301",
"5!.	c #080301",
"6!.	c #090502",
"7!.	c #0A0603",
"8!.	c #0B0705",
"9!.	c #0B0704",
"0!.	c #0C0905",
"a!.	c #0B0804",
"b!.	c #090603",
"c!.	c #080300",
"d!.	c #060200",
"e!.	c #070403",
"f!.	c #302C2F",
"g!.	c #292327",
"h!.	c #4E4747",
"i!.	c #5E5654",
"j!.	c #514643",
"k!.	c #473A32",
"l!.	c #5C5348",
"m!.	c #8F8A80",
"n!.	c #8E8A81",
"o!.	c #7E7C75",
"p!.	c #64635F",
"q!.	c #686663",
"r!.	c #2A2523",
"s!.	c #26211F",
"t!.	c #151311",
"u!.	c #161411",
"v!.	c #11100F",
"w!.	c #10100E",
"x!.	c #130B0C",
"y!.	c #150706",
"z!.	c #1D0302",
"A!.	c #400201",
"B!.	c #4A0200",
"C!.	c #480500",
"D!.	c #480700",
"E!.	c #480901",
"F!.	c #430700",
"G!.	c #3F0700",
"H!.	c #370400",
"I!.	c #360300",
"J!.	c #390703",
"K!.	c #360403",
"L!.	c #350603",
"M!.	c #330401",
"N!.	c #3B0A06",
"O!.	c #3E0B05",
"P!.	c #3A0B04",
"Q!.	c #310802",
"R!.	c #350B04",
"S!.	c #380C06",
"T!.	c #3D120B",
"U!.	c #3F140D",
"V!.	c #4A1E16",
"W!.	c #51251B",
"X!.	c #5A3123",
"Y!.	c #562E22",
"Z!.	c #3E1C14",
"`!.	c #200505",
" ~.	c #230705",
".~.	c #2A0D0A",
"+~.	c #2E0D0A",
"@~.	c #35130E",
"#~.	c #37140F",
"$~.	c #371510",
"%~.	c #35120D",
"&~.	c #310E09",
"*~.	c #2A0503",
"=~.	c #440C03",
"-~.	c #5C1504",
";~.	c #6A1A04",
">~.	c #661B05",
",~.	c #4C0F03",
"'~.	c #350A04",
")~.	c #2B0B06",
"!~.	c #240F0A",
"~~.	c #080704",
"{~.	c #151410",
"]~.	c #201F1A",
"^~.	c #13110D",
"/~.	c #0E0C09",
"(~.	c #0B0908",
"_~.	c #0D0905",
":~.	c #0E0904",
"<~.	c #18130B",
"[~.	c #1D170E",
"}~.	c #201A10",
"|~.	c #1B150C",
"1~.	c #1A130A",
"2~.	c #2C231B",
"3~.	c #413930",
"4~.	c #44392E",
"5~.	c #44382B",
"6~.	c #433627",
"7~.	c #433625",
"8~.	c #413422",
"9~.	c #433623",
"0~.	c #413321",
"a~.	c #3C321F",
"b~.	c #2F2415",
"c~.	c #221A0E",
"d~.	c #1C160C",
"e~.	c #1D170D",
"f~.	c #20180E",
"g~.	c #241C11",
"h~.	c #261D11",
"i~.	c #281F13",
"j~.	c #282013",
"k~.	c #292013",
"l~.	c #281F14",
"m~.	c #261E14",
"n~.	c #261D14",
"o~.	c #231B12",
"p~.	c #221B12",
"q~.	c #201911",
"r~.	c #201912",
"s~.	c #1E1812",
"t~.	c #201A15",
"u~.	c #1D1813",
"v~.	c #18130F",
"w~.	c #15100C",
"x~.	c #110C08",
"y~.	c #130E0B",
"z~.	c #1B1511",
"A~.	c #28221B",
"B~.	c #2F271E",
"C~.	c #322B21",
"D~.	c #312A21",
"E~.	c #2E271F",
"F~.	c #2C251C",
"G~.	c #2A231C",
"H~.	c #2D271F",
"I~.	c #2E2820",
"J~.	c #302B23",
"K~.	c #2F2A22",
"L~.	c #2D281F",
"M~.	c #251F17",
"N~.	c #1E1911",
"O~.	c #1A160E",
"P~.	c #1C1810",
"Q~.	c #1C1710",
"R~.	c #1C1811",
"S~.	c #1A160F",
"T~.	c #19150E",
"U~.	c #19140D",
"V~.	c #262117",
"W~.	c #2D271D",
"X~.	c #2E281E",
"Y~.	c #2E291E",
"Z~.	c #2B251B",
"`~.	c #272218",
" {.	c #241E15",
".{.	c #272019",
"+{.	c #27211A",
"@{.	c #241E17",
"#{.	c #1D1610",
"${.	c #1C160E",
"%{.	c #1F1910",
"&{.	c #20190F",
"*{.	c #261E13",
"={.	c #2B2217",
"-{.	c #32291E",
";{.	c #362B21",
">{.	c #382D23",
",{.	c #362A20",
"'{.	c #32271B",
"){.	c #2C2216",
"!{.	c #2D2218",
"~{.	c #2B2117",
"{{.	c #221A11",
"]{.	c #150E08",
"^{.	c #0F0A05",
"/{.	c #120E0B",
"({.	c #120F0D",
"_{.	c #17130F",
":{.	c #221B13",
"<{.	c #221C14",
"[{.	c #201913",
"}{.	c #1D1811",
"|{.	c #18130D",
"1{.	c #140F0B",
"2{.	c #0F0A08",
"3{.	c #0D0907",
"4{.	c #090605",
"5{.	c #5A5657",
"6{.	c #726E6D",
"7{.	c #67605C",
"8{.	c #5A524B",
"9{.	c #6A655C",
"0{.	c #89857B",
"a{.	c #96938A",
"b{.	c #9B968E",
"c{.	c #97928A",
"d{.	c #828078",
"e{.	c #64645F",
"f{.	c #5E5D5B",
"g{.	c #666562",
"h{.	c #565551",
"i{.	c #34302D",
"j{.	c #504E49",
"k{.	c #69655E",
"l{.	c #5A564F",
"m{.	c #504A45",
"n{.	c #443F39",
"o{.	c #3A3632",
"p{.	c #342825",
"q{.	c #301B17",
"r{.	c #2F0E09",
"s{.	c #390802",
"t{.	c #4E0A04",
"u{.	c #570400",
"v{.	c #550500",
"w{.	c #550A01",
"x{.	c #500C01",
"y{.	c #4D0F03",
"z{.	c #460D02",
"A{.	c #430E04",
"B{.	c #390A02",
"C{.	c #370A03",
"D{.	c #340601",
"E{.	c #390A03",
"F{.	c #410D08",
"G{.	c #46110C",
"H{.	c #440F09",
"I{.	c #4A120A",
"J{.	c #4B1207",
"K{.	c #501809",
"L{.	c #541C0D",
"M{.	c #602615",
"N{.	c #6A2E1B",
"O{.	c #743822",
"P{.	c #773D29",
"Q{.	c #814E38",
"R{.	c #80523F",
"S{.	c #88614A",
"T{.	c #87634D",
"U{.	c #6F4B39",
"V{.	c #512D21",
"W{.	c #4E2A20",
"X{.	c #542E24",
"Y{.	c #5F382D",
"Z{.	c #683F34",
"`{.	c #72483A",
" ].	c #754C3E",
".].	c #754D40",
"+].	c #72483C",
"@].	c #6E4033",
"#].	c #622E20",
"$].	c #561C11",
"%].	c #4F120A",
"&].	c #4F1208",
"*].	c #4F1307",
"=].	c #57180B",
"-].	c #5C1C0F",
";].	c #652213",
">].	c #6D2410",
",].	c #78290E",
"'].	c #7F2A0B",
")].	c #802E0F",
"!].	c #6E260F",
"~].	c #57200F",
"{].	c #471E11",
"]].	c #42271D",
"^].	c #382B26",
"/].	c #58564E",
"(].	c #5A574E",
"_].	c #4F4C43",
":].	c #403D35",
"<].	c #36342D",
"[].	c #0C0B09",
"}].	c #090806",
"|].	c #12120F",
"1].	c #070604",
"2].	c #16130D",
"3].	c #28221A",
"4].	c #262015",
"5].	c #272013",
"6].	c #3A3221",
"7].	c #453B2A",
"8].	c #4A402E",
"9].	c #453A29",
"0].	c #443926",
"a].	c #5B4F3D",
"b].	c #776A57",
"c].	c #7D6D5B",
"d].	c #806F5B",
"e].	c #7F6D59",
"f].	c #826F58",
"g].	c #836E55",
"h].	c #856F53",
"i].	c #856F50",
"j].	c #877250",
"k].	c #866F4F",
"l].	c #816D4E",
"m].	c #6C5A3E",
"n].	c #5A4B32",
"o].	c #52442D",
"p].	c #52442F",
"q].	c #53442F",
"r].	c #574832",
"s].	c #594933",
"t].	c #5B4B35",
"u].	c #5B4B36",
"v].	c #5B4A36",
"w].	c #5B4A37",
"x].	c #594A37",
"y].	c #534636",
"z].	c #524636",
"A].	c #504536",
"B].	c #4F4537",
"C].	c #4D4437",
"D].	c #4D4538",
"E].	c #4E463A",
"F].	c #514A3F",
"G].	c #524B41",
"H].	c #423A33",
"I].	c #3B332C",
"J].	c #4A4138",
"K].	c #62584B",
"L].	c #6D6153",
"M].	c #716656",
"N].	c #706556",
"O].	c #6D6356",
"P].	c #655B4F",
"Q].	c #5E5548",
"R].	c #5B5347",
"S].	c #5E564B",
"T].	c #615A4E",
"U].	c #645D51",
"V].	c #5F584C",
"W].	c #50493C",
"X].	c #453E31",
"Y].	c #423A2D",
"Z].	c #453E30",
"`].	c #453D2F",
" ^.	c #423B2E",
".^.	c #413B2C",
"+^.	c #423B2C",
"@^.	c #4C4333",
"#^.	c #5B5241",
"$^.	c #675D4B",
"%^.	c #6A5F4E",
"&^.	c #6A604E",
"*^.	c #625847",
"=^.	c #59503F",
"-^.	c #53493A",
";^.	c #574D3F",
">^.	c #584E41",
",^.	c #4F4539",
"'^.	c #42392D",
")^.	c #403729",
"!^.	c #42382B",
"~^.	c #473D2D",
"{^.	c #4A402F",
"]^.	c #534836",
"^^.	c #5C4E3D",
"/^.	c #655746",
"(^.	c #685948",
"_^.	c #6A5A49",
":^.	c #635342",
"<^.	c #5A4B38",
"[^.	c #534432",
"}^.	c #564534",
"|^.	c #524233",
"1^.	c #2D2418",
"2^.	c #251E14",
"3^.	c #4D473F",
"4^.	c #4A4237",
"5^.	c #473F32",
"6^.	c #453C30",
"7^.	c #483F32",
"8^.	c #423A2E",
"9^.	c #393129",
"0^.	c #322C24",
"a^.	c #2C2621",
"b^.	c #605E5F",
"c^.	c #797675",
"d^.	c #7A766E",
"e^.	c #98948C",
"f^.	c #A7A49C",
"g^.	c #AAA59D",
"h^.	c #A49F97",
"i^.	c #8B8981",
"j^.	c #696864",
"k^.	c #6C6A65",
"l^.	c #68645E",
"m^.	c #8B8780",
"n^.	c #A4A19A",
"o^.	c #A8A49C",
"p^.	c #A39E95",
"q^.	c #99958A",
"r^.	c #959187",
"s^.	c #8A857C",
"t^.	c #716D64",
"u^.	c #5A564D",
"v^.	c #403430",
"w^.	c #34120B",
"x^.	c #3C0A03",
"y^.	c #540B04",
"z^.	c #5E0802",
"A^.	c #6A0A03",
"B^.	c #640902",
"C^.	c #5F0C01",
"D^.	c #530A00",
"E^.	c #4E0E01",
"F^.	c #480E01",
"G^.	c #471105",
"H^.	c #3E0E05",
"I^.	c #360701",
"J^.	c #3D0C04",
"K^.	c #4A150D",
"L^.	c #521810",
"M^.	c #4C1009",
"N^.	c #4E1007",
"O^.	c #4B0E03",
"P^.	c #561808",
"Q^.	c #6A2713",
"R^.	c #7A361F",
"S^.	c #7E3A21",
"T^.	c #88462B",
"U^.	c #8A4E35",
"V^.	c #92604A",
"W^.	c #926E59",
"X^.	c #967B65",
"Y^.	c #937763",
"Z^.	c #81604D",
"`^.	c #674233",
" /.	c #684234",
"./.	c #6D4638",
"+/.	c #754F40",
"@/.	c #7B5548",
"#/.	c #825B4D",
"$/.	c #835D50",
"%/.	c #846051",
"&/.	c #845F51",
"*/.	c #825849",
"=/.	c #794233",
"-/.	c #6D2919",
";/.	c #661B0C",
">/.	c #681C09",
",/.	c #691F0A",
"'/.	c #73260F",
")/.	c #792B13",
"!/.	c #823117",
"~/.	c #873316",
"{/.	c #8D3514",
"]/.	c #8D3210",
"^/.	c #8B3512",
"//.	c #792C13",
"(/.	c #5C2110",
"_/.	c #492013",
":/.	c #462C23",
"</.	c #423632",
"[/.	c #3C3837",
"}/.	c #696560",
"|/.	c #5B5851",
"1/.	c #0B0B09",
"2/.	c #383127",
"3/.	c #342C1E",
"4/.	c #32291A",
"5/.	c #473C29",
"6/.	c #544733",
"7/.	c #574A36",
"8/.	c #4F422F",
"9/.	c #4F412C",
"0/.	c #665742",
"a/.	c #82725C",
"b/.	c #897661",
"c/.	c #8D7962",
"d/.	c #8E7961",
"e/.	c #937C61",
"f/.	c #957D60",
"g/.	c #997E5E",
"h/.	c #997E5A",
"i/.	c #9D815A",
"j/.	c #9F825C",
"k/.	c #9A815C",
"l/.	c #826B4B",
"m/.	c #715C40",
"n/.	c #6A573C",
"o/.	c #6A573D",
"p/.	c #6E593F",
"q/.	c #6E5940",
"r/.	c #6E5A41",
"s/.	c #6E5941",
"t/.	c #6E5A42",
"u/.	c #6D5842",
"v/.	c #6E5943",
"w/.	c #6C5944",
"x/.	c #6B5944",
"y/.	c #685743",
"z/.	c #675744",
"A/.	c #655645",
"B/.	c #645646",
"C/.	c #625546",
"D/.	c #615547",
"E/.	c #62594C",
"F/.	c #62594E",
"G/.	c #645C51",
"H/.	c #5B524A",
"I/.	c #504840",
"J/.	c #483F37",
"K/.	c #4C4339",
"L/.	c #564C41",
"M/.	c #6F6354",
"N/.	c #7C6D5D",
"O/.	c #817360",
"P/.	c #807260",
"Q/.	c #7F7262",
"R/.	c #786C5D",
"S/.	c #6F6557",
"T/.	c #6C6456",
"U/.	c #72695C",
"V/.	c #766F62",
"W/.	c #7A7266",
"X/.	c #797065",
"Y/.	c #71685B",
"Z/.	c #52493A",
"`/.	c #544939",
" (.	c #544A3B",
".(.	c #524738",
"+(.	c #514737",
"@(.	c #514736",
"#(.	c #5A4F3D",
"$(.	c #695D4A",
"%(.	c #766854",
"&(.	c #796A56",
"*(.	c #796B57",
"=(.	c #716250",
"-(.	c #655947",
";(.	c #5D5040",
">(.	c #605343",
",(.	c #625547",
"'(.	c #594D40",
")(.	c #4C4032",
"!(.	c #4F4232",
"~(.	c #534735",
"{(.	c #564836",
"](.	c #5F503D",
"^(.	c #675745",
"/(.	c #70604D",
"((.	c #71604D",
"_(.	c #73614D",
":(.	c #6D5A47",
"<(.	c #64523E",
"[(.	c #5D4A36",
"}(.	c #624D39",
"|(.	c #503E2E",
"1(.	c #382A1C",
"2(.	c #2C2218",
"3(.	c #2E2921",
"4(.	c #110C07",
"5(.	c #3B352E",
"6(.	c #585247",
"7(.	c #544B3F",
"8(.	c #514739",
"9(.	c #504437",
"0(.	c #524739",
"a(.	c #4F4437",
"b(.	c #4D4336",
"c(.	c #423930",
"d(.	c #5F5C5E",
"e(.	c #767273",
"f(.	c #716C6A",
"g(.	c #6D6762",
"h(.	c #7F7973",
"i(.	c #9F9A93",
"j(.	c #AEAAA2",
"k(.	c #B0ACA2",
"l(.	c #ABA69D",
"m(.	c #8F8C85",
"n(.	c #6A6965",
"o(.	c #5F5E5C",
"p(.	c #78726C",
"q(.	c #79746E",
"r(.	c #746F68",
"s(.	c #7E786E",
"t(.	c #9D988F",
"u(.	c #B9B5AC",
"v(.	c #BEB9B0",
"w(.	c #BBB5A9",
"x(.	c #B2AC9F",
"y(.	c #B0A99E",
"z(.	c #A29B91",
"A(.	c #635C53",
"B(.	c #050708",
"C(.	c #3C3433",
"D(.	c #392E2A",
"E(.	c #311F19",
"F(.	c #30150D",
"G(.	c #391209",
"H(.	c #51160C",
"I(.	c #621109",
"J(.	c #731407",
"K(.	c #711005",
"L(.	c #671104",
"M(.	c #550B00",
"N(.	c #4F0D01",
"O(.	c #4D1103",
"P(.	c #441105",
"Q(.	c #400F05",
"R(.	c #3A0B03",
"S(.	c #3E0C04",
"T(.	c #4A110A",
"U(.	c #4F120B",
"V(.	c #4B0E08",
"W(.	c #4D0E06",
"X(.	c #4B0D03",
"Y(.	c #5C1A0A",
"Z(.	c #742F1A",
"`(.	c #843F25",
" _.	c #813E25",
"._.	c #83472D",
"+_.	c #85533B",
"@_.	c #8D6854",
"#_.	c #8D7A66",
"$_.	c #938974",
"%_.	c #908270",
"&_.	c #7F6957",
"*_.	c #6A4C3C",
"=_.	c #6B483A",
"-_.	c #6F4A3D",
";_.	c #745144",
">_.	c #755246",
",_.	c #7B5A4F",
"'_.	c #7D5E53",
")_.	c #7E6255",
"!_.	c #7C5F54",
"~_.	c #7D584D",
"{_.	c #784434",
"]_.	c #712B19",
"^_.	c #6C1B0A",
"/_.	c #6E1C07",
"(_.	c #701F07",
"__.	c #79250D",
":_.	c #812C11",
"<_.	c #8A3315",
"[_.	c #8C3313",
"}_.	c #923413",
"|_.	c #913310",
"1_.	c #8E3613",
"2_.	c #782C12",
"3_.	c #5A2311",
"4_.	c #442014",
"5_.	c #402820",
"6_.	c #3D322D",
"7_.	c #373231",
"8_.	c #332F30",
"9_.	c #4D4D4B",
"0_.	c #1B1B18",
"a_.	c #070401",
"b_.	c #241E18",
"c_.	c #372F25",
"d_.	c #342A1D",
"e_.	c #342A1C",
"f_.	c #473A29",
"g_.	c #50422F",
"h_.	c #463826",
"i_.	c #463723",
"j_.	c #5E4E3A",
"k_.	c #766651",
"l_.	c #7A6853",
"m_.	c #806E58",
"n_.	c #857159",
"o_.	c #8D775D",
"p_.	c #91785C",
"q_.	c #967B5B",
"r_.	c #957A55",
"s_.	c #9B7D55",
"t_.	c #A1835A",
"u_.	c #997E57",
"v_.	c #7D6643",
"w_.	c #6F593A",
"x_.	c #6C573C",
"y_.	c #6B573D",
"z_.	c #69543A",
"A_.	c #6C563C",
"B_.	c #6B563C",
"C_.	c #6D583E",
"D_.	c #6B573E",
"E_.	c #6C5840",
"F_.	c #6B5640",
"G_.	c #6B5741",
"H_.	c #695641",
"I_.	c #695742",
"J_.	c #675541",
"K_.	c #675743",
"L_.	c #655644",
"M_.	c #655745",
"N_.	c #625544",
"O_.	c #605444",
"P_.	c #5C5242",
"Q_.	c #5F554A",
"R_.	c #61584D",
"S_.	c #524940",
"T_.	c #494137",
"U_.	c #433A32",
"V_.	c #483F35",
"W_.	c #4F4439",
"X_.	c #665A4B",
"Y_.	c #7F715B",
"Z_.	c #7E6F5B",
"`_.	c #7D6F5E",
" :.	c #766959",
".:.	c #6D6252",
"+:.	c #696052",
"@:.	c #70685A",
"#:.	c #756D5F",
"$:.	c #777063",
"%:.	c #524836",
"&:.	c #504434",
"*:.	c #524535",
"=:.	c #544735",
"-:.	c #514534",
";:.	c #524634",
">:.	c #524534",
",:.	c #584B37",
"':.	c #645641",
"):.	c #6F5F4A",
"!:.	c #75644F",
"~:.	c #6B5B48",
"{:.	c #584938",
"]:.	c #594A39",
"^:.	c #5A4C3C",
"/:.	c #534537",
"(:.	c #473829",
"_:.	c #483929",
"::.	c #4D3F2E",
"<:.	c #51422F",
"[:.	c #534430",
"}:.	c #5A4B36",
"|:.	c #604F3C",
"1:.	c #685844",
"2:.	c #685744",
"3:.	c #6D5B47",
"4:.	c #614F3A",
"5:.	c #5A4732",
"6:.	c #5F4A35",
"7:.	c #5E4733",
"8:.	c #533F2B",
"9:.	c #3B2A1B",
"0:.	c #2F2418",
"a:.	c #2B261C",
"b:.	c #1E1A17",
"c:.	c #17110A",
"d:.	c #3F372C",
"e:.	c #584F43",
"f:.	c #53473A",
"g:.	c #4E4233",
"h:.	c #4B3F30",
"i:.	c #4F4233",
"j:.	c #4D4134",
"k:.	c #4C4134",
"l:.	c #352E29",
"m:.	c #585657",
"n:.	c #6C6A6A",
"o:.	c #6A6664",
"p:.	c #696460",
"q:.	c #7A756F",
"r:.	c #99958E",
"s:.	c #A9A59E",
"t:.	c #AFABA2",
"u:.	c #A9A39B",
"v:.	c #8C8982",
"w:.	c #5E5D5A",
"x:.	c #62615E",
"y:.	c #494541",
"z:.	c #767069",
"A:.	c #78746B",
"B:.	c #736E65",
"C:.	c #7B756B",
"D:.	c #989289",
"E:.	c #B2ADA3",
"F:.	c #B4B0A5",
"G:.	c #A8A296",
"H:.	c #787369",
"I:.	c #100D0D",
"J:.	c #494440",
"K:.	c #413935",
"L:.	c #372A22",
"M:.	c #3C2820",
"N:.	c #452820",
"O:.	c #522B21",
"P:.	c #591D14",
"Q:.	c #641108",
"R:.	c #691005",
"S:.	c #650E02",
"T:.	c #560900",
"U:.	c #500F04",
"V:.	c #501507",
"W:.	c #471004",
"X:.	c #450E05",
"Y:.	c #400B03",
"Z:.	c #430D06",
"`:.	c #52190F",
" <.	c #592015",
".<.	c #581C13",
"+<.	c #5E1F15",
"@<.	c #5C1E11",
"#<.	c #632615",
"$<.	c #6A2A19",
"%<.	c #70311F",
"&<.	c #703522",
"*<.	c #6C3B29",
"=<.	c #654131",
"-<.	c #685345",
";<.	c #655D51",
"><.	c #69685C",
",<.	c #625749",
"'<.	c #624D3E",
")<.	c #6A4B3F",
"!<.	c #6E4A41",
"~<.	c #725146",
"{<.	c #6D5045",
"]<.	c #6B5248",
"^<.	c #664F48",
"/<.	c #645049",
"(<.	c #604A46",
"_<.	c #63443E",
":<.	c #683628",
"<<.	c #712715",
"[<.	c #78200D",
"}<.	c #7B230C",
"|<.	c #7A240C",
"1<.	c #7E280E",
"2<.	c #81290E",
"3<.	c #862D10",
"4<.	c #882D10",
"5<.	c #8B2C0E",
"6<.	c #8B2D0D",
"7<.	c #842E0E",
"8<.	c #6C250E",
"9<.	c #4E1B0D",
"0<.	c #3D1A12",
"a<.	c #3B231E",
"b<.	c #41352F",
"c<.	c #423C37",
"d<.	c #5B5552",
"e<.	c #544F4D",
"f<.	c #100D0B",
"g<.	c #14100D",
"h<.	c #18130E",
"i<.	c #29221C",
"j<.	c #342C24",
"k<.	c #372C24",
"l<.	c #3C3026",
"m<.	c #4D4132",
"n<.	c #504334",
"o<.	c #493D2E",
"p<.	c #3D3022",
"q<.	c #3F3022",
"r<.	c #5C4C3B",
"s<.	c #72624F",
"t<.	c #74634F",
"u<.	c #7B6953",
"v<.	c #7F6C55",
"w<.	c #877159",
"x<.	c #8D745A",
"y<.	c #927758",
"z<.	c #937754",
"A<.	c #987955",
"B<.	c #9D805A",
"C<.	c #937955",
"D<.	c #745D3C",
"E<.	c #654E33",
"F<.	c #68523A",
"G<.	c #67533C",
"H<.	c #604C34",
"I<.	c #604B33",
"J<.	c #5E4933",
"K<.	c #5F4A34",
"L<.	c #5D4934",
"M<.	c #5E4A36",
"N<.	c #5D4936",
"O<.	c #5D4B37",
"P<.	c #5B4936",
"Q<.	c #5B4937",
"R<.	c #5A4837",
"S<.	c #5A4A38",
"T<.	c #584A39",
"U<.	c #5A4D3C",
"V<.	c #584B3B",
"W<.	c #584C3C",
"X<.	c #584C3E",
"Y<.	c #5C5244",
"Z<.	c #5A5145",
"`<.	c #595247",
" [.	c #4D463C",
".[.	c #443B33",
"+[.	c #494038",
"@[.	c #4B4036",
"#[.	c #5C4F40",
"$[.	c #6E614D",
"%[.	c #756550",
"&[.	c #766652",
"*[.	c #756554",
"=[.	c #6C5D4E",
"-[.	c #625647",
";[.	c #5F5447",
">[.	c #6E6457",
",[.	c #6A6051",
"'[.	c #655B49",
")[.	c #5C503E",
"![.	c #59493A",
"~[.	c #5A4A3B",
"{[.	c #5B4C3A",
"][.	c #5A4B3A",
"^[.	c #5D4E3C",
"/[.	c #5C4D3B",
"([.	c #60523D",
"_[.	c #705F49",
":[.	c #74614D",
"<[.	c #77634F",
"[[.	c #715F4B",
"}[.	c #6A5846",
"|[.	c #62503F",
"1[.	c #605040",
"2[.	c #574738",
"3[.	c #4A392A",
"4[.	c #4A3A2A",
"5[.	c #503F2E",
"6[.	c #51412E",
"7[.	c #50412C",
"8[.	c #50412B",
"9[.	c #4F3F2B",
"0[.	c #534331",
"a[.	c #554433",
"b[.	c #5A4937",
"c[.	c #564332",
"d[.	c #52412D",
"e[.	c #4F3D29",
"f[.	c #533E2B",
"g[.	c #543D2A",
"h[.	c #4E3725",
"i[.	c #3D281A",
"j[.	c #312217",
"k[.	c #271E15",
"l[.	c #241D16",
"m[.	c #1F1913",
"n[.	c #191514",
"o[.	c #241D18",
"p[.	c #2D251B",
"q[.	c #443A2F",
"r[.	c #53473B",
"s[.	c #4F4134",
"t[.	c #493C2C",
"u[.	c #4D3F30",
"v[.	c #4F4337",
"w[.	c #41372E",
"x[.	c #362E28",
"y[.	c #322B27",
"z[.	c #4D4C4B",
"A[.	c #847F7A",
"B[.	c #89847D",
"C[.	c #827C76",
"D[.	c #352F2E",
"E[.	c #4B443F",
"F[.	c #817D74",
"G[.	c #858077",
"H[.	c #848077",
"I[.	c #7D7970",
"J[.	c #726C65",
"K[.	c #3B3731",
"L[.	c #4D4745",
"M[.	c #605E58",
"N[.	c #5B5953",
"O[.	c #584F45",
"P[.	c #5F5249",
"Q[.	c #66544A",
"R[.	c #654F44",
"S[.	c #532D22",
"T[.	c #53140B",
"U[.	c #5F0F05",
"V[.	c #650F03",
"W[.	c #5F0B01",
"X[.	c #5B1107",
"Y[.	c #5A1608",
"Z[.	c #511204",
"`[.	c #4F1106",
" }.	c #4B0F05",
".}.	c #4F160B",
"+}.	c #612A1B",
"@}.	c #754331",
"#}.	c #7C493B",
"$}.	c #804C3E",
"%}.	c #733F2B",
"&}.	c #673321",
"*}.	c #642F22",
"=}.	c #5E2C21",
"-}.	c #593125",
";}.	c #4C3128",
">}.	c #463730",
",}.	c #785C4D",
"'}.	c #7E5D4F",
")}.	c #7A5A4E",
"!}.	c #6D5247",
"~}.	c #59453E",
"{}.	c #423332",
"]}.	c #352827",
"^}.	c #2C1D1F",
"/}.	c #311816",
"(}.	c #4C1C11",
"_}.	c #782817",
":}.	c #8D2D17",
"<}.	c #8E2F14",
"[}.	c #8A2D11",
"}}.	c #8A2D10",
"|}.	c #892D0F",
"1}.	c #8A2E0E",
"2}.	c #882B0D",
"3}.	c #8C2E0E",
"4}.	c #892D0C",
"5}.	c #812E0E",
"6}.	c #68240E",
"7}.	c #47190D",
"8}.	c #361811",
"9}.	c #3B2620",
"0}.	c #554A42",
"a}.	c #6E6863",
"b}.	c #3B3631",
"c}.	c #544F49",
"d}.	c #47423D",
"e}.	c #322D27",
"f}.	c #312A23",
"g}.	c #363027",
"h}.	c #3A342B",
"i}.	c #4C4138",
"j}.	c #5A5043",
"k}.	c #5A5040",
"l}.	c #4E4535",
"m}.	c #3D3324",
"n}.	c #3F3324",
"o}.	c #605142",
"p}.	c #7C6C5A",
"q}.	c #86735B",
"r}.	c #8B765C",
"s}.	c #8C7459",
"t}.	c #917858",
"u}.	c #927853",
"v}.	c #997D57",
"w}.	c #9C805B",
"x}.	c #927956",
"y}.	c #715C3B",
"z}.	c #614C31",
"A}.	c #69553F",
"B}.	c #6B5842",
"C}.	c #604D37",
"D}.	c #5D4833",
"E}.	c #594531",
"F}.	c #594632",
"G}.	c #564230",
"H}.	c #564231",
"I}.	c #53412F",
"J}.	c #544332",
"K}.	c #524231",
"L}.	c #524232",
"M}.	c #4E3E2E",
"N}.	c #4C3E2F",
"O}.	c #4E4031",
"P}.	c #4C3F30",
"Q}.	c #4B4031",
"R}.	c #473C2F",
"S}.	c #463C30",
"T}.	c #40372D",
"U}.	c #342D25",
"V}.	c #29221B",
"W}.	c #29211C",
"X}.	c #2B231D",
"Y}.	c #2A2118",
"Z}.	c #423629",
"`}.	c #70614D",
" |.	c #71624D",
".|.	c #6F614F",
"+|.	c #645746",
"@|.	c #5F5548",
"#|.	c #665C4D",
"$|.	c #675C4C",
"%|.	c #6B5F4C",
"&|.	c #6B5E4A",
"*|.	c #6D5D4B",
"=|.	c #6D5C4A",
"-|.	c #6E5D4B",
";|.	c #6D5C49",
">|.	c #6F5F4B",
",|.	c #72624E",
"'|.	c #71614D",
")|.	c #74644E",
"!|.	c #7B6A54",
"~|.	c #7E6B55",
"{|.	c #806D57",
"]|.	c #7E6A56",
"^|.	c #7A6753",
"/|.	c #766350",
"(|.	c #736250",
"_|.	c #675747",
":|.	c #574736",
"<|.	c #574735",
"[|.	c #5D4C38",
"}|.	c #5D4C37",
"||.	c #54442F",
"1|.	c #503F2A",
"2|.	c #493925",
"3|.	c #493928",
"4|.	c #514030",
"5|.	c #4D3A2B",
"6|.	c #473625",
"7|.	c #4C3A27",
"8|.	c #513C2A",
"9|.	c #543C29",
"0|.	c #553B27",
"a|.	c #4B3322",
"b|.	c #3F2B1D",
"c|.	c #2F2216",
"d|.	c #241D15",
"e|.	c #2B2520",
"f|.	c #332D2A",
"g|.	c #2E2A26",
"h|.	c #51473F",
"i|.	c #52473B",
"j|.	c #55493B",
"k|.	c #574A3B",
"l|.	c #504231",
"m|.	c #4F4130",
"n|.	c #524334",
"o|.	c #584A3B",
"p|.	c #574A3D",
"q|.	c #453C32",
"r|.	c #322C27",
"s|.	c #130F0F",
"t|.	c #37302C",
"u|.	c #35302B",
"v|.	c #302A27",
"w|.	c #443F3A",
"x|.	c #47443F",
"y|.	c #292623",
"z|.	c #4C4641",
"A|.	c #4B4640",
"B|.	c #746E65",
"C|.	c #6F6C64",
"D|.	c #6E6B62",
"E|.	c #6C6960",
"F|.	c #676155",
"G|.	c #6C6558",
"H|.	c #655D53",
"I|.	c #655B54",
"J|.	c #442E27",
"K|.	c #3E1109",
"L|.	c #560E05",
"M|.	c #650F05",
"N|.	c #650B01",
"O|.	c #670E04",
"P|.	c #630E04",
"Q|.	c #621104",
"R|.	c #5A0F02",
"S|.	c #581004",
"T|.	c #510D02",
"U|.	c #54170B",
"V|.	c #6A3226",
"W|.	c #845649",
"X|.	c #8A6156",
"Y|.	c #895F54",
"Z|.	c #83574B",
"`|.	c #784E3E",
" 1.	c #62372C",
".1.	c #572B24",
"+1.	c #512722",
"@1.	c #52312A",
"#1.	c #472F2B",
"$1.	c #3E312F",
"%1.	c #61534A",
"&1.	c #826758",
"*1.	c #876556",
"=1.	c #846457",
"-1.	c #72584F",
";1.	c #574542",
">1.	c #342A2D",
",1.	c #130A0E",
"'1.	c #45130C",
")1.	c #7D2718",
"!1.	c #902B15",
"~1.	c #922D11",
"{1.	c #8F2D10",
"]1.	c #8E2C10",
"^1.	c #8A290D",
"/1.	c #892A0C",
"(1.	c #882A0C",
"_1.	c #85290B",
":1.	c #802C0F",
"<1.	c #66220F",
"[1.	c #41150B",
"}1.	c #2D120C",
"|1.	c #34231E",
"11.	c #5A4F47",
"21.	c #797167",
"31.	c #7C746B",
"41.	c #7A7169",
"51.	c #2B2623",
"61.	c #352D2B",
"71.	c #423A34",
"81.	c #49403B",
"91.	c #514A45",
"01.	c #4D4847",
"a1.	c #6C6661",
"b1.	c #605852",
"c1.	c #59534E",
"d1.	c #3A332C",
"e1.	c #372F28",
"f1.	c #3D362E",
"g1.	c #473F37",
"h1.	c #4F443C",
"i1.	c #5B5044",
"j1.	c #3C3123",
"k1.	c #3B2F20",
"l1.	c #5E4E3E",
"m1.	c #7F6D5B",
"n1.	c #87745E",
"o1.	c #88765E",
"p1.	c #86705A",
"q1.	c #897359",
"r1.	c #897053",
"s1.	c #8C7351",
"t1.	c #8F744F",
"u1.	c #967A53",
"v1.	c #9C805A",
"w1.	c #947A58",
"x1.	c #725C3D",
"y1.	c #604C31",
"z1.	c #624F39",
"A1.	c #65513C",
"B1.	c #5D4A35",
"C1.	c #5C4833",
"D1.	c #584532",
"E1.	c #584633",
"F1.	c #52402F",
"G1.	c #53402F",
"H1.	c #51402F",
"I1.	c #514232",
"J1.	c #4B3C2D",
"K1.	c #493B2C",
"L1.	c #4A3C2E",
"M1.	c #4D3F31",
"N1.	c #4A3E30",
"O1.	c #352C24",
"P1.	c #332C25",
"Q1.	c #29231E",
"R1.	c #150F0D",
"S1.	c #130E0A",
"T1.	c #150E07",
"U1.	c #342A20",
"V1.	c #584B3E",
"W1.	c #675848",
"X1.	c #675949",
"Y1.	c #5D5042",
"Z1.	c #4B4034",
"`1.	c #51473A",
" 2.	c #564C3F",
".2.	c #5D5344",
"+2.	c #645849",
"@2.	c #706252",
"#2.	c #766754",
"$2.	c #796853",
"%2.	c #77644F",
"&2.	c #796550",
"*2.	c #78654E",
"=2.	c #7B6851",
"-2.	c #796751",
";2.	c #7B6A53",
">2.	c #776650",
",2.	c #816F59",
"'2.	c #806E57",
")2.	c #826E58",
"!2.	c #7F6A55",
"~2.	c #7E6A54",
"{2.	c #7B6955",
"]2.	c #5D4C39",
"^2.	c #5E4D39",
"/2.	c #64523C",
"(2.	c #615038",
"_2.	c #5A4832",
":2.	c #54422D",
"<2.	c #483725",
"[2.	c #473827",
"}2.	c #48392A",
"|2.	c #504131",
"12.	c #4B3A2B",
"22.	c #463625",
"32.	c #503F2D",
"42.	c #5A4634",
"52.	c #5C4531",
"62.	c #5F462F",
"72.	c #593F2B",
"82.	c #4B3524",
"92.	c #362517",
"02.	c #291D10",
"a2.	c #261C13",
"b2.	c #2F2721",
"c2.	c #36302B",
"d2.	c #342F2B",
"e2.	c #59524A",
"f2.	c #5F5244",
"g2.	c #5B4C3D",
"h2.	c #4F4131",
"i2.	c #4E402F",
"j2.	c #524333",
"k2.	c #564A3C",
"l2.	c #332C26",
"m2.	c #050606",
"n2.	c #0A0C0E",
"o2.	c #03040B",
"p2.	c #04050C",
"q2.	c #04050A",
"r2.	c #020407",
"s2.	c #2E2A28",
"t2.	c #665F59",
"u2.	c #4B453F",
"v2.	c #4D4741",
"w2.	c #787269",
"x2.	c #757066",
"y2.	c #746F65",
"z2.	c #736F65",
"A2.	c #716D63",
"B2.	c #706D63",
"C2.	c #6F6B61",
"D2.	c #6C675F",
"E2.	c #625E55",
"F2.	c #595449",
"G2.	c #686254",
"H2.	c #6A6356",
"I2.	c #655D52",
"J2.	c #6D685E",
"K2.	c #392C27",
"L2.	c #33130C",
"M2.	c #4E1109",
"N2.	c #631208",
"O2.	c #680A02",
"P2.	c #660C02",
"Q2.	c #661004",
"R2.	c #5F0E03",
"S2.	c #5E0F04",
"T2.	c #560E02",
"U2.	c #591A0C",
"V2.	c #6F372B",
"W2.	c #8E6256",
"X2.	c #967568",
"Y2.	c #937366",
"Z2.	c #88655A",
"`2.	c #7C5A4D",
" 3.	c #5F3D36",
".3.	c #54322D",
"+3.	c #4E2F2A",
"@3.	c #4E342E",
"#3.	c #483530",
"$3.	c #443936",
"%3.	c #62564D",
"&3.	c #846D5D",
"*3.	c #866959",
"=3.	c #83685A",
"-3.	c #735D53",
";3.	c #574945",
">3.	c #332C2E",
",3.	c #1C171B",
"'3.	c #130A0D",
")3.	c #4C140E",
"!3.	c #822919",
"~3.	c #902B14",
"{3.	c #8F2A0F",
"]3.	c #8A290E",
"^3.	c #8A2A0E",
"/3.	c #892C0F",
"(3.	c #882E10",
"_3.	c #882F11",
":3.	c #893214",
"<3.	c #863114",
"[3.	c #833419",
"}3.	c #6A2C18",
"|3.	c #401B0F",
"13.	c #2A150D",
"23.	c #33261F",
"33.	c #5B514A",
"43.	c #7A7368",
"53.	c #7B7369",
"63.	c #756D64",
"73.	c #655D56",
"83.	c #2C2520",
"93.	c #231C18",
"03.	c #241E19",
"a3.	c #2D2721",
"b3.	c #362C28",
"c3.	c #463D35",
"d3.	c #4E443E",
"e3.	c #494341",
"f3.	c #1C1C1A",
"g3.	c #4F4948",
"h3.	c #756F6A",
"i3.	c #6B635D",
"j3.	c #5C5550",
"k3.	c #14100E",
"l3.	c #383128",
"m3.	c #352C25",
"n3.	c #3C342D",
"o3.	c #413832",
"p3.	c #4E433A",
"q3.	c #5C4F43",
"r3.	c #625244",
"s3.	c #433422",
"t3.	c #40301D",
"u3.	c #60503A",
"v3.	c #816E59",
"w3.	c #88735D",
"x3.	c #88755D",
"y3.	c #826D56",
"z3.	c #80694E",
"A3.	c #846B4C",
"B3.	c #8D734F",
"C3.	c #937650",
"D3.	c #9C7E56",
"E3.	c #A0835B",
"F3.	c #9C815E",
"G3.	c #80694C",
"H3.	c #6D593F",
"I3.	c #6A573F",
"J3.	c #69573F",
"K3.	c #614E38",
"L3.	c #604E38",
"M3.	c #594937",
"N3.	c #534433",
"O3.	c #544535",
"P3.	c #524435",
"Q3.	c #4B3E2F",
"R3.	c #483C2D",
"S3.	c #4F4434",
"T3.	c #463C2E",
"U3.	c #3F362B",
"V3.	c #362E26",
"W3.	c #2F2924",
"X3.	c #1A1511",
"Y3.	c #1F1812",
"Z3.	c #625748",
"`3.	c #645A4D",
" 4.	c #494035",
".4.	c #53493C",
"+4.	c #5B5142",
"@4.	c #615646",
"#4.	c #6D604F",
"$4.	c #756452",
"%4.	c #77624C",
"&4.	c #776149",
"*4.	c #786149",
"=4.	c #7E684E",
"-4.	c #7F6A52",
";4.	c #806D55",
">4.	c #78664D",
",4.	c #73624A",
"'4.	c #77664F",
")4.	c #7F6E57",
"!4.	c #7F6E58",
"~4.	c #7F6E59",
"{4.	c #7C6B56",
"]4.	c #796752",
"^4.	c #675847",
"/4.	c #594A38",
"(4.	c #5D4E3A",
"_4.	c #64553F",
":4.	c #61533C",
"<4.	c #594B35",
"[4.	c #51432E",
"}4.	c #463827",
"|4.	c #453929",
"14.	c #4F4436",
"24.	c #463A2B",
"34.	c #544638",
"44.	c #5F5041",
"54.	c #614F3D",
"64.	c #5D4430",
"74.	c #503926",
"84.	c #392616",
"94.	c #2C1E10",
"04.	c #291E13",
"a4.	c #2F271F",
"b4.	c #322D28",
"c4.	c #171413",
"d4.	c #5C544B",
"e4.	c #645649",
"f4.	c #615243",
"g4.	c #584737",
"h4.	c #514131",
"i4.	c #4B3D2B",
"j4.	c #4A3B2A",
"k4.	c #504030",
"l4.	c #58483A",
"m4.	c #584D3E",
"n4.	c #41392F",
"o4.	c #030508",
"p4.	c #030509",
"q4.	c #04080B",
"r4.	c #03070B",
"s4.	c #02040B",
"t4.	c #020409",
"u4.	c #010307",
"v4.	c #010306",
"w4.	c #353233",
"x4.	c #56514B",
"y4.	c #3D3934",
"z4.	c #494441",
"A4.	c #68645C",
"B4.	c #6C675D",
"C4.	c #6B675D",
"D4.	c #6C695F",
"E4.	c #6C695E",
"F4.	c #6D6A5F",
"G4.	c #5D584F",
"H4.	c #534F45",
"I4.	c #686154",
"J4.	c #2E2724",
"K4.	c #270E0A",
"L4.	c #450F09",
"M4.	c #5E1008",
"N4.	c #650A02",
"O4.	c #6A0B02",
"P4.	c #670B02",
"Q4.	c #620D03",
"R4.	c #610E04",
"S4.	c #5A0B02",
"T4.	c #662D21",
"U4.	c #815348",
"V4.	c #87645B",
"W4.	c #82645B",
"X4.	c #765851",
"Y4.	c #694E46",
"Z4.	c #583E3B",
"`4.	c #513835",
" 5.	c #472F2D",
".5.	c #45312E",
"+5.	c #443633",
"@5.	c #423836",
"#5.	c #6C5C51",
"$5.	c #6F5B51",
"%5.	c #6C5A51",
"&5.	c #5B4B46",
"*5.	c #463C3A",
"=5.	c #1D1719",
"-5.	c #190C0E",
";5.	c #270908",
">5.	c #50130E",
",5.	c #7B2215",
"'5.	c #842410",
")5.	c #84250F",
"!5.	c #7E240E",
"~5.	c #7B260F",
"{5.	c #78250F",
"]5.	c #752811",
"^5.	c #6F2712",
"/5.	c #6F2A17",
"(5.	c #6C2B19",
"_5.	c #6A301C",
":5.	c #5B2C1D",
"<5.	c #291711",
"[5.	c #342722",
"}5.	c #797168",
"|5.	c #6D655D",
"15.	c #5B5349",
"25.	c #504740",
"35.	c #4A4238",
"45.	c #4B4138",
"55.	c #564C42",
"65.	c #63574E",
"75.	c #6D6359",
"85.	c #71675F",
"95.	c #6C635D",
"05.	c #554E4A",
"a5.	c #726D68",
"b5.	c #4C4540",
"c5.	c #4E4743",
"d5.	c #16110F",
"e5.	c #2F2823",
"f5.	c #352E24",
"g5.	c #3B332A",
"h5.	c #4B413B",
"i5.	c #504841",
"j5.	c #4D453D",
"k5.	c #473D34",
"l5.	c #514236",
"m5.	c #615040",
"n5.	c #695744",
"o5.	c #604C38",
"p5.	c #5D4933",
"q5.	c #67533A",
"r5.	c #756047",
"s5.	c #725C46",
"t5.	c #6F5A43",
"u5.	c #68543C",
"v5.	c #685136",
"w5.	c #795E3E",
"x5.	c #917450",
"y5.	c #9A7B54",
"z5.	c #A18159",
"A5.	c #997C56",
"B5.	c #886F4D",
"C5.	c #6F583D",
"D5.	c #624E36",
"E5.	c #594731",
"F5.	c #53422E",
"G5.	c #544531",
"H5.	c #4D3E2F",
"I5.	c #473A2C",
"J5.	c #483A2E",
"K5.	c #4D4133",
"L5.	c #493E31",
"M5.	c #4A3F31",
"N5.	c #45392D",
"O5.	c #43372A",
"P5.	c #43382B",
"Q5.	c #4C4133",
"R5.	c #4E4335",
"S5.	c #43382C",
"T5.	c #3A3227",
"U5.	c #292420",
"V5.	c #231E1A",
"W5.	c #413A33",
"X5.	c #494138",
"Y5.	c #51493E",
"Z5.	c #534A41",
"`5.	c #585047",
" 6.	c #544A41",
".6.	c #50473C",
"+6.	c #4C4237",
"@6.	c #51483D",
"#6.	c #554A3E",
"$6.	c #594E41",
"%6.	c #5A4E3E",
"&6.	c #605240",
"*6.	c #685643",
"=6.	c #746049",
"-6.	c #755E46",
";6.	c #775F45",
">6.	c #796045",
",6.	c #82694D",
"'6.	c #856D52",
")6.	c #846E55",
"!6.	c #756249",
"~6.	c #635239",
"{6.	c #62533C",
"]6.	c #675944",
"^6.	c #655744",
"/6.	c #645745",
"(6.	c #5F5342",
"_6.	c #5E5242",
":6.	c #5C4F3F",
"<6.	c #5C4E3E",
"[6.	c #594D3D",
"}6.	c #4D4232",
"|6.	c #524837",
"16.	c #504734",
"26.	c #463C2B",
"36.	c #403727",
"46.	c #352D20",
"56.	c #312A1F",
"66.	c #352F27",
"76.	c #443E36",
"86.	c #413A31",
"96.	c #373127",
"06.	c #474138",
"a6.	c #483D34",
"b6.	c #4D3D2F",
"c6.	c #4A3523",
"d6.	c #442E1A",
"e6.	c #372211",
"f6.	c #2E1C0E",
"g6.	c #2A1B0F",
"h6.	c #2D2219",
"i6.	c #302722",
"j6.	c #38322B",
"k6.	c #675749",
"l6.	c #645444",
"m6.	c #614F3E",
"n6.	c #5E4C3A",
"o6.	c #4E3E2C",
"p6.	c #4C3D2A",
"q6.	c #5A4B3B",
"r6.	c #594C3E",
"s6.	c #41372C",
"t6.	c #2F2820",
"u6.	c #040504",
"v6.	c #070807",
"w6.	c #0B0B0B",
"x6.	c #131413",
"y6.	c #181916",
"z6.	c #101111",
"A6.	c #111313",
"B6.	c #0E1112",
"C6.	c #0A0D10",
"D6.	c #07090F",
"E6.	c #06080E",
"F6.	c #302C2C",
"G6.	c #69635B",
"H6.	c #686059",
"I6.	c #2E2B27",
"J6.	c #1A1916",
"K6.	c #565349",
"L6.	c #5D5A4F",
"M6.	c #636056",
"N6.	c #656258",
"O6.	c #666359",
"P6.	c #656259",
"Q6.	c #5A564C",
"R6.	c #524E43",
"S6.	c #585347",
"T6.	c #6E6659",
"U6.	c #746C5E",
"V6.	c #6E675A",
"W6.	c #6B6458",
"X6.	c #535651",
"Y6.	c #220F0C",
"Z6.	c #40130C",
"`6.	c #591108",
" 7.	c #640A02",
".7.	c #6C0C03",
"+7.	c #690C02",
"@7.	c #620C02",
"#7.	c #660E03",
"$7.	c #620B02",
"%7.	c #5F1F15",
"&7.	c #69342C",
"*7.	c #693C39",
"=7.	c #653D3B",
"-7.	c #573431",
";7.	c #533834",
">7.	c #4B3435",
",7.	c #473335",
"'7.	c #412F30",
")7.	c #453837",
"!7.	c #433939",
"~7.	c #3D3536",
"{7.	c #312A2C",
"]7.	c #2D2625",
"^7.	c #3D322F",
"/7.	c #3C2E2D",
"(7.	c #3C3230",
"_7.	c #332A2A",
":7.	c #272021",
"<7.	c #1B1518",
"[7.	c #1A1012",
"}7.	c #1E0B0C",
"|7.	c #2A0708",
"17.	c #440907",
"27.	c #5B0F07",
"37.	c #600E05",
"47.	c #591005",
"57.	c #551106",
"67.	c #501006",
"77.	c #481005",
"87.	c #3B0D05",
"97.	c #310A05",
"07.	c #2A0703",
"a7.	c #280C04",
"b7.	c #2E140D",
"c7.	c #32201A",
"d7.	c #2F221D",
"e7.	c #3E322C",
"f7.	c #685E55",
"g7.	c #7C746A",
"h7.	c #635D52",
"i7.	c #7C7369",
"j7.	c #776D62",
"k7.	c #71675B",
"l7.	c #6B6255",
"m7.	c #70655A",
"n7.	c #7F7568",
"o7.	c #8A7E73",
"p7.	c #837A71",
"q7.	c #46403A",
"r7.	c #3C3632",
"s7.	c #3C3634",
"t7.	c #352F26",
"u7.	c #5D554C",
"v7.	c #564D44",
"w7.	c #473D32",
"x7.	c #4B3F31",
"y7.	c #645543",
"z7.	c #88765F",
"A7.	c #927D64",
"B7.	c #8F795E",
"C7.	c #826B4F",
"D7.	c #735D41",
"E7.	c #604A33",
"F7.	c #59442E",
"G7.	c #533E26",
"H7.	c #5A4328",
"I7.	c #7B6041",
"J7.	c #9C7F59",
"K7.	c #A5855B",
"L7.	c #A4845B",
"M7.	c #8A6B46",
"N7.	c #5C4323",
"O7.	c #402A12",
"P7.	c #3D2A16",
"Q7.	c #392817",
"R7.	c #3C2C1B",
"S7.	c #3B2B1B",
"T7.	c #3A2C1C",
"U7.	c #302417",
"V7.	c #2E2418",
"W7.	c #2E241A",
"X7.	c #30261C",
"Y7.	c #332A1F",
"Z7.	c #362C21",
"`7.	c #33291F",
" 8.	c #342A1F",
".8.	c #3C3125",
"+8.	c #4D4235",
"@8.	c #53483A",
"#8.	c #332B21",
"$8.	c #2C241C",
"%8.	c #302922",
"&8.	c #2C241D",
"*8.	c #282019",
"=8.	c #29211B",
"-8.	c #2F2822",
";8.	c #382F29",
">8.	c #4A4037",
",8.	c #52493E",
"'8.	c #574E41",
")8.	c #594F42",
"!8.	c #5C5042",
"~8.	c #5A4D3A",
"{8.	c #5F5039",
"]8.	c #715E45",
"^8.	c #7B6348",
"/8.	c #816649",
"(8.	c #826749",
"_8.	c #8A6F4F",
":8.	c #8C7353",
"<8.	c #897356",
"[8.	c #715D43",
"}8.	c #524128",
"|8.	c #463822",
"18.	c #423623",
"28.	c #392E1F",
"38.	c #352C1E",
"48.	c #32291D",
"58.	c #30271C",
"68.	c #30271B",
"78.	c #2F271C",
"88.	c #292219",
"98.	c #2F291E",
"08.	c #2F291D",
"a8.	c #2E291C",
"b8.	c #262014",
"c8.	c #201B11",
"d8.	c #18130C",
"e8.	c #13100C",
"f8.	c #181613",
"g8.	c #292421",
"h8.	c #171410",
"i8.	c #121310",
"j8.	c #1D130D",
"k8.	c #2E1D10",
"l8.	c #3A2210",
"m8.	c #39200F",
"n8.	c #36200F",
"o8.	c #2F1D0F",
"p8.	c #2C1F15",
"q8.	c #2B221C",
"r8.	c #2A2520",
"s8.	c #3D372E",
"t8.	c #63594C",
"u8.	c #6C5C4B",
"v8.	c #6B5A47",
"w8.	c #665540",
"x8.	c #63523D",
"y8.	c #554430",
"z8.	c #51412D",
"A8.	c #564632",
"B8.	c #60503E",
"C8.	c #4D4237",
"D8.	c #080604",
"E8.	c #151413",
"F8.	c #131311",
"G8.	c #21201D",
"H8.	c #2E2C27",
"I8.	c #4D4C47",
"J8.	c #1B1E22",
"K8.	c #17191F",
"L8.	c #6C6460",
"M8.	c #6A635D",
"N8.	c #3B3933",
"O8.	c #555049",
"P8.	c #605A54",
"Q8.	c #646157",
"R8.	c #514C43",
"S8.	c #6D6558",
"T8.	c #766D61",
"U8.	c #756C61",
"V8.	c #736960",
"W8.	c #726A60",
"X8.	c #1E0F0D",
"Y8.	c #3A110B",
"Z8.	c #530E06",
"`8.	c #6B0A03",
" 9.	c #650B02",
".9.	c #641107",
"+9.	c #5F150E",
"@9.	c #63221D",
"#9.	c #652C29",
"$9.	c #5F2A28",
"%9.	c #50211F",
"&9.	c #482825",
"*9.	c #3D2528",
"=9.	c #423235",
"-9.	c #44383A",
";9.	c #524949",
">9.	c #50494B",
",9.	c #403B3D",
"'9.	c #2A2427",
")9.	c #2D2428",
"!9.	c #2D2728",
"~9.	c #251F21",
"{9.	c #271F21",
"]9.	c #271E21",
"^9.	c #261F21",
"/9.	c #22191C",
"(9.	c #1E1617",
"_9.	c #170D0F",
":9.	c #1D0D0E",
"<9.	c #220809",
"[9.	c #2B0404",
"}9.	c #360302",
"|9.	c #400301",
"19.	c #410301",
"29.	c #400501",
"39.	c #3C0602",
"49.	c #390602",
"59.	c #310904",
"69.	c #260805",
"79.	c #1A0506",
"89.	c #0F0202",
"99.	c #0F0502",
"09.	c #221612",
"a9.	c #2F2623",
"b9.	c #312723",
"c9.	c #413630",
"d9.	c #6E645C",
"e9.	c #81786E",
"f9.	c #7B7269",
"g9.	c #625A50",
"h9.	c #756C62",
"i9.	c #867D70",
"j9.	c #8A8073",
"k9.	c #867A6E",
"l9.	c #807368",
"m9.	c #776B5F",
"n9.	c #7C7165",
"o9.	c #8A7F71",
"p9.	c #908479",
"q9.	c #93887E",
"r9.	c #837972",
"s9.	c #4F4A48",
"t9.	c #181917",
"u9.	c #38302E",
"v9.	c #362F2C",
"w9.	c #2F2826",
"x9.	c #1C1714",
"y9.	c #40372F",
"z9.	c #5A5149",
"A9.	c #443930",
"B9.	c #45382A",
"C9.	c #61513F",
"D9.	c #8F7C66",
"E9.	c #9F896F",
"F9.	c #9F876A",
"G9.	c #92795D",
"H9.	c #7C634A",
"I9.	c #614A35",
"J9.	c #57422E",
"K9.	c #4F3924",
"L9.	c #574028",
"M9.	c #7A5F42",
"N9.	c #9E805C",
"O9.	c #A5855D",
"P9.	c #A4835C",
"Q9.	c #856644",
"R9.	c #4E3618",
"S9.	c #321E09",
"T9.	c #332212",
"U9.	c #332315",
"V9.	c #38271A",
"W9.	c #362619",
"X9.	c #322518",
"Y9.	c #271D12",
"Z9.	c #201811",
"`9.	c #231B13",
" 0.	c #231C14",
".0.	c #261E16",
"+0.	c #271E16",
"@0.	c #292018",
"#0.	c #291F16",
"$0.	c #2C2318",
"%0.	c #4B4035",
"&0.	c #524639",
"*0.	c #504337",
"=0.	c #41362A",
"-0.	c #31271E",
";0.	c #292019",
">0.	c #2C241E",
",0.	c #2D2621",
"'0.	c #2E2623",
")0.	c #423B36",
"!0.	c #3B342E",
"~0.	c #201812",
"{0.	c #140B07",
"]0.	c #120B08",
"^0.	c #150E0A",
"/0.	c #271F19",
"(0.	c #463C35",
"_0.	c #534940",
":0.	c #574D42",
"<0.	c #564B3F",
"[0.	c #5A4F41",
"}0.	c #584C3D",
"|0.	c #594A33",
"10.	c #80664A",
"20.	c #866A4B",
"30.	c #866949",
"40.	c #896E4C",
"50.	c #8A6F4E",
"60.	c #877051",
"70.	c #715C41",
"80.	c #503E27",
"90.	c #40321F",
"00.	c #2B2218",
"a0.	c #261F16",
"b0.	c #231C16",
"c0.	c #231C17",
"d0.	c #231D16",
"e0.	c #211C16",
"f0.	c #23201A",
"g0.	c #1D1B13",
"h0.	c #13110B",
"i0.	c #020406",
"j0.	c #0F0805",
"k0.	c #2C1C12",
"l0.	c #3E2716",
"m0.	c #3D2413",
"n0.	c #372010",
"o0.	c #2D1B0D",
"p0.	c #291C12",
"q0.	c #241C17",
"r0.	c #403830",
"s0.	c #655A4D",
"t0.	c #6A594A",
"u0.	c #6A5946",
"v0.	c #675540",
"w0.	c #5C4A37",
"x0.	c #574532",
"y0.	c #54432F",
"z0.	c #584733",
"A0.	c #655442",
"B0.	c #6D5F4E",
"C0.	c #5F5448",
"D0.	c #453E37",
"E0.	c #36312C",
"F0.	c #1F1A17",
"G0.	c #110D0C",
"H0.	c #100D0A",
"I0.	c #25231F",
"J0.	c #4E4842",
"K0.	c #4E4840",
"L0.	c #7F7A73",
"M0.	c #716A66",
"N0.	c #222329",
"O0.	c #040103",
"P0.	c #110D11",
"Q0.	c #6C6562",
"R0.	c #6E6962",
"S0.	c #393934",
"T0.	c #605F58",
"U0.	c #626158",
"V0.	c #615E56",
"W0.	c #5F5C52",
"X0.	c #5A5348",
"Y0.	c #6D6758",
"Z0.	c #726C5F",
"`0.	c #746C62",
" a.	c #756C63",
".a.	c #65635B",
"+a.	c #525552",
"@a.	c #4E1008",
"#a.	c #5D0902",
"$a.	c #680802",
"%a.	c #660801",
"&a.	c #640B02",
"*a.	c #630A01",
"=a.	c #690B02",
"-a.	c #6A1206",
";a.	c #641309",
">a.	c #692018",
",a.	c #6B2821",
"'a.	c #65221D",
")a.	c #591E17",
"!a.	c #4D231C",
"~a.	c #402825",
"{a.	c #3F3232",
"]a.	c #463D3F",
"^a.	c #585253",
"/a.	c #545051",
"(a.	c #413E3F",
"_a.	c #312C2D",
":a.	c #261A19",
"<a.	c #23110E",
"[a.	c #28100C",
"}a.	c #2E0B09",
"|a.	c #360805",
"1a.	c #390401",
"2a.	c #3E0602",
"3a.	c #3B0803",
"4a.	c #380A05",
"5a.	c #380F08",
"6a.	c #30100A",
"7a.	c #220D0B",
"8a.	c #140707",
"9a.	c #160D0C",
"0a.	c #29221F",
"aa.	c #453C36",
"ba.	c #7C7469",
"ca.	c #605A4F",
"da.	c #736B61",
"ea.	c #847C70",
"fa.	c #877F71",
"ga.	c #847A6E",
"ha.	c #7F7468",
"ia.	c #766C60",
"ja.	c #7B7063",
"ka.	c #91877B",
"la.	c #90887D",
"ma.	c #7F7770",
"na.	c #57524F",
"oa.	c #5D5954",
"pa.	c #3B332B",
"qa.	c #3F362C",
"ra.	c #443B31",
"sa.	c #514940",
"ta.	c #564D45",
"ua.	c #544941",
"va.	c #46392F",
"wa.	c #463929",
"xa.	c #62533E",
"ya.	c #8E7C65",
"za.	c #9B866C",
"Aa.	c #988367",
"Ba.	c #8C765A",
"Ca.	c #7B654D",
"Da.	c #644F3B",
"Ea.	c #594631",
"Fa.	c #523F2A",
"Ga.	c #58442A",
"Ha.	c #765F41",
"Ia.	c #9B815E",
"Ja.	c #A38762",
"Ka.	c #A08561",
"La.	c #816749",
"Ma.	c #523B23",
"Na.	c #382513",
"Oa.	c #382818",
"Pa.	c #372719",
"Qa.	c #3C2D1F",
"Ra.	c #392B1D",
"Sa.	c #35291C",
"Ta.	c #281F16",
"Ua.	c #281F17",
"Va.	c #2C241B",
"Wa.	c #292118",
"Xa.	c #2B221A",
"Ya.	c #2E241C",
"Za.	c #2D231B",
"`a.	c #31281D",
" b.	c #3C3126",
".b.	c #4E4337",
"+b.	c #53483B",
"@b.	c #514538",
"#b.	c #41372A",
"$b.	c #33291E",
"%b.	c #2C231A",
"&b.	c #30271F",
"*b.	c #322A23",
"=b.	c #322C25",
"-b.	c #3D3530",
";b.	c #433C36",
">b.	c #28201A",
",b.	c #1C140E",
"'b.	c #1A130D",
")b.	c #1F1712",
"!b.	c #302822",
"~b.	c #4A413A",
"{b.	c #554C42",
"]b.	c #584F44",
"^b.	c #564D41",
"/b.	c #564B3C",
"(b.	c #524735",
"_b.	c #574A33",
":b.	c #6C5B41",
"<b.	c #7E664A",
"[b.	c #856A4C",
"}b.	c #856A4A",
"|b.	c #886F4C",
"1b.	c #866D4D",
"2b.	c #715E44",
"3b.	c #53422C",
"4b.	c #443625",
"5b.	c #3D3325",
"6b.	c #30281F",
"7b.	c #28221C",
"8b.	c #28221E",
"9b.	c #272521",
"0b.	c #201F19",
"ab.	c #191812",
"bb.	c #181812",
"cb.	c #171612",
"db.	c #171513",
"eb.	c #070909",
"fb.	c #010304",
"gb.	c #020506",
"hb.	c #31231A",
"ib.	c #412E1E",
"jb.	c #3F2919",
"kb.	c #382414",
"lb.	c #2B1B0F",
"mb.	c #251B12",
"nb.	c #423B33",
"ob.	c #695C4B",
"pb.	c #685845",
"qb.	c #65543F",
"rb.	c #63533D",
"sb.	c #5E4D38",
"tb.	c #5C4B35",
"ub.	c #594934",
"vb.	c #5D4D39",
"wb.	c #6E6151",
"xb.	c #64594D",
"yb.	c #37332E",
"zb.	c #28231C",
"Ab.	c #443C33",
"Bb.	c #544D41",
"Cb.	c #524A3C",
"Db.	c #4C4639",
"Eb.	c #5C584F",
"Fb.	c #7F7C74",
"Gb.	c #898881",
"Hb.	c #87847E",
"Ib.	c #75706D",
"Jb.	c #64635E",
"Kb.	c #5A5B58",
"Lb.	c #5B5A59",
"Mb.	c #23252A",
"Nb.	c #1D1F27",
"Ob.	c #130F0C",
"Pb.	c #575251",
"Qb.	c #5D5A57",
"Rb.	c #1B1D1F",
"Sb.	c #473D37",
"Tb.	c #473D36",
"Ub.	c #51473D",
"Vb.	c #696253",
"Wb.	c #6D6759",
"Xb.	c #706A5E",
"Yb.	c #525553",
"Zb.	c #1C1412",
"`b.	c #32140F",
" c.	c #570702",
".c.	c #5F0300",
"+c.	c #630801",
"@c.	c #670901",
"#c.	c #6E0C02",
"$c.	c #6F0C02",
"%c.	c #6B0D02",
"&c.	c #681105",
"*c.	c #6A170D",
"=c.	c #6B1B13",
"-c.	c #6A1A12",
";c.	c #65180F",
">c.	c #5B2118",
",c.	c #482420",
"'c.	c #3B2929",
")c.	c #392E31",
"!c.	c #413B3D",
"~c.	c #3E3A3C",
"{c.	c #2F2A2D",
"]c.	c #2F292C",
"^c.	c #282222",
"/c.	c #291C1C",
"(c.	c #2C1919",
"_c.	c #311B18",
":c.	c #301612",
"<c.	c #2E120C",
"[c.	c #2E0E08",
"}c.	c #330E09",
"|c.	c #370806",
"1c.	c #450501",
"2c.	c #4B0600",
"3c.	c #480802",
"4c.	c #450902",
"5c.	c #440D04",
"6c.	c #3C0F08",
"7c.	c #2A0B0A",
"8c.	c #1A0808",
"9c.	c #1B0F0E",
"0c.	c #2D2422",
"ac.	c #38312D",
"bc.	c #352E2A",
"cc.	c #777066",
"dc.	c #6F665B",
"ec.	c #7F7870",
"fc.	c #7B756F",
"gc.	c #6C6761",
"hc.	c #56514E",
"ic.	c #5B5551",
"jc.	c #0E0B0C",
"kc.	c #2C2523",
"lc.	c #463D33",
"mc.	c #483F38",
"nc.	c #46372D",
"oc.	c #4A3D2D",
"pc.	c #5E4E3B",
"qc.	c #7D6B57",
"rc.	c #87745F",
"sc.	c #85745C",
"tc.	c #796850",
"uc.	c #6C5B46",
"vc.	c #4D3C2B",
"wc.	c #4C3A26",
"xc.	c #5B4830",
"yc.	c #756145",
"zc.	c #7C644B",
"Ac.	c #7C684E",
"Bc.	c #67533E",
"Cc.	c #4B3826",
"Dc.	c #3C2D1E",
"Ec.	c #392A1D",
"Fc.	c #382A1D",
"Gc.	c #35281C",
"Hc.	c #2F241A",
"Ic.	c #30251B",
"Jc.	c #32261D",
"Kc.	c #372D22",
"Lc.	c #3A3026",
"Mc.	c #3A2F26",
"Nc.	c #3C3127",
"Oc.	c #3D3228",
"Pc.	c #42352A",
"Qc.	c #4B3E33",
"Rc.	c #514338",
"Sc.	c #504134",
"Tc.	c #3F3325",
"Uc.	c #3A2F24",
"Vc.	c #3F342B",
"Wc.	c #3D332C",
"Xc.	c #322B24",
"Yc.	c #352F28",
"Zc.	c #443C36",
"`c.	c #423831",
" d.	c #494039",
".d.	c #4D443C",
"+d.	c #50473F",
"@d.	c #4C443B",
"#d.	c #4D443B",
"$d.	c #4C4233",
"%d.	c #4F4431",
"&d.	c #63553E",
"*d.	c #725F46",
"=d.	c #776147",
"-d.	c #776045",
";d.	c #786345",
">d.	c #766146",
",d.	c #766349",
"'d.	c #685740",
")d.	c #4F402E",
"!d.	c #413526",
"~d.	c #3C3326",
"{d.	c #29241D",
"]d.	c #2A2420",
"^d.	c #2A2925",
"/d.	c #292821",
"(d.	c #323128",
"_d.	c #39372E",
":d.	c #39352F",
"<d.	c #36332D",
"[d.	c #282723",
"}d.	c #0C0E0D",
"|d.	c #2D241F",
"1d.	c #382C22",
"2d.	c #35271D",
"3d.	c #2F2318",
"4d.	c #241C12",
"5d.	c #1C1818",
"6d.	c #0F0C08",
"7d.	c #544D42",
"8d.	c #574A3A",
"9d.	c #564835",
"0d.	c #5B4D38",
"ad.	c #5E4E39",
"bd.	c #5F4E39",
"cd.	c #61503D",
"dd.	c #655544",
"ed.	c #5C5141",
"fd.	c #4A4236",
"gd.	c #181411",
"hd.	c #110D0E",
"id.	c #090608",
"jd.	c #211B18",
"kd.	c #271D13",
"ld.	c #3E2F23",
"md.	c #4C3E2D",
"nd.	c #4B3D2A",
"od.	c #493D2D",
"pd.	c #5F554B",
"qd.	c #817C74",
"rd.	c #8A8983",
"sd.	c #878481",
"td.	c #787472",
"ud.	c #676663",
"vd.	c #5B5D5C",
"wd.	c #5D5C5F",
"xd.	c #5D5B5A",
"yd.	c #403936",
"zd.	c #393431",
"Ad.	c #1A1C24",
"Bd.	c #130D0B",
"Cd.	c #080502",
"Dd.	c #050205",
"Ed.	c #0F0B0E",
"Fd.	c #5A5350",
"Gd.	c #56504D",
"Hd.	c #212322",
"Id.	c #4A4746",
"Jd.	c #494545",
"Kd.	c #272120",
"Ld.	c #241A1A",
"Md.	c #2A1F1C",
"Nd.	c #2C1D19",
"Od.	c #2F1F1B",
"Pd.	c #3F3128",
"Qd.	c #615648",
"Rd.	c #6F6959",
"Sd.	c #706B5D",
"Td.	c #6A6257",
"Ud.	c #666056",
"Vd.	c #535754",
"Wd.	c #1E1916",
"Xd.	c #321915",
"Yd.	c #47150E",
"Zd.	c #500702",
"`d.	c #5B0300",
" e.	c #590100",
".e.	c #600500",
"+e.	c #690901",
"@e.	c #720C02",
"#e.	c #710B01",
"$e.	c #700F03",
"%e.	c #6A1003",
"&e.	c #691207",
"*e.	c #661107",
"=e.	c #6C160A",
"-e.	c #731A0C",
";e.	c #712619",
">e.	c #55261F",
",e.	c #3A2322",
"'e.	c #2A1F20",
")e.	c #282223",
"!e.	c #261C1C",
"~e.	c #331B18",
"{e.	c #3D1613",
"]e.	c #461712",
"^e.	c #45100B",
"/e.	c #460F07",
"(e.	c #430D04",
"_e.	c #400C06",
":e.	c #400A05",
"<e.	c #490804",
"[e.	c #570A03",
"}e.	c #630C02",
"|e.	c #640A00",
"1e.	c #640B01",
"2e.	c #610D02",
"3e.	c #5A0D03",
"4e.	c #450D04",
"5e.	c #2F0B09",
"6e.	c #1C0707",
"7e.	c #1D100D",
"8e.	c #342E2A",
"9e.	c #433F37",
"0e.	c #49423B",
"ae.	c #1A1816",
"be.	c #0E1010",
"ce.	c #6B6254",
"de.	c #61584A",
"ee.	c #3A322A",
"fe.	c #3C3129",
"ge.	c #504135",
"he.	c #6A5B48",
"ie.	c #6D5D49",
"je.	c #675645",
"ke.	c #635442",
"le.	c #524436",
"me.	c #493C31",
"ne.	c #453A2D",
"oe.	c #3C2D20",
"pe.	c #3C2F1E",
"qe.	c #403120",
"re.	c #3C2C1D",
"se.	c #352819",
"te.	c #291C11",
"ue.	c #26190F",
"ve.	c #2B1E14",
"we.	c #36291E",
"xe.	c #3B2D21",
"ye.	c #3D2F22",
"ze.	c #3A2D20",
"Ae.	c #3C2F22",
"Be.	c #3C2F24",
"Ce.	c #493C30",
"De.	c #504336",
"Ee.	c #534739",
"Fe.	c #514537",
"Ge.	c #45382D",
"He.	c #43372C",
"Ie.	c #46382D",
"Je.	c #4E3E30",
"Ke.	c #544635",
"Le.	c #564839",
"Me.	c #50453B",
"Ne.	c #2C261F",
"Oe.	c #463D36",
"Pe.	c #584D44",
"Qe.	c #6B6154",
"Re.	c #6D6457",
"Se.	c #655B50",
"Te.	c #52493F",
"Ue.	c #3D352D",
"Ve.	c #3C352C",
"We.	c #3C342A",
"Xe.	c #433A2C",
"Ye.	c #4F4433",
"Ze.	c #534633",
"`e.	c #50412E",
" f.	c #4C3B29",
".f.	c #4C3D29",
"+f.	c #4A3B29",
"@f.	c #4A3C2C",
"#f.	c #433728",
"$f.	c #362C1F",
"%f.	c #2E251B",
"&f.	c #2D261E",
"*f.	c #27211C",
"=f.	c #241E1C",
"-f.	c #545146",
";f.	c #676255",
">f.	c #666153",
",f.	c #5F5B4E",
"'f.	c #3D3B32",
")f.	c #151513",
"!f.	c #171715",
"~f.	c #1B1916",
"{f.	c #181412",
"]f.	c #171411",
"^f.	c #17130D",
"/f.	c #362E25",
"(f.	c #382F22",
"_f.	c #3A3021",
":f.	c #685946",
"<f.	c #6C5B48",
"[f.	c #6A5A45",
"}f.	c #6C5B47",
"|f.	c #645442",
"1f.	c #493E2E",
"2f.	c #31291C",
"3f.	c #2D261D",
"4f.	c #2F2923",
"5f.	c #27231E",
"6f.	c #161210",
"7f.	c #0A0809",
"8f.	c #261E18",
"9f.	c #2B1C0F",
"0f.	c #392513",
"af.	c #412D14",
"bf.	c #422E12",
"cf.	c #46341F",
"df.	c #635648",
"ef.	c #8A8982",
"ff.	c #898883",
"gf.	c #7D7A77",
"hf.	c #636765",
"if.	c #646667",
"jf.	c #646361",
"kf.	c #47423C",
"lf.	c #323438",
"mf.	c #26282E",
"nf.	c #1B1510",
"of.	c #3C393A",
"pf.	c #322D2B",
"qf.	c #605A58",
"rf.	c #1C1B18",
"sf.	c #222220",
"tf.	c #383538",
"uf.	c #453F3F",
"vf.	c #4B4444",
"wf.	c #493E41",
"xf.	c #35292D",
"yf.	c #221719",
"zf.	c #1B0E11",
"Af.	c #261415",
"Bf.	c #2A1615",
"Cf.	c #281512",
"Df.	c #37281F",
"Ef.	c #5E5144",
"Ff.	c #6E6657",
"Gf.	c #5E574C",
"Hf.	c #2E1A16",
"If.	c #421811",
"Jf.	c #540200",
"Kf.	c #560100",
"Lf.	c #6A0800",
"Mf.	c #720B01",
"Nf.	c #720A01",
"Of.	c #720E02",
"Pf.	c #6C0E02",
"Qf.	c #6B1004",
"Rf.	c #680E03",
"Sf.	c #6D1105",
"Tf.	c #761909",
"Uf.	c #722113",
"Vf.	c #541F19",
"Wf.	c #311918",
"Xf.	c #221717",
"Yf.	c #191518",
"Zf.	c #271817",
"`f.	c #391411",
" g.	c #4E130D",
".g.	c #5E120B",
"+g.	c #600B05",
"@g.	c #630E05",
"#g.	c #4A0A03",
"$g.	c #470602",
"%g.	c #5F0A03",
"&g.	c #710C01",
"*g.	c #760B00",
"=g.	c #750C00",
"-g.	c #6D0D02",
";g.	c #5C0C02",
">g.	c #460802",
",g.	c #2E0707",
"'g.	c #1A0405",
")g.	c #1C0D0C",
"!g.	c #2D2421",
"~g.	c #36302C",
"{g.	c #312929",
"]g.	c #2B2423",
"^g.	c #332F29",
"/g.	c #322A26",
"(g.	c #2F2620",
"_g.	c #271E1A",
":g.	c #281F1A",
"<g.	c #251D19",
"[g.	c #231C1A",
"}g.	c #474442",
"|g.	c #524D46",
"1g.	c #5C564E",
"2g.	c #6D685F",
"3g.	c #747067",
"4g.	c #716C66",
"5g.	c #151212",
"6g.	c #706E67",
"7g.	c #868275",
"8g.	c #867C6D",
"9g.	c #847967",
"0g.	c #746959",
"ag.	c #342B23",
"bg.	c #32271D",
"cg.	c #554437",
"dg.	c #796755",
"eg.	c #7A6855",
"fg.	c #6A5A48",
"gg.	c #4B4135",
"hg.	c #493F35",
"ig.	c #3E352D",
"jg.	c #382F27",
"kg.	c #372D24",
"lg.	c #3B2F24",
"mg.	c #3A2E23",
"ng.	c #3C3025",
"og.	c #34281F",
"pg.	c #271D15",
"qg.	c #160D07",
"rg.	c #170E08",
"sg.	c #261C15",
"tg.	c #362A22",
"ug.	c #3A2C22",
"vg.	c #3B2D22",
"wg.	c #3A2B20",
"xg.	c #45372B",
"yg.	c #534538",
"zg.	c #5D4F41",
"Ag.	c #6C5E4F",
"Bg.	c #6F6151",
"Cg.	c #6D5E4F",
"Dg.	c #615344",
"Eg.	c #5E4F41",
"Fg.	c #5A4B3F",
"Gg.	c #514439",
"Hg.	c #3F322A",
"Ig.	c #34281E",
"Jg.	c #37291F",
"Kg.	c #48382A",
"Lg.	c #574534",
"Mg.	c #645340",
"Ng.	c #655443",
"Og.	c #665848",
"Pg.	c #5A4E42",
"Qg.	c #29231C",
"Rg.	c #3F382F",
"Sg.	c #5C5147",
"Tg.	c #75695C",
"Ug.	c #786C5F",
"Vg.	c #796C60",
"Wg.	c #6D6156",
"Xg.	c #52483E",
"Yg.	c #312922",
"Zg.	c #332B25",
"`g.	c #352D26",
" h.	c #3A3129",
".h.	c #2C2319",
"+h.	c #261D17",
"@h.	c #221B16",
"#h.	c #231C19",
"$h.	c #221B19",
"%h.	c #221B1A",
"&h.	c #211917",
"*h.	c #1D1715",
"=h.	c #332E27",
"-h.	c #756D5E",
";h.	c #756B5C",
">h.	c #6A6154",
",h.	c #070503",
"'h.	c #1B1813",
")h.	c #231E19",
"!h.	c #252018",
"~h.	c #2B241A",
"{h.	c #52493D",
"]h.	c #796C5D",
"^h.	c #7F6F5D",
"/h.	c #776754",
"(h.	c #72604D",
"_h.	c #645544",
":h.	c #463A2A",
"<h.	c #2D251A",
"[h.	c #2B241D",
"}h.	c #2E2823",
"|h.	c #171110",
"1h.	c #100C0D",
"2h.	c #2A201B",
"3h.	c #2C1A0E",
"4h.	c #341E0B",
"5h.	c #371E05",
"6h.	c #351E03",
"7h.	c #3C2913",
"8h.	c #5E5041",
"9h.	c #878782",
"0h.	c #7D7B7B",
"ah.	c #737473",
"bh.	c #686D6D",
"ch.	c #66696C",
"dh.	c #696968",
"eh.	c #48423C",
"fh.	c #39393C",
"gh.	c #303035",
"hh.	c #26211A",
"ih.	c #201711",
"jh.	c #171009",
"kh.	c #090301",
"lh.	c #494B4A",
"mh.	c #535555",
"nh.	c #4E4E4E",
"oh.	c #423E3E",
"ph.	c #635E5C",
"qh.	c #1E1F1C",
"rh.	c #222525",
"sh.	c #413A3D",
"th.	c #3D3637",
"uh.	c #3C3534",
"vh.	c #483D39",
"wh.	c #4E3E3C",
"xh.	c #4F3E3E",
"yh.	c #3C2D2E",
"zh.	c #24191A",
"Ah.	c #1E1113",
"Bh.	c #2A1B1B",
"Ch.	c #2E1D1C",
"Dh.	c #2A1915",
"Eh.	c #372A21",
"Fh.	c #5C5143",
"Gh.	c #6D675A",
"Hh.	c #645F54",
"Ih.	c #555855",
"Jh.	c #303331",
"Kh.	c #1D1C17",
"Lh.	c #30211C",
"Mh.	c #45231C",
"Nh.	c #4F0301",
"Oh.	c #530200",
"Ph.	c #600702",
"Qh.	c #690801",
"Rh.	c #730B01",
"Sh.	c #6E0E02",
"Th.	c #6E0F04",
"Uh.	c #6D0F03",
"Vh.	c #6D1A0C",
"Wh.	c #4C160E",
"Xh.	c #2D1110",
"Yh.	c #1E1010",
"Zh.	c #1B1412",
"`h.	c #1F191B",
" i.	c #2C1715",
".i.	c #43130F",
"+i.	c #520A06",
"@i.	c #660C05",
"#i.	c #680702",
"$i.	c #6E0D04",
"%i.	c #650E04",
"&i.	c #4E0B04",
"*i.	c #5A0802",
"=i.	c #770E02",
"-i.	c #811001",
";i.	c #800F00",
">i.	c #790E01",
",i.	c #740F03",
"'i.	c #6B0C03",
")i.	c #490A03",
"!i.	c #300807",
"~i.	c #1C0506",
"{i.	c #1E0F0E",
"]i.	c #2F2723",
"^i.	c #342D29",
"/i.	c #372825",
"(i.	c #392621",
"_i.	c #311E1A",
":i.	c #2D1B16",
"<i.	c #251612",
"[i.	c #1F1512",
"}i.	c #1D1514",
"|i.	c #5D564E",
"1i.	c #756F66",
"2i.	c #75706A",
"3i.	c #6C6962",
"4i.	c #837C6E",
"5i.	c #817466",
"6i.	c #766A59",
"7i.	c #594E43",
"8i.	c #372E24",
"9i.	c #32261A",
"0i.	c #524432",
"ai.	c #7B6A55",
"bi.	c #695B49",
"ci.	c #54483A",
"di.	c #443A31",
"ei.	c #3C342C",
"fi.	c #342C22",
"gi.	c #3E3227",
"hi.	c #41362B",
"ii.	c #271F17",
"ji.	c #18100B",
"ki.	c #1A120D",
"li.	c #29201A",
"mi.	c #362B23",
"ni.	c #3B2E25",
"oi.	c #3E3025",
"pi.	c #3C2E23",
"qi.	c #413327",
"ri.	c #4E4033",
"si.	c #625444",
"ti.	c #6F6152",
"ui.	c #7F7261",
"vi.	c #7C6D5C",
"wi.	c #6B5D4C",
"xi.	c #635545",
"yi.	c #5C4E41",
"zi.	c #51463A",
"Ai.	c #3C3027",
"Bi.	c #2E231A",
"Ci.	c #33261D",
"Di.	c #47372B",
"Ei.	c #5C4A3A",
"Fi.	c #6B5949",
"Gi.	c #695B4B",
"Hi.	c #474036",
"Ii.	c #231D19",
"Ji.	c #3D362D",
"Ki.	c #5C5347",
"Li.	c #776B5D",
"Mi.	c #7B6E60",
"Ni.	c #7D7061",
"Oi.	c #716557",
"Pi.	c #554A40",
"Qi.	c #392F27",
"Ri.	c #312923",
"Si.	c #352E28",
"Ti.	c #39312B",
"Ui.	c #393029",
"Vi.	c #3C332B",
"Wi.	c #3E352C",
"Xi.	c #483F34",
"Yi.	c #29201B",
"Zi.	c #211A18",
"`i.	c #211B19",
" j.	c #241D1B",
".j.	c #211A19",
"+j.	c #241C1C",
"@j.	c #231B1B",
"#j.	c #1E1714",
"$j.	c #262120",
"%j.	c #241F1D",
"&j.	c #716B5C",
"*j.	c #696255",
"=j.	c #181513",
"-j.	c #000106",
";j.	c #0E0C0D",
">j.	c #201E18",
",j.	c #27241C",
"'j.	c #514B41",
")j.	c #807568",
"!j.	c #887A69",
"~j.	c #80715E",
"{j.	c #766755",
"]j.	c #645645",
"^j.	c #483E2E",
"/j.	c #31291F",
"(j.	c #312C26",
"_j.	c #171210",
":j.	c #100C0C",
"<j.	c #0C0908",
"[j.	c #2B231F",
"}j.	c #2E1E12",
"|j.	c #331C0B",
"1j.	c #311903",
"2j.	c #2C1601",
"3j.	c #37240E",
"4j.	c #5B4E3E",
"5j.	c #878882",
"6j.	c #868682",
"7j.	c #7E7E7D",
"8j.	c #787876",
"9j.	c #707171",
"0j.	c #6F6E6F",
"aj.	c #716D68",
"bj.	c #3C3327",
"cj.	c #2D241A",
"dj.	c #2A1F14",
"ej.	c #1D150B",
"fj.	c #0E0803",
"gj.	c #484949",
"hj.	c #4F5051",
"ij.	c #242522",
"jj.	c #383131",
"kj.	c #463638",
"lj.	c #4A3438",
"mj.	c #452E2E",
"nj.	c #452A27",
"oj.	c #512E2A",
"pj.	c #5B322E",
"qj.	c #593533",
"rj.	c #412929",
"sj.	c #251818",
"tj.	c #1C1214",
"uj.	c #291E1F",
"vj.	c #2F2424",
"wj.	c #2C201E",
"xj.	c #342923",
"yj.	c #666257",
"zj.	c #625C53",
"Aj.	c #575A57",
"Bj.	c #373A39",
"Cj.	c #322825",
"Dj.	c #412823",
"Ej.	c #410402",
"Fj.	c #6B0902",
"Gj.	c #730A01",
"Hj.	c #730B00",
"Ij.	c #710D01",
"Jj.	c #6F0D01",
"Kj.	c #710F03",
"Lj.	c #6F0E03",
"Mj.	c #711104",
"Nj.	c #6A1406",
"Oj.	c #4E1108",
"Pj.	c #350E0A",
"Qj.	c #290F0C",
"Rj.	c #24130F",
"Sj.	c #201413",
"Tj.	c #1A1519",
"Uj.	c #24191B",
"Vj.	c #331311",
"Wj.	c #4D100C",
"Xj.	c #5C0B05",
"Yj.	c #610802",
"Zj.	c #630701",
"`j.	c #5C0701",
" k.	c #4B0802",
".k.	c #740D02",
"+k.	c #7F0C00",
"@k.	c #7D0D00",
"#k.	c #730D01",
"$k.	c #6A0C04",
"%k.	c #620904",
"&k.	c #5A0B04",
"*k.	c #460803",
"=k.	c #2F0809",
"-k.	c #1C0608",
";k.	c #1D0F0F",
">k.	c #2E2624",
",k.	c #36312F",
"'k.	c #2D2726",
")k.	c #3B302D",
"!k.	c #452B28",
"~k.	c #462621",
"{k.	c #401E19",
"]k.	c #381814",
"^k.	c #2C100E",
"/k.	c #220F0D",
"(k.	c #211614",
"_k.	c #6F6961",
":k.	c #756F68",
"<k.	c #43443F",
"[k.	c #7D7769",
"}k.	c #807665",
"|k.	c #7D735F",
"1k.	c #736855",
"2k.	c #5B5043",
"3k.	c #3B3026",
"4k.	c #34281B",
"5k.	c #695945",
"6k.	c #473F35",
"7k.	c #433C34",
"8k.	c #39322B",
"9k.	c #352E25",
"0k.	c #362D21",
"ak.	c #352B23",
"bk.	c #261E17",
"ck.	c #1B130E",
"dk.	c #1D1611",
"ek.	c #2A221E",
"fk.	c #332923",
"gk.	c #352A22",
"hk.	c #382D24",
"ik.	c #3F3327",
"jk.	c #5D5142",
"kk.	c #675A4B",
"lk.	c #716554",
"mk.	c #726553",
"nk.	c #70614F",
"ok.	c #5E5040",
"pk.	c #54473A",
"qk.	c #3A2F25",
"rk.	c #33281F",
"sk.	c #4A3C30",
"tk.	c #5A4A3A",
"uk.	c #665745",
"vk.	c #665A4A",
"wk.	c #595043",
"xk.	c #433C33",
"yk.	c #2C2720",
"zk.	c #231F19",
"Ak.	c #29241E",
"Bk.	c #3C362E",
"Ck.	c #554C41",
"Dk.	c #6E6254",
"Ek.	c #736758",
"Fk.	c #746859",
"Gk.	c #55493E",
"Hk.	c #382E26",
"Ik.	c #38302B",
"Jk.	c #38312A",
"Kk.	c #362E27",
"Lk.	c #453D34",
"Mk.	c #211C19",
"Nk.	c #251F1D",
"Ok.	c #201918",
"Pk.	c #231A19",
"Qk.	c #1F1A18",
"Rk.	c #4B463F",
"Sk.	c #5A574C",
"Tk.	c #565249",
"Uk.	c #3F3D37",
"Vk.	c #171414",
"Wk.	c #000107",
"Xk.	c #1B1A16",
"Yk.	c #211F1A",
"Zk.	c #756D61",
"`k.	c #807564",
" l.	c #786B59",
".l.	c #706151",
"+l.	c #635646",
"@l.	c #4A4132",
"#l.	c #161110",
"$l.	c #100C0E",
"%l.	c #0A0707",
"&l.	c #282120",
"*l.	c #281B13",
"=l.	c #2F1D10",
"-l.	c #301F0C",
";l.	c #2D1C07",
">l.	c #352715",
",l.	c #544B3E",
"'l.	c #77756C",
")l.	c #81827D",
"!l.	c #82827F",
"~l.	c #7C7A77",
"{l.	c #74716B",
"]l.	c #6C6254",
"^l.	c #645744",
"/l.	c #4B3A2A",
"(l.	c #3A291A",
"_l.	c #2A2018",
":l.	c #221A16",
"<l.	c #2C211A",
"[l.	c #302219",
"}l.	c #2B1B10",
"|l.	c #211509",
"1l.	c #100801",
"2l.	c #474441",
"3l.	c #363235",
"4l.	c #232625",
"5l.	c #372A29",
"6l.	c #47292C",
"7l.	c #512429",
"8l.	c #531E1E",
"9l.	c #561614",
"0l.	c #671A15",
"al.	c #6D1E19",
"bl.	c #612221",
"cl.	c #421D1D",
"dl.	c #231212",
"el.	c #191112",
"fl.	c #342D2A",
"gl.	c #524D44",
"hl.	c #545249",
"il.	c #615B52",
"jl.	c #6D6C66",
"kl.	c #616461",
"ll.	c #4B4D4B",
"ml.	c #423C39",
"nl.	c #40302C",
"ol.	c #331510",
"pl.	c #2E0301",
"ql.	c #4E0401",
"rl.	c #690A03",
"sl.	c #740B02",
"tl.	c #740B01",
"ul.	c #720D01",
"vl.	c #700E01",
"wl.	c #710F02",
"xl.	c #720F02",
"yl.	c #6B1203",
"zl.	c #5D1207",
"Al.	c #51120C",
"Bl.	c #48140D",
"Cl.	c #421810",
"Dl.	c #361A15",
"El.	c #281A1B",
"Fl.	c #1D181C",
"Gl.	c #1E181E",
"Hl.	c #2B1818",
"Il.	c #441711",
"Jl.	c #60140C",
"Kl.	c #6B0D06",
"Ll.	c #640601",
"Ml.	c #5F0700",
"Nl.	c #550400",
"Ol.	c #3E0300",
"Pl.	c #3F0200",
"Ql.	c #720D03",
"Rl.	c #7B0D01",
"Sl.	c #760C01",
"Tl.	c #620601",
"Ul.	c #500302",
"Vl.	c #480202",
"Wl.	c #3F0907",
"Xl.	c #310D0E",
"Yl.	c #201614",
"Zl.	c #382C2A",
"`l.	c #452524",
" m.	c #4A211D",
".m.	c #461714",
"+m.	c #421310",
"@m.	c #380F0E",
"#m.	c #2D1312",
"$m.	c #291A1A",
"%m.	c #111211",
"&m.	c #60594E",
"*m.	c #655C4C",
"=m.	c #5C513F",
"-m.	c #534839",
";m.	c #44382D",
">m.	c #423426",
",m.	c #544632",
"'m.	c #514333",
")m.	c #4C4135",
"!m.	c #423830",
"~m.	c #423B31",
"{m.	c #322A20",
"]m.	c #3A3124",
"^m.	c #3C3226",
"/m.	c #3E3429",
"(m.	c #322820",
"_m.	c #1C1510",
":m.	c #1E1814",
"<m.	c #27201C",
"[m.	c #2A211B",
"}m.	c #332920",
"|m.	c #473B31",
"1m.	c #53463A",
"2m.	c #54483B",
"3m.	c #584B3D",
"4m.	c #605140",
"5m.	c #5D4E3E",
"6m.	c #5D4E3F",
"7m.	c #4B4033",
"8m.	c #41362C",
"9m.	c #40352C",
"0m.	c #52463A",
"am.	c #554839",
"bm.	c #584C3B",
"cm.	c #423C32",
"dm.	c #2F2B23",
"em.	c #2A271F",
"fm.	c #302C25",
"gm.	c #403B32",
"hm.	c #4F473C",
"im.	c #615748",
"jm.	c #6C5F51",
"km.	c #554A3F",
"lm.	c #372E26",
"mm.	c #302721",
"nm.	c #332C27",
"om.	c #362F2A",
"pm.	c #2D2620",
"qm.	c #2F2720",
"rm.	c #302926",
"sm.	c #1E1716",
"tm.	c #161212",
"um.	c #1E1919",
"vm.	c #251F1E",
"wm.	c #201919",
"xm.	c #251C1C",
"ym.	c #261C1B",
"zm.	c #261E1C",
"Am.	c #2A2322",
"Bm.	c #02040C",
"Cm.	c #01030A",
"Dm.	c #121417",
"Em.	c #22201C",
"Fm.	c #1A1915",
"Gm.	c #332F28",
"Hm.	c #544C41",
"Im.	c #5E5345",
"Jm.	c #5A4D3E",
"Km.	c #594B3C",
"Lm.	c #2E2922",
"Mm.	c #251E18",
"Nm.	c #382D25",
"Om.	c #43382D",
"Pm.	c #443A2D",
"Qm.	c #484035",
"Rm.	c #73746C",
"Sm.	c #80817D",
"Tm.	c #78736F",
"Um.	c #675D52",
"Vm.	c #55493A",
"Wm.	c #53402A",
"Xm.	c #523D24",
"Ym.	c #47301A",
"Zm.	c #422C17",
"`m.	c #382515",
" n.	c #312316",
".n.	c #31271F",
"+n.	c #352A21",
"@n.	c #3B2C1F",
"#n.	c #322113",
"$n.	c #27190A",
"%n.	c #180C02",
"&n.	c #140A02",
"*n.	c #100803",
"=n.	c #0E0703",
"-n.	c #0E0A07",
";n.	c #605750",
">n.	c #262623",
",n.	c #252725",
"'n.	c #222423",
")n.	c #362423",
"!n.	c #482021",
"~n.	c #54181B",
"{n.	c #5E1410",
"]n.	c #630C05",
"^n.	c #720E06",
"/n.	c #740E07",
"(n.	c #681512",
"_n.	c #411213",
":n.	c #1E0C0B",
"<n.	c #150D0E",
"[n.	c #2F2B2D",
"}n.	c #302A2B",
"|n.	c #75716A",
"1n.	c #72716D",
"2n.	c #6B6E6A",
"3n.	c #5C5F5D",
"4n.	c #515250",
"5n.	c #4C4846",
"6n.	c #3C322E",
"7n.	c #28130F",
"8n.	c #210201",
"9n.	c #460401",
"0n.	c #660903",
"an.	c #750B01",
"bn.	c #720D00",
"cn.	c #710E01",
"dn.	c #6D1002",
"en.	c #681306",
"fn.	c #66150B",
"gn.	c #63160C",
"hn.	c #5E1A0E",
"in.	c #4E1B13",
"jn.	c #341A19",
"kn.	c #21161A",
"ln.	c #1E171B",
"mn.	c #23171C",
"nn.	c #321716",
"on.	c #4B120C",
"pn.	c #6B1208",
"qn.	c #781106",
"rn.	c #7B1006",
"sn.	c #710B02",
"tn.	c #640800",
"un.	c #590400",
"vn.	c #540801",
"wn.	c #4F0702",
"xn.	c #500602",
"yn.	c #5B0701",
"zn.	c #6C0801",
"An.	c #740701",
"Bn.	c #6E0701",
"Cn.	c #560301",
"Dn.	c #300203",
"En.	c #33080A",
"Fn.	c #290C0F",
"Gn.	c #1E0F10",
"Hn.	c #211919",
"In.	c #343135",
"Jn.	c #2E2A2E",
"Kn.	c #312321",
"Ln.	c #3B1A18",
"Mn.	c #441813",
"Nn.	c #481410",
"On.	c #4C1714",
"Pn.	c #481B1B",
"Qn.	c #3E2122",
"Rn.	c #352627",
"Sn.	c #312A2A",
"Tn.	c #44423C",
"Un.	c #4B4847",
"Vn.	c #4B4131",
"Wn.	c #463B2B",
"Xn.	c #483D2E",
"Yn.	c #463A2D",
"Zn.	c #483A2C",
"`n.	c #493829",
" o.	c #3F3221",
".o.	c #2F2317",
"+o.	c #251D15",
"@o.	c #1C1512",
"#o.	c #1B1611",
"$o.	c #251E17",
"%o.	c #392E22",
"&o.	c #2A2119",
"*o.	c #211813",
"=o.	c #18100D",
"-o.	c #1A1310",
";o.	c #1F1915",
">o.	c #1E1713",
",o.	c #453A32",
"'o.	c #50453A",
")o.	c #4F4237",
"!o.	c #504436",
"~o.	c #5E4F3D",
"{o.	c #615342",
"]o.	c #4E4435",
"^o.	c #483F33",
"/o.	c #4F463E",
"(o.	c #53483F",
"_o.	c #504639",
":o.	c #4C4334",
"<o.	c #483E31",
"[o.	c #484033",
"}o.	c #453E34",
"|o.	c #3F3A31",
"1o.	c #312C25",
"2o.	c #2D2923",
"3o.	c #37332C",
"4o.	c #484036",
"5o.	c #534A3C",
"6o.	c #594C3F",
"7o.	c #65574B",
"8o.	c #332A22",
"9o.	c #2B221D",
"0o.	c #2F2824",
"ao.	c #2C2521",
"bo.	c #28201C",
"co.	c #2E2521",
"do.	c #302724",
"eo.	c #261F1E",
"fo.	c #120C0E",
"go.	c #080506",
"ho.	c #0A0708",
"io.	c #140F11",
"jo.	c #201B1C",
"ko.	c #231C1C",
"lo.	c #1E1817",
"mo.	c #251B1B",
"no.	c #281E1D",
"oo.	c #291F1E",
"po.	c #2D2624",
"qo.	c #2A2324",
"ro.	c #1D181A",
"so.	c #010209",
"to.	c #07090E",
"uo.	c #4B453E",
"vo.	c #221E19",
"wo.	c #463A2F",
"xo.	c #44372A",
"yo.	c #45372A",
"zo.	c #3E3126",
"Ao.	c #0F0A0A",
"Bo.	c #0F0C0D",
"Co.	c #070406",
"Do.	c #423B37",
"Eo.	c #6F726E",
"Fo.	c #777977",
"Go.	c #7E7C7A",
"Ho.	c #756B68",
"Io.	c #5D4E40",
"Jo.	c #44301C",
"Ko.	c #402610",
"Lo.	c #42250B",
"Mo.	c #44280C",
"No.	c #42270D",
"Oo.	c #462B13",
"Po.	c #2F251F",
"Qo.	c #33251A",
"Ro.	c #322110",
"So.	c #35230E",
"To.	c #3B2913",
"Uo.	c #3E2F1C",
"Vo.	c #3E2F1F",
"Wo.	c #3E3222",
"Xo.	c #3D3225",
"Yo.	c #342E25",
"Zo.	c #1F1C19",
"`o.	c #645B52",
" p.	c #7F7365",
".p.	c #887A6C",
"+p.	c #8E7F73",
"@p.	c #8A7A6F",
"#p.	c #84756A",
"$p.	c #665B53",
"%p.	c #423B3A",
"&p.	c #0E0905",
"*p.	c #272825",
"=p.	c #262824",
"-p.	c #252726",
";p.	c #362424",
">p.	c #481F20",
",p.	c #571415",
"'p.	c #65120A",
")p.	c #6C0A01",
"!p.	c #770A01",
"~p.	c #790B03",
"{p.	c #6E0F0A",
"]p.	c #460F0C",
"^p.	c #1F0B0A",
"/p.	c #150F0F",
"(p.	c #706E66",
"_p.	c #79776F",
":p.	c #6F716D",
"<p.	c #626361",
"[p.	c #5A5A57",
"}p.	c #3B3431",
"|p.	c #241410",
"1p.	c #1E0302",
"2p.	c #260100",
"3p.	c #420501",
"4p.	c #640B03",
"5p.	c #730C02",
"6p.	c #750B00",
"7p.	c #740C00",
"8p.	c #730E01",
"9p.	c #6D1001",
"0p.	c #6B1103",
"ap.	c #6C1407",
"bp.	c #6A1306",
"cp.	c #671608",
"dp.	c #58170D",
"ep.	c #3B1512",
"fp.	c #241213",
"gp.	c #201114",
"hp.	c #261214",
"ip.	c #3C1412",
"jp.	c #55120B",
"kp.	c #6E0F05",
"lp.	c #790E03",
"mp.	c #800F03",
"np.	c #760A01",
"op.	c #690900",
"pp.	c #5C0700",
"qp.	c #5C0A01",
"rp.	c #5C0C03",
"sp.	c #5E0B04",
"tp.	c #5F0901",
"up.	c #670A01",
"vp.	c #6A0902",
"wp.	c #680A03",
"xp.	c #4F0403",
"yp.	c #350102",
"zp.	c #260001",
"Ap.	c #260304",
"Bp.	c #240707",
"Cp.	c #1C1313",
"Dp.	c #38170F",
"Ep.	c #41160F",
"Fp.	c #491913",
"Gp.	c #50201C",
"Hp.	c #4D2624",
"Ip.	c #432B2A",
"Jp.	c #372B2A",
"Kp.	c #312F2A",
"Lp.	c #11100E",
"Mp.	c #14110C",
"Np.	c #4C4132",
"Op.	c #473D2E",
"Pp.	c #483E30",
"Qp.	c #483D2F",
"Rp.	c #4A3E2E",
"Sp.	c #1A150F",
"Tp.	c #140F0C",
"Up.	c #15110E",
"Vp.	c #16110E",
"Wp.	c #211A13",
"Xp.	c #2F261B",
"Yp.	c #3D3223",
"Zp.	c #3C3122",
"`p.	c #382E21",
" q.	c #2A2017",
".q.	c #221913",
"+q.	c #19120E",
"@q.	c #18120F",
"#q.	c #1C1613",
"$q.	c #1A1410",
"%q.	c #1A1510",
"&q.	c #2B241E",
"*q.	c #4C4235",
"=q.	c #4D4234",
"-q.	c #5A4E3C",
";q.	c #605340",
">q.	c #615442",
",q.	c #574C3B",
"'q.	c #4F4536",
")q.	c #4D443A",
"!q.	c #524A41",
"~q.	c #544C42",
"{q.	c #4A4235",
"]q.	c #453D31",
"^q.	c #433C31",
"/q.	c #443E34",
"(q.	c #36332B",
"_q.	c #343029",
":q.	c #3B372F",
"<q.	c #443F35",
"[q.	c #4C4336",
"}q.	c #504538",
"|q.	c #5C5043",
"1q.	c #605347",
"2q.	c #312921",
"3q.	c #28201B",
"4q.	c #2A231F",
"5q.	c #2D2722",
"6q.	c #261F1B",
"7q.	c #2A231E",
"8q.	c #2B2320",
"9q.	c #201A1B",
"0q.	c #201A18",
"aq.	c #291E1E",
"bq.	c #2A211F",
"cq.	c #2E2725",
"dq.	c #292323",
"eq.	c #120E0F",
"fq.	c #040509",
"gq.	c #584E46",
"hq.	c #585046",
"iq.	c #1E1C16",
"jq.	c #352E27",
"kq.	c #3F3429",
"lq.	c #352D21",
"mq.	c #2B251F",
"nq.	c #53504A",
"oq.	c #5C5B58",
"pq.	c #727471",
"qq.	c #7D7E7A",
"rq.	c #7F7E79",
"sq.	c #756B64",
"tq.	c #5B4C3C",
"uq.	c #402B14",
"vq.	c #3D2109",
"wq.	c #41250A",
"xq.	c #44290C",
"yq.	c #43280F",
"zq.	c #493117",
"Aq.	c #47321F",
"Bq.	c #4B3C2F",
"Cq.	c #3D372F",
"Dq.	c #25201A",
"Eq.	c #21170E",
"Fq.	c #271506",
"Gq.	c #412A10",
"Hq.	c #543C1C",
"Iq.	c #564224",
"Jq.	c #513F25",
"Kq.	c #4F3F28",
"Lq.	c #493C2B",
"Mq.	c #42372B",
"Nq.	c #191615",
"Oq.	c #938678",
"Pq.	c #928577",
"Qq.	c #95887B",
"Rq.	c #938579",
"Sq.	c #96887B",
"Tq.	c #736A60",
"Uq.	c #3C3633",
"Vq.	c #2E251E",
"Wq.	c #291F13",
"Xq.	c #282925",
"Yq.	c #262723",
"Zq.	c #362526",
"`q.	c #471F21",
" r.	c #541515",
".r.	c #620E06",
"+r.	c #6B0700",
"@r.	c #770600",
"#r.	c #770501",
"$r.	c #6E0904",
"%r.	c #490B08",
"&r.	c #200A08",
"*r.	c #170E10",
"=r.	c #5B5653",
"-r.	c #6D6A64",
";r.	c #726F6C",
">r.	c #6D6D6B",
",r.	c #626160",
"'r.	c #575754",
")r.	c #3C3432",
"!r.	c #261613",
"~r.	c #210505",
"{r.	c #290202",
"]r.	c #440602",
"^r.	c #630A03",
"/r.	c #730C00",
"(r.	c #6F0F01",
"_r.	c #6C1103",
":r.	c #6B1205",
"<r.	c #691407",
"[r.	c #5C1409",
"}r.	c #44110C",
"|r.	c #2F0F0C",
"1r.	c #2B0F0D",
"2r.	c #320E0C",
"3r.	c #46100B",
"4r.	c #5D0F08",
"5r.	c #721005",
"6r.	c #780B01",
"7r.	c #7C0A01",
"8r.	c #770901",
"9r.	c #650700",
"0r.	c #500701",
"ar.	c #500A03",
"br.	c #500904",
"cr.	c #520803",
"dr.	c #520602",
"er.	c #530604",
"fr.	c #4A0708",
"gr.	c #38070A",
"hr.	c #280407",
"ir.	c #210809",
"jr.	c #1D0C0B",
"kr.	c #1C1212",
"lr.	c #302527",
"mr.	c #39201B",
"nr.	c #3F1911",
"or.	c #431B12",
"pr.	c #461E19",
"qr.	c #482322",
"rr.	c #3E2222",
"sr.	c #392626",
"tr.	c #332828",
"ur.	c #2E2828",
"vr.	c #1F1D1B",
"wr.	c #3B342D",
"xr.	c #50463A",
"yr.	c #4E4336",
"zr.	c #493F30",
"Ar.	c #443729",
"Br.	c #392E21",
"Cr.	c #272016",
"Dr.	c #1F1A14",
"Er.	c #1D1913",
"Fr.	c #1D1914",
"Gr.	c #231E18",
"Hr.	c #2A241B",
"Ir.	c #332B1D",
"Jr.	c #3D3122",
"Kr.	c #3A3022",
"Lr.	c #2E221A",
"Mr.	c #1D140F",
"Nr.	c #1F1814",
"Or.	c #413831",
"Pr.	c #453D33",
"Qr.	c #453B30",
"Rr.	c #564A38",
"Sr.	c #594C3B",
"Tr.	c #5C4F3D",
"Ur.	c #4A4035",
"Vr.	c #50493F",
"Wr.	c #524A40",
"Xr.	c #51493D",
"Yr.	c #473F33",
"Zr.	c #463F33",
"`r.	c #464136",
" s.	c #423D35",
".s.	c #3A352E",
"+s.	c #38342D",
"@s.	c #403A31",
"#s.	c #4D4337",
"$s.	c #584D42",
"%s.	c #2E2620",
"&s.	c #0E090C",
"*s.	c #070305",
"=s.	c #060306",
"-s.	c #241C1B",
";s.	c #1F1818",
">s.	c #231B1C",
",s.	c #261C1D",
"'s.	c #281D1D",
")s.	c #2C2422",
"!s.	c #1E1818",
"~s.	c #130E0F",
"{s.	c #0A070B",
"]s.	c #1D1618",
"^s.	c #070407",
"/s.	c #48453E",
"(s.	c #574F46",
"_s.	c #5D5347",
":s.	c #443D36",
"<s.	c #12110E",
"[s.	c #12110C",
"}s.	c #40362D",
"|s.	c #3E3327",
"1s.	c #322A1F",
"2s.	c #29221A",
"3s.	c #130F0E",
"4s.	c #0F0B0C",
"5s.	c #4E4C47",
"6s.	c #737471",
"7s.	c #7B7773",
"8s.	c #71665E",
"9s.	c #5B4C3B",
"0s.	c #46331E",
"as.	c #442D19",
"bs.	c #452F19",
"cs.	c #4A341E",
"ds.	c #472F1B",
"es.	c #46301B",
"fs.	c #412F1D",
"gs.	c #44362C",
"hs.	c #4B413C",
"is.	c #453B37",
"js.	c #1D1208",
"ks.	c #221004",
"ls.	c #5A3C1C",
"ms.	c #5B4221",
"ns.	c #563E22",
"os.	c #4D3C28",
"ps.	c #4B3C2B",
"qs.	c #3B3128",
"rs.	c #857C75",
"ss.	c #9B9085",
"ts.	c #90857C",
"us.	c #8C827B",
"vs.	c #8B8079",
"ws.	c #8F867C",
"xs.	c #726963",
"ys.	c #31282A",
"zs.	c #261D1E",
"As.	c #42372D",
"Bs.	c #4B392C",
"Cs.	c #422D1C",
"Ds.	c #2A2B27",
"Es.	c #302526",
"Fs.	c #3C1D20",
"Gs.	c #4B1514",
"Hs.	c #5E0D06",
"Is.	c #770500",
"Js.	c #760300",
"Ks.	c #6D0703",
"Ls.	c #260B08",
"Ms.	c #6B6A64",
"Ns.	c #5B5A58",
"Os.	c #4C4845",
"Ps.	c #39312F",
"Qs.	c #221411",
"Rs.	c #1C0504",
"Ss.	c #240201",
"Ts.	c #400502",
"Us.	c #620A03",
"Vs.	c #730C01",
"Ws.	c #740E01",
"Xs.	c #720F01",
"Ys.	c #701001",
"Zs.	c #6E1205",
"`s.	c #6E1104",
" t.	c #6D1305",
".t.	c #671206",
"+t.	c #5B1209",
"@t.	c #4E130B",
"#t.	c #511109",
"$t.	c #5D1109",
"%t.	c #680E06",
"&t.	c #740F04",
"*t.	c #770C01",
"=t.	c #790B01",
"-t.	c #5F0701",
";t.	c #350301",
">t.	c #300502",
",t.	c #310603",
"'t.	c #300302",
")t.	c #330604",
"!t.	c #320708",
"~t.	c #2D0D0F",
"{t.	c #271113",
"]t.	c #221615",
"^t.	c #1D1716",
"/t.	c #362725",
"(t.	c #42201A",
"_t.	c #481A10",
":t.	c #461B0F",
"<t.	c #3F1B13",
"[t.	c #381E1B",
"}t.	c #321E1E",
"|t.	c #2C1D1D",
"1t.	c #2B2122",
"2t.	c #0E0C0A",
"3t.	c #453B32",
"4t.	c #42392B",
"5t.	c #483D30",
"6t.	c #4B3F32",
"7t.	c #4A3E2F",
"8t.	c #44382A",
"9t.	c #3B3225",
"0t.	c #24211A",
"at.	c #2B271F",
"bt.	c #2C271F",
"ct.	c #322C20",
"dt.	c #3B3323",
"et.	c #493F2D",
"ft.	c #44392A",
"gt.	c #352A1F",
"ht.	c #2C2219",
"it.	c #251C15",
"jt.	c #28211B",
"kt.	c #2F2922",
"lt.	c #3C352D",
"mt.	c #3C362D",
"nt.	c #383026",
"ot.	c #3A3024",
"pt.	c #423627",
"qt.	c #504433",
"rt.	c #4D4131",
"st.	c #4A3F30",
"tt.	c #473E31",
"ut.	c #494034",
"vt.	c #4C4439",
"wt.	c #484032",
"xt.	c #443B2F",
"yt.	c #423B2F",
"zt.	c #39342C",
"At.	c #343028",
"Bt.	c #39342B",
"Ct.	c #373027",
"Dt.	c #3A332A",
"Et.	c #413932",
"Ft.	c #221D19",
"Gt.	c #1A1614",
"Ht.	c #1C1718",
"It.	c #151012",
"Jt.	c #221C1C",
"Kt.	c #211918",
"Lt.	c #271C1C",
"Mt.	c #1E1717",
"Nt.	c #1B1615",
"Ot.	c #302D27",
"Pt.	c #464439",
"Qt.	c #4F483D",
"Rt.	c #544D40",
"St.	c #0F0D0C",
"Tt.	c #1E1C18",
"Ut.	c #1E1C17",
"Vt.	c #322B23",
"Wt.	c #372E25",
"Xt.	c #362C22",
"Yt.	c #372E23",
"Zt.	c #352B22",
"`t.	c #312920",
" u.	c #28221D",
".u.	c #201D1B",
"+u.	c #120E0D",
"@u.	c #53514A",
"#u.	c #4E4C46",
"$u.	c #71726E",
"%u.	c #7C7C77",
"&u.	c #76726D",
"*u.	c #6A5F56",
"=u.	c #5F5443",
"-u.	c #594B3A",
";u.	c #5E4F40",
">u.	c #4E3D2E",
",u.	c #453421",
"'u.	c #392918",
")u.	c #3C3023",
"!u.	c #4B4239",
"~u.	c #4E433B",
"{u.	c #2D1E0F",
"]u.	c #321E0A",
"^u.	c #553718",
"/u.	c #704C23",
"(u.	c #75542B",
"_u.	c #71522F",
":u.	c #73593B",
"<u.	c #735F46",
"[u.	c #75634F",
"}u.	c #6E5F4F",
"|u.	c #665A4D",
"1u.	c #282A28",
"2u.	c #9D958C",
"3u.	c #B1A99D",
"4u.	c #A39B92",
"5u.	c #9E978E",
"6u.	c #9D968B",
"7u.	c #7C726A",
"8u.	c #352725",
"9u.	c #2E2019",
"0u.	c #5A4630",
"au.	c #6F5135",
"bu.	c #644323",
"cu.	c #2A2C2A",
"du.	c #29171A",
"eu.	c #3B1011",
"fu.	c #670600",
"gu.	c #710200",
"hu.	c #700200",
"iu.	c #6A0401",
"ju.	c #510804",
"ku.	c #2C0A09",
"lu.	c #353131",
"mu.	c #525251",
"nu.	c #4D4B4A",
"ou.	c #302826",
"pu.	c #160B08",
"qu.	c #0D0100",
"ru.	c #5D0A03",
"su.	c #750A00",
"tu.	c #720C00",
"uu.	c #740D01",
"vu.	c #750E00",
"wu.	c #721001",
"xu.	c #6F1102",
"yu.	c #701003",
"zu.	c #711002",
"Au.	c #6F1105",
"Bu.	c #6A1207",
"Cu.	c #691004",
"Du.	c #6D1004",
"Eu.	c #6F0E02",
"Fu.	c #720C01",
"Gu.	c #740C01",
"Hu.	c #740A01",
"Iu.	c #700A01",
"Ju.	c #5A0701",
"Ku.	c #1E0100",
"Lu.	c #180203",
"Mu.	c #1A0304",
"Nu.	c #180103",
"Ou.	c #160103",
"Pu.	c #130103",
"Qu.	c #140102",
"Ru.	c #170304",
"Su.	c #1E0F11",
"Tu.	c #21191A",
"Uu.	c #382220",
"Vu.	c #481B13",
"Wu.	c #4E150B",
"Xu.	c #4A160B",
"Yu.	c #3C160D",
"Zu.	c #2D1613",
"`u.	c #251516",
" v.	c #251717",
".v.	c #231717",
"+v.	c #2A1E1F",
"@v.	c #362E22",
"#v.	c #453A2F",
"$v.	c #4B3E31",
"%v.	c #2E2923",
"&v.	c #292520",
"*v.	c #2B2821",
"=v.	c #312D26",
"-v.	c #3F382C",
";v.	c #42392A",
">v.	c #4B4130",
",v.	c #504534",
"'v.	c #382D22",
")v.	c #2B2017",
"!v.	c #291F17",
"~v.	c #322923",
"{v.	c #2F2722",
"]v.	c #2C2620",
"^v.	c #2D2720",
"/v.	c #292016",
"(v.	c #413626",
"_v.	c #443927",
":v.	c #433826",
"<v.	c #413525",
"[v.	c #403627",
"}v.	c #3E3427",
"|v.	c #3E3529",
"1v.	c #3E352A",
"2v.	c #3E372B",
"3v.	c #3C3428",
"4v.	c #3C3427",
"5v.	c #393124",
"6v.	c #383224",
"7v.	c #3A3529",
"8v.	c #26221B",
"9v.	c #28241E",
"0v.	c #27241E",
"av.	c #1F1B15",
"bv.	c #16130F",
"cv.	c #12100E",
"dv.	c #0B0C0B",
"ev.	c #22191A",
"fv.	c #37312F",
"gv.	c #342F2E",
"hv.	c #1D1616",
"iv.	c #1B1513",
"jv.	c #1E1816",
"kv.	c #25201D",
"lv.	c #3B3830",
"mv.	c #403E33",
"nv.	c #3F3C32",
"ov.	c #413D32",
"pv.	c #25221E",
"qv.	c #231D18",
"rv.	c #231C15",
"sv.	c #231D17",
"tv.	c #46413C",
"uv.	c #74736C",
"vv.	c #5E544A",
"wv.	c #675D4F",
"xv.	c #5F5A50",
"yv.	c #50463B",
"zv.	c #403023",
"Av.	c #342116",
"Bv.	c #342418",
"Cv.	c #47372F",
"Dv.	c #412E23",
"Ev.	c #3F2917",
"Fv.	c #43260E",
"Gv.	c #643F18",
"Hv.	c #805625",
"Iv.	c #896130",
"Jv.	c #896338",
"Kv.	c #91714C",
"Lv.	c #9C8365",
"Mv.	c #AB967C",
"Nv.	c #A99581",
"Ov.	c #9E8F7C",
"Pv.	c #81766A",
"Qv.	c #433D38",
"Rv.	c #B1A598",
"Sv.	c #CEC3B2",
"Tv.	c #C6BDB0",
"Uv.	c #C5BBAF",
"Vv.	c #C3B8AC",
"Wv.	c #C9BCAD",
"Xv.	c #968475",
"Yv.	c #3B231B",
"Zv.	c #381E0D",
"`v.	c #714C29",
" w.	c #8E5E30",
".w.	c #7D4F1E",
"+w.	c #2A2B28",
"@w.	c #25282B",
"#w.	c #24272B",
"$w.	c #1A1114",
"%w.	c #2B0E0F",
"&w.	c #480B04",
"*w.	c #5C0600",
"=w.	c #680200",
"-w.	c #690200",
";w.	c #670501",
">w.	c #540703",
",w.	c #340B08",
"'w.	c #494646",
")w.	c #4A4948",
"!w.	c #474344",
"~w.	c #443E3D",
"{w.	c #2C2524",
"]w.	c #0F0706",
"^w.	c #5B0902",
"/w.	c #750D01",
"(w.	c #760D00",
"_w.	c #770E00",
":w.	c #701102",
"<w.	c #711103",
"[w.	c #721002",
"}w.	c #731102",
"|w.	c #741001",
"1w.	c #741002",
"2w.	c #710F01",
"3w.	c #720A00",
"4w.	c #700C02",
"5w.	c #580A03",
"6w.	c #310200",
"7w.	c #150101",
"8w.	c #0D0204",
"9w.	c #100406",
"0w.	c #0F0204",
"aw.	c #080002",
"bw.	c #070001",
"cw.	c #0B0103",
"dw.	c #171011",
"ew.	c #312C2C",
"fw.	c #3B201D",
"gw.	c #4D160D",
"hw.	c #561307",
"iw.	c #501406",
"jw.	c #3F1308",
"kw.	c #2E1410",
"lw.	c #241314",
"mw.	c #251514",
"nw.	c #271615",
"ow.	c #2D1E1C",
"pw.	c #2F2726",
"qw.	c #2E2C2E",
"rw.	c #0D0A0B",
"sw.	c #282219",
"tw.	c #322A21",
"uw.	c #4D4135",
"vw.	c #4D4032",
"ww.	c #3E3428",
"xw.	c #362F26",
"yw.	c #322D26",
"zw.	c #2D2A24",
"Aw.	c #2F2E26",
"Bw.	c #38362E",
"Cw.	c #3F3B33",
"Dw.	c #4A4437",
"Ew.	c #4F4737",
"Fw.	c #534B39",
"Gw.	c #554B3B",
"Hw.	c #3B3125",
"Iw.	c #312821",
"Jw.	c #3C332C",
"Kw.	c #241F1A",
"Lw.	c #211911",
"Mw.	c #2F251B",
"Nw.	c #3F3323",
"Ow.	c #3D3222",
"Pw.	c #3D3224",
"Qw.	c #3B3224",
"Rw.	c #3B3226",
"Sw.	c #3A3126",
"Tw.	c #393125",
"Uw.	c #383023",
"Vw.	c #383123",
"Ww.	c #362F22",
"Xw.	c #373123",
"Yw.	c #3B352A",
"Zw.	c #2C2820",
"`w.	c #24201A",
" x.	c #25221D",
".x.	c #171412",
"+x.	c #090A10",
"@x.	c #1C1719",
"#x.	c #251D1E",
"$x.	c #28201F",
"%x.	c #251E1D",
"&x.	c #211A1B",
"*x.	c #261F1D",
"=x.	c #3A3532",
"-x.	c #161113",
";x.	c #1B1614",
">x.	c #241F1C",
",x.	c #2E2C26",
"'x.	c #312F28",
")x.	c #38372F",
"!x.	c #3A3930",
"~x.	c #3D3C33",
"{x.	c #38362F",
"]x.	c #16181B",
"^x.	c #18120E",
"/x.	c #221B14",
"(x.	c #262019",
"_x.	c #241F18",
":x.	c #110E0E",
"<x.	c #45413D",
"[x.	c #4F4C47",
"}x.	c #66655F",
"|x.	c #706F67",
"1x.	c #5B5146",
"2x.	c #4D463E",
"3x.	c #433629",
"4x.	c #372418",
"5x.	c #37261A",
"6x.	c #402E23",
"7x.	c #4A3223",
"8x.	c #563821",
"9x.	c #563417",
"0x.	c #674219",
"ax.	c #774E20",
"bx.	c #845C2C",
"cx.	c #876034",
"dx.	c #916F49",
"ex.	c #9E8467",
"fx.	c #B09A81",
"gx.	c #B09B86",
"hx.	c #A2907D",
"ix.	c #807367",
"jx.	c #080505",
"kx.	c #484037",
"lx.	c #B8A998",
"mx.	c #DBCDB8",
"nx.	c #DACCBD",
"ox.	c #DCCFC1",
"px.	c #DCCDBF",
"qx.	c #E9D3BF",
"rx.	c #AD927B",
"sx.	c #442312",
"tx.	c #461F07",
"ux.	c #7F4E1E",
"vx.	c #995F22",
"wx.	c #865015",
"xx.	c #222529",
"yx.	c #18191D",
"zx.	c #1F0F0F",
"Ax.	c #370E05",
"Bx.	c #4A0900",
"Cx.	c #590600",
"Dx.	c #5C0400",
"Ex.	c #5C0602",
"Fx.	c #500803",
"Gx.	c #3A0A07",
"Hx.	c #2E110E",
"Ix.	c #281B18",
"Jx.	c #4D4A49",
"Kx.	c #474444",
"Lx.	c #474544",
"Mx.	c #2C2424",
"Nx.	c #0E0605",
"Ox.	c #740900",
"Px.	c #770D00",
"Qx.	c #760E01",
"Rx.	c #711102",
"Sx.	c #731003",
"Tx.	c #700D01",
"Ux.	c #560903",
"Vx.	c #090103",
"Wx.	c #0A0003",
"Xx.	c #0A0103",
"Yx.	c #140E10",
"Zx.	c #322929",
"`x.	c #3F1E19",
" y.	c #4E1208",
".y.	c #520F02",
"+y.	c #431307",
"@y.	c #2E130D",
"#y.	c #231110",
"$y.	c #261210",
"%y.	c #2B1612",
"&y.	c #301C18",
"*y.	c #2E2320",
"=y.	c #2D261F",
"-y.	c #352D25",
";y.	c #46392C",
">y.	c #302B24",
",y.	c #2C2721",
"'y.	c #2B2922",
")y.	c #37352F",
"!y.	c #4A463A",
"~y.	c #4F4839",
"{y.	c #534C3B",
"]y.	c #514939",
"^y.	c #2E251C",
"/y.	c #2E2720",
"(y.	c #372F2A",
"_y.	c #29221E",
":y.	c #211A14",
"<y.	c #241C14",
"[y.	c #2F261D",
"}y.	c #3D3326",
"|y.	c #403526",
"1y.	c #403525",
"2y.	c #3E3324",
"3y.	c #3E3325",
"4y.	c #3C3225",
"5y.	c #3A3125",
"6y.	c #393023",
"7y.	c #393122",
"8y.	c #3A3223",
"9y.	c #3D3628",
"0y.	c #413B2F",
"ay.	c #3D382E",
"by.	c #000103",
"cy.	c #000104",
"dy.	c #06080F",
"ey.	c #0C0E14",
"fy.	c #0C0D12",
"gy.	c #201B1D",
"hy.	c #251D1D",
"iy.	c #281E1E",
"jy.	c #251D1C",
"ky.	c #201819",
"ly.	c #231D1B",
"my.	c #363230",
"ny.	c #2E2D26",
"oy.	c #37372F",
"py.	c #3B3A33",
"qy.	c #393832",
"ry.	c #14151B",
"sy.	c #13151A",
"ty.	c #14100B",
"uy.	c #1D1711",
"vy.	c #1C1813",
"wy.	c #595049",
"xy.	c #594E46",
"yy.	c #5C564B",
"zy.	c #3C2417",
"Ay.	c #351E12",
"By.	c #533926",
"Cy.	c #6A4931",
"Dy.	c #684325",
"Ey.	c #6D4821",
"Fy.	c #734E26",
"Gy.	c #7F5C31",
"Hy.	c #815E36",
"Iy.	c #8C6E4B",
"Jy.	c #9A8268",
"Ky.	c #AF9C85",
"Ly.	c #AF9E89",
"My.	c #A0907D",
"Ny.	c #7A6D61",
"Oy.	c #B1A494",
"Py.	c #D1C4B1",
"Qy.	c #D0C2B3",
"Ry.	c #D4C8B7",
"Sy.	c #D5C7B6",
"Ty.	c #E1CFB7",
"Uy.	c #AD9275",
"Vy.	c #47220C",
"Wy.	c #4A1D04",
"Xy.	c #784010",
"Yy.	c #8C4F12",
"Zy.	c #793F0A",
"`y.	c #2A2D2A",
" z.	c #150F10",
".z.	c #230D04",
"+z.	c #2E0700",
"@z.	c #390600",
"#z.	c #400300",
"$z.	c #430501",
"%z.	c #330F09",
"&z.	c #2D1B13",
"*z.	c #46413F",
"=z.	c #2C2625",
"-z.	c #100807",
";z.	c #350201",
">z.	c #750C01",
",z.	c #770D01",
"'z.	c #780C00",
")z.	c #790E00",
"!z.	c #770E01",
"~z.	c #741101",
"{z.	c #721102",
"]z.	c #751002",
"^z.	c #751103",
"/z.	c #741103",
"(z.	c #731002",
"_z.	c #730F02",
":z.	c #6D0E03",
"<z.	c #2F0401",
"[z.	c #100100",
"}z.	c #0B0102",
"|z.	c #161112",
"1z.	c #372A27",
"2z.	c #452018",
"3z.	c #531409",
"4z.	c #561002",
"5z.	c #541303",
"6z.	c #431508",
"7z.	c #2C130C",
"8z.	c #1E0D0C",
"9z.	c #200D0C",
"0z.	c #25100C",
"az.	c #29130E",
"bz.	c #332C28",
"cz.	c #342D26",
"dz.	c #493D30",
"ez.	c #44372B",
"fz.	c #3F3428",
"gz.	c #372F26",
"hz.	c #332D25",
"iz.	c #2F2A23",
"jz.	c #35322C",
"kz.	c #3D3A34",
"lz.	c #454239",
"mz.	c #4C483C",
"nz.	c #4C4638",
"oz.	c #4F4838",
"pz.	c #4E4637",
"qz.	c #4A4234",
"rz.	c #3B3227",
"sz.	c #31281F",
"tz.	c #2B221B",
"uz.	c #2E261E",
"vz.	c #342B25",
"wz.	c #332A23",
"xz.	c #342C25",
"yz.	c #312822",
"zz.	c #302821",
"Az.	c #2D251C",
"Bz.	c #3F3529",
"Cz.	c #3F3427",
"Dz.	c #3E3425",
"Ez.	c #3B3124",
"Fz.	c #3A3123",
"Gz.	c #3A3122",
"Hz.	c #3B3324",
"Iz.	c #413A2B",
"Jz.	c #453E32",
"Kz.	c #3E382E",
"Lz.	c #2D2920",
"Mz.	c #26231D",
"Nz.	c #040607",
"Oz.	c #04060A",
"Pz.	c #090B11",
"Qz.	c #0B0D12",
"Rz.	c #0B0C10",
"Sz.	c #2F2929",
"Tz.	c #251D1B",
"Uz.	c #2C2A24",
"Vz.	c #35342D",
"Wz.	c #393931",
"Xz.	c #3A3A32",
"Yz.	c #393932",
"Zz.	c #15171C",
"`z.	c #16110B",
" A.	c #201A12",
".A.	c #231E15",
"+A.	c #201B13",
"@A.	c #110C0B",
"#A.	c #706D67",
"$A.	c #5B564B",
"%A.	c #534D46",
"&A.	c #5B4A42",
"*A.	c #5B4533",
"=A.	c #4D311D",
"-A.	c #4B2C15",
";A.	c #42220E",
">A.	c #442713",
",A.	c #684F35",
"'A.	c #8C6F4F",
")A.	c #8D6E4B",
"!A.	c #8B6C46",
"~A.	c #90714D",
"{A.	c #997C57",
"]A.	c #9B7F60",
"^A.	c #A18A6D",
"/A.	c #A8947E",
"(A.	c #BBAB96",
"_A.	c #BBAC99",
":A.	c #AEA08E",
"<A.	c #8B7C71",
"[A.	c #AFA394",
"}A.	c #CEC2AE",
"|A.	c #CBC0AF",
"1A.	c #CFC5B4",
"2A.	c #CEC3B1",
"3A.	c #D8C9B1",
"4A.	c #AD9173",
"5A.	c #4F260F",
"6A.	c #522105",
"7A.	c #703607",
"8A.	c #793C07",
"9A.	c #662D03",
"0A.	c #17181D",
"aA.	c #0C0D13",
"bA.	c #0E0A0E",
"cA.	c #150903",
"dA.	c #180500",
"eA.	c #200500",
"fA.	c #2B0500",
"gA.	c #360601",
"hA.	c #3C0601",
"iA.	c #3E0701",
"jA.	c #3B0B03",
"kA.	c #34160B",
"lA.	c #2B1D17",
"mA.	c #514D4C",
"nA.	c #454242",
"oA.	c #44403F",
"pA.	c #300202",
"qA.	c #550A05",
"rA.	c #690B04",
"sA.	c #760C02",
"tA.	c #790C00",
"uA.	c #7A0D00",
"vA.	c #741102",
"wA.	c #761002",
"xA.	c #740F02",
"yA.	c #710E02",
"zA.	c #710E03",
"AA.	c #6D0F04",
"BA.	c #590D04",
"CA.	c #140200",
"DA.	c #0C0402",
"EA.	c #100806",
"FA.	c #110708",
"GA.	c #0E0305",
"HA.	c #080103",
"IA.	c #0B0406",
"JA.	c #2D2727",
"KA.	c #3B2A26",
"LA.	c #46201A",
"MA.	c #50160D",
"NA.	c #4E1707",
"OA.	c #3D180B",
"PA.	c #28140E",
"QA.	c #190C0B",
"RA.	c #190A09",
"SA.	c #1E0A07",
"TA.	c #200B07",
"UA.	c #19110F",
"VA.	c #020003",
"WA.	c #332B28",
"XA.	c #342B27",
"YA.	c #433930",
"ZA.	c #483D32",
"`A.	c #473A2E",
" B.	c #3F3328",
".B.	c #393127",
"+B.	c #3E372F",
"@B.	c #4A4438",
"#B.	c #4A4335",
"$B.	c #494132",
"%B.	c #473F2F",
"&B.	c #463D2E",
"*B.	c #3D3327",
"=B.	c #382C23",
"-B.	c #352B21",
";B.	c #352921",
">B.	c #372B23",
",B.	c #382C24",
"'B.	c #3B2F27",
")B.	c #3A3027",
"!B.	c #3B3027",
"~B.	c #3E3328",
"{B.	c #392E23",
"]B.	c #392F24",
"^B.	c #392F22",
"/B.	c #3B3122",
"(B.	c #413A2C",
"_B.	c #373129",
":B.	c #0A0C12",
"<B.	c #0A0B10",
"[B.	c #090A0F",
"}B.	c #322C2C",
"|B.	c #251C1B",
"1B.	c #231A17",
"2B.	c #211817",
"3B.	c #1F1819",
"4B.	c #242021",
"5B.	c #373731",
"6B.	c #0F1118",
"7B.	c #11131A",
"8B.	c #2A2522",
"9B.	c #150F0B",
"0B.	c #1B140D",
"aB.	c #2A2218",
"bB.	c #29221D",
"cB.	c #1F1916",
"dB.	c #120C09",
"eB.	c #110A09",
"fB.	c #120C0B",
"gB.	c #100D0C",
"hB.	c #3B3838",
"iB.	c #3F3A3A",
"jB.	c #55544F",
"kB.	c #4E4745",
"lB.	c #504943",
"mB.	c #453F3D",
"nB.	c #4D4038",
"oB.	c #594134",
"pB.	c #63402B",
"qB.	c #5C3116",
"rB.	c #58290C",
"sB.	c #4E2107",
"tB.	c #4F2810",
"uB.	c #725137",
"vB.	c #937757",
"wB.	c #987D5B",
"xB.	c #967C5B",
"yB.	c #A88F70",
"zB.	c #B8A386",
"AB.	c #BCA98F",
"BB.	c #BEAE96",
"CB.	c #C1B19E",
"DB.	c #D3C5B4",
"EB.	c #D8CAB9",
"FB.	c #BAAB9B",
"GB.	c #9C9084",
"HB.	c #080404",
"IB.	c #4B413A",
"JB.	c #B1A08F",
"KB.	c #D1C2A9",
"LB.	c #D3C7B1",
"MB.	c #D9CEBB",
"NB.	c #D9CFBB",
"OB.	c #E2D1B8",
"PB.	c #B89877",
"QB.	c #5B2C11",
"RB.	c #592104",
"SB.	c #6C2E04",
"TB.	c #672B02",
"UB.	c #521C01",
"VB.	c #120909",
"WB.	c #170701",
"XB.	c #170400",
"YB.	c #1E0600",
"ZB.	c #2E0C04",
"`B.	c #3F1107",
" C.	c #4B1105",
".C.	c #531104",
"+C.	c #531205",
"@C.	c #4A1B0A",
"#C.	c #372115",
"$C.	c #2E2824",
"%C.	c #200101",
"&C.	c #3C0402",
"*C.	c #510501",
"=C.	c #540401",
"-C.	c #540600",
";C.	c #710C02",
">C.	c #7A0E01",
",C.	c #7A0E00",
"'C.	c #760F01",
")C.	c #721202",
"!C.	c #751003",
"~C.	c #741003",
"{C.	c #720F03",
"]C.	c #731004",
"^C.	c #6E1004",
"/C.	c #5F1107",
"(C.	c #410C04",
"_C.	c #270D06",
":C.	c #211611",
"<C.	c #241C1A",
"[C.	c #231919",
"}C.	c #191010",
"|C.	c #100B0C",
"1C.	c #161114",
"2C.	c #372723",
"3C.	c #3B1E19",
"4C.	c #3C1711",
"5C.	c #391A10",
"6C.	c #311F14",
"7C.	c #271D18",
"8C.	c #201818",
"9C.	c #241A17",
"0C.	c #261B17",
"aC.	c #120F10",
"bC.	c #332B24",
"cC.	c #40382C",
"dC.	c #51493F",
"eC.	c #5D584E",
"fC.	c #534D41",
"gC.	c #4E483A",
"hC.	c #4A4230",
"iC.	c #483F2D",
"jC.	c #473D2C",
"kC.	c #423427",
"lC.	c #403426",
"mC.	c #3E3123",
"nC.	c #3F3224",
"oC.	c #403224",
"pC.	c #413326",
"qC.	c #47382B",
"rC.	c #47392D",
"sC.	c #4A3C2F",
"tC.	c #473B30",
"uC.	c #463A30",
"vC.	c #3E342B",
"wC.	c #362D22",
"xC.	c #342C21",
"yC.	c #352C22",
"zC.	c #3C3224",
"AC.	c #3E3527",
"BC.	c #433C2F",
"CC.	c #433D32",
"DC.	c #312D25",
"EC.	c #16130E",
"FC.	c #423F3A",
"GC.	c #080A10",
"HC.	c #211715",
"IC.	c #261D1B",
"JC.	c #363630",
"KC.	c #363631",
"LC.	c #383732",
"MC.	c #0F1219",
"NC.	c #12151B",
"OC.	c #17110F",
"PC.	c #261E15",
"QC.	c #362C20",
"RC.	c #372E27",
"SC.	c #2A221D",
"TC.	c #1C1410",
"UC.	c #1B120F",
"VC.	c #1C1513",
"WC.	c #191412",
"XC.	c #545048",
"YC.	c #463F3C",
"ZC.	c #45362C",
"`C.	c #4E311F",
" D.	c #63371B",
".D.	c #6A310C",
"+D.	c #6F330A",
"@D.	c #652C08",
"#D.	c #633313",
"$D.	c #845F3F",
"%D.	c #9E815D",
"&D.	c #9A7F5C",
"*D.	c #977D5C",
"=D.	c #AA9576",
"-D.	c #BFAB92",
";D.	c #C3B29A",
">D.	c #C4B59E",
",D.	c #C5B8A3",
"'D.	c #D7C9B9",
")D.	c #DED1C0",
"!D.	c #DBD0BB",
"~D.	c #C9BAA7",
"{D.	c #AC9D90",
"]D.	c #5C554D",
"^D.	c #4D4338",
"/D.	c #B19F8B",
"(D.	c #D6C3A6",
"_D.	c #DECDB6",
":D.	c #E8DDC9",
"<D.	c #E9DFCA",
"[D.	c #F2E0C5",
"}D.	c #C5A27C",
"|D.	c #663513",
"1D.	c #622704",
"2D.	c #723205",
"3D.	c #692B03",
"4D.	c #511A01",
"5D.	c #171316",
"6D.	c #170202",
"7D.	c #240500",
"8D.	c #280400",
"9D.	c #2E0B01",
"0D.	c #3D150A",
"aD.	c #531D0E",
"bD.	c #631C0A",
"cD.	c #6D1B07",
"dD.	c #671807",
"eD.	c #581A08",
"fD.	c #402013",
"gD.	c #3D0000",
"hD.	c #6C0A02",
"iD.	c #7A0C01",
"jD.	c #7B0C00",
"kD.	c #731202",
"lD.	c #771002",
"mD.	c #761003",
"nD.	c #750F02",
"oD.	c #730F03",
"pD.	c #701004",
"qD.	c #671308",
"rD.	c #56160C",
"sD.	c #412117",
"tD.	c #3A2F28",
"uD.	c #332D2C",
"vD.	c #130E0C",
"wD.	c #0E0805",
"xD.	c #100907",
"yD.	c #2F2725",
"zD.	c #2E2524",
"AD.	c #2F201F",
"BD.	c #271412",
"CD.	c #190B0C",
"DD.	c #19120F",
"ED.	c #1F1E19",
"FD.	c #26211E",
"GD.	c #2A231D",
"HD.	c #3A3028",
"ID.	c #413429",
"JD.	c #392D20",
"KD.	c #372D20",
"LD.	c #42382F",
"MD.	c #645C52",
"ND.	c #574F44",
"OD.	c #4E4333",
"PD.	c #4E4331",
"QD.	c #4B3E2D",
"RD.	c #4B3D2C",
"SD.	c #4B3B2A",
"TD.	c #4A3929",
"UD.	c #493827",
"VD.	c #4A3928",
"WD.	c #4B3928",
"XD.	c #4B3A29",
"YD.	c #4E3C2C",
"ZD.	c #4F3D2E",
"`D.	c #534334",
" E.	c #534437",
".E.	c #52443A",
"+E.	c #453932",
"@E.	c #2E241F",
"#E.	c #241B16",
"$E.	c #2D251D",
"%E.	c #322920",
"&E.	c #332B20",
"*E.	c #100C08",
"=E.	c #453E3B",
"-E.	c #302B2D",
";E.	c #06070D",
">E.	c #08080E",
",E.	c #160E0D",
"'E.	c #1E1312",
")E.	c #2B2020",
"!E.	c #322A2A",
"~E.	c #241E1D",
"{E.	c #12131B",
"]E.	c #201B18",
"^E.	c #181311",
"/E.	c #17100E",
"(E.	c #1E150F",
"_E.	c #45392C",
":E.	c #483A2B",
"<E.	c #453727",
"[E.	c #423526",
"}E.	c #443931",
"|E.	c #2D241E",
"1E.	c #403C3D",
"2E.	c #423937",
"3E.	c #3D2D21",
"4E.	c #44240F",
"5E.	c #602B0B",
"6E.	c #722E04",
"7E.	c #7D3404",
"8E.	c #762F04",
"9E.	c #753C15",
"0E.	c #8F6542",
"aE.	c #A2805D",
"bE.	c #9D7E5C",
"cE.	c #987D5A",
"dE.	c #AB9676",
"eE.	c #C1AD95",
"fE.	c #C5B39D",
"gE.	c #C6B59E",
"hE.	c #C7B7A2",
"iE.	c #D8C7B5",
"jE.	c #DFCFBE",
"kE.	c #DACCB8",
"lE.	c #C3B2A1",
"mE.	c #9F8F84",
"nE.	c #AE9B85",
"oE.	c #D5BFA3",
"pE.	c #DECAB4",
"qE.	c #EADDCB",
"rE.	c #ECE3CF",
"sE.	c #F4E1C7",
"tE.	c #C5A17D",
"uE.	c #683414",
"vE.	c #602605",
"wE.	c #692F06",
"xE.	c #612703",
"yE.	c #4E1C02",
"zE.	c #1D1313",
"AE.	c #1D0502",
"BE.	c #280300",
"CE.	c #380700",
"DE.	c #3F0A00",
"EE.	c #3E1003",
"FE.	c #43190B",
"GE.	c #542010",
"HE.	c #611D0B",
"IE.	c #6B1B08",
"JE.	c #681908",
"KE.	c #5C1C09",
"LE.	c #452114",
"ME.	c #332924",
"NE.	c #4A0400",
"OE.	c #6B0A02",
"PE.	c #7D0C01",
"QE.	c #7E0B00",
"RE.	c #7A0F01",
"SE.	c #781002",
"TE.	c #771003",
"UE.	c #6D1509",
"VE.	c #621A0F",
"WE.	c #4E2B1F",
"XE.	c #41433C",
"YE.	c #1F2121",
"ZE.	c #0A0201",
"`E.	c #0F0503",
" F.	c #1B1410",
".F.	c #2F2523",
"+F.	c #2A1E1E",
"@F.	c #1E1212",
"#F.	c #0F080B",
"$F.	c #09060B",
"%F.	c #161B1A",
"&F.	c #252A29",
"*F.	c #2D312F",
"=F.	c #2C2F2B",
"-F.	c #2D2E2A",
";F.	c #2A2E2D",
">F.	c #26201A",
",F.	c #362D24",
"'F.	c #41382D",
")F.	c #544B41",
"!F.	c #5E554A",
"~F.	c #62584E",
"{F.	c #61564C",
"]F.	c #534635",
"^F.	c #524532",
"/F.	c #4E3D2A",
"(F.	c #4E3D29",
"_F.	c #4E3C28",
":F.	c #4E3B28",
"<F.	c #4E3C29",
"[F.	c #4D3A27",
"}F.	c #4E3B29",
"|F.	c #503D2A",
"1F.	c #5B4E41",
"2F.	c #4A3E37",
"3F.	c #2F2521",
"4F.	c #1E1613",
"5F.	c #211916",
"6F.	c #251C19",
"7F.	c #322921",
"8F.	c #403629",
"9F.	c #2B261F",
"0F.	c #150F0A",
"aF.	c #110C09",
"bF.	c #0F0B08",
"cF.	c #070303",
"dF.	c #38312E",
"eF.	c #3A3231",
"fF.	c #2C2627",
"gF.	c #100B0B",
"hF.	c #130C0A",
"iF.	c #1D1412",
"jF.	c #352D2C",
"kF.	c #16171E",
"lF.	c #14171D",
"mF.	c #28211D",
"nF.	c #201610",
"oF.	c #33281C",
"pF.	c #493D2C",
"qF.	c #4B3C2A",
"rF.	c #473725",
"sF.	c #453625",
"tF.	c #493C2E",
"uF.	c #4A3E34",
"vF.	c #3F352E",
"wF.	c #372C27",
"xF.	c #372E2A",
"yF.	c #403C3C",
"zF.	c #48433F",
"AF.	c #382619",
"BF.	c #401F09",
"CF.	c #5D2506",
"DF.	c #783104",
"EF.	c #863804",
"FF.	c #853906",
"GF.	c #894A1A",
"HF.	c #9B6F45",
"IF.	c #A6845C",
"JF.	c #9F805A",
"KF.	c #9A7E58",
"LF.	c #AC9675",
"MF.	c #C3AF94",
"NF.	c #C6B39C",
"OF.	c #C7B69F",
"PF.	c #C9B7A1",
"QF.	c #DAC8B3",
"RF.	c #E3D2BB",
"SF.	c #DCCDB5",
"TF.	c #C0AF99",
"UF.	c #473E34",
"VF.	c #0E0A09",
"WF.	c #090504",
"XF.	c #493E33",
"YF.	c #AC9982",
"ZF.	c #D4BEA1",
"`F.	c #E1CCB3",
" G.	c #EEE1CB",
".G.	c #F0E6CF",
"+G.	c #F5E1C8",
"@G.	c #C4A283",
"#G.	c #673C1E",
"$G.	c #5D300E",
"%G.	c #673D15",
"&G.	c #653D17",
"*G.	c #623D1C",
"=G.	c #281815",
"-G.	c #320E06",
";G.	c #3E0A00",
">G.	c #4B0E00",
",G.	c #4C1101",
"'G.	c #431608",
")G.	c #3C1B11",
"!G.	c #452116",
"~G.	c #501E12",
"{G.	c #5A1C10",
"]G.	c #591B0E",
"^G.	c #521E10",
"/G.	c #412118",
"(G.	c #322926",
"_G.	c #2D0001",
":G.	c #310001",
"<G.	c #460400",
"[G.	c #7D0B01",
"}G.	c #751004",
"|G.	c #761105",
"1G.	c #731206",
"2G.	c #6E1409",
"3G.	c #4D2C1F",
"4G.	c #413D33",
"5G.	c #3B3F3A",
"6G.	c #2F3331",
"7G.	c #0F0A07",
"8G.	c #0A0101",
"9G.	c #100605",
"0G.	c #2F2625",
"aG.	c #2B2321",
"bG.	c #2A1E20",
"cG.	c #201516",
"dG.	c #140D10",
"eG.	c #0C080C",
"fG.	c #191D1D",
"gG.	c #2A2D2C",
"hG.	c #231D1A",
"iG.	c #342B22",
"jG.	c #3F3326",
"kG.	c #453829",
"lG.	c #413325",
"mG.	c #3B2F22",
"nG.	c #3C3227",
"oG.	c #5B5147",
"pG.	c #574D41",
"qG.	c #544A3A",
"rG.	c #4E3F2D",
"sG.	c #4D3D2A",
"tG.	c #4B3925",
"uG.	c #4D3A26",
"vG.	c #4E3A28",
"wG.	c #4F3B2A",
"xG.	c #4F3C2A",
"yG.	c #503E2B",
"zG.	c #4F3C29",
"AG.	c #503C29",
"BG.	c #594735",
"CG.	c #5B4B3B",
"DG.	c #594B3F",
"EG.	c #2F2522",
"FG.	c #1E1513",
"GG.	c #241B19",
"HG.	c #2C231E",
"IG.	c #2E251F",
"JG.	c #312720",
"KG.	c #342B21",
"LG.	c #3F362A",
"MG.	c #3F392E",
"NG.	c #2E2626",
"OG.	c #282124",
"PG.	c #0A080E",
"QG.	c #0F0C10",
"RG.	c #110B0A",
"SG.	c #120B09",
"TG.	c #1B1212",
"UG.	c #16171F",
"VG.	c #161A21",
"WG.	c #201914",
"XG.	c #1A130F",
"YG.	c #181111",
"ZG.	c #191110",
"`G.	c #1D130F",
" H.	c #463928",
".H.	c #4B3A27",
"+H.	c #433322",
"@H.	c #483B31",
"#H.	c #3E332C",
"$H.	c #342924",
"%H.	c #352925",
"&H.	c #352B27",
"*H.	c #30261F",
"=H.	c #321D11",
"-H.	c #391806",
";H.	c #552104",
">H.	c #732E03",
",H.	c #863704",
"'H.	c #8D3F0A",
")H.	c #904F1B",
"!H.	c #9C6E3D",
"~H.	c #A27F51",
"{H.	c #9D7B53",
"]H.	c #987C56",
"^H.	c #AB9371",
"/H.	c #C4AF8F",
"(H.	c #C5B096",
"_H.	c #C5B499",
":H.	c #C5B39B",
"<H.	c #D6C1A7",
"[H.	c #D9C5AA",
"}H.	c #D3C1A7",
"|H.	c #B3A18B",
"1H.	c #806F60",
"2H.	c #362B26",
"3H.	c #45392E",
"4H.	c #A3917D",
"5H.	c #CFB89F",
"6H.	c #DEC8B2",
"7H.	c #ECDEC8",
"8H.	c #F0E5CD",
"9H.	c #F0DEC5",
"0H.	c #B79F84",
"aH.	c #62472E",
"bH.	c #5F442E",
"cH.	c #725A41",
"dH.	c #806B52",
"eH.	c #8C7661",
"fH.	c #321F1A",
"gH.	c #471D10",
"hH.	c #541A07",
"iH.	c #551B05",
"jH.	c #4B1B07",
"kH.	c #3E1F14",
"lH.	c #32211D",
"mH.	c #352523",
"nH.	c #3C2320",
"oH.	c #47241F",
"pH.	c #49231D",
"qH.	c #46251E",
"rH.	c #3C2723",
"sH.	c #160001",
"tH.	c #260002",
"uH.	c #2C0002",
"vH.	c #680A04",
"wH.	c #7C0C01",
"xH.	c #7F0B00",
"yH.	c #771305",
"zH.	c #751305",
"AH.	c #761004",
"BH.	c #761104",
"CH.	c #751104",
"DH.	c #771105",
"EH.	c #781208",
"FH.	c #741208",
"GH.	c #6F140B",
"HH.	c #631B11",
"IH.	c #4D2C20",
"JH.	c #393E3A",
"KH.	c #232526",
"LH.	c #232628",
"MH.	c #292C2F",
"NH.	c #0E0B07",
"OH.	c #0B0402",
"PH.	c #130B09",
"QH.	c #2E2625",
"RH.	c #2B2422",
"SH.	c #2D2324",
"TH.	c #1C1314",
"UH.	c #4C3D2E",
"VH.	c #3B3123",
"WH.	c #40372A",
"XH.	c #50463C",
"YH.	c #4E4439",
"ZH.	c #4C4335",
"`H.	c #4A3D2F",
" I.	c #483B2C",
".I.	c #493A2A",
"+I.	c #4A3A28",
"@I.	c #4D3C2A",
"#I.	c #463626",
"$I.	c #463627",
"%I.	c #463728",
"&I.	c #493929",
"*I.	c #4E3D2B",
"=I.	c #4F3E2D",
"-I.	c #574634",
";I.	c #584838",
">I.	c #312721",
",I.	c #322922",
"'I.	c #3D3429",
")I.	c #42382D",
"!I.	c #413A2E",
"~I.	c #51483C",
"{I.	c #4F473B",
"]I.	c #484138",
"^I.	c #332E29",
"/I.	c #38393C",
"(I.	c #343437",
"_I.	c #282121",
":I.	c #2A2227",
"<I.	c #201B20",
"[I.	c #171111",
"}I.	c #1A1010",
"|I.	c #1E1310",
"1I.	c #1F1310",
"2I.	c #201411",
"3I.	c #1F130F",
"4I.	c #1D120E",
"5I.	c #1B100D",
"6I.	c #171921",
"7I.	c #171A23",
"8I.	c #13141A",
"9I.	c #211C18",
"0I.	c #201813",
"aI.	c #1C140F",
"bI.	c #18110F",
"cI.	c #1B110C",
"dI.	c #2D2114",
"eI.	c #473826",
"fI.	c #4D3B28",
"gI.	c #453420",
"hI.	c #40311D",
"iI.	c #443626",
"jI.	c #43362B",
"kI.	c #372D25",
"lI.	c #2F2420",
"mI.	c #2F2622",
"nI.	c #292320",
"oI.	c #221D17",
"pI.	c #251B14",
"qI.	c #2F1C10",
"rI.	c #371909",
"sI.	c #4A2006",
"tI.	c #5F2603",
"uI.	c #723006",
"vI.	c #7A3508",
"wI.	c #7E3E10",
"xI.	c #804E1D",
"yI.	c #815829",
"zI.	c #7E562D",
"AI.	c #7E5E36",
"BI.	c #A38964",
"CI.	c #A48969",
"DI.	c #A48F6E",
"EI.	c #A79073",
"FI.	c #B79E80",
"GI.	c #BCA586",
"HI.	c #BDAB8A",
"II.	c #A7967E",
"JI.	c #7D705F",
"KI.	c #413A2F",
"LI.	c #958B7A",
"MI.	c #C2B5A0",
"NI.	c #D3C5B3",
"OI.	c #DED7C5",
"PI.	c #DDD8C7",
"QI.	c #D7CDBA",
"RI.	c #A29683",
"SI.	c #706258",
"TI.	c #807468",
"UI.	c #8F8777",
"VI.	c #9F9585",
"WI.	c #31211C",
"XI.	c #482318",
"YI.	c #522112",
"ZI.	c #4E2312",
"`I.	c #3E2013",
" J.	c #32221E",
".J.	c #2B2527",
"+J.	c #2E292D",
"@J.	c #342B2D",
"#J.	c #3B2E2E",
"$J.	c #3E2D2C",
"%J.	c #3F2F2C",
"&J.	c #392E2D",
"*J.	c #1C0001",
"=J.	c #200001",
"-J.	c #630502",
";J.	c #7A0801",
">J.	c #7F0A00",
",J.	c #7C0E01",
"'J.	c #781003",
")J.	c #781004",
"!J.	c #770F04",
"~J.	c #770E04",
"{J.	c #770E03",
"]J.	c #780F04",
"^J.	c #760E04",
"/J.	c #760E03",
"(J.	c #770F03",
"_J.	c #790F06",
":J.	c #771108",
"<J.	c #73140C",
"[J.	c #631810",
"}J.	c #4C281B",
"|J.	c #3D342B",
"1J.	c #242729",
"2J.	c #272A2D",
"3J.	c #14110D",
"4J.	c #130D09",
"5J.	c #17110D",
"6J.	c #302928",
"7J.	c #292322",
"8J.	c #2F2526",
"9J.	c #2D2221",
"0J.	c #271D1B",
"aJ.	c #26201D",
"bJ.	c #50412F",
"cJ.	c #473929",
"dJ.	c #3E3223",
"eJ.	c #403425",
"fJ.	c #483C30",
"gJ.	c #473C31",
"hJ.	c #483C33",
"iJ.	c #34291C",
"jJ.	c #34291B",
"kJ.	c #3D2F21",
"lJ.	c #453526",
"mJ.	c #322619",
"nJ.	c #2C2115",
"oJ.	c #30241A",
"pJ.	c #382C20",
"qJ.	c #3E2F22",
"rJ.	c #483728",
"sJ.	c #4D3B2C",
"tJ.	c #483C31",
"uJ.	c #392D27",
"vJ.	c #2D221D",
"wJ.	c #2D231D",
"xJ.	c #3C3329",
"yJ.	c #554B3C",
"zJ.	c #554B3E",
"AJ.	c #4A423A",
"BJ.	c #35302D",
"CJ.	c #353539",
"DJ.	c #36393C",
"EJ.	c #231C1D",
"FJ.	c #31282C",
"GJ.	c #2E272B",
"HJ.	c #241B1B",
"IJ.	c #231716",
"JJ.	c #291A15",
"KJ.	c #2D1811",
"LJ.	c #321A10",
"MJ.	c #341B11",
"NJ.	c #351C13",
"OJ.	c #331B13",
"PJ.	c #301B13",
"QJ.	c #291813",
"RJ.	c #251715",
"SJ.	c #171820",
"TJ.	c #151820",
"UJ.	c #241D1A",
"VJ.	c #241C16",
"WJ.	c #211912",
"XJ.	c #1C120F",
"YJ.	c #1B110E",
"ZJ.	c #1B110A",
"`J.	c #2B1E10",
" K.	c #463623",
".K.	c #4C3925",
"+K.	c #44321D",
"@K.	c #3D2D1A",
"#K.	c #3E2F20",
"$K.	c #392C22",
"%K.	c #231A16",
"&K.	c #251C18",
"*K.	c #1B1710",
"=K.	c #1C1610",
"-K.	c #211711",
";K.	c #2B1C12",
">K.	c #331B0E",
",K.	c #3D1F0C",
"'K.	c #472209",
")K.	c #56290A",
"!K.	c #5C2A08",
"~K.	c #653009",
"{K.	c #613006",
"]K.	c #5F3307",
"^K.	c #582D07",
"/K.	c #5A350C",
"(K.	c #6B4B23",
"_K.	c #7C5A31",
":K.	c #7A5630",
"<K.	c #785934",
"[K.	c #775937",
"}K.	c #80603F",
"|K.	c #806040",
"1K.	c #7E6445",
"2K.	c #725C47",
"3K.	c #5A4D41",
"4K.	c #787468",
"5K.	c #9D978A",
"6K.	c #ABA39A",
"7K.	c #B4B0A6",
"8K.	c #B2AEA4",
"9K.	c #AAA699",
"0K.	c #888277",
"aK.	c #746D65",
"bK.	c #78716B",
"cK.	c #817C72",
"dK.	c #877F74",
"eK.	c #92887A",
"fK.	c #2B221E",
"gK.	c #3D251E",
"hK.	c #44251B",
"iK.	c #41271E",
"jK.	c #342520",
"kK.	c #2B2424",
"lK.	c #282529",
"mK.	c #2C2A2F",
"nK.	c #322F32",
"oK.	c #393231",
"pK.	c #130001",
"qK.	c #150001",
"rK.	c #2F0100",
"sK.	c #5C0603",
"tK.	c #730902",
"uK.	c #780800",
"vK.	c #730A00",
"wK.	c #6F1003",
"xK.	c #6C1003",
"yK.	c #6F1104",
"zK.	c #710F04",
"AK.	c #730F04",
"BK.	c #730E04",
"CK.	c #730F05",
"DK.	c #750E04",
"EK.	c #740E03",
"FK.	c #760E06",
"GK.	c #6F100A",
"HK.	c #63150D",
"IK.	c #502316",
"JK.	c #3F2E20",
"KK.	c #353129",
"LK.	c #241D17",
"MK.	c #2A2423",
"NK.	c #282323",
"OK.	c #2E2421",
"PK.	c #2D2321",
"QK.	c #080705",
"RK.	c #1A1815",
"SK.	c #4B3E2A",
"TK.	c #4D3F2C",
"UK.	c #4C3F2D",
"VK.	c #463A29",
"WK.	c #46392D",
"XK.	c #30251C",
"YK.	c #271E14",
"ZK.	c #281E14",
"`K.	c #35291E",
" L.	c #4A3A2D",
".L.	c #281F15",
"+L.	c #1E160E",
"@L.	c #251D16",
"#L.	c #30261D",
"$L.	c #382B20",
"%L.	c #4C3C2C",
"&L.	c #514230",
"*L.	c #4F402F",
"=L.	c #40342B",
"-L.	c #352922",
";L.	c #342921",
">L.	c #2C2421",
",L.	c #302921",
"'L.	c #3A3329",
")L.	c #3A3328",
"!L.	c #4B4133",
"~L.	c #504736",
"{L.	c #463E35",
"]L.	c #28262B",
"^L.	c #2C2C31",
"/L.	c #2A2C31",
"(L.	c #24252B",
"_L.	c #1B1619",
":L.	c #332B2E",
"<L.	c #322B2D",
"[L.	c #2D201E",
"}L.	c #301D18",
"|L.	c #381F15",
"1L.	c #3E1E11",
"2L.	c #45200F",
"3L.	c #441C0D",
"4L.	c #441D0F",
"5L.	c #421F12",
"6L.	c #3B1E14",
"7L.	c #301B14",
"8L.	c #2A1C18",
"9L.	c #171920",
"0L.	c #2B211A",
"aL.	c #291F15",
"bL.	c #241912",
"cL.	c #231913",
"dL.	c #21160F",
"eL.	c #23160C",
"fL.	c #2F2111",
"gL.	c #483723",
"hL.	c #4E3B25",
"iL.	c #45331D",
"jL.	c #3C2B18",
"kL.	c #3B2D1D",
"lL.	c #33281D",
"mL.	c #1D1612",
"nL.	c #1F1815",
"oL.	c #221D1A",
"pL.	c #1B1A17",
"qL.	c #221B15",
"rL.	c #30271E",
"sL.	c #35281E",
"tL.	c #3C2A1F",
"uL.	c #3F2C1E",
"vL.	c #493322",
"wL.	c #523622",
"xL.	c #5E3A1F",
"yL.	c #5C3411",
"zL.	c #59320A",
"AL.	c #502B05",
"BL.	c #523209",
"CL.	c #6B4A1F",
"DL.	c #805A2E",
"EL.	c #7F562C",
"FL.	c #7C562D",
"GL.	c #78532D",
"HL.	c #7A5331",
"IL.	c #785232",
"JL.	c #755838",
"KL.	c #68513D",
"LL.	c #4E4137",
"ML.	c #8E8A82",
"NL.	c #8A857D",
"OL.	c #858178",
"PL.	c #777164",
"QL.	c #796E61",
"RL.	c #7D705D",
"SL.	c #251F20",
"TL.	c #312421",
"UL.	c #35241F",
"VL.	c #322420",
"WL.	c #2D2524",
"XL.	c #292326",
"YL.	c #262227",
"ZL.	c #2B272C",
"`L.	c #312C31",
" M.	c #342F32",
".M.	c #322D2F",
"+M.	c #322E2F",
"@M.	c #332E30",
"#M.	c #322E30",
"$M.	c #050102",
"%M.	c #0A0001",
"&M.	c #4E0604",
"*M.	c #640400",
"=M.	c #5E0800",
"-M.	c #561006",
";M.	c #59110A",
">M.	c #5B110B",
",M.	c #5C110A",
"'M.	c #5F1108",
")M.	c #611008",
"!M.	c #620F07",
"~M.	c #640E05",
"{M.	c #660E05",
"]M.	c #670E05",
"^M.	c #680D06",
"/M.	c #660D06",
"(M.	c #630D0A",
"_M.	c #5D110A",
":M.	c #51180D",
"<M.	c #432215",
"[M.	c #36261C",
"}M.	c #372C23",
"|M.	c #372A20",
"1M.	c #2E2827",
"2M.	c #2B2420",
"3M.	c #2E2621",
"4M.	c #231F1C",
"5M.	c #221F19",
"6M.	c #251F19",
"7M.	c #3D3229",
"8M.	c #453724",
"9M.	c #493B28",
"0M.	c #4E412F",
"aM.	c #47392A",
"bM.	c #46382A",
"cM.	c #43362A",
"dM.	c #332822",
"eM.	c #3F3329",
"fM.	c #46382F",
"gM.	c #221A15",
"hM.	c #302820",
"iM.	c #483A2A",
"jM.	c #4E3F2E",
"kM.	c #4B3D31",
"lM.	c #392B23",
"mM.	c #362920",
"nM.	c #2E251D",
"oM.	c #241B18",
"pM.	c #251F1C",
"qM.	c #231D1C",
"rM.	c #39312A",
"sM.	c #372F27",
"tM.	c #352D23",
"uM.	c #494030",
"vM.	c #443A2E",
"wM.	c #2B2523",
"xM.	c #201C21",
"yM.	c #211D24",
"zM.	c #26242A",
"AM.	c #332A2E",
"BM.	c #30282B",
"CM.	c #2A2021",
"DM.	c #2C1D1C",
"EM.	c #3C1D12",
"FM.	c #4A1E0C",
"GM.	c #491C0A",
"HM.	c #481C0C",
"IM.	c #401A0D",
"JM.	c #391B11",
"KM.	c #301A13",
"LM.	c #281A17",
"MM.	c #221B1C",
"NM.	c #14161D",
"OM.	c #14171F",
"PM.	c #2B2015",
"QM.	c #291D13",
"RM.	c #291D14",
"SM.	c #2A1C13",
"TM.	c #2C1D11",
"UM.	c #342514",
"VM.	c #473622",
"WM.	c #4C3924",
"XM.	c #43311B",
"YM.	c #372715",
"ZM.	c #352718",
"`M.	c #2D2217",
" N.	c #3E3531",
".N.	c #403A34",
"+N.	c #50433B",
"@N.	c #594233",
"#N.	c #56371A",
"$N.	c #4E2B09",
"%N.	c #482606",
"&N.	c #4B2D0C",
"*N.	c #674923",
"=N.	c #7F5A33",
"-N.	c #835931",
";N.	c #81582F",
">N.	c #7E562F",
",N.	c #7F5531",
"'N.	c #774F31",
")N.	c #715235",
"!N.	c #604A38",
"~N.	c #463D34",
"{N.	c #706A62",
"]N.	c #79746C",
"^N.	c #69615D",
"/N.	c #6A5F52",
"(N.	c #645143",
"_N.	c #624C35",
":N.	c #2B2222",
"<N.	c #2C2220",
"[N.	c #292528",
"}N.	c #040102",
"|N.	c #060203",
"1N.	c #050103",
"2N.	c #070102",
"3N.	c #180403",
"4N.	c #380B09",
"5N.	c #490905",
"6N.	c #4A0601",
"7N.	c #440903",
"8N.	c #3F0F09",
"9N.	c #3B100B",
"0N.	c #39140C",
"aN.	c #36150E",
"bN.	c #361913",
"cN.	c #351B17",
"dN.	c #371C19",
"eN.	c #371A18",
"fN.	c #3C1B17",
"gN.	c #3E1915",
"hN.	c #421814",
"iN.	c #451712",
"jN.	c #491611",
"kN.	c #4C150F",
"lN.	c #4E140F",
"mN.	c #50120C",
"nN.	c #53110A",
"oN.	c #51170C",
"pN.	c #481D0F",
"qN.	c #3B2015",
"rN.	c #342A25",
"sN.	c #3C2B1E",
"tN.	c #3F2B1B",
"uN.	c #3E2C1D",
"vN.	c #392A1F",
"wN.	c #2B2521",
"xN.	c #2B2421",
"yN.	c #0A0A08",
"zN.	c #030301",
"AN.	c #161311",
"BN.	c #3B3229",
"CN.	c #443724",
"DN.	c #473B27",
"EN.	c #514532",
"FN.	c #514332",
"GN.	c #4A3B2C",
"HN.	c #473A2B",
"IN.	c #3E3229",
"JN.	c #41372F",
"KN.	c #261F19",
"LN.	c #211C17",
"MN.	c #473A2A",
"NN.	c #4E402E",
"ON.	c #504230",
"PN.	c #524533",
"QN.	c #47392E",
"RN.	c #3B2E22",
"SN.	c #3B2F25",
"TN.	c #322B22",
"UN.	c #473C2E",
"VN.	c #3F372E",
"WN.	c #201D22",
"XN.	c #292324",
"YN.	c #332C2F",
"ZN.	c #30292C",
"`N.	c #261D1F",
" O.	c #281A19",
".O.	c #2F1B15",
"+O.	c #391C11",
"@O.	c #401B0D",
"#O.	c #471D0C",
"$O.	c #461C0A",
"%O.	c #431C0C",
"&O.	c #39180C",
"*O.	c #31190F",
"=O.	c #291913",
"-O.	c #261C1A",
";O.	c #14181F",
">O.	c #2B261E",
",O.	c #32281D",
"'O.	c #332719",
")O.	c #34271A",
"!O.	c #37291C",
"~O.	c #36271A",
"{O.	c #392919",
"]O.	c #3E2E1A",
"^O.	c #4A3922",
"/O.	c #4C3A23",
"(O.	c #352513",
"_O.	c #322516",
":O.	c #1F170F",
"<O.	c #4A4341",
"[O.	c #52391C",
"}O.	c #4E2E0A",
"|O.	c #472707",
"1O.	c #4B3010",
"2O.	c #634A26",
"3O.	c #795B36",
"4O.	c #7C5834",
"5O.	c #775330",
"6O.	c #795332",
"7O.	c #724F32",
"8O.	c #6C5337",
"9O.	c #5C4D3A",
"0O.	c #463F36",
"aO.	c #1D1D1A",
"bO.	c #0B0A06",
"cO.	c #33332A",
"dO.	c #726B60",
"eO.	c #7A756B",
"fO.	c #807C72",
"gO.	c #7B786D",
"hO.	c #68635A",
"iO.	c #6A6156",
"jO.	c #6B5F4F",
"kO.	c #5E4934",
"lO.	c #563B1D",
"mO.	c #1A161A",
"nO.	c #271F20",
"oO.	c #231E21",
"pO.	c #282326",
"qO.	c #110709",
"rO.	c #260E10",
"sO.	c #310D0C",
"tO.	c #310B07",
"uO.	c #2B0C08",
"vO.	c #2C110F",
"wO.	c #2C1312",
"xO.	c #291C16",
"yO.	c #28221F",
"zO.	c #292223",
"AO.	c #2F2122",
"BO.	c #322121",
"CO.	c #341E1F",
"DO.	c #361E1D",
"EO.	c #391B19",
"FO.	c #421813",
"GO.	c #48160F",
"HO.	c #4E180D",
"IO.	c #4A190C",
"JO.	c #3E1A0F",
"KO.	c #341E13",
"LO.	c #2E2A25",
"MO.	c #37251F",
"NO.	c #3E2315",
"OO.	c #422311",
"PO.	c #412415",
"QO.	c #3C261B",
"RO.	c #382922",
"SO.	c #312924",
"TO.	c #2F2825",
"UO.	c #141110",
"VO.	c #473B2D",
"WO.	c #463926",
"XO.	c #3A2E22",
"YO.	c #362D26",
"ZO.	c #2A241D",
"`O.	c #181310",
" P.	c #2C2522",
".P.	c #3B3328",
"+P.	c #45392B",
"@P.	c #504332",
"#P.	c #514434",
"$P.	c #483A2F",
"%P.	c #3E3127",
"&P.	c #3B2E24",
"*P.	c #29241F",
"=P.	c #2D2820",
"-P.	c #44392D",
";P.	c #4A3F33",
">P.	c #473E33",
",P.	c #322C2E",
"'P.	c #2C2528",
")P.	c #231718",
"!P.	c #2A1A16",
"~P.	c #2F1911",
"{P.	c #31150C",
"]P.	c #33160C",
"^P.	c #31170D",
"/P.	c #27130C",
"(P.	c #1E110D",
"_P.	c #1B1313",
":P.	c #15171E",
"<P.	c #13171E",
"[P.	c #3D2E20",
"}P.	c #413021",
"|P.	c #443120",
"1P.	c #44321E",
"2P.	c #4A3821",
"3P.	c #4A3822",
"4P.	c #3F2D19",
"5P.	c #332311",
"6P.	c #2E2112",
"7P.	c #2A2521",
"8P.	c #4A4443",
"9P.	c #483E3B",
"0P.	c #4E3E2F",
"aP.	c #4F3517",
"bP.	c #52300A",
"cP.	c #4B2807",
"dP.	c #4C3113",
"eP.	c #584627",
"fP.	c #675235",
"gP.	c #695034",
"hP.	c #674F34",
"iP.	c #634B32",
"jP.	c #624831",
"kP.	c #5A422D",
"lP.	c #53412E",
"mP.	c #3F3834",
"nP.	c #37352D",
"oP.	c #787365",
"pP.	c #8D887D",
"qP.	c #868377",
"rP.	c #625E54",
"sP.	c #6F6559",
"tP.	c #706051",
"uP.	c #614630",
"vP.	c #523113",
"wP.	c #1B1717",
"xP.	c #1F1A1C",
"yP.	c #20191C",
"zP.	c #221D21",
"AP.	c #211B1E",
"BP.	c #191419",
"CP.	c #171A1A",
"DP.	c #030607",
"EP.	c #191013",
"FP.	c #1F1010",
"GP.	c #1C0E0C",
"HP.	c #201110",
"IP.	c #231211",
"JP.	c #271713",
"KP.	c #2C201B",
"LP.	c #1E2527",
"MP.	c #1D2425",
"NP.	c #202526",
"OP.	c #292224",
"PP.	c #2D2121",
"QP.	c #361F1C",
"RP.	c #421C13",
"SP.	c #4C1B0E",
"TP.	c #4C190A",
"UP.	c #451A0D",
"VP.	c #3C1E12",
"WP.	c #34261A",
"XP.	c #332B22",
"YP.	c #382B23",
"ZP.	c #3C231A",
"`P.	c #421E0D",
" Q.	c #441D08",
".Q.	c #44220F",
"+Q.	c #3E2619",
"@Q.	c #372921",
"#Q.	c #2A2824",
"$Q.	c #48443E",
"%Q.	c #45403B",
"&Q.	c #473B2E",
"*Q.	c #453827",
"=Q.	c #483B29",
"-Q.	c #514433",
";Q.	c #3A2D21",
">Q.	c #33281E",
",Q.	c #251F18",
"'Q.	c #100C09",
")Q.	c #3A312C",
"!Q.	c #3D342A",
"~Q.	c #3E3528",
"{Q.	c #4C4031",
"]Q.	c #534736",
"^Q.	c #534737",
"/Q.	c #493D31",
"(Q.	c #403429",
"_Q.	c #3D3126",
":Q.	c #252019",
"<Q.	c #07080D",
"[Q.	c #463D32",
"}Q.	c #453F39",
"|Q.	c #322B2C",
"1Q.	c #2B2526",
"2Q.	c #211A1C",
"3Q.	c #22181A",
"4Q.	c #281C1B",
"5Q.	c #271815",
"6Q.	c #23110D",
"7Q.	c #23120D",
"8Q.	c #1F0F0C",
"9Q.	c #19110E",
"0Q.	c #443828",
"aQ.	c #453627",
"bQ.	c #483828",
"cQ.	c #4B3825",
"dQ.	c #493822",
"eQ.	c #4C3B23",
"fQ.	c #3F2F1A",
"gQ.	c #332411",
"hQ.	c #312415",
"iQ.	c #31261B",
"jQ.	c #292119",
"kQ.	c #1E1813",
"lQ.	c #1A1713",
"mQ.	c #1B1814",
"nQ.	c #2C2823",
"oQ.	c #3D3737",
"pQ.	c #413938",
"qQ.	c #403736",
"rQ.	c #473B36",
"sQ.	c #4A3A30",
"tQ.	c #523B25",
"uQ.	c #573615",
"vQ.	c #5B3511",
"wQ.	c #563315",
"xQ.	c #4F371E",
"yQ.	c #4B3D28",
"zQ.	c #4D4230",
"AQ.	c #4E3F31",
"BQ.	c #4E4032",
"CQ.	c #503F31",
"DQ.	c #483C2E",
"EQ.	c #555048",
"FQ.	c #675E55",
"GQ.	c #6F6A5F",
"HQ.	c #4A453D",
"IQ.	c #514B42",
"JQ.	c #574E43",
"KQ.	c #5C4C3E",
"LQ.	c #553A25",
"MQ.	c #502E10",
"NQ.	c #181415",
"OQ.	c #171215",
"PQ.	c #191519",
"QQ.	c #1A151A",
"RQ.	c #1E191E",
"SQ.	c #1C171A",
"TQ.	c #161A1B",
"UQ.	c #130D0F",
"VQ.	c #130C0D",
"WQ.	c #130C0C",
"XQ.	c #180D0C",
"YQ.	c #25130F",
"ZQ.	c #2F201A",
"`Q.	c #1F2425",
" R.	c #1C2223",
".R.	c #322321",
"+R.	c #401E16",
"@R.	c #48180C",
"#R.	c #4C1909",
"$R.	c #49190B",
"%R.	c #411D10",
"&R.	c #392619",
"*R.	c #372C20",
"=R.	c #3A281E",
"-R.	c #422117",
";R.	c #471A09",
">R.	c #441703",
",R.	c #411B09",
"'R.	c #392114",
")R.	c #2A2621",
"!R.	c #1B1D1E",
"~R.	c #484441",
"{R.	c #534C42",
"]R.	c #534C43",
"^R.	c #554E46",
"/R.	c #3C3A3A",
"(R.	c #463B2F",
"_R.	c #47392B",
":R.	c #493B2B",
"<R.	c #544634",
"[R.	c #4E3D2C",
"}R.	c #473727",
"|R.	c #3A2C1E",
"1R.	c #33261B",
"2R.	c #32281E",
"3R.	c #1A140D",
"4R.	c #19130E",
"5R.	c #1B1612",
"6R.	c #2D2622",
"7R.	c #3E3329",
"8R.	c #534838",
"9R.	c #534738",
"0R.	c #4F4336",
"aR.	c #4A3E32",
"bR.	c #40342A",
"cR.	c #3D3227",
"dR.	c #322B25",
"eR.	c #3D352E",
"fR.	c #464036",
"gR.	c #464039",
"hR.	c #302B25",
"iR.	c #241A1B",
"jR.	c #241917",
"kR.	c #1C1110",
"lR.	c #190F0E",
"mR.	c #160E0E",
"nR.	c #140E0F",
"oR.	c #01040C",
"pR.	c #030811",
"qR.	c #0A0D16",
"rR.	c #181920",
"sR.	c #15181E",
"tR.	c #342F29",
"uR.	c #40362B",
"vR.	c #43382A",
"wR.	c #46372A",
"xR.	c #4D3B27",
"yR.	c #4C3A24",
"zR.	c #4E3C25",
"AR.	c #473620",
"BR.	c #3C2C18",
"CR.	c #342512",
"DR.	c #392D21",
"ER.	c #221C16",
"FR.	c #181512",
"GR.	c #1A1814",
"HR.	c #423E3F",
"IR.	c #403B3A",
"JR.	c #3B2F28",
"KR.	c #413023",
"LR.	c #472E1B",
"MR.	c #5C3510",
"NR.	c #5E3816",
"OR.	c #56371D",
"PR.	c #423A37",
"QR.	c #413933",
"RR.	c #433831",
"SR.	c #41362E",
"TR.	c #3F372F",
"UR.	c #49433B",
"VR.	c #48413A",
"WR.	c #504B43",
"XR.	c #38332D",
"YR.	c #432B1B",
"ZR.	c #472810",
"`R.	c #181319",
" S.	c #181317",
".S.	c #1B171B",
"+S.	c #1E191D",
"@S.	c #151919",
"#S.	c #140C0C",
"$S.	c #1A0C0C",
"%S.	c #30211B",
"&S.	c #372F2C",
"*S.	c #1E2122",
"=S.	c #312423",
"-S.	c #461B0E",
";S.	c #4A1909",
">S.	c #4B1A0B",
",S.	c #461F10",
"'S.	c #3F2818",
")S.	c #3C2D1D",
"!S.	c #3F291C",
"~S.	c #441F14",
"{S.	c #47170A",
"]S.	c #441505",
"^S.	c #3B180A",
"/S.	c #301C11",
"(S.	c #25231D",
"_S.	c #282621",
":S.	c #212320",
"<S.	c #2A2722",
"[S.	c #2C2623",
"}S.	c #141617",
"|S.	c #50473E",
"1S.	c #413B37",
"2S.	c #382F26",
"3S.	c #483C2F",
"4S.	c #4A3C2D",
"5S.	c #534534",
"6S.	c #544533",
"7S.	c #4D3D2B",
"8S.	c #463724",
"9S.	c #3D2F1E",
"0S.	c #36291A",
"aS.	c #392D1F",
"bS.	c #362C1E",
"cS.	c #31281B",
"dS.	c #342B20",
"eS.	c #3E352B",
"fS.	c #40352B",
"gS.	c #3D3127",
"hS.	c #463829",
"iS.	c #4B4234",
"jS.	c #4D4436",
"kS.	c #41352A",
"lS.	c #2C261E",
"mS.	c #2A241C",
"nS.	c #29211D",
"oS.	c #221A19",
"pS.	c #231A1B",
"qS.	c #271D1D",
"rS.	c #1A1112",
"sS.	c #150E0F",
"tS.	c #141010",
"uS.	c #02050B",
"vS.	c #000006",
"wS.	c #000007",
"xS.	c #05060B",
"yS.	c #3F3125",
"zS.	c #503D29",
"AS.	c #503C27",
"BS.	c #503D26",
"CS.	c #483620",
"DS.	c #3D2C18",
"ES.	c #372714",
"FS.	c #3D2E1D",
"GS.	c #413427",
"HS.	c #1D1713",
"IS.	c #171311",
"JS.	c #464246",
"KS.	c #433F3E",
"LS.	c #3E3730",
"MS.	c #452E19",
"NS.	c #552E0D",
"OS.	c #5C350F",
"PS.	c #5C3817",
"QS.	c #523922",
"RS.	c #433C37",
"SS.	c #423A35",
"TS.	c #403A35",
"US.	c #4E4D46",
"VS.	c #4D4840",
"WS.	c #524D45",
"XS.	c #57534B",
"YS.	c #3B3635",
"ZS.	c #3A3432",
"`S.	c #38302D",
" T.	c #3D322A",
".T.	c #402A20",
"+T.	c #452915",
"@T.	c #171317",
"#T.	c #181418",
"$T.	c #181318",
"%T.	c #171217",
"&T.	c #090609",
"*T.	c #141618",
"=T.	c #020405",
"-T.	c #0F0C12",
";T.	c #170C0D",
">T.	c #201310",
",T.	c #2A1E1A",
"'T.	c #2D2323",
")T.	c #361F19",
"!T.	c #411B0F",
"~T.	c #461809",
"{T.	c #491A0B",
"]T.	c #451D10",
"^T.	c #3F2516",
"/T.	c #3D2C1C",
"(T.	c #40291C",
"_T.	c #3F1B12",
":T.	c #3C0F06",
"<T.	c #340B01",
"[T.	c #2B0E06",
"}T.	c #1F120C",
"|T.	c #181511",
"1T.	c #161613",
"2T.	c #0A0E0E",
"3T.	c #322C28",
"4T.	c #4D4845",
"5T.	c #504A42",
"6T.	c #4E453C",
"7T.	c #52483F",
"8T.	c #574D44",
"9T.	c #594F47",
"0T.	c #4E453F",
"aT.	c #3A342F",
"bT.	c #44382C",
"cT.	c #46382B",
"dT.	c #50402F",
"eT.	c #4B3A28",
"fT.	c #453422",
"gT.	c #3E2F1D",
"hT.	c #3D301F",
"iT.	c #3F3220",
"jT.	c #3E3121",
"kT.	c #3F3223",
"lT.	c #3E3224",
"mT.	c #403325",
"nT.	c #423226",
"oT.	c #433224",
"pT.	c #463425",
"qT.	c #4A3826",
"rT.	c #4A3725",
"sT.	c #473A2D",
"tT.	c #43392E",
"uT.	c #3B3429",
"vT.	c #3B3228",
"wT.	c #40372C",
"xT.	c #45392F",
"yT.	c #090402",
"zT.	c #120E0E",
"AT.	c #151010",
"BT.	c #312D30",
"CT.	c #433C35",
"DT.	c #261E1B",
"ET.	c #201717",
"FT.	c #1F1517",
"GT.	c #181012",
"HT.	c #010207",
"IT.	c #010208",
"JT.	c #15171B",
"KT.	c #14181D",
"LT.	c #473527",
"MT.	c #4F3B29",
"NT.	c #4F3B27",
"OT.	c #4E3A24",
"PT.	c #3A2916",
"QT.	c #40301E",
"RT.	c #443527",
"ST.	c #3C2F25",
"TT.	c #251C17",
"UT.	c #241C18",
"VT.	c #201915",
"WT.	c #1C1511",
"XT.	c #3A281B",
"YT.	c #472C17",
"ZT.	c #4C2B0F",
"`T.	c #512B0B",
" U.	c #54300D",
".U.	c #533417",
"+U.	c #4B3624",
"@U.	c #41382E",
"#U.	c #3B383A",
"$U.	c #3B3533",
"%U.	c #11100D",
"&U.	c #4A443E",
"*U.	c #4C433D",
"=U.	c #514B43",
"-U.	c #555149",
";U.	c #402C23",
">U.	c #452C1B",
",U.	c #3A3537",
"'U.	c #171318",
")U.	c #0F0B0F",
"!U.	c #282224",
"~U.	c #251F22",
"{U.	c #131015",
"]U.	c #1F1614",
"^U.	c #33201D",
"/U.	c #3C1D13",
"(U.	c #451C0E",
"_U.	c #471B0D",
":U.	c #431E0F",
"<U.	c #3E2615",
"[U.	c #3C2B1B",
"}U.	c #3B1811",
"|U.	c #340A03",
"1U.	c #280500",
"2U.	c #1D0703",
"3U.	c #120A08",
"4U.	c #504941",
"5U.	c #584E44",
"6U.	c #595046",
"7U.	c #5B5149",
"8U.	c #26201B",
"9U.	c #3E3124",
"0U.	c #3B2D1E",
"aU.	c #3F2F21",
"bU.	c #473627",
"cU.	c #493828",
"dU.	c #463523",
"eU.	c #443321",
"fU.	c #3F301F",
"gU.	c #3F321F",
"hU.	c #3D301E",
"iU.	c #3E3020",
"jU.	c #3E2F21",
"kU.	c #412F20",
"lU.	c #483423",
"mU.	c #4D3825",
"nU.	c #4B3723",
"oU.	c #413529",
"pU.	c #383027",
"qU.	c #2C251E",
"rU.	c #272119",
"sU.	c #2D251E",
"tU.	c #372D27",
"uU.	c #483D33",
"vU.	c #453C34",
"wU.	c #0C0704",
"xU.	c #0C090A",
"yU.	c #0F0A0D",
"zU.	c #333033",
"AU.	c #352E26",
"BU.	c #1D1517",
"CU.	c #1B1416",
"DU.	c #2C2B30",
"EU.	c #211A16",
"FU.	c #1F1610",
"GU.	c #231710",
"HU.	c #32241B",
"IU.	c #453427",
"JU.	c #503C2B",
"KU.	c #4F3C28",
"LU.	c #4E3A25",
"MU.	c #483521",
"NU.	c #43321E",
"OU.	c #41301D",
"PU.	c #463524",
"QU.	c #352A24",
"RU.	c #261E1A",
"SU.	c #33241B",
"TU.	c #3B2415",
"UU.	c #40220D",
"VU.	c #452209",
"WU.	c #44240B",
"XU.	c #402713",
"YU.	c #38271E",
"ZU.	c #4D4842",
"`U.	c #534E46",
" V.	c #382D29",
".V.	c #3B2923",
"+V.	c #402A1E",
"@V.	c #211D20",
"#V.	c #3A3638",
"$V.	c #161216",
"%V.	c #151116",
"&V.	c #120D13",
"*V.	c #110C11",
"=V.	c #010305",
"-V.	c #2A2225",
";V.	c #221B20",
">V.	c #120F12",
",V.	c #141013",
"'V.	c #1B1415",
")V.	c #1C1414",
"!V.	c #28292D",
"~V.	c #322220",
"{V.	c #3D2119",
"]V.	c #462013",
"^V.	c #481E11",
"/V.	c #421E10",
"(V.	c #3C2514",
"_V.	c #3A251C",
":V.	c #290802",
"<V.	c #1C0B07",
"[V.	c #0F0A09",
"}V.	c #0E0A0B",
"|V.	c #4C423D",
"1V.	c #4E443B",
"2V.	c #4E473F",
"3V.	c #5A5047",
"4V.	c #5C5249",
"5V.	c #5D544B",
"6V.	c #524943",
"7V.	c #3C3531",
"8V.	c #0C0809",
"9V.	c #28211C",
"0V.	c #342A23",
"aV.	c #3C2E22",
"bV.	c #38271B",
"cV.	c #39291B",
"dV.	c #402F21",
"eV.	c #443324",
"fV.	c #433222",
"gV.	c #423120",
"hV.	c #403121",
"iV.	c #3E3021",
"jV.	c #3E301F",
"kV.	c #3D3021",
"lV.	c #3A2E20",
"mV.	c #3A2E21",
"nV.	c #3C2D22",
"oV.	c #3F2E1E",
"pV.	c #483322",
"qV.	c #4D3725",
"rV.	c #473220",
"sV.	c #3E2D1E",
"tV.	c #201A16",
"uV.	c #392F2B",
"vV.	c #3F352F",
"wV.	c #463B34",
"xV.	c #453D36",
"yV.	c #0E0906",
"zV.	c #0B0608",
"AV.	c #302B2F",
"BV.	c #473F39",
"CV.	c #312724",
"DV.	c #1E1516",
"EV.	c #1C1416",
"FV.	c #161013",
"GV.	c #140E12",
"HV.	c #150E0E",
"IV.	c #160F0F",
"JV.	c #171010",
"KV.	c #191215",
"LV.	c #1F1C22",
"MV.	c #28262C",
"NV.	c #27252B",
"OV.	c #101318",
"PV.	c #1E1411",
"QV.	c #201410",
"RV.	c #433127",
"SV.	c #4C3729",
"TV.	c #4A3825",
"UV.	c #493725",
"VV.	c #4A3A2B",
"WV.	c #483A2D",
"XV.	c #392D29",
"YV.	c #3A2F2B",
"ZV.	c #3C302B",
"`V.	c #312620",
" W.	c #271B15",
".W.	c #281D1A",
"+W.	c #29201F",
"@W.	c #35251F",
"#W.	c #3A261C",
"$W.	c #3D2618",
"%W.	c #38251C",
"&W.	c #312523",
"*W.	c #28252A",
"=W.	c #120E0C",
"-W.	c #433B38",
";W.	c #3C3532",
">W.	c #302828",
",W.	c #322524",
"'W.	c #151115",
")W.	c #100C11",
"!W.	c #0D090D",
"~W.	c #0C090C",
"{W.	c #100C10",
"]W.	c #121517",
"^W.	c #2C2425",
"/W.	c #241D22",
"(W.	c #1D171C",
"_W.	c #1C1516",
":W.	c #2E201E",
"<W.	c #3A2019",
"[W.	c #421E14",
"}W.	c #451E11",
"|W.	c #401E11",
"1W.	c #3D2616",
"2W.	c #37281A",
"3W.	c #3B271D",
"4W.	c #3D1E17",
"5W.	c #3D150F",
"6W.	c #34120C",
"7W.	c #261411",
"8W.	c #3B3331",
"9W.	c #413C35",
"0W.	c #3F3934",
"aW.	c #443C35",
"bW.	c #4B423C",
"cW.	c #4E463F",
"dW.	c #514942",
"eW.	c #4A433E",
"fW.	c #3A3431",
"gW.	c #1D1817",
"hW.	c #3F3025",
"iW.	c #3B2A1F",
"jW.	c #38281C",
"kW.	c #3E2D20",
"lW.	c #443425",
"mW.	c #433323",
"nW.	c #413121",
"oW.	c #403222",
"pW.	c #3F3122",
"qW.	c #3E3122",
"rW.	c #3B3022",
"sW.	c #3A2F22",
"tW.	c #402F1F",
"uW.	c #493423",
"vW.	c #44301E",
"wW.	c #39291A",
"xW.	c #1D1815",
"yW.	c #28211E",
"zW.	c #372F2B",
"AW.	c #130D0C",
"BW.	c #312C2E",
"CW.	c #413B3A",
"DW.	c #4F4841",
"EW.	c #443B34",
"FW.	c #271D1C",
"GW.	c #201617",
"HW.	c #1C1518",
"IW.	c #140F12",
"JW.	c #110D0F",
"KW.	c #2B1F1D",
"LW.	c #2E211E",
"MW.	c #2D201D",
"NW.	c #281D1C",
"OW.	c #111417",
"PW.	c #1D1513",
"QW.	c #201512",
"RW.	c #2F221C",
"SW.	c #423127",
"TW.	c #493629",
"UW.	c #493727",
"VW.	c #453423",
"WW.	c #443424",
"XW.	c #3F3023",
"YW.	c #362B24",
"ZW.	c #302523",
"`W.	c #322824",
" X.	c #251A14",
".X.	c #29211F",
"+X.	c #332925",
"@X.	c #342823",
"#X.	c #312621",
"$X.	c #302623",
"%X.	c #26262C",
"&X.	c #353235",
"*X.	c #141014",
"=X.	c #0E0B0F",
"-X.	c #0C090D",
";X.	c #292022",
">X.	c #231C1F",
",X.	c #1E161B",
"'X.	c #1A1418",
")X.	c #181215",
"!X.	c #1C1615",
"~X.	c #281B1B",
"{X.	c #331A14",
"]X.	c #38160D",
"^X.	c #3D160C",
"/X.	c #3D2315",
"(X.	c #3A271B",
"_X.	c #3C1C17",
":X.	c #401913",
"<X.	c #381411",
"[X.	c #281413",
"}X.	c #1B1719",
"|X.	c #292424",
"1X.	c #453D3A",
"2X.	c #463D3A",
"3X.	c #2E2726",
"4X.	c #292221",
"5X.	c #352B24",
"6X.	c #423229",
"7X.	c #3B2A21",
"8X.	c #35251A",
"9X.	c #3A2A1F",
"0X.	c #413125",
"aX.	c #423225",
"bX.	c #423224",
"cX.	c #3F3123",
"dX.	c #3D3023",
"eX.	c #3C3024",
"fX.	c #3D2E21",
"gX.	c #412F21",
"hX.	c #483323",
"iX.	c #4B3424",
"jX.	c #412D1D",
"kX.	c #352619",
"lX.	c #2E241D",
"mX.	c #110D0D",
"nX.	c #1B1414",
"oX.	c #120C0D",
"pX.	c #262224",
"qX.	c #292226",
"rX.	c #514945",
"sX.	c #443B37",
"tX.	c #362B28",
"uX.	c #211819",
"vX.	c #1B1418",
"wX.	c #130E12",
"xX.	c #221715",
"yX.	c #312320",
"zX.	c #362623",
"AX.	c #332420",
"BX.	c #28201E",
"CX.	c #3A393A",
"DX.	c #312E33",
"EX.	c #24232A",
"FX.	c #26242C",
"GX.	c #222026",
"HX.	c #0C0E11",
"IX.	c #1A1413",
"JX.	c #1C1211",
"KX.	c #2C1F1C",
"LX.	c #3B2B24",
"MX.	c #413025",
"NX.	c #402F22",
"OX.	c #3F2F22",
"PX.	c #3A2B1F",
"QX.	c #36291D",
"RX.	c #2E2119",
"SX.	c #291F18",
"TX.	c #271D19",
"UX.	c #281E1C",
"VX.	c #2D2220",
"WX.	c #291D19",
"XX.	c #251915",
"YX.	c #261C19",
"ZX.	c #261E1D",
"`X.	c #2C2628",
" Y.	c #333237",
".Y.	c #323136",
"+Y.	c #333135",
"@Y.	c #2D2A2E",
"#Y.	c #353336",
"$Y.	c #3D3A3D",
"%Y.	c #363337",
"&Y.	c #161318",
"*Y.	c #1E171C",
"=Y.	c #1C1619",
"-Y.	c #291A1C",
";Y.	c #311613",
">Y.	c #35110A",
",Y.	c #3D180E",
"'Y.	c #412418",
")Y.	c #3E261D",
"!Y.	c #3B231D",
"~Y.	c #3C1C1A",
"{Y.	c #3F1816",
"]Y.	c #371614",
"^Y.	c #2B1816",
"/Y.	c #46403D",
"(Y.	c #130F10",
"_Y.	c #29211E",
":Y.	c #382D26",
"<Y.	c #40322B",
"[Y.	c #42332B",
"}Y.	c #3A2B23",
"|Y.	c #33241A",
"1Y.	c #38291E",
"2Y.	c #403126",
"3Y.	c #413226",
"4Y.	c #3E3225",
"5Y.	c #3E3326",
"6Y.	c #3D3125",
"7Y.	c #3D2F24",
"8Y.	c #473426",
"9Y.	c #493526",
"0Y.	c #3E2D1F",
"aY.	c #34261C",
"bY.	c #100B0D",
"cY.	c #120E12",
"dY.	c #363032",
"eY.	c #4D4646",
"fY.	c #514847",
"gY.	c #453C39",
"hY.	c #342A29",
"iY.	c #2E2423",
"jY.	c #2A1F1F",
"kY.	c #211719",
"lY.	c #1D1417",
"mY.	c #151014",
"nY.	c #211816",
"oY.	c #362723",
"pY.	c #2F2220",
"qY.	c #2A2220",
"rY.	c #27262D",
"sY.	c #090B10",
"tY.	c #372924",
"uY.	c #402F28",
"vY.	c #3F2F26",
"wY.	c #3E2F26",
"xY.	c #322720",
"yY.	c #271D17",
"zY.	c #1E1612",
"AY.	c #221B1D",
"BY.	c #282122",
"CY.	c #2F2423",
"DY.	c #2B201D",
"EY.	c #271B18",
"FY.	c #261E1E",
"GY.	c #333338",
"HY.	c #313136",
"IY.	c #2F2F34",
"JY.	c #3A393C",
"KY.	c #343236",
"LY.	c #141015",
"MY.	c #140F14",
"NY.	c #2E2C31",
"OY.	c #232127",
"PY.	c #121018",
"QY.	c #020307",
"RY.	c #1E181C",
"SY.	c #1F1B1C",
"TY.	c #07090B",
"UY.	c #07090C",
"VY.	c #2D1D1F",
"WY.	c #321615",
"XY.	c #330F0A",
"YY.	c #370F09",
"ZY.	c #3B160F",
"`Y.	c #3F2017",
" Z.	c #3D231D",
".Z.	c #3D231E",
"+Z.	c #3D1F1D",
"@Z.	c #3F1D1D",
"#Z.	c #361919",
"$Z.	c #2A1A19",
"%Z.	c #281F1B",
"&Z.	c #372B25",
"*Z.	c #3D2F29",
"=Z.	c #3D3028",
"-Z.	c #362A21",
";Z.	c #31241C",
">Z.	c #362820",
",Z.	c #3D2F27",
"'Z.	c #3F3129",
")Z.	c #3D332A",
"!Z.	c #3C3229",
"~Z.	c #3C3228",
"{Z.	c #3D3027",
"]Z.	c #3B2F26",
"^Z.	c #3B2E26",
"/Z.	c #3C2E25",
"(Z.	c #3B2C23",
"_Z.	c #3D2E23",
":Z.	c #423126",
"<Z.	c #2D221B",
"[Z.	c #2A221F",
"}Z.	c #110C0F",
"|Z.	c #100B10",
"1Z.	c #0E0A10",
"2Z.	c #3E3638",
"3Z.	c #453B3C",
"4Z.	c #3B3231",
"5Z.	c #2B2121",
"6Z.	c #251A1B",
"7Z.	c #1C1417",
"8Z.	c #2F2321",
"9Z.	c #302522",
"0Z.	c #26242B",
"aZ.	c #181112",
"bZ.	c #241B1A",
"cZ.	c #3D2E2A",
"dZ.	c #3C3029",
"eZ.	c #282225",
"fZ.	c #2F2524",
"gZ.	c #2C211F",
"hZ.	c #261B19",
"iZ.	c #29282D",
"jZ.	c #2A282C",
"kZ.	c #0F0C11",
"lZ.	c #29262A",
"mZ.	c #272429",
"nZ.	c #1E1B22",
"oZ.	c #171319",
"pZ.	c #1A1A18",
"qZ.	c #101315",
"rZ.	c #141619",
"sZ.	c #241F24",
"tZ.	c #2C1D20",
"uZ.	c #2D1615",
"vZ.	c #2C0E0B",
"wZ.	c #2D0E0B",
"xZ.	c #341713",
"yZ.	c #361F18",
"zZ.	c #32201B",
"AZ.	c #33231F",
"BZ.	c #311E1E",
"CZ.	c #311D1E",
"DZ.	c #2C1F1F",
"EZ.	c #261F1C",
"FZ.	c #2B211D",
"GZ.	c #2C221D",
"HZ.	c #281E1A",
"IZ.	c #2A201C",
"JZ.	c #2D231F",
"KZ.	c #2E2420",
"LZ.	c #2E2520",
"MZ.	c #2D231E",
"NZ.	c #2D221C",
"OZ.	c #2F231D",
"PZ.	c #2F231E",
"QZ.	c #251B16",
"RZ.	c #1A1311",
"SZ.	c #0D090E",
"TZ.	c #211C20",
"UZ.	c #211B1F",
"VZ.	c #1F191C",
"WZ.	c #262022",
"XZ.	c #2B2325",
"YZ.	c #282021",
"ZZ.	c #1A1416",
"`Z.	c #231E1D",
" `.	c #231D20",
".`.	c #1F1716",
"+`.	c #030105",
"@`.	c #13111A",
"#`.	c #22181B",
"$`.	c #1C0B0A",
"%`.	c #1E0C0C",
"&`.	c #231917",
"*`.	c #1F181A",
"=`.	c #21191B",
"-`.	c #181210",
";`.	c #171212",
">`.	c #171313",
",`.	c #181413",
"'`.	c #0A0608",
")`.	c #231E20",
"!`.	c #221C1E",
"~`.	c #131013",
"{`.	c #161313",
"]`.	c #120F0E",
"^`.	c #080508",
"/`.	c #08060E",
"(`.	c #04040B",
"_`.	c #070806",
":`.	c #0D0E0B",
"<`.	c #303234",
"[`.	c #313436",
"}`.	c #212428",
"|`.	c #160D0E",
"1`.	c #140C0D",
"2`.	c #221D1C",
"3`.	c #14100F",
"4`.	c #141012",
"5`.	c #06040A",
"6`.	c #323437",
"7`.	c #120D0F",
"8`.	c #201C1A",
"9`.	c #050503",
"0`.	c #141615",
"a`.	c #0A0C0F",
"b`.	c #050402",
"c`.	c #050502",
"d`.	c #060502",
"e`.	c #070602",
"f`.	c #050401",
"g`.	c #060501",
"h`.	c #070603",
"i`.	c #090804",
"j`.	c #090805",
"k`.	c #080806",
"l`.	c #050300",
"m`.	c #100F0D",
"n`.	c #1F1D19",
"o`.	c #1E1B17",
"p`.	c #1C1B15",
"q`.	c #181711",
"r`.	c #161510",
"s`.	c #141310",
"t`.	c #171713",
"u`.	c #1C1B16",
"v`.	c #21201B",
"w`.	c #23221E",
"x`.	c #24231E",
"y`.	c #23221D",
"z`.	c #1E1D19",
"A`.	c #201E1A",
"B`.	c #211E1A",
"C`.	c #201D19",
"D`.	c #2B2924",
"E`.	c #2A2822",
"F`.	c #1E1D18",
"G`.	c #23211B",
"H`.	c #23221B",
"I`.	c #22201A",
"J`.	c #1B1A14",
"K`.	c #0D0C08",
"L`.	c #26261F",
"M`.	c #37342B",
"N`.	c #37352A",
"O`.	c #353329",
"P`.	c #343228",
"Q`.	c #333128",
"R`.	c #34312B",
"S`.	c #35342E",
"T`.	c #413E39",
"U`.	c #1D1812",
"V`.	c #130F0A",
"W`.	c #100E09",
"X`.	c #110F0B",
"Y`.	c #14120E",
"Z`.	c #151310",
"``.	c #191714",
"  +	c #1E1B14",
". +	c #1E1B13",
"+ +	c #1C1913",
"@ +	c #1A1812",
"# +	c #191711",
"$ +	c #17150F",
"% +	c #13120E",
"& +	c #161511",
"* +	c #191814",
"= +	c #1C1915",
"- +	c #1C1A14",
"; +	c #1F1C14",
"> +	c #1F1C15",
", +	c #1F1C17",
"' +	c #1C1611",
") +	c #1D1A15",
"! +	c #23221C",
"~ +	c #26241F",
"{ +	c #1C1A15",
"] +	c #191613",
"^ +	c #282722",
"/ +	c #282721",
"( +	c #292822",
"_ +	c #2A2823",
": +	c #2C2821",
"< +	c #2E2A21",
"[ +	c #25211B",
"} +	c #1F1B17",
"| +	c #4D4B43",
"1 +	c #4B4842",
"2 +	c #484640",
"3 +	c #4A4943",
"4 +	c #4C4A45",
"5 +	c #494843",
"6 +	c #474741",
"7 +	c #5E5B54",
"8 +	c #5E5C54",
"9 +	c #5C5B53",
"0 +	c #53524A",
"a +	c #494941",
"b +	c #2B2A27",
"c +	c #535047",
"d +	c #525046",
"e +	c #535146",
"f +	c #1B1B16",
"g +	c #6F6B62",
"h +	c #6A685D",
"i +	c #68665C",
"j +	c #67655C",
"k +	c #67645C",
"l +	c #68665E",
"m +	c #6B6A63",
"n +	c #716F69",
"o +	c #6E6D66",
"p +	c #686760",
"q +	c #5D5C56",
"r +	c #575650",
"s +	c #5E5D57",
"t +	c #67655D",
"u +	c #64615C",
"v +	c #635F5C",
"w +	c #3E382F",
"x +	c #2E2920",
"y +	c #2B2820",
"z +	c #2E2B24",
"A +	c #44413C",
"B +	c #4D4940",
"C +	c #47423A",
"D +	c #494439",
"E +	c #49443A",
"F +	c #4A453A",
"G +	c #4A453B",
"H +	c #4B473D",
"I +	c #4A463E",
"J +	c #433F3D",
"K +	c #302723",
"L +	c #3A2E27",
"M +	c #382E27",
"N +	c #39332D",
"O +	c #494740",
"P +	c #5E5C55",
"Q +	c #5F5D56",
"R +	c #5C5955",
"S +	c #605C51",
"T +	c #605C50",
"U +	c #423D39",
"V +	c #615D59",
"W +	c #524E4C",
"X +	c #555250",
"Y +	c #5B5755",
"Z +	c #5F5B59",
"` +	c #615D5B",
" .+	c #625E5B",
"..+	c #605C59",
"+.+	c #5E5B58",
"@.+	c #5C5856",
"#.+	c #585453",
"$.+	c #5F5C59",
"%.+	c #66625F",
"&.+	c #6A6663",
"*.+	c #181615",
"=.+	c #444542",
"-.+	c #656157",
";.+	c #1F1E1A",
">.+	c #79756D",
",.+	c #747167",
"'.+	c #736F67",
").+	c #726E67",
"!.+	c #716E69",
"~.+	c #73706B",
"{.+	c #74716D",
"].+	c #787671",
"^.+	c #807E7B",
"/.+	c #7D7B78",
"(.+	c #615F5B",
"_.+	c #6A6863",
":.+	c #6F6B67",
"<.+	c #746F6A",
"[.+	c #736F68",
"}.+	c #69635F",
"|.+	c #5D5754",
"1.+	c #585551",
"2.+	c #5A5856",
"3.+	c #6F675D",
"4.+	c #635A51",
"5.+	c #373128",
"6.+	c #342F28",
"7.+	c #54504E",
"8.+	c #5A544D",
"9.+	c #5C554C",
"0.+	c #5E564D",
"a.+	c #585451",
"b.+	c #54504F",
"c.+	c #35302E",
"d.+	c #3D302C",
"e.+	c #4C3933",
"f.+	c #4E3A32",
"g.+	c #43342E",
"h.+	c #413833",
"i.+	c #433C38",
"j.+	c #65625E",
"k.+	c #65605F",
"l.+	c #65605C",
"m.+	c #5F5E5B",
"n.+	c #666461",
"o.+	c #6D6A67",
"p.+	c #6F6B68",
"q.+	c #6E6B67",
"r.+	c #6F6C68",
"s.+	c #6E6B68",
"t.+	c #6F6C69",
"u.+	c #716E6A",
"v.+	c #74716C",
"w.+	c #75716D",
"x.+	c #75726E",
"y.+	c #75706E",
"z.+	c #726E6B",
"A.+	c #716D6A",
"B.+	c #706C69",
"C.+	c #706B66",
"D.+	c #736E68",
"E.+	c #797369",
"F.+	c #645E5A",
"G.+	c #585350",
"H.+	c #534E4B",
"I.+	c #524C4A",
"J.+	c #534D4B",
"K.+	c #5A5955",
"L.+	c #53504E",
"M.+	c #4C4948",
"N.+	c #4E4B4B",
"O.+	c #565352",
"P.+	c #635F5F",
"Q.+	c #6D6B66",
"R.+	c #6E6C66",
"S.+	c #605F5A",
"T.+	c #383432",
"U.+	c #615D53",
"V.+	c #727066",
"W.+	c #716F67",
"X.+	c #6F6C65",
"Y.+	c #6B6964",
"Z.+	c #706F6C",
"`.+	c #757572",
" ++	c #6B6B68",
".++	c #6E6B65",
"+++	c #5F5A57",
"@++	c #5C5653",
"#++	c #625F5B",
"$++	c #6D645C",
"%++	c #5E554B",
"&++	c #494644",
"*++	c #574F47",
"=++	c #595149",
"-++	c #554F49",
";++	c #382B27",
">++	c #4C362F",
",++	c #4F372D",
"'++	c #42312A",
")++	c #5E5C59",
"!++	c #5A5756",
"~++	c #565453",
"{++	c #555552",
"]++	c #5D5C59",
"^++	c #63625E",
"/++	c #63615F",
"(++	c #63635F",
"_++	c #656461",
":++	c #6B6A66",
"<++	c #6A6866",
"[++	c #686664",
"}++	c #666462",
"|++	c #736F66",
"1++	c #5C5754",
"2++	c #504C4A",
"3++	c #464241",
"4++	c #15151D",
"5++	c #14141C",
"6++	c #08090F",
"7++	c #3E3B3C",
"8++	c #0F0B10",
"9++	c #54534D",
"0++	c #494846",
"a++	c #4E4D4C",
"b++	c #5E5D5C",
"c++	c #5C5B5A",
"d++	c #4A4544",
"e++	c #383129",
"f++	c #28241F",
"g++	c #3E3937",
"h++	c #403B37",
"i++	c #463E38",
"j++	c #463D39",
"k++	c #261A16",
"l++	c #3D261F",
"m++	c #462B21",
"n++	c #39251F",
"o++	c #271E1B",
"p++	c #4C4949",
"q++	c #252827",
"r++	c #262928",
"s++	c #4B4A48",
"t++	c #4F4D4D",
"u++	c #494848",
"v++	c #484747",
"w++	c #474646",
"x++	c #524E4D",
"y++	c #191B22",
"z++	c #15171F",
"A++	c #10121B",
"B++	c #13131C",
"C++	c #0D0D14",
"D++	c #03050A",
"E++	c #020309",
"F++	c #585751",
"G++	c #595953",
"H++	c #53524B",
"I++	c #3C3838",
"J++	c #4C453E",
"K++	c #1A0E0B",
"L++	c #351D15",
"M++	c #43251B",
"N++	c #1E1311",
"O++	c #474343",
"P++	c #4C494A",
"Q++	c #4A4747",
"R++	c #0A0B0A",
"S++	c #0A0C0D",
"T++	c #0A0D0E",
"U++	c #090C0D",
"V++	c #0B0E0E",
"W++	c #111413",
"X++	c #1C1E25",
"Y++	c #13151E",
"Z++	c #14151E",
"`++	c #0E0F16",
" @+	c #0C0D14",
".@+	c #0F1017",
"+@+	c #3E3A3B",
"@@+	c #403E37",
"#@+	c #69665E",
"$@+	c #646159",
"%@+	c #383332",
"&@+	c #141016",
"*@+	c #444243",
"=@+	c #524F4F",
"-@+	c #5D5753",
";@+	c #635C57",
">@+	c #49433D",
",@+	c #393433",
"'@+	c #190B07",
")@+	c #361B15",
"!@+	c #43231A",
"~@+	c #351D16",
"{@+	c #1D110D",
"]@+	c #140E0B",
"^@+	c #080A0B",
"/@+	c #090B0B",
"(@+	c #39383A",
"_@+	c #1B1C23",
":@+	c #1A1B23",
"<@+	c #17181F",
"[@+	c #14151C",
"}@+	c #222228",
"|@+	c #28282E",
"1@+	c #191921",
"2@+	c #16181F",
"3@+	c #15161D",
"4@+	c #3B3839",
"5@+	c #595654",
"6@+	c #494543",
"7@+	c #524F47",
"8@+	c #67645B",
"9@+	c #7B786E",
"0@+	c #7C796E",
"a@+	c #7A776C",
"b@+	c #726F65",
"c@+	c #6E6A61",
"d@+	c #3F3C3D",
"e@+	c #312D31",
"f@+	c #19151B",
"g@+	c #474546",
"h@+	c #454445",
"i@+	c #5E5956",
"j@+	c #1C0F0A",
"k@+	c #341C17",
"l@+	c #3E221B",
"m@+	c #321D16",
"n@+	c #1D120D",
"o@+	c #3B3B3E",
"p@+	c #38383B",
"q@+	c #39383C",
"r@+	c #39383B",
"s@+	c #3E3D3E",
"t@+	c #2C292E",
"u@+	c #2E2B2F",
"v@+	c #28282D",
"w@+	c #1D1E24",
"x@+	c #79776D",
"y@+	c #76746A",
"z@+	c #727067",
"A@+	c #6A6861",
"B@+	c #595852",
"C@+	c #555450",
"D@+	c #302C31",
"E@+	c #1F1B23",
"F@+	c #221E23",
"G@+	c #342F30",
"H@+	c #100908",
"I@+	c #1C0F0D",
"J@+	c #23130F",
"K@+	c #1E120E",
"L@+	c #140C0A",
"M@+	c #3A3A3D",
"N@+	c #37383C",
"O@+	c #323337",
"P@+	c #2F3034",
"Q@+	c #434041",
"R@+	c #0F0B0A",
"S@+	c #0F1111",
"T@+	c #51524C",
"U@+	c #505049",
"V@+	c #4D4E48",
"W@+	c #151119",
"X@+	c #131310",
"Y@+	c #070808",
"Z@+	c #191B20",
"`@+	c #555452",
" #+	c #5B5850",
".#+	c #181919",
"+#+	c #0F1116",
"@#+	c #0A070E",
"##+	c #110E15",
"$#+	c #292427",
"%#+	c #2C272A",
"&#+	c #292429",
"*#+	c #1B1D21",
"=#+	c #1A1C20",
"-#+	c #151719",
";#+	c #1A1415",
">#+	c #1C1515",
",#+	c #1E1718",
"'#+	c #05080D",
")#+	c #05080F",
"!#+	c #080A11",
"~#+	c #070910",
"{#+	c #080A0F",
"]#+	c #06080C",
"^#+	c #0D1012",
"/#+	c #0A0C11",
"(#+	c #080409",
"_#+	c #292527",
":#+	c #1D1B17",
"<#+	c #241D1F",
"[#+	c #0D0808",
"}#+	c #171511",
"|#+	c #191713",
"1#+	c #181612",
"2#+	c #171310",
"3#+	c #090604",
"4#+	c #070502",
"5#+	c #090503",
"6#+	c #080402",
"7#+	c #080602",
"8#+	c #080603",
"9#+	c #1E1B16",
"0#+	c #111210",
"a#+	c #141412",
"b#+	c #545147",
"c#+	c #3E3B32",
"d#+	c #312E28",
"e#+	c #444342",
"f#+	c #3C352F",
"g#+	c #221B17",
"h#+	c #0B0503",
"i#+	c #0C0807",
"j#+	c #4A433B",
"k#+	c #4A4540",
"l#+	c #4A443F",
"m#+	c #49433E",
"n#+	c #443D37",
"o#+	c #3D3631",
"p#+	c #27211D",
"q#+	c #383430",
"r#+	c #201D16",
"s#+	c #211D16",
"t#+	c #2A221B",
"u#+	c #272017",
"v#+	c #241E14",
"w#+	c #241D14",
"x#+	c #211A12",
"y#+	c #1F1811",
"z#+	c #1A130B",
"A#+	c #1C160D",
"B#+	c #1C170E",
"C#+	c #1D1912",
"D#+	c #1B1914",
"E#+	c #090705",
"F#+	c #413D34",
"G#+	c #423E35",
"H#+	c #3E3A33",
"I#+	c #4E4940",
"J#+	c #575147",
"K#+	c #625A53",
"L#+	c #685F57",
"M#+	c #5D524A",
"N#+	c #50463E",
"O#+	c #433E39",
"P#+	c #424245",
"Q#+	c #414145",
"R#+	c #434546",
"S#+	c #363839",
"T#+	c #352F30",
"U#+	c #332E2E",
"V#+	c #1C1814",
"W#+	c #716A61",
"X#+	c #847C73",
"Y#+	c #4C473D",
"Z#+	c #333027",
"`#+	c #54514A",
" $+	c #56534B",
".$+	c #53524C",
"+$+	c #58544D",
"@$+	c #58544C",
"#$+	c #7B756A",
"$$+	c #716B65",
"%$+	c #514E4D",
"&$+	c #4E4943",
"*$+	c #534F46",
"=$+	c #5D564F",
"-$+	c #534C46",
";$+	c #070202",
">$+	c #504F4D",
",$+	c #655D59",
"'$+	c #5F5852",
")$+	c #5C544E",
"!$+	c #544C46",
"~$+	c #4D453E",
"{$+	c #403934",
"]$+	c #6C6965",
"^$+	c #4C4744",
"/$+	c #64635B",
"($+	c #525050",
"_$+	c #3A3029",
":$+	c #43382F",
"<$+	c #493B30",
"[$+	c #47382D",
"}$+	c #443529",
"|$+	c #36291F",
"1$+	c #30241B",
"2$+	c #291E15",
"3$+	c #291E14",
"4$+	c #2C2116",
"5$+	c #32281C",
"6$+	c #37332D",
"7$+	c #4D4640",
"8$+	c #4D4740",
"9$+	c #4A4741",
"0$+	c #484342",
"a$+	c #4F4A40",
"b$+	c #4E4941",
"c$+	c #6A6459",
"d$+	c #716A60",
"e$+	c #756D63",
"f$+	c #766D64",
"g$+	c #786F65",
"h$+	c #776E64",
"i$+	c #786F64",
"j$+	c #766E62",
"k$+	c #746C5F",
"l$+	c #73695D",
"m$+	c #6C6055",
"n$+	c #594F45",
"o$+	c #39302A",
"p$+	c #5F5651",
"q$+	c #877C73",
"r$+	c #777269",
"s$+	c #585757",
"t$+	c #585859",
"u$+	c #413B3B",
"v$+	c #423D3C",
"w$+	c #423C3C",
"x$+	c #352F2F",
"y$+	c #201B17",
"z$+	c #746E64",
"A$+	c #898276",
"B$+	c #312E26",
"C$+	c #616058",
"D$+	c #64625A",
"E$+	c #5F5F59",
"F$+	c #5C5B56",
"G$+	c #585655",
"H$+	c #726B62",
"I$+	c #928B7E",
"J$+	c #A79F90",
"K$+	c #A49C8F",
"L$+	c #625D59",
"M$+	c #2A2525",
"N$+	c #615A4D",
"O$+	c #686052",
"P$+	c #686053",
"Q$+	c #4B4948",
"R$+	c #4C4642",
"S$+	c #373A3A",
"T$+	c #444748",
"U$+	c #474A4C",
"V$+	c #505253",
"W$+	c #5D5E5C",
"X$+	c #4A4848",
"Y$+	c #191B1A",
"Z$+	c #665F5B",
"`$+	c #504944",
" %+	c #726B63",
".%+	c #787167",
"+%+	c #7B7368",
"@%+	c #797067",
"#%+	c #7A7369",
"$%+	c #716B64",
"%%+	c #2F2D28",
"&%+	c #3C3530",
"*%+	c #4F4035",
"=%+	c #4F3E33",
"-%+	c #4B392E",
";%+	c #47372A",
">%+	c #433225",
",%+	c #3B2C22",
"'%+	c #2A1D13",
")%+	c #2A1C11",
"!%+	c #3D362C",
"~%+	c #3B3634",
"{%+	c #484240",
"]%+	c #4B443A",
"^%+	c #4A4239",
"/%+	c #0D0908",
"(%+	c #524B42",
"_%+	c #71695E",
":%+	c #70675D",
"<%+	c #72685E",
"[%+	c #736A5E",
"}%+	c #72695E",
"|%+	c #746A5E",
"1%+	c #756A5E",
"2%+	c #746A5D",
"3%+	c #6A5F54",
"4%+	c #5E5348",
"5%+	c #4E4339",
"6%+	c #3B302A",
"7%+	c #6D6158",
"8%+	c #A59686",
"9%+	c #AB9B88",
"0%+	c #9B8F7E",
"a%+	c #7D7668",
"b%+	c #55504E",
"c%+	c #45413F",
"d%+	c #4B4544",
"e%+	c #57514E",
"f%+	c #605B59",
"g%+	c #6B6563",
"h%+	c #67605E",
"i%+	c #59514E",
"j%+	c #36302D",
"k%+	c #6F6960",
"l%+	c #706A61",
"m%+	c #54544E",
"n%+	c #585952",
"o%+	c #5E5E59",
"p%+	c #272225",
"q%+	c #6F685E",
"r%+	c #938A7D",
"s%+	c #ABA292",
"t%+	c #A8A092",
"u%+	c #898379",
"v%+	c #69635D",
"w%+	c #56524F",
"x%+	c #6A6256",
"y%+	c #6A6053",
"z%+	c #6C6153",
"A%+	c #6B6052",
"B%+	c #201C19",
"C%+	c #4F4C4B",
"D%+	c #4F4B4B",
"E%+	c #524D4D",
"F%+	c #4D4746",
"G%+	c #453D39",
"H%+	c #3A3B3F",
"I%+	c #3D3D42",
"J%+	c #48484A",
"K%+	c #4A484A",
"L%+	c #5B5450",
"M%+	c #4E4845",
"N%+	c #1D1917",
"O%+	c #5A5652",
"P%+	c #443E3B",
"Q%+	c #5F5853",
"R%+	c #7A7066",
"S%+	c #7D7368",
"T%+	c #7A6E65",
"U%+	c #7A7167",
"V%+	c #5A5451",
"W%+	c #272520",
"X%+	c #7B776E",
"Y%+	c #3F342E",
"Z%+	c #493A33",
"`%+	c #4A3A32",
" &+	c #43322A",
".&+	c #403026",
"+&+	c #3D2D23",
"@&+	c #382920",
"#&+	c #30221A",
"$&+	c #281B12",
"%&+	c #2A1D12",
"&&+	c #332619",
"*&+	c #4E4740",
"=&+	c #2D2B25",
"-&+	c #06090A",
";&+	c #4B4539",
">&+	c #494338",
",&+	c #534B40",
"'&+	c #6F675A",
")&+	c #6F675B",
"!&+	c #6E665A",
"~&+	c #736A5C",
"{&+	c #746B5C",
"]&+	c #766C5E",
"^&+	c #6F6558",
"/&+	c #60574B",
"(&+	c #4E453A",
"_&+	c #453831",
":&+	c #706355",
"<&+	c #AB9D84",
"[&+	c #BAA98F",
"}&+	c #B6A78C",
"|&+	c #9D927C",
"1&+	c #797161",
"2&+	c #444038",
"3&+	c #15120B",
"4&+	c #817C78",
"5&+	c #7A7570",
"6&+	c #58514A",
"7&+	c #575049",
"8&+	c #454641",
"9&+	c #4D4B4B",
"0&+	c #110905",
"a&+	c #362D27",
"b&+	c #4D4238",
"c&+	c #1F150B",
"d&+	c #2E241B",
"e&+	c #4E4843",
"f&+	c #878073",
"g&+	c #A39B8D",
"h&+	c #9C9588",
"i&+	c #79746B",
"j&+	c #534D49",
"k&+	c #6B665C",
"l&+	c #756E5F",
"m&+	c #736958",
"n&+	c #776B5A",
"o&+	c #7A6D5B",
"p&+	c #6C6050",
"q&+	c #2A261F",
"r&+	c #2D2823",
"s&+	c #484443",
"t&+	c #211A11",
"u&+	c #1E170F",
"v&+	c #160E06",
"w&+	c #17100A",
"x&+	c #464747",
"y&+	c #413D3E",
"z&+	c #4B4542",
"A&+	c #4A4541",
"B&+	c #332F2D",
"C&+	c #736C61",
"D&+	c #787065",
"E&+	c #7E7468",
"F&+	c #7C7367",
"G&+	c #716B63",
"H&+	c #2A2923",
"I&+	c #403F37",
"J&+	c #747168",
"K&+	c #7D786E",
"L&+	c #312B27",
"M&+	c #3E332F",
"N&+	c #40332F",
"O&+	c #3E302B",
"P&+	c #3A2D26",
"Q&+	c #342720",
"R&+	c #362821",
"S&+	c #2C2019",
"T&+	c #3F3830",
"U&+	c #45423B",
"V&+	c #3F3D36",
"W&+	c #070A0C",
"X&+	c #36322C",
"Y&+	c #453B34",
"Z&+	c #39332B",
"`&+	c #2D2822",
" *+	c #1B1613",
".*+	c #312A22",
"+*+	c #50483C",
"@*+	c #645C4F",
"#*+	c #6B6457",
"$*+	c #6E6558",
"%*+	c #706659",
"&*+	c #72695B",
"**+	c #74695C",
"=*+	c #766B5E",
"-*+	c #786E5F",
";*+	c #796E60",
">*+	c #6A6056",
",*+	c #544D43",
"'*+	c #302625",
")*+	c #352826",
"!*+	c #9F8F77",
"~*+	c #BEA98F",
"{*+	c #C2B092",
"]*+	c #B09F86",
"^*+	c #887868",
"/*+	c #554C3F",
"(*+	c #3A3228",
"_*+	c #3C352B",
":*+	c #4C4643",
"<*+	c #615C59",
"[*+	c #6B6763",
"}*+	c #5F574E",
"|*+	c #7D726A",
"1*+	c #7C726B",
"2*+	c #6A625B",
"3*+	c #20180F",
"4*+	c #4F4339",
"5*+	c #948478",
"6*+	c #B9A593",
"7*+	c #B29E89",
"8*+	c #8F7B69",
"9*+	c #615042",
"0*+	c #4F4435",
"a*+	c #453F3A",
"b*+	c #736D63",
"c*+	c #4D4743",
"d*+	c #716959",
"e*+	c #716655",
"f*+	c #786A56",
"g*+	c #8F7F68",
"h*+	c #A09079",
"i*+	c #948674",
"j*+	c #7D7163",
"k*+	c #584E42",
"l*+	c #564E43",
"m*+	c #61594D",
"n*+	c #675D53",
"o*+	c #6C6158",
"p*+	c #5E554E",
"q*+	c #4D4948",
"r*+	c #201A14",
"s*+	c #82735F",
"t*+	c #8E7E67",
"u*+	c #776851",
"v*+	c #5F503A",
"w*+	c #4F412F",
"x*+	c #564C3C",
"y*+	c #3B393D",
"z*+	c #403D3E",
"A*+	c #6F6A66",
"B*+	c #423E3B",
"C*+	c #70685D",
"D*+	c #6F685F",
"E*+	c #342D2C",
"F*+	c #392F2E",
"G*+	c #372B2B",
"H*+	c #312725",
"I*+	c #2D2320",
"J*+	c #3F342C",
"K*+	c #524538",
"L*+	c #51463B",
"M*+	c #191213",
"N*+	c #424038",
"O*+	c #050809",
"P*+	c #0F1112",
"Q*+	c #48453C",
"R*+	c #413931",
"S*+	c #241F19",
"T*+	c #110D0A",
"U*+	c #0F0B09",
"V*+	c #363229",
"W*+	c #3B342A",
"X*+	c #50483B",
"Y*+	c #5D5648",
"Z*+	c #625B50",
"`*+	c #676054",
" =+	c #746B5D",
".=+	c #776E5F",
"+=+	c #786F60",
"@=+	c #7B7262",
"#=+	c #7C7363",
"$=+	c #7D7364",
"%=+	c #797163",
"&=+	c #1A0F10",
"*=+	c #A0907C",
"==+	c #C7B49B",
"-=+	c #CBBB9C",
";=+	c #BCAE91",
">=+	c #938572",
",=+	c #6D6254",
"'=+	c #635C4C",
")=+	c #4F483C",
"!=+	c #867E73",
"~=+	c #9F9886",
"{=+	c #615948",
"]=+	c #3E362C",
"^=+	c #4D4742",
"/=+	c #847B70",
"(=+	c #8D8378",
"_=+	c #58534E",
":=+	c #1C150F",
"<=+	c #4E4438",
"[=+	c #A19387",
"}=+	c #CDBCAA",
"|=+	c #DCCBB2",
"1=+	c #DAC7AD",
"2=+	c #CBB8A0",
"3=+	c #B2A08B",
"4=+	c #958875",
"5=+	c #665D4F",
"6=+	c #726C64",
"7=+	c #59554D",
"8=+	c #5B544A",
"9=+	c #615A4C",
"0=+	c #635847",
"a=+	c #70634E",
"b=+	c #97886D",
"c=+	c #BEAC8E",
"d=+	c #C2AF95",
"e=+	c #B5A28A",
"f=+	c #8F7E66",
"g=+	c #796A52",
"h=+	c #796A54",
"i=+	c #91826E",
"j=+	c #A29481",
"k=+	c #AD9F8F",
"l=+	c #938978",
"m=+	c #514A3E",
"n=+	c #302A26",
"o=+	c #090508",
"p=+	c #130D05",
"q=+	c #59503D",
"r=+	c #B3A68B",
"s=+	c #D2C3A1",
"t=+	c #BCAA87",
"u=+	c #9C8868",
"v=+	c #8A785A",
"w=+	c #93866D",
"x=+	c #2C2B31",
"y=+	c #676660",
"z=+	c #74726C",
"A=+	c #797570",
"B=+	c #575349",
"C=+	c #2E2929",
"D=+	c #362F2F",
"E=+	c #342B2B",
"F=+	c #302827",
"G=+	c #2A2221",
"H=+	c #322B28",
"I=+	c #554A3D",
"J=+	c #544A3E",
"K=+	c #4B4339",
"L=+	c #151114",
"M=+	c #49463E",
"N=+	c #3F3937",
"O=+	c #4A433F",
"P=+	c #585048",
"Q=+	c #564B45",
"R=+	c #120D0B",
"S=+	c #4C463B",
"T=+	c #534D42",
"U=+	c #534F44",
"V=+	c #555147",
"W=+	c #796F62",
"X=+	c #7B7263",
"Y=+	c #7C7264",
"Z=+	c #7E7466",
"`=+	c #807668",
" -+	c #7F7567",
".-+	c #797164",
"+-+	c #0E0709",
"@-+	c #483E37",
"#-+	c #A99B8B",
"$-+	c #D0C0AA",
"%-+	c #C9BAA0",
"&-+	c #B7AA8F",
"*-+	c #948874",
"=-+	c #74685C",
"--+	c #544A43",
";-+	c #39312E",
">-+	c #4A423B",
",-+	c #C0B5A2",
"'-+	c #C3B8A1",
")-+	c #776C59",
"!-+	c #50463F",
"~-+	c #443E3C",
"{-+	c #47403C",
"]-+	c #70665E",
"^-+	c #8A8074",
"/-+	c #90867A",
"(-+	c #898175",
"_-+	c #574F4A",
":-+	c #18110C",
"<-+	c #74685E",
"[-+	c #C8BAA8",
"}-+	c #D9C9B2",
"|-+	c #DCCAB2",
"1-+	c #DCC9B0",
"2-+	c #DFCCB2",
"3-+	c #DBC9B0",
"4-+	c #C4B49F",
"5-+	c #7D7266",
"6-+	c #595350",
"7-+	c #483E34",
"8-+	c #4A3E31",
"9-+	c #8C7A61",
"0-+	c #BDA988",
"a-+	c #C7B092",
"b-+	c #C3AC8E",
"c-+	c #AD9677",
"d-+	c #A38E6E",
"e-+	c #A69072",
"f-+	c #BFAB8E",
"g-+	c #D0C1A5",
"h-+	c #D6C9B0",
"i-+	c #B6A996",
"j-+	c #1E1512",
"k-+	c #2F2828",
"l-+	c #120B0B",
"m-+	c #130C08",
"n-+	c #21190E",
"o-+	c #695C49",
"p-+	c #BBAD92",
"q-+	c #DCCEAC",
"r-+	c #D4C29D",
"s-+	c #C5B08E",
"t-+	c #B9A788",
"u-+	c #B9AB90",
"v-+	c #80786E",
"w-+	c #585654",
"x-+	c #332D2E",
"y-+	c #32292B",
"z-+	c #271F1D",
"A-+	c #312B29",
"B-+	c #362D2D",
"C-+	c #4A3F36",
"D-+	c #1D1615",
"E-+	c #181010",
"F-+	c #2F2C26",
"G-+	c #25231C",
"H-+	c #34322B",
"I-+	c #55514A",
"J-+	c #5C574E",
"K-+	c #413D35",
"L-+	c #332D27",
"M-+	c #393330",
"N-+	c #4D463D",
"O-+	c #524C42",
"P-+	c #545148",
"Q-+	c #7B7467",
"R-+	c #7E7467",
"S-+	c #7F7667",
"T-+	c #827869",
"U-+	c #83796A",
"V-+	c #82796B",
"W-+	c #7A7267",
"X-+	c #4D4843",
"Y-+	c #0F090A",
"Z-+	c #ABA092",
"`-+	c #D1C3AC",
" ;+	c #C7BA9F",
".;+	c #AEA489",
"+;+	c #968E78",
"@;+	c #83796B",
"#;+	c #7B7465",
"$;+	c #5A5349",
"%;+	c #B2A691",
"&;+	c #B3A58D",
"*;+	c #796C58",
"=;+	c #5B4F40",
"-;+	c #5E564F",
";;+	c #867E71",
">;+	c #8A8175",
",;+	c #827A6F",
"';+	c #1C140D",
");+	c #CDBEAB",
"!;+	c #DCCCB3",
"~;+	c #E0CFB5",
"{;+	c #DFCDB3",
"];+	c #E0D1B4",
"^;+	c #E1D1B6",
"/;+	c #CDBDA7",
"(;+	c #1F1912",
"_;+	c #686761",
":;+	c #5F5D55",
"<;+	c #5B5651",
"[;+	c #5C5752",
"};+	c #2F2A24",
"|;+	c #4E4130",
"1;+	c #86755D",
"2;+	c #BFAD89",
"3;+	c #CDB793",
"4;+	c #CDB892",
"5;+	c #C2AA86",
"6;+	c #BFA883",
"7;+	c #C1AB87",
"8;+	c #D1BC99",
"9;+	c #DBCCAB",
"0;+	c #DDD1B7",
"a;+	c #C0B4A0",
"b;+	c #140D0A",
"c;+	c #362E2A",
"d;+	c #3F382E",
"e;+	c #453B2C",
"f;+	c #544834",
"g;+	c #8C7D5F",
"h;+	c #C5B591",
"i;+	c #E6D7AF",
"j;+	c #E9D8B0",
"k;+	c #E9D8B2",
"l;+	c #DCCCAA",
"m;+	c #CBBDA1",
"n;+	c #7F786B",
"o;+	c #525252",
"p;+	c #545252",
"q;+	c #676360",
"r;+	c #514E47",
"s;+	c #322D2D",
"t;+	c #342E2E",
"u;+	c #322925",
"v;+	c #302620",
"w;+	c #312926",
"x;+	c #3B3028",
"y;+	c #51453A",
"z;+	c #1F1816",
"A;+	c #18100F",
"B;+	c #3C3832",
"C;+	c #322F28",
"D;+	c #47433E",
"E;+	c #3E3834",
"F;+	c #3B352F",
"G;+	c #3E3930",
"H;+	c #504B41",
"I;+	c #5B5951",
"J;+	c #7D776A",
"K;+	c #7F7768",
"L;+	c #807868",
"M;+	c #817668",
"N;+	c #817769",
"O;+	c #81786B",
"P;+	c #756E64",
"Q;+	c #0B0407",
"R;+	c #342B29",
"S;+	c #887E73",
"T;+	c #AB9D8A",
"U;+	c #A79B81",
"V;+	c #978C72",
"W;+	c #918772",
"X;+	c #18120C",
"Y;+	c #665A48",
"Z;+	c #9B8C76",
"`;+	c #988971",
" >+	c #796954",
".>+	c #695A4B",
"+>+	c #6A5D52",
"@>+	c #151717",
"#>+	c #25221B",
"$>+	c #16140D",
"%>+	c #130D08",
"&>+	c #7E7365",
"*>+	c #B7AA97",
"=>+	c #C6B6A0",
"->+	c #CEBDA3",
";>+	c #CFBFA4",
">>+	c #D5C6AB",
",>+	c #D5C6AC",
"'>+	c #C2B59D",
")>+	c #837A67",
"!>+	c #453F32",
"~>+	c #464744",
"{>+	c #595A56",
"]>+	c #504B48",
"^>+	c #191511",
"/>+	c #2B241B",
"(>+	c #AF9F7E",
"_>+	c #C4B08B",
":>+	c #CAB68E",
"<>+	c #C6AE89",
"[>+	c #C0AA84",
"}>+	c #B19E7A",
"|>+	c #B09D7D",
"1>+	c #B8A88C",
"2>+	c #BDB299",
"3>+	c #A49A89",
"4>+	c #0B0605",
"5>+	c #665947",
"6>+	c #7D6D55",
"7>+	c #877456",
"8>+	c #A4906A",
"9>+	c #C2AE84",
"0>+	c #D9C89E",
"a>+	c #DECEA7",
"b>+	c #E1D1AD",
"c>+	c #D1BFA3",
"d>+	c #B2A68D",
"e>+	c #0B0603",
"f>+	c #130E09",
"g>+	c #4D4C46",
"h>+	c #4A4945",
"i>+	c #453E35",
"j>+	c #635A4E",
"k>+	c #493F36",
"l>+	c #625549",
"m>+	c #312823",
"n>+	c #1A1313",
"o>+	c #281F19",
"p>+	c #44392F",
"q>+	c #4D4236",
"r>+	c #170E0D",
"s>+	c #180F0F",
"t>+	c #47463F",
"u>+	c #5E5C56",
"v>+	c #696760",
"w>+	c #67655E",
"x>+	c #322E28",
"y>+	c #0F1110",
"z>+	c #1D2121",
"A>+	c #151817",
"B>+	c #5A5654",
"C>+	c #3C372E",
"D>+	c #504B40",
"E>+	c #525049",
"F>+	c #56524A",
"G>+	c #615D54",
"H>+	c #6C675B",
"I>+	c #71695C",
"J>+	c #736B5D",
"K>+	c #746C5D",
"L>+	c #776E60",
"M>+	c #46423F",
"N>+	c #343031",
"O>+	c #120C10",
"P>+	c #10090A",
"Q>+	c #392F29",
"R>+	c #56483B",
"S>+	c #665845",
"T>+	c #726550",
"U>+	c #8D7F6C",
"V>+	c #928472",
"W>+	c #7D7160",
"X>+	c #493F33",
"Y>+	c #2A211C",
"Z>+	c #76695C",
"`>+	c #A49482",
" ,+	c #A49281",
".,+	c #A4937C",
"+,+	c #9F8E75",
"@,+	c #94836C",
"#,+	c #857560",
"$,+	c #7E6E5D",
"%,+	c #7A6E60",
"&,+	c #615850",
"*,+	c #524C43",
"=,+	c #242018",
"-,+	c #555246",
";,+	c #7C7260",
">,+	c #8A7E69",
",,+	c #91826C",
"',+	c #9B8A73",
"),+	c #A08E76",
"!,+	c #A8977E",
"~,+	c #AC9C82",
"{,+	c #AA9D83",
"],+	c #9F937E",
"^,+	c #9D9282",
"/,+	c #9E9789",
"(,+	c #948F81",
"_,+	c #605E55",
":,+	c #191D1B",
"<,+	c #30291D",
"[,+	c #7E6F56",
"},+	c #AA9876",
"|,+	c #C4B18B",
"1,+	c #C7B28E",
"2,+	c #B9A785",
"3,+	c #8B7B5E",
"4,+	c #6A5B44",
"5,+	c #675A47",
"6,+	c #6C6151",
"7,+	c #978268",
"8,+	c #9C8666",
"9,+	c #A69069",
"0,+	c #AC966F",
"a,+	c #B8A57F",
"b,+	c #B9A685",
"c,+	c #B9A789",
"d,+	c #A19079",
"e,+	c #7D715F",
"f,+	c #494136",
"g,+	c #463E33",
"h,+	c #0A0705",
"i,+	c #A49786",
"j,+	c #A79A86",
"k,+	c #8B7F6F",
"l,+	c #3C382F",
"m,+	c #90836E",
"n,+	c #958772",
"o,+	c #746756",
"p,+	c #443B32",
"q,+	c #1F1A1D",
"r,+	c #464445",
"s,+	c #4F4E47",
"t,+	c #7D7A74",
"u,+	c #7B7972",
"v,+	c #4E4D49",
"w,+	c #6E6966",
"x,+	c #151818",
"y,+	c #0C0D0B",
"z,+	c #484341",
"A,+	c #49423D",
"B,+	c #453E39",
"C,+	c #100B0A",
"D,+	c #847D75",
"E,+	c #322D25",
"F,+	c #534E45",
"G,+	c #564F48",
"H,+	c #615A50",
"I,+	c #0D0605",
"J,+	c #211510",
"K,+	c #57493D",
"L,+	c #7F7162",
"M,+	c #877969",
"N,+	c #726657",
"O,+	c #40362C",
"P,+	c #1C120D",
"Q,+	c #8A7C6B",
"R,+	c #CAB8A2",
"S,+	c #C2AF98",
"T,+	c #A5927A",
"U,+	c #9A8972",
"V,+	c #8E7F6A",
"W,+	c #877867",
"X,+	c #807466",
"Y,+	c #5A514A",
"Z,+	c #36312B",
"`,+	c #2A251E",
" '+	c #504A48",
".'+	c #2E261D",
"+'+	c #867F71",
"@'+	c #A4988B",
"#'+	c #938979",
"$'+	c #796B59",
"%'+	c #806F5A",
"&'+	c #816F5B",
"*'+	c #887861",
"='+	c #8E7E66",
"-'+	c #A19279",
";'+	c #B4A58F",
">'+	c #C3B6A0",
",'+	c #C1B6A2",
"''+	c #AEA393",
")'+	c #1A1714",
"!'+	c #11120F",
"~'+	c #0D0703",
"{'+	c #50432E",
"]'+	c #8C795B",
"^'+	c #BEAA87",
"/'+	c #D2C09B",
"('+	c #C4B294",
"_'+	c #81725C",
":'+	c #A18E73",
"<'+	c #9C8767",
"['+	c #9C8764",
"}'+	c #9A8565",
"|'+	c #9F8C6C",
"1'+	c #9B896E",
"2'+	c #97886F",
"3'+	c #7F725F",
"4'+	c #3D3635",
"5'+	c #322E34",
"6'+	c #25232C",
"7'+	c #0E0804",
"8'+	c #847869",
"9'+	c #8D8271",
"0'+	c #736959",
"a'+	c #0A0606",
"b'+	c #0C0707",
"c'+	c #0D0A08",
"d'+	c #1D1613",
"e'+	c #AEA08C",
"f'+	c #AC9B84",
"g'+	c #867967",
"h'+	c #383329",
"i'+	c #695D4F",
"j'+	c #95866E",
"k'+	c #99866E",
"l'+	c #786653",
"m'+	c #2E2116",
"n'+	c #050100",
"o'+	c #1D1915",
"p'+	c #1A110E",
"q'+	c #424041",
"r'+	c #797870",
"s'+	c #79766F",
"t'+	c #76736D",
"u'+	c #73706A",
"v'+	c #716E68",
"w'+	c #5F5B58",
"x'+	c #6D6965",
"y'+	c #0D0B08",
"z'+	c #54534C",
"A'+	c #423E37",
"B'+	c #110A08",
"C'+	c #3A322C",
"D'+	c #736861",
"E'+	c #8A7C71",
"F'+	c #665A4F",
"G'+	c #595850",
"H'+	c #494645",
"I'+	c #4F443B",
"J'+	c #675F4F",
"K'+	c #3D362B",
"L'+	c #120903",
"M'+	c #B6A892",
"N'+	c #B7A68E",
"O'+	c #AB9B82",
"P'+	c #9C8B74",
"Q'+	c #8F816C",
"R'+	c #857966",
"S'+	c #837869",
"T'+	c #38352E",
"U'+	c #2E2924",
"V'+	c #1A140E",
"W'+	c #88806E",
"X'+	c #988F7C",
"Y'+	c #89806C",
"Z'+	c #7B6F5D",
"`'+	c #7F7260",
" )+	c #847763",
".)+	c #897C68",
"+)+	c #877964",
"@)+	c #8B7D65",
"#)+	c #8F8169",
"$)+	c #A2947B",
"%)+	c #B2A58E",
"&)+	c #BFB39A",
"*)+	c #BBAE99",
"=)+	c #ABA08E",
"-)+	c #0D0A09",
";)+	c #1D1B16",
">)+	c #222424",
",)+	c #111415",
"')+	c #130C06",
"))+	c #483C29",
"!)+	c #736447",
"~)+	c #AD9B7C",
"{)+	c #D2C4A4",
"])+	c #C5B79D",
"^)+	c #817762",
"/)+	c #221C18",
"()+	c #2A2117",
"_)+	c #7F7160",
":)+	c #9D9077",
"<)+	c #97896B",
"[)+	c #928365",
"})+	c #8E7E63",
"|)+	c #918168",
"1)+	c #8B7D68",
"2)+	c #877B68",
"3)+	c #433E3F",
"4)+	c #3B393E",
"5)+	c #2B2930",
"6)+	c #968974",
"7)+	c #372D1F",
"8)+	c #15130F",
"9)+	c #AFA08A",
"0)+	c #AB9980",
"a)+	c #675D4D",
"b)+	c #928268",
"c)+	c #958166",
"d)+	c #79664D",
"e)+	c #382917",
"f)+	c #160B04",
"g)+	c #1A1108",
"h)+	c #221910",
"i)+	c #332C24",
"j)+	c #39322C",
"k)+	c #1B1715",
"l)+	c #211713",
"m)+	c #2C211E",
"n)+	c #434243",
"o)+	c #504F49",
"p)+	c #716E67",
"q)+	c #706D66",
"r)+	c #696762",
"s)+	c #5D5C57",
"t)+	c #585452",
"u)+	c #5D5857",
"v)+	c #453D3D",
"w)+	c #3D3734",
"x)+	c #695B4E",
"y)+	c #8B7B6D",
"z)+	c #917E6F",
"A)+	c #625245",
"B)+	c #160D06",
"C)+	c #14110E",
"D)+	c #53514C",
"E)+	c #5E5C5A",
"F)+	c #363437",
"G)+	c #110B0E",
"H)+	c #1B1314",
"I)+	c #585145",
"J)+	c #4E483B",
"K)+	c #322C23",
"L)+	c #221A13",
"M)+	c #2E221C",
"N)+	c #443629",
"O)+	c #7C6D5B",
"P)+	c #A79780",
"Q)+	c #A5957E",
"R)+	c #94846E",
"S)+	c #0C0E0C",
"T)+	c #58584F",
"U)+	c #535149",
"V)+	c #2A231A",
"W)+	c #7C705F",
"X)+	c #7D7462",
"Y)+	c #706857",
"Z)+	c #665A4C",
"`)+	c #675D4E",
" !+	c #695E51",
".!+	c #6E6456",
"+!+	c #6C604F",
"@!+	c #80735E",
"#!+	c #9B8D76",
"$!+	c #A89884",
"%!+	c #AEA18A",
"&!+	c #A99C87",
"*!+	c #9F927F",
"=!+	c #7E7465",
"-!+	c #4F4741",
";!+	c #3E3E39",
">!+	c #0A0604",
",!+	c #685B4B",
"'!+	c #60553E",
")!+	c #696048",
"!!+	c #897F6C",
"~!+	c #837B6B",
"{!+	c #554F43",
"]!+	c #49413A",
"^!+	c #61594C",
"/!+	c #5F5747",
"(!+	c #5D5546",
"_!+	c #5C5446",
":!+	c #655D50",
"<!+	c #464144",
"[!+	c #3E3A3F",
"}!+	c #625849",
"|!+	c #958673",
"1!+	c #8B7C68",
"2!+	c #5E5241",
"3!+	c #1E1611",
"4!+	c #16120D",
"5!+	c #191210",
"6!+	c #796D5F",
"7!+	c #AD9C85",
"8!+	c #AA977C",
"9!+	c #887A62",
"0!+	c #393226",
"a!+	c #655A49",
"b!+	c #8C795F",
"c!+	c #8C7657",
"d!+	c #7D694A",
"e!+	c #604E35",
"f!+	c #544231",
"g!+	c #1B130C",
"h!+	c #1B1714",
"i!+	c #241914",
"j!+	c #291C19",
"k!+	c #38322C",
"l!+	c #1B1519",
"m!+	c #6C6862",
"n!+	c #6B6861",
"o!+	c #211F1C",
"p!+	c #45403A",
"q!+	c #1C1812",
"r!+	c #4B4237",
"s!+	c #8D826E",
"t!+	c #A79880",
"u!+	c #988673",
"v!+	c #635445",
"w!+	c #565753",
"x!+	c #474647",
"y!+	c #4A494A",
"z!+	c #4B4A4B",
"A!+	c #090404",
"B!+	c #18100E",
"C!+	c #120D09",
"D!+	c #635745",
"E!+	c #8F816A",
"F!+	c #938068",
"G!+	c #948368",
"H!+	c #9F8E74",
"I!+	c #988A72",
"J!+	c #82745E",
"K!+	c #564937",
"L!+	c #32281A",
"M!+	c #19110B",
"N!+	c #4F4F4A",
"O!+	c #575750",
"P!+	c #5D5C54",
"Q!+	c #5D5B53",
"R!+	c #110E0B",
"S!+	c #74685B",
"T!+	c #7E7261",
"U!+	c #786D57",
"V!+	c #746955",
"W!+	c #6E6552",
"X!+	c #4F453A",
"Y!+	c #2C251D",
"Z!+	c #2B2318",
"`!+	c #413728",
" ~+	c #635647",
".~+	c #8F816E",
"+~+	c #9B8E79",
"@~+	c #978B76",
"#~+	c #8F826D",
"$~+	c #938772",
"%~+	c #948776",
"&~+	c #948C7D",
"*~+	c #868072",
"=~+	c #0F1212",
"-~+	c #1E1A13",
";~+	c #62594B",
">~+	c #8C8270",
",~+	c #5E5845",
"'~+	c #241D11",
")~+	c #070405",
"!~+	c #0B0707",
"~~+	c #393638",
"{~+	c #413E42",
"]~+	c #3E3B3E",
"^~+	c #857B6E",
"/~+	c #938975",
"(~+	c #9A8E78",
"_~+	c #A1967D",
":~+	c #A2937D",
"<~+	c #9D907A",
"[~+	c #877A68",
"}~+	c #635A4B",
"|~+	c #3A3127",
"1~+	c #2D231A",
"2~+	c #241B13",
"3~+	c #19130D",
"4~+	c #0E0B0A",
"5~+	c #151110",
"6~+	c #7B6F60",
"7~+	c #AE9E85",
"8~+	c #AB9A7B",
"9~+	c #3C372A",
"0~+	c #2B2E31",
"a~+	c #675C4A",
"b~+	c #89785B",
"c~+	c #897352",
"d~+	c #836D4C",
"e~+	c #806B4D",
"f~+	c #7D694F",
"g~+	c #796651",
"h~+	c #0B0401",
"i~+	c #0E0B09",
"j~+	c #2A1F19",
"k~+	c #2F241E",
"l~+	c #67665F",
"m~+	c #6B6A62",
"n~+	c #696761",
"o~+	c #463E3C",
"p~+	c #574E49",
"q~+	c #584E48",
"r~+	c #534943",
"s~+	c #514740",
"t~+	c #161310",
"u~+	c #1F1713",
"v~+	c #9D8D75",
"w~+	c #AD9B7E",
"x~+	c #A49178",
"y~+	c #95836F",
"z~+	c #5F5042",
"A~+	c #140D07",
"B~+	c #514F4F",
"C~+	c #4C4B4A",
"D~+	c #4A4A4A",
"E~+	c #4B4B4C",
"F~+	c #49494B",
"G~+	c #454547",
"H~+	c #47484A",
"I~+	c #464649",
"J~+	c #080304",
"K~+	c #20160D",
"L~+	c #6E604B",
"M~+	c #9F8F73",
"N~+	c #A89678",
"O~+	c #97856A",
"P~+	c #8B7961",
"Q~+	c #907E68",
"R~+	c #897A67",
"S~+	c #726555",
"T~+	c #0A0504",
"U~+	c #5F605B",
"V~+	c #56564F",
"W~+	c #55554E",
"X~+	c #918575",
"Y~+	c #837562",
"Z~+	c #716351",
"`~+	c #685F51",
" {+	c #4C423B",
".{+	c #1B140E",
"+{+	c #342C23",
"@{+	c #5B4F45",
"#{+	c #897C6C",
"${+	c #958775",
"%{+	c #8A7C69",
"&{+	c #7D6F5C",
"*{+	c #8B7D6A",
"={+	c #9D8E7C",
"-{+	c #A59685",
";{+	c #A69987",
">{+	c #928778",
",{+	c #0E0E0A",
"'{+	c #695F4F",
"){+	c #938778",
"!{+	c #675E53",
"~{+	c #4A4748",
"{{+	c #92887D",
"]{+	c #9D9081",
"^{+	c #9C8F7B",
"/{+	c #998B75",
"({+	c #9D9179",
"_{+	c #A4967E",
":{+	c #AA9C84",
"<{+	c #988875",
"[{+	c #6E6251",
"}{+	c #3E3426",
"|{+	c #241911",
"1{+	c #19110D",
"2{+	c #0F0909",
"3{+	c #070304",
"4{+	c #353133",
"5{+	c #433E3E",
"6{+	c #18110D",
"7{+	c #7C6D5F",
"8{+	c #B09D84",
"9{+	c #AA9778",
"0{+	c #8E7F66",
"a{+	c #40392D",
"b{+	c #191B21",
"c{+	c #332922",
"d{+	c #6B5E4C",
"e{+	c #877357",
"f{+	c #83694A",
"g{+	c #846B4B",
"h{+	c #7F664B",
"i{+	c #0D0401",
"j{+	c #2B201B",
"k{+	c #3A312A",
"l{+	c #463F39",
"m{+	c #48453D",
"n{+	c #64625B",
"o{+	c #16100E",
"p{+	c #403835",
"q{+	c #5B514B",
"r{+	c #5E534B",
"s{+	c #5C5148",
"t{+	c #63574D",
"u{+	c #352C23",
"v{+	c #5A4B39",
"w{+	c #927F66",
"x{+	c #A58F73",
"y{+	c #A18B72",
"z{+	c #94816D",
"A{+	c #130D07",
"B{+	c #525250",
"C{+	c #50514F",
"D{+	c #4A4B4A",
"E{+	c #4D4F4F",
"F{+	c #4A4A4C",
"G{+	c #464749",
"H{+	c #424346",
"I{+	c #424447",
"J{+	c #404244",
"K{+	c #0D0903",
"L{+	c #271D0F",
"M{+	c #695B46",
"N{+	c #978669",
"O{+	c #998768",
"P{+	c #837157",
"Q{+	c #72614C",
"R{+	c #7F705C",
"S{+	c #7F7561",
"T{+	c #595A53",
"U{+	c #53534C",
"V{+	c #595950",
"W{+	c #6B6963",
"X{+	c #5F5E59",
"Y{+	c #0C0804",
"Z{+	c #160F08",
"`{+	c #544C3F",
" ]+	c #8B7F6D",
".]+	c #918570",
"+]+	c #7D715E",
"@]+	c #6B6250",
"#]+	c #675E50",
"$]+	c #655E50",
"%]+	c #6C6255",
"&]+	c #817565",
"*]+	c #7D7260",
"=]+	c #756855",
"-]+	c #887A67",
";]+	c #A1937D",
">]+	c #A99A84",
",]+	c #A69884",
"']+	c #928675",
")]+	c #282B29",
"!]+	c #1F2324",
"~]+	c #141818",
"{]+	c #0F0C07",
"]]+	c #140E08",
"^]+	c #2D2518",
"/]+	c #625A49",
"(]+	c #8D8374",
"_]+	c #3E3938",
":]+	c #8B8273",
"<]+	c #948876",
"[]+	c #938771",
"}]+	c #90816C",
"|]+	c #93856E",
"1]+	c #9E9077",
"2]+	c #A3947A",
"3]+	c #94846D",
"4]+	c #736451",
"5]+	c #201710",
"6]+	c #383334",
"7]+	c #1C140B",
"8]+	c #7D6E5D",
"9]+	c #B39E82",
"0]+	c #AE9979",
"a]+	c #918167",
"b]+	c #443E30",
"c]+	c #1A1D22",
"d]+	c #2B2E33",
"e]+	c #897659",
"f]+	c #887150",
"g]+	c #846C4B",
"h]+	c #846B49",
"i]+	c #7C6345",
"j]+	c #766044",
"k]+	c #50402B",
"l]+	c #23170C",
"m]+	c #19120B",
"n]+	c #1F1B16",
"o]+	c #302924",
"p]+	c #44413A",
"q]+	c #3B3332",
"r]+	c #574D47",
"s]+	c #5E524B",
"t]+	c #62544C",
"u]+	c #6E6056",
"v]+	c #706358",
"w]+	c #110F0A",
"x]+	c #7D7768",
"y]+	c #83725B",
"z]+	c #968367",
"A]+	c #A0896D",
"B]+	c #9B846B",
"C]+	c #8E7C67",
"D]+	c #454745",
"E]+	c #434544",
"F]+	c #4E5051",
"G]+	c #3B3D41",
"H]+	c #313337",
"I]+	c #2E3136",
"J]+	c #2D3033",
"K]+	c #17120B",
"L]+	c #312B1E",
"M]+	c #574A35",
"N]+	c #827157",
"O]+	c #A18D6E",
"P]+	c #7C694E",
"Q]+	c #5A4A37",
"R]+	c #5A5245",
"S]+	c #433F35",
"T]+	c #29251E",
"U]+	c #585852",
"V]+	c #565650",
"W]+	c #54544D",
"X]+	c #58574F",
"Y]+	c #2B2A23",
"Z]+	c #494239",
"`]+	c #7E725F",
" ^+	c #7B6F5C",
".^+	c #665C4B",
"+^+	c #534C3F",
"@^+	c #6B6053",
"#^+	c #67594B",
"$^+	c #807163",
"%^+	c #978873",
"&^+	c #9B8B75",
"*^+	c #9D8D77",
"=^+	c #978974",
"-^+	c #746B5B",
";^+	c #524E46",
">^+	c #1D1F1C",
",^+	c #171A1B",
"'^+	c #0F0C06",
")^+	c #2F2B22",
"!^+	c #4B4136",
"~^+	c #453C2B",
"{^+	c #635B4E",
"]^+	c #504B44",
"^^+	c #413E36",
"/^+	c #5E5650",
"(^+	c #7D7466",
"_^+	c #8F8372",
":^+	c #8F836E",
"<^+	c #8B7E69",
"[^+	c #887964",
"}^+	c #8E8069",
"|^+	c #96876F",
"1^+	c #9B8B72",
"2^+	c #97876D",
"3^+	c #8A7A62",
"4^+	c #725F4C",
"5^+	c #584939",
"6^+	c #110B07",
"7^+	c #2C2113",
"8^+	c #82715B",
"9^+	c #B19B7D",
"0^+	c #AF9978",
"a^+	c #928066",
"b^+	c #463F30",
"c^+	c #2A2D32",
"d^+	c #716454",
"e^+	c #87775C",
"f^+	c #857051",
"g^+	c #7D6647",
"h^+	c #7B6444",
"i^+	c #72593B",
"j^+	c #685133",
"k^+	c #5A472E",
"l^+	c #534230",
"m^+	c #221A12",
"n^+	c #261F1A",
"o^+	c #58504A",
"p^+	c #655952",
"q^+	c #6E6158",
"r^+	c #7E7065",
"s^+	c #807366",
"t^+	c #6E6358",
"u^+	c #9F9B8A",
"v^+	c #B3AC94",
"w^+	c #B0A189",
"x^+	c #AD9A7E",
"y^+	c #A08B6E",
"z^+	c #9C876A",
"A^+	c #958168",
"B^+	c #8A7965",
"C^+	c #574B3D",
"D^+	c #494949",
"E^+	c #545656",
"F^+	c #494B4C",
"G^+	c #625845",
"H^+	c #82735C",
"I^+	c #8E7E61",
"J^+	c #9F8E6D",
"K^+	c #B6A380",
"L^+	c #B5A07F",
"M^+	c #988568",
"N^+	c #5F503C",
"O^+	c #52534C",
"P^+	c #52524B",
"Q^+	c #494841",
"R^+	c #19160F",
"S^+	c #A19589",
"T^+	c #958677",
"U^+	c #847563",
"V^+	c #776955",
"W^+	c #443B35",
"X^+	c #61554C",
"Y^+	c #615449",
"Z^+	c #796B5F",
"`^+	c #8F826E",
" /+	c #8B7D66",
"./+	c #8E7D67",
"+/+	c #9E8F77",
"@/+	c #A49784",
"#/+	c #AB9F8F",
"$/+	c #A39A89",
"%/+	c #746D60",
"&/+	c #26241D",
"*/+	c #313333",
"=/+	c #242829",
"-/+	c #191D1E",
";/+	c #5C5546",
">/+	c #867C6C",
",/+	c #5C4F3B",
"'/+	c #392E20",
")/+	c #0A0A09",
"!/+	c #978F84",
"~/+	c #9A8E82",
"{/+	c #9B8F7F",
"]/+	c #968977",
"^/+	c #968874",
"//+	c #91836E",
"(/+	c #8A7B65",
"_/+	c #8F826A",
":/+	c #998B72",
"</+	c #9D8E73",
"[/+	c #9D8C70",
"}/+	c #9D8C71",
"|/+	c #98856C",
"1/+	c #97846B",
"2/+	c #786853",
"3/+	c #0F0807",
"4/+	c #5D4E3B",
"5/+	c #907F61",
"6/+	c #B19A77",
"7/+	c #B19976",
"8/+	c #958366",
"9/+	c #4B4332",
"0/+	c #303334",
"a/+	c #63594B",
"b/+	c #71624E",
"c/+	c #6E5C44",
"d/+	c #68553A",
"e/+	c #665134",
"f/+	c #664E33",
"g/+	c #6A5135",
"h/+	c #685138",
"i/+	c #6F5B44",
"j/+	c #6D5B46",
"k/+	c #594C38",
"l/+	c #31261A",
"m/+	c #302C2D",
"n/+	c #534A45",
"o/+	c #675D56",
"p/+	c #756960",
"q/+	c #83776C",
"r/+	c #857A6C",
"s/+	c #71665C",
"t/+	c #302A23",
"u/+	c #0C0805",
"v/+	c #958D7E",
"w/+	c #A69C85",
"x/+	c #A9997E",
"y/+	c #A89476",
"z/+	c #998468",
"A/+	c #917D62",
"B/+	c #8D7861",
"C/+	c #867562",
"D/+	c #110A06",
"E/+	c #555555",
"F/+	c #585958",
"G/+	c #4C4E4D",
"H/+	c #1D160E",
"I/+	c #6F6451",
"J/+	c #8A7A61",
"K/+	c #928162",
"L/+	c #9D8C6A",
"M/+	c #B19D7A",
"N/+	c #BCA684",
"O/+	c #AA9579",
"P/+	c #2B1F1B",
"Q/+	c #090405",
"R/+	c #4D4D47",
"S/+	c #4F4E49",
"T/+	c #847C71",
"U/+	c #B2A798",
"V/+	c #9F9180",
"W/+	c #897A68",
"X/+	c #736353",
"Y/+	c #5B4D40",
"Z/+	c #665A50",
"`/+	c #7D7060",
" (+	c #7A6856",
".(+	c #978971",
"+(+	c #A79882",
"@(+	c #B0A28D",
"#(+	c #A29581",
"$(+	c #6F6554",
"%(+	c #252115",
"&(+	c #181B1D",
"*(+	c #1A150C",
"=(+	c #635A49",
"-(+	c #8A7E6B",
";(+	c #847460",
">(+	c #51493A",
",(+	c #4B4535",
"'(+	c #484135",
")(+	c #9D9385",
"!(+	c #9D9080",
"~(+	c #9D8F7C",
"{(+	c #988976",
"](+	c #968673",
"^(+	c #92826E",
"/(+	c #8B7C67",
"((+	c #8A7B66",
"_(+	c #97876F",
":(+	c #9B896F",
"<(+	c #948166",
"[(+	c #958367",
"}(+	c #948066",
"|(+	c #958269",
"1(+	c #7F6E5A",
"2(+	c #0E0705",
"3(+	c #7B6C5C",
"4(+	c #907D64",
"5(+	c #9E8768",
"6(+	c #AF9672",
"7(+	c #AE9671",
"8(+	c #968265",
"9(+	c #4C4332",
"0(+	c #292C30",
"a(+	c #2D2725",
"b(+	c #4F3F2A",
"c(+	c #5F4D34",
"d(+	c #624C34",
"e(+	c #6E553B",
"f(+	c #705740",
"g(+	c #715B44",
"h(+	c #6D5B44",
"i(+	c #63523E",
"j(+	c #332A21",
"k(+	c #4F4843",
"l(+	c #766E64",
"m(+	c #756D62",
"n(+	c #0E0C08",
"o(+	c #5A534A",
"p(+	c #8B8574",
"q(+	c #8E876F",
"r(+	c #8E8068",
"s(+	c #938165",
"t(+	c #8B775D",
"u(+	c #574D40",
"v(+	c #130B06",
"w(+	c #555550",
"x(+	c #61625D",
"y(+	c #666863",
"z(+	c #565855",
"A(+	c #0C0906",
"B(+	c #373025",
"C(+	c #706551",
"D(+	c #7F7256",
"E(+	c #89795A",
"F(+	c #948162",
"G(+	c #AA9775",
"H(+	c #BBA983",
"I(+	c #AB987B",
"J(+	c #665645",
"K(+	c #4C4C46",
"L(+	c #4E4E48",
"M(+	c #4F4F49",
"N(+	c #32322E",
"O(+	c #252623",
"P(+	c #080503",
"Q(+	c #827B6E",
"R(+	c #908574",
"S(+	c #837766",
"T(+	c #736657",
"U(+	c #605447",
"V(+	c #74695A",
"W(+	c #706352",
"X(+	c #6D5D4C",
"Y(+	c #837660",
"Z(+	c #90836D",
"`(+	c #8A7C67",
" _+	c #6D624F",
"._+	c #222728",
"+_+	c #050707",
"@_+	c #605847",
"#_+	c #877B66",
"$_+	c #82745D",
"%_+	c #665744",
"&_+	c #3B312A",
"*_+	c #312D2E",
"=_+	c #0F0904",
"-_+	c #3B3127",
";_+	c #7E735F",
">_+	c #85795E",
",_+	c #7D7157",
"'_+	c #6E624D",
")_+	c #584E3C",
"!_+	c #322A1D",
"~_+	c #1B140A",
"{_+	c #130E06",
"]_+	c #19140E",
"^_+	c #0A0806",
"/_+	c #7D7469",
"(_+	c #999280",
"__+	c #918775",
":_+	c #938874",
"<_+	c #918370",
"[_+	c #938470",
"}_+	c #94846F",
"|_+	c #92846D",
"1_+	c #8C7D67",
"2_+	c #8D7F68",
"3_+	c #93846B",
"4_+	c #918166",
"5_+	c #837256",
"6_+	c #7B6A4E",
"7_+	c #7A694F",
"8_+	c #86755E",
"9_+	c #827460",
"0_+	c #51483A",
"a_+	c #120D0A",
"b_+	c #453A2A",
"c_+	c #8B7A61",
"d_+	c #A89173",
"e_+	c #AD9473",
"f_+	c #B6A078",
"g_+	c #AE9973",
"h_+	c #99876A",
"i_+	c #524939",
"j_+	c #313435",
"k_+	c #433525",
"l_+	c #61523B",
"m_+	c #725C43",
"n_+	c #725B42",
"o_+	c #766248",
"p_+	c #705F45",
"q_+	c #6E5E45",
"r_+	c #191611",
"s_+	c #3C362F",
"t_+	c #363129",
"u_+	c #211F18",
"v_+	c #7B7763",
"w_+	c #756D58",
"x_+	c #6C5D4B",
"y_+	c #796750",
"z_+	c #7C6852",
"A_+	c #847159",
"B_+	c #84705D",
"C_+	c #857565",
"D_+	c #5C5145",
"E_+	c #140D08",
"F_+	c #34332E",
"G_+	c #40403A",
"H_+	c #6C6B63",
"I_+	c #676760",
"J_+	c #413B34",
"K_+	c #54493D",
"L_+	c #675C46",
"M_+	c #6F6147",
"N_+	c #7A6A4E",
"O_+	c #857258",
"P_+	c #9E8A6A",
"Q_+	c #AF9B79",
"R_+	c #A18D72",
"S_+	c #604F3F",
"T_+	c #221610",
"U_+	c #27241F",
"V_+	c #5A5449",
"W_+	c #807669",
"X_+	c #867A69",
"Y_+	c #7B6C5F",
"Z_+	c #7A6D5F",
"`_+	c #605448",
" :+	c #5C5449",
".:+	c #5A4E43",
"+:+	c #56493A",
"@:+	c #70604E",
"#:+	c #83755F",
"$:+	c #867861",
"%:+	c #83735D",
"&:+	c #84755E",
"*:+	c #766857",
"=:+	c #6E6155",
"-:+	c #212527",
";:+	c #151008",
">:+	c #5B5242",
",:+	c #817461",
"':+	c #7D6D58",
"):+	c #665743",
"!:+	c #534637",
"~:+	c #7C7057",
"{:+	c #928063",
"]:+	c #8C785B",
"^:+	c #817053",
"/:+	c #6A5C42",
"(:+	c #4C3F29",
"_:+	c #3D321F",
"::+	c #3A3020",
"<:+	c #3A3429",
"[:+	c #312B24",
"}:+	c #716859",
"|:+	c #8C826F",
"1:+	c #847867",
"2:+	c #817464",
"3:+	c #817362",
"4:+	c #887966",
"5:+	c #8A7A66",
"6:+	c #857561",
"7:+	c #84755F",
"8:+	c #85765F",
"9:+	c #6B5B42",
"0:+	c #5A4A34",
"a:+	c #5A4F3F",
"b:+	c #62594A",
"c:+	c #181410",
"d:+	c #2F2319",
"e:+	c #5D4F3B",
"f:+	c #8A785D",
"g:+	c #A08B6B",
"h:+	c #A89071",
"i:+	c #AF9A78",
"j:+	c #A79474",
"k:+	c #98886F",
"l:+	c #5A5345",
"m:+	c #675843",
"n:+	c #66553E",
"o:+	c #614F37",
"p:+	c #67563A",
"q:+	c #6B593F",
"r:+	c #6E5D43",
"s:+	c #63533E",
"t:+	c #1B1913",
"u:+	c #504B3F",
"v:+	c #5A5444",
"w:+	c #5A5240",
"x:+	c #6E634C",
"y:+	c #7A6A54",
"z:+	c #84745C",
"A:+	c #86745F",
"B:+	c #887866",
"C:+	c #64584A",
"D:+	c #1F1710",
"E:+	c #45453D",
"F:+	c #7C796F",
"G:+	c #817E74",
"H:+	c #7C7B71",
"I:+	c #727168",
"J:+	c #5D5E56",
"K:+	c #15120D",
"L:+	c #585345",
"M:+	c #514A39",
"N:+	c #574C38",
"O:+	c #60513C",
"P:+	c #716347",
"Q:+	c #7C6B50",
"R:+	c #918061",
"S:+	c #A08D6D",
"T:+	c #988569",
"U:+	c #635441",
"V:+	c #3B3025",
"W:+	c #372E29",
"X:+	c #1E1914",
"Y:+	c #52534B",
"Z:+	c #4F504A",
"`:+	c #514C44",
" <+	c #857A6F",
".<+	c #9E9181",
"+<+	c #9A8F7B",
"@<+	c #7C6E5B",
"#<+	c #27201B",
"$<+	c #302C26",
"%<+	c #8F816B",
"&<+	c #94856E",
"*<+	c #908069",
"=<+	c #95856B",
"-<+	c #907F69",
";<+	c #8B7D69",
"><+	c #686051",
",<+	c #3C3930",
"'<+	c #212425",
")<+	c #131617",
"!<+	c #584F3F",
"~<+	c #7F7360",
"{<+	c #7C6D59",
"]<+	c #655743",
"^<+	c #544838",
"/<+	c #52473D",
"(<+	c #261C10",
"_<+	c #71654D",
":<+	c #907E5F",
"<<+	c #937F5F",
"[<+	c #968462",
"}<+	c #978564",
"|<+	c #917F61",
"1<+	c #928166",
"2<+	c #8D8068",
"3<+	c #776B5B",
"4<+	c #6F6251",
"5<+	c #746655",
"6<+	c #756856",
"7<+	c #7D705C",
"8<+	c #80725E",
"9<+	c #7B6C57",
"0<+	c #7C6E57",
"a<+	c #796B54",
"b<+	c #76674F",
"c<+	c #675942",
"d<+	c #1D150D",
"e<+	c #15110D",
"f<+	c #3F382D",
"g<+	c #5E5443",
"h<+	c #756753",
"i<+	c #89775D",
"j<+	c #887559",
"k<+	c #7D6A4D",
"l<+	c #746045",
"m<+	c #78664C",
"n<+	c #77664E",
"o<+	c #726651",
"p<+	c #484237",
"q<+	c #272B2D",
"r<+	c #453722",
"s<+	c #5D4C33",
"t<+	c #655139",
"u<+	c #6D5A40",
"v<+	c #66563C",
"w<+	c #5D503A",
"x<+	c #473E2F",
"y<+	c #40392F",
"z<+	c #433E35",
"A<+	c #342F27",
"B<+	c #5D5041",
"C<+	c #796C57",
"D<+	c #857661",
"E<+	c #82715F",
"F<+	c #847463",
"G<+	c #6D6051",
"H<+	c #3E342A",
"I<+	c #2B2720",
"J<+	c #7E7A6D",
"K<+	c #8A8679",
"L<+	c #949182",
"M<+	c #928E82",
"N<+	c #908F83",
"O<+	c #807F76",
"P<+	c #3E3631",
"Q<+	c #4C453B",
"R<+	c #484334",
"S<+	c #433D2D",
"T<+	c #72624C",
"U<+	c #816F57",
"V<+	c #8A765C",
"W<+	c #88755B",
"X<+	c #7A6B55",
"Y<+	c #887B6B",
"Z<+	c #93877C",
"`<+	c #918679",
" [+	c #645B4F",
".[+	c #56554F",
"+[+	c #B5A796",
"@[+	c #CBBBA6",
"#[+	c #B8A894",
"$[+	c #7C6B5B",
"%[+	c #2C1D16",
"&[+	c #0D0806",
"*[+	c #0C0808",
"=[+	c #0D0807",
"-[+	c #373335",
";[+	c #373436",
">[+	c #332F33",
",[+	c #4C4136",
"'[+	c #978877",
")[+	c #A69580",
"![+	c #9B8A72",
"~[+	c #94826B",
"{[+	c #887661",
"][+	c #7E6F5D",
"^[+	c #655A4E",
"/[+	c #100B06",
"([+	c #544A3D",
"_[+	c #7B6E5E",
":[+	c #776756",
"<[+	c #625443",
"[[+	c #4C4139",
"}[+	c #271D14",
"|[+	c #665944",
"1[+	c #816F54",
"2[+	c #8F7D5E",
"3[+	c #A4926F",
"4[+	c #B5A280",
"5[+	c #BDAB8B",
"6[+	c #B3A389",
"7[+	c #867968",
"8[+	c #5E5244",
"9[+	c #685A4B",
"0[+	c #6B5D4D",
"a[+	c #6A5C4C",
"b[+	c #7B6C58",
"c[+	c #746450",
"d[+	c #71634E",
"e[+	c #70604C",
"f[+	c #786952",
"g[+	c #6C5E4B",
"h[+	c #353031",
"i[+	c #8A7B67",
"j[+	c #9A876F",
"k[+	c #9D896E",
"l[+	c #89735A",
"m[+	c #6C5741",
"n[+	c #473928",
"o[+	c #45392A",
"p[+	c #43392D",
"q[+	c #212327",
"r[+	c #2C2217",
"s[+	c #342818",
"t[+	c #61503A",
"u[+	c #6C5940",
"v[+	c #69553B",
"w[+	c #625134",
"x[+	c #67593B",
"y[+	c #72644D",
"z[+	c #897B69",
"A[+	c #85786B",
"B[+	c #140E0C",
"C[+	c #28211F",
"D[+	c #1F1715",
"E[+	c #1D1413",
"F[+	c #201714",
"G[+	c #1E1715",
"H[+	c #28261E",
"I[+	c #352F25",
"J[+	c #887B67",
"K[+	c #837463",
"L[+	c #817260",
"M[+	c #66594C",
"N[+	c #60594C",
"O[+	c #373228",
"P[+	c #120E09",
"Q[+	c #191610",
"R[+	c #45433C",
"S[+	c #726F66",
"T[+	c #7B776D",
"U[+	c #7A776B",
"V[+	c #828171",
"W[+	c #898678",
"X[+	c #979484",
"Y[+	c #999588",
"Z[+	c #969589",
"`[+	c #7B7A73",
" }+	c #3E352E",
".}+	c #443D30",
"+}+	c #4F4334",
"@}+	c #625642",
"#}+	c #6C5D49",
"$}+	c #776750",
"%}+	c #77644D",
"&}+	c #79684F",
"*}+	c #B5A793",
"=}+	c #AB9F8C",
"-}+	c #2A201A",
";}+	c #544E4B",
">}+	c #18110B",
",}+	c #685E53",
"'}+	c #B8AD98",
")}+	c #CDC0A7",
"!}+	c #C1B199",
"~}+	c #847261",
"{}+	c #1E130D",
"]}+	c #3C3839",
"^}+	c #3F372B",
"/}+	c #958978",
"(}+	c #AC9C86",
"_}+	c #9F9076",
":}+	c #91826B",
"<}+	c #82755F",
"[}+	c #7B6E5C",
"}}+	c #0F0B06",
"|}+	c #52493C",
"1}+	c #796C5C",
"2}+	c #746554",
"3}+	c #342E26",
"4}+	c #635B4A",
"5}+	c #73664F",
"6}+	c #827458",
"7}+	c #9D8D6F",
"8}+	c #B5A484",
"9}+	c #B8A786",
"0}+	c #BBAB8A",
"a}+	c #B0A286",
"b}+	c #817764",
"c}+	c #25262B",
"d}+	c #26272C",
"e}+	c #272018",
"f}+	c #554B3D",
"g}+	c #625446",
"h}+	c #675A4A",
"i}+	c #655848",
"j}+	c #736551",
"k}+	c #72644F",
"l}+	c #71644D",
"m}+	c #786B55",
"n}+	c #6E6350",
"o}+	c #3C382B",
"p}+	c #9E8E75",
"q}+	c #A18F74",
"r}+	c #9E8C6E",
"s}+	c #8B785E",
"t}+	c #6D5C46",
"u}+	c #3D3329",
"v}+	c #362F27",
"w}+	c #1E1915",
"x}+	c #0A0D0F",
"y}+	c #221810",
"z}+	c #312617",
"A}+	c #4A3D2B",
"B}+	c #6A5C44",
"C}+	c #6F5F41",
"D}+	c #6B5A3B",
"E}+	c #625132",
"F}+	c #6C5C3C",
"G}+	c #827155",
"H}+	c #9A8A70",
"I}+	c #918270",
"J}+	c #130B07",
"K}+	c #060201",
"L}+	c #100A08",
"M}+	c #211815",
"N}+	c #1F1513",
"O}+	c #201312",
"P}+	c #211411",
"Q}+	c #191313",
"R}+	c #1A1414",
"S}+	c #1E1F1D",
"T}+	c #070402",
"U}+	c #090704",
"V}+	c #4D453B",
"W}+	c #72685A",
"X}+	c #7D6F61",
"Y}+	c #7B6F5E",
"Z}+	c #756757",
"`}+	c #837566",
" |+	c #857869",
".|+	c #5B5345",
"+|+	c #211B11",
"@|+	c #3E3B35",
"#|+	c #63615C",
"$|+	c #636259",
"%|+	c #6B6B5F",
"&|+	c #726F67",
"*|+	c #817F75",
"=|+	c #858279",
"-|+	c #84837B",
";|+	c #686964",
">|+	c #6E6359",
",|+	c #786E5E",
"'|+	c #655B4C",
")|+	c #4E4639",
"!|+	c #433A2E",
"~|+	c #554A3B",
"{|+	c #5F5141",
"]|+	c #62513E",
"^|+	c #63523F",
"/|+	c #71604C",
"(|+	c #968771",
"_|+	c #A69680",
":|+	c #A1937F",
"<|+	c #766A5A",
"[|+	c #1E1610",
"}|+	c #453D38",
"||+	c #8E8270",
"1|+	c #ACA088",
"2|+	c #A89980",
"3|+	c #7C6956",
"4|+	c #2C1E15",
"5|+	c #191314",
"6|+	c #3F393A",
"7|+	c #0D0A06",
"8|+	c #7E7363",
"9|+	c #938573",
"0|+	c #8B7F69",
"a|+	c #7E725D",
"b|+	c #706553",
"c|+	c #766F5E",
"d|+	c #50473B",
"e|+	c #6F6050",
"f|+	c #483D35",
"g|+	c #4C412F",
"h|+	c #776952",
"i|+	c #9F8F72",
"j|+	c #A79678",
"k|+	c #A69477",
"l|+	c #9F9177",
"m|+	c #28211A",
"n|+	c #1B1812",
"o|+	c #1B160F",
"p|+	c #3B3329",
"q|+	c #564C40",
"r|+	c #5A4F42",
"s|+	c #6B614E",
"t|+	c #6D6050",
"u|+	c #736653",
"v|+	c #6D614E",
"w|+	c #615746",
"x|+	c #524A3B",
"y|+	c #403528",
"z|+	c #756553",
"A|+	c #928168",
"B|+	c #918065",
"C|+	c #7B6B52",
"D|+	c #493F32",
"E|+	c #35312B",
"F|+	c #0D0F12",
"G|+	c #18120D",
"H|+	c #60543D",
"I|+	c #615338",
"J|+	c #605033",
"K|+	c #5E4C2F",
"L|+	c #6A573A",
"M|+	c #7D6C50",
"N|+	c #917F66",
"O|+	c #877762",
"P|+	c #201412",
"Q|+	c #221311",
"R|+	c #251411",
"S|+	c #231511",
"T|+	c #1A1314",
"U|+	c #251E1F",
"V|+	c #292122",
"W|+	c #0E0B08",
"X|+	c #333028",
"Y|+	c #444036",
"Z|+	c #211E16",
"`|+	c #0F0E09",
" 1+	c #322F26",
".1+	c #6F685C",
"+1+	c #706656",
"@1+	c #6F6153",
"#1+	c #7E705E",
"$1+	c #91836F",
"%1+	c #847868",
"&1+	c #564D3F",
"*1+	c #302A1E",
"=1+	c #656460",
"-1+	c #65645F",
";1+	c #686863",
">1+	c #545451",
",1+	c #796E63",
"'1+	c #A29787",
")1+	c #938777",
"!1+	c #7E7564",
"~1+	c #5C5646",
"{1+	c #4B4437",
"]1+	c #3C362C",
"^1+	c #383228",
"/1+	c #55493C",
"(1+	c #5C4D3F",
"_1+	c #574639",
":1+	c #8F7E6C",
"<1+	c #968775",
"[1+	c #877968",
"}1+	c #736756",
"|1+	c #6E6355",
"11+	c #6E6559",
"21+	c #3B322C",
"31+	c #19110C",
"41+	c #867863",
"51+	c #84735E",
"61+	c #6D5C4C",
"71+	c #5D4F42",
"81+	c #534C3D",
"91+	c #453C31",
"01+	c #3C362B",
"a1+	c #443D2F",
"b1+	c #483E2F",
"c1+	c #5B4F3E",
"d1+	c #6B5F4B",
"e1+	c #6F6350",
"f1+	c #655948",
"g1+	c #5A4F40",
"h1+	c #1D2022",
"i1+	c #0E1111",
"j1+	c #100C06",
"k1+	c #766A5B",
"l1+	c #706251",
"m1+	c #4B4032",
"n1+	c #0F0F0D",
"o1+	c #120B05",
"p1+	c #483D2C",
"q1+	c #84735C",
"r1+	c #968669",
"s1+	c #968569",
"t1+	c #908269",
"u1+	c #6A5F4D",
"v1+	c #221C13",
"w1+	c #555047",
"x1+	c #5B5246",
"y1+	c #5E5342",
"z1+	c #605543",
"A1+	c #595140",
"B1+	c #4C4437",
"C1+	c #4C4337",
"D1+	c #65594A",
"E1+	c #6D6151",
"F1+	c #7A6F5A",
"G1+	c #786B57",
"H1+	c #7B6F5B",
"I1+	c #695E4C",
"J1+	c #201A11",
"K1+	c #5E5549",
"L1+	c #6F6352",
"M1+	c #796854",
"N1+	c #7B6951",
"O1+	c #716048",
"P1+	c #715F48",
"Q1+	c #56493B",
"R1+	c #232320",
"S1+	c #282824",
"T1+	c #121414",
"U1+	c #282A2D",
"V1+	c #261D16",
"W1+	c #433829",
"X1+	c #4C3E2B",
"Y1+	c #52422B",
"Z1+	c #58472D",
"`1+	c #68573A",
" 2+	c #766548",
".2+	c #837257",
"+2+	c #7C6C54",
"@2+	c #615541",
"#2+	c #5E5246",
"$2+	c #6F645B",
"%2+	c #645B53",
"&2+	c #3F3933",
"*2+	c #1C1815",
"=2+	c #241717",
"-2+	c #231412",
";2+	c #261511",
">2+	c #251611",
",2+	c #221714",
"'2+	c #372E2F",
")2+	c #332B2B",
"!2+	c #2E2727",
"~2+	c #2D2828",
"{2+	c #1B170F",
"]2+	c #5D554A",
"^2+	c #252017",
"/2+	c #0F0D0A",
"(2+	c #8D7F6E",
"_2+	c #91816F",
":2+	c #9C8D78",
"<2+	c #9A8B7A",
"[2+	c #574C3E",
"}2+	c #525052",
"|2+	c #5A5A58",
"12+	c #575855",
"22+	c #4E4D4D",
"32+	c #4E4C4C",
"42+	c #A59A8B",
"52+	c #9C9181",
"62+	c #89806F",
"72+	c #625B4C",
"82+	c #332C22",
"92+	c #5F5145",
"02+	c #5D4E41",
"a2+	c #615142",
"b2+	c #766856",
"c2+	c #7F705F",
"d2+	c #938471",
"e2+	c #A2947F",
"f2+	c #AA9C88",
"g2+	c #A19382",
"h2+	c #675A4E",
"i2+	c #2B1F17",
"j2+	c #1D1512",
"k2+	c #251C14",
"l2+	c #90816D",
"m2+	c #9F8F7C",
"n2+	c #B1A38E",
"o2+	c #AD9F8B",
"p2+	c #8D7F6F",
"q2+	c #0A0703",
"r2+	c #716555",
"s2+	c #82715E",
"t2+	c #7B6D58",
"u2+	c #675947",
"v2+	c #594C3C",
"w2+	c #75695B",
"x2+	c #716353",
"y2+	c #5B4D3E",
"z2+	c #4A3F32",
"A2+	c #4B4943",
"B2+	c #342D23",
"C2+	c #796A58",
"D2+	c #908167",
"E2+	c #907F66",
"F2+	c #8A7C65",
"G2+	c #1D160F",
"H2+	c #7D6F5B",
"I2+	c #7F6F5A",
"J2+	c #6D5E4A",
"K2+	c #4E4432",
"L2+	c #332A1E",
"M2+	c #6E614F",
"N2+	c #746653",
"O2+	c #7B6D5A",
"P2+	c #7B7164",
"Q2+	c #8B7E6E",
"R2+	c #897A65",
"S2+	c #7A6953",
"T2+	c #715E48",
"U2+	c #65523E",
"V2+	c #635440",
"W2+	c #292C2E",
"X2+	c #2A2D2D",
"Y2+	c #120C0A",
"Z2+	c #3C2F23",
"`2+	c #4A3C28",
" 3+	c #4F412A",
".3+	c #5C4B32",
"+3+	c #69583D",
"@3+	c #746146",
"#3+	c #746248",
"$3+	c #786751",
"%3+	c #968776",
"&3+	c #241918",
"*3+	c #221512",
"=3+	c #22130F",
"-3+	c #1A1213",
";3+	c #342B2C",
">3+	c #382F30",
",3+	c #332B2C",
"'3+	c #1F1A12",
")3+	c #655C4F",
"!3+	c #897D6B",
"~3+	c #857766",
"{3+	c #282115",
"]3+	c #0C0803",
"^3+	c #81776A",
"/3+	c #9E917E",
"(3+	c #948772",
"_3+	c #978972",
":3+	c #9F9079",
"<3+	c #A59680",
"[3+	c #796D5A",
"}3+	c #545753",
"|3+	c #535452",
"13+	c #484849",
"23+	c #4A4A49",
"33+	c #423F3F",
"43+	c #211A15",
"53+	c #857A6D",
"63+	c #ACA291",
"73+	c #A39A87",
"83+	c #8E8574",
"93+	c #787160",
"03+	c #6B6453",
"a3+	c #352E23",
"b3+	c #262217",
"c3+	c #39322A",
"d3+	c #60564B",
"e3+	c #635549",
"f3+	c #695A4C",
"g3+	c #786C57",
"h3+	c #7D705E",
"i3+	c #877C66",
"j3+	c #AA9D85",
"k3+	c #B5A78F",
"l3+	c #A79784",
"m3+	c #6A5B4D",
"n3+	c #291B12",
"o3+	c #190F0A",
"p3+	c #4B4537",
"q3+	c #847B6A",
"r3+	c #978A7A",
"s3+	c #B2A891",
"t3+	c #B7AB95",
"u3+	c #9C8F7C",
"v3+	c #635849",
"w3+	c #333029",
"x3+	c #0C0A06",
"y3+	c #18130A",
"z3+	c #7C6F5B",
"A3+	c #8C7E65",
"B3+	c #87765F",
"C3+	c #7D7059",
"D3+	c #645647",
"E3+	c #594E40",
"F3+	c #50483D",
"G3+	c #756A5C",
"H3+	c #726455",
"I3+	c #353029",
"J3+	c #080807",
"K3+	c #4C4B45",
"L3+	c #312C23",
"M3+	c #786D5A",
"N3+	c #90826A",
"O3+	c #908067",
"P3+	c #8A7D67",
"Q3+	c #1B150E",
"R3+	c #726B5D",
"S3+	c #7D6E58",
"T3+	c #7F6E56",
"U3+	c #695944",
"V3+	c #463A28",
"W3+	c #291E12",
"X3+	c #655847",
"Y3+	c #756853",
"Z3+	c #6E614E",
"`3+	c #6E624F",
" 4+	c #2A2419",
".4+	c #080302",
"+4+	c #140A04",
"@4+	c #897D69",
"#4+	c #837760",
"$4+	c #756852",
"%4+	c #71624C",
"&4+	c #665B49",
"*4+	c #61584B",
"=4+	c #4D463F",
"-4+	c #2D3232",
";4+	c #292C2C",
">4+	c #483C2B",
",4+	c #4D402B",
"'4+	c #5B4E34",
")4+	c #64553B",
"!4+	c #716044",
"~4+	c #736247",
"{4+	c #7F6E54",
"]4+	c #8E7F65",
"^4+	c #90826B",
"/4+	c #716654",
"(4+	c #211913",
"_4+	c #1D1814",
":4+	c #221511",
"<4+	c #2F2628",
"[4+	c #201A13",
"}4+	c #675D50",
"|4+	c #897B6A",
"14+	c #837361",
"24+	c #393020",
"34+	c #2E261B",
"44+	c #787066",
"54+	c #94897A",
"64+	c #847765",
"74+	c #92826A",
"84+	c #9F8E78",
"94+	c #8E7C6A",
"04+	c #5F5341",
"a4+	c #312A1E",
"b4+	c #474446",
"c4+	c #484748",
"d4+	c #474243",
"e4+	c #897D72",
"f4+	c #AFA393",
"g4+	c #A59A88",
"h4+	c #908776",
"i4+	c #7A7262",
"j4+	c #6C6253",
"k4+	c #5A5142",
"l4+	c #443D31",
"m4+	c #4D453A",
"n4+	c #746858",
"o4+	c #807361",
"p4+	c #B7A890",
"q4+	c #AF9F8A",
"r4+	c #8B7B69",
"s4+	c #645447",
"t4+	c #54473F",
"u4+	c #28261F",
"v4+	c #3E3A32",
"w4+	c #595246",
"x4+	c #9D957E",
"y4+	c #ABA088",
"z4+	c #9A8D77",
"A4+	c #837662",
"B4+	c #897B6B",
"C4+	c #3E3C35",
"D4+	c #5F5144",
"E4+	c #786B53",
"F4+	c #73624E",
"G4+	c #695D49",
"H4+	c #584C3F",
"I4+	c #282620",
"J4+	c #453D32",
"K4+	c #655B4E",
"L4+	c #4D4035",
"M4+	c #504439",
"N4+	c #3B352B",
"O4+	c #45453F",
"P4+	c #756A59",
"Q4+	c #8B7E68",
"R4+	c #8B7C65",
"S4+	c #867A65",
"T4+	c #5F5544",
"U4+	c #6D6350",
"V4+	c #6D5F4C",
"W4+	c #71614A",
"X4+	c #6C5A45",
"Y4+	c #554739",
"Z4+	c #655647",
"`4+	c #796754",
" 5+	c #83725A",
".5+	c #786954",
"+5+	c #564939",
"@5+	c #383436",
"#5+	c #514539",
"$5+	c #766958",
"%5+	c #786C59",
"&5+	c #736954",
"*5+	c #665948",
"=5+	c #645846",
"-5+	c #282C2E",
";5+	c #2C3031",
">5+	c #393025",
",5+	c #584D36",
"'5+	c #5E503A",
")5+	c #695840",
"!5+	c #695741",
"~5+	c #715F47",
"{5+	c #7A6B51",
"]5+	c #7B6C56",
"^5+	c #4B4235",
"/5+	c #211714",
"(5+	c #1D1714",
"_5+	c #191212",
":5+	c #211718",
"<5+	c #292021",
"[5+	c #211C14",
"}5+	c #867762",
"|5+	c #514733",
"15+	c #504636",
"25+	c #1D1A13",
"35+	c #0A0A07",
"45+	c #655B52",
"55+	c #5F5546",
"65+	c #6E624E",
"75+	c #82745F",
"85+	c #9A8D73",
"95+	c #9E8D76",
"05+	c #90816B",
"a5+	c #494436",
"b5+	c #37342C",
"c5+	c #3B3739",
"d5+	c #4B4B49",
"e5+	c #3F3B3B",
"f5+	c #4B4746",
"g5+	c #8B8176",
"h5+	c #B2A897",
"i5+	c #AA9F8C",
"j5+	c #938A78",
"k5+	c #7C7462",
"l5+	c #716A57",
"m5+	c #675F4C",
"n5+	c #696252",
"o5+	c #251E1B",
"p5+	c #62584C",
"q5+	c #A3967E",
"r5+	c #BFB094",
"s5+	c #BEAF94",
"t5+	c #B6A58E",
"u5+	c #B3A08E",
"v5+	c #A49587",
"w5+	c #685F56",
"x5+	c #1E1912",
"y5+	c #7E7461",
"z5+	c #9C8E78",
"A5+	c #9F9075",
"B5+	c #BBAB92",
"C5+	c #C1B49E",
"D5+	c #9A9384",
"E5+	c #56544A",
"F5+	c #756956",
"G5+	c #746650",
"H5+	c #71614B",
"I5+	c #6A5C48",
"J5+	c #5C5040",
"K5+	c #3F352A",
"L5+	c #0D0803",
"M5+	c #352D24",
"N5+	c #473D30",
"O5+	c #474337",
"P5+	c #464538",
"Q5+	c #414037",
"R5+	c #32322B",
"S5+	c #282B24",
"T5+	c #2C2C28",
"U5+	c #474740",
"V5+	c #766D5C",
"W5+	c #8B8068",
"X5+	c #8B7E66",
"Y5+	c #847964",
"Z5+	c #5E5645",
"`5+	c #4B4337",
" 6+	c #574D3D",
".6+	c #5A4C3B",
"+6+	c #655641",
"@6+	c #77654F",
"#6+	c #95846C",
"$6+	c #9E8E79",
"%6+	c #A4977E",
"&6+	c #9A8A72",
"*6+	c #9C8A70",
"=6+	c #A69679",
"-6+	c #887B65",
";6+	c #18120B",
">6+	c #130E08",
",6+	c #1F1A13",
"'6+	c #4E4A4A",
")6+	c #4D4A4A",
"!6+	c #494647",
"~6+	c #1C1713",
"{6+	c #5D5549",
"]6+	c #6B6353",
"^6+	c #6F6353",
"/6+	c #706350",
"(6+	c #6D634F",
"_6+	c #665D4C",
":6+	c #564D40",
"<6+	c #37302A",
"[6+	c #323635",
"}6+	c #313635",
"|6+	c #323535",
"16+	c #35322D",
"26+	c #342D21",
"36+	c #4F4734",
"46+	c #5A503B",
"56+	c #60563F",
"66+	c #5C4E3A",
"76+	c #594C36",
"86+	c #5C4E39",
"96+	c #635641",
"06+	c #625644",
"a6+	c #534B3D",
"b6+	c #38322A",
"c6+	c #211A17",
"d6+	c #1A1514",
"e6+	c #1F1617",
"f6+	c #1D1415",
"g6+	c #201718",
"h6+	c #221C15",
"i6+	c #6F614C",
"j6+	c #0B0709",
"k6+	c #988770",
"l6+	c #9E8D77",
"m6+	c #8D7C6B",
"n6+	c #706757",
"o6+	c #444144",
"p6+	c #504F4E",
"q6+	c #8B8179",
"r6+	c #AFA598",
"s6+	c #928878",
"t6+	c #7A7160",
"u6+	c #716955",
"v6+	c #574E45",
"w6+	c #64594C",
"x6+	c #9E8F7B",
"y6+	c #BEAD95",
"z6+	c #C1B098",
"A6+	c #C0AB95",
"B6+	c #C2AC97",
"C6+	c #B19F8F",
"D6+	c #71675D",
"E6+	c #94846B",
"F6+	c #A18E74",
"G6+	c #BFAD90",
"H6+	c #C5B69B",
"I6+	c #9D9482",
"J6+	c #6C6154",
"K6+	c #796D59",
"L6+	c #726450",
"M6+	c #0A0502",
"N6+	c #443B30",
"O6+	c #3F342A",
"P6+	c #4D4335",
"Q6+	c #756B5D",
"R6+	c #7A7263",
"S6+	c #6B6658",
"T6+	c #3D3A31",
"U6+	c #171711",
"V6+	c #141411",
"W6+	c #756D5C",
"X6+	c #877D66",
"Y6+	c #837764",
"Z6+	c #1B140F",
"`6+	c #645540",
" 7+	c #AB9A7D",
".7+	c #BDAB91",
"+7+	c #C4B296",
"@7+	c #B7A386",
"#7+	c #B9A786",
"$7+	c #BAAA89",
"%7+	c #90826D",
"&7+	c #4D4744",
"*7+	c #4A4342",
"=7+	c #494241",
"-7+	c #4F4B4C",
";7+	c #4E4A4B",
">7+	c #2B282C",
",7+	c #918876",
"'7+	c #6E604E",
")7+	c #6A5E4C",
"!7+	c #6A5F4F",
"~7+	c #514840",
"{7+	c #504331",
"]7+	c #4E4030",
"^7+	c #594D3B",
"/7+	c #584B3C",
"(7+	c #1F1618",
"_7+	c #242017",
":7+	c #6B6153",
"<7+	c #8C7E6B",
"[7+	c #897A64",
"}7+	c #776853",
"|7+	c #695946",
"17+	c #685A47",
"27+	c #312B22",
"37+	c #4B443C",
"47+	c #877A6A",
"57+	c #857862",
"67+	c #8F7F67",
"77+	c #A09077",
"87+	c #A3937C",
"97+	c #918471",
"07+	c #3A3730",
"a7+	c #535151",
"b7+	c #545052",
"c7+	c #4B4748",
"d7+	c #88807A",
"e7+	c #ACA699",
"f7+	c #A39A8B",
"g7+	c #8F8574",
"h7+	c #7A715E",
"i7+	c #726955",
"j7+	c #726754",
"k7+	c #766D5F",
"l7+	c #464745",
"m7+	c #676051",
"n7+	c #A49A85",
"o7+	c #C6B99F",
"p7+	c #C3B299",
"q7+	c #BCA991",
"r7+	c #BAA58E",
"s7+	c #AA9985",
"t7+	c #756D60",
"u7+	c #696053",
"v7+	c #887E69",
"w7+	c #8F8065",
"x7+	c #A79577",
"y7+	c #BBAA89",
"z7+	c #B7A78B",
"A7+	c #42392F",
"B7+	c #615444",
"C7+	c #776B57",
"D7+	c #655C4E",
"E7+	c #433A35",
"F7+	c #3A3128",
"G7+	c #483F30",
"H7+	c #594E3E",
"I7+	c #7E7360",
"J7+	c #454136",
"K7+	c #17150E",
"L7+	c #0D0B07",
"M7+	c #40413D",
"N7+	c #080401",
"O7+	c #3A3428",
"P7+	c #736A58",
"Q7+	c #847A63",
"R7+	c #847861",
"S7+	c #807762",
"T7+	c #54493C",
"U7+	c #99886E",
"V7+	c #B7A58A",
"W7+	c #B19D80",
"X7+	c #AF9B7C",
"Y7+	c #A59175",
"Z7+	c #8B7C66",
"`7+	c #110C05",
" 8+	c #100A05",
".8+	c #494747",
"+8+	c #595145",
"@8+	c #928977",
"#8+	c #938B76",
"$8+	c #756B58",
"%8+	c #695F4C",
"&8+	c #6E6655",
"*8+	c #635C50",
"=8+	c #4D4941",
"-8+	c #504535",
";8+	c #554A3A",
">8+	c #51483B",
",8+	c #06080B",
"'8+	c #282217",
")8+	c #6E6353",
"!8+	c #8F7D68",
"~8+	c #7F6D58",
"{8+	c #6F5E49",
"]8+	c #6C5C48",
"^8+	c #6B5D4B",
"/8+	c #645B4E",
"(8+	c #7D6C55",
"_8+	c #96866B",
":8+	c #A19176",
"<8+	c #978673",
"[8+	c #4A4647",
"}8+	c #79736E",
"|8+	c #A0998B",
"18+	c #988E7D",
"28+	c #877C69",
"38+	c #756A56",
"48+	c #5B5344",
"58+	c #2F2D26",
"68+	c #1F2323",
"78+	c #5A5347",
"88+	c #A59B87",
"98+	c #C6B89E",
"08+	c #BDAD92",
"a8+	c #AC9A81",
"b8+	c #A38F78",
"c8+	c #998874",
"d8+	c #73675C",
"e8+	c #322B2A",
"f8+	c #3A352C",
"g8+	c #4A4436",
"h8+	c #625440",
"i8+	c #968467",
"j8+	c #B09C7B",
"k8+	c #A28E75",
"l8+	c #110E0C",
"m8+	c #0F0A06",
"n8+	c #483D2D",
"o8+	c #504335",
"p8+	c #655845",
"q8+	c #514A3C",
"r8+	c #322F24",
"s8+	c #28251D",
"t8+	c #2E2C25",
"u8+	c #120E0A",
"v8+	c #1C150D",
"w8+	c #41392B",
"x8+	c #675D4C",
"y8+	c #716853",
"z8+	c #736B56",
"A8+	c #6F6856",
"B8+	c #554E42",
"C8+	c #332A20",
"D8+	c #706150",
"E8+	c #7A6A58",
"F8+	c #847360",
"G8+	c #816F5A",
"H8+	c #7E6B56",
"I8+	c #74624D",
"J8+	c #7A6B56",
"K8+	c #5B5244",
"L8+	c #474035",
"M8+	c #3C3735",
"N8+	c #433C3D",
"O8+	c #413C33",
"P8+	c #665E50",
"Q8+	c #877D6C",
"R8+	c #827A66",
"S8+	c #645C49",
"T8+	c #54493B",
"U8+	c #645C4E",
"V8+	c #595249",
"W8+	c #34302B",
"X8+	c #302A20",
"Y8+	c #312A20",
"Z8+	c #473E32",
"`8+	c #3A362D",
" 9+	c #191B1D",
".9+	c #2C2419",
"+9+	c #736755",
"@9+	c #978973",
"#9+	c #998871",
"$9+	c #887660",
"%9+	c #6F614E",
"&9+	c #493A2C",
"*9+	c #796953",
"=9+	c #938267",
"-9+	c #96866A",
";9+	c #5A4E44",
">9+	c #423B34",
",9+	c #3D3736",
"'9+	c #665D55",
")9+	c #8D8273",
"!9+	c #877966",
"~9+	c #7A6C56",
"{9+	c #72634C",
"]9+	c #75664D",
"^9+	c #6D5F48",
"/9+	c #483F2F",
"(9+	c #14110B",
"_9+	c #8C8271",
":9+	c #B0A089",
"<9+	c #A7967B",
"[9+	c #958268",
"}9+	c #8A7762",
"|9+	c #76695B",
"19+	c #0D0F0E",
"29+	c #261B11",
"39+	c #958368",
"49+	c #6E6250",
"59+	c #353028",
"69+	c #0B0805",
"79+	c #1D170F",
"89+	c #605242",
"99+	c #43372B",
"09+	c #4E4234",
"a9+	c #574A38",
"b9+	c #605441",
"c9+	c #6C5F4D",
"d9+	c #696050",
"e9+	c #534E43",
"f9+	c #2C2923",
"g9+	c #4A4334",
"h9+	c #554C3B",
"i9+	c #534B3C",
"j9+	c #191411",
"k9+	c #4B433B",
"l9+	c #584C42",
"m9+	c #56493F",
"n9+	c #5C4F44",
"o9+	c #5C4E42",
"p9+	c #5A4B3E",
"q9+	c #554637",
"r9+	c #9D8F7E",
"s9+	c #AD9F8C",
"t9+	c #9A8E7A",
"u9+	c #6C6150",
"v9+	c #443D3B",
"w9+	c #443D3D",
"x9+	c #383A39",
"y9+	c #7E786C",
"z9+	c #7C7464",
"A9+	c #7D7360",
"B9+	c #594F3D",
"C9+	c #4B4134",
"D9+	c #575045",
"E9+	c #3F413D",
"F9+	c #4C4539",
"G9+	c #50493B",
"H9+	c #473F34",
"I9+	c #362E24",
"J9+	c #171A1C",
"K9+	c #2C271C",
"L9+	c #988A77",
"M9+	c #9D8B76",
"N9+	c #8C7A65",
"O9+	c #7A6852",
"P9+	c #74634E",
"Q9+	c #726351",
"R9+	c #7B6C5A",
"S9+	c #8A7962",
"T9+	c #817057",
"U9+	c #7F7056",
"V9+	c #7D6E5A",
"W9+	c #736558",
"X9+	c #655C51",
"Y9+	c #433C3B",
"Z9+	c #50443D",
"`9+	c #7A695A",
" 0+	c #796650",
".0+	c #6F5C42",
"+0+	c #6E583D",
"@0+	c #776044",
"#0+	c #705C45",
"$0+	c #3E3424",
"%0+	c #090703",
"&0+	c #665B4C",
"*0+	c #918069",
"=0+	c #947E65",
"-0+	c #8A7259",
";0+	c #8B7358",
">0+	c #867059",
",0+	c #5F5549",
"'0+	c #524A45",
")0+	c #383434",
"!0+	c #0E0704",
"~0+	c #5E4D3A",
"{0+	c #877258",
"]0+	c #836F58",
"^0+	c #645747",
"/0+	c #0B0706",
"(0+	c #5A4B3C",
"_0+	c #413631",
":0+	c #574837",
"<0+	c #6C5F4C",
"[0+	c #7C6E5D",
"}0+	c #918572",
"|0+	c #968A79",
"10+	c #6F655D",
"20+	c #4F483A",
"30+	c #50483F",
"40+	c #554B42",
"50+	c #554840",
"60+	c #54473D",
"70+	c #978B77",
"80+	c #B1A28D",
"90+	c #7F725E",
"00+	c #403733",
"a0+	c #4D4543",
"b0+	c #3D3735",
"c0+	c #3E3F40",
"d0+	c #404343",
"e0+	c #7C7971",
"f0+	c #8B8476",
"g0+	c #807866",
"h0+	c #766C58",
"i0+	c #6D624E",
"j0+	c #534B41",
"k0+	c #5A5042",
"l0+	c #574C3F",
"m0+	c #251E1E",
"n0+	c #241E1F",
"o0+	c #4B4B45",
"p0+	c #464945",
"q0+	c #2E3232",
"r0+	c #161A1C",
"s0+	c #050709",
"t0+	c #2F2C21",
"u0+	c #766E5E",
"v0+	c #9A8C79",
"w0+	c #9A8973",
"x0+	c #8B7B64",
"y0+	c #7B6954",
"z0+	c #796852",
"A0+	c #645A4C",
"B0+	c #857961",
"C0+	c #73654C",
"D0+	c #72634B",
"E0+	c #7E705A",
"F0+	c #847664",
"G0+	c #817868",
"H0+	c #5E594E",
"I0+	c #453E3D",
"J0+	c #42352C",
"K0+	c #725F4D",
"L0+	c #765F44",
"M0+	c #6B5434",
"N0+	c #6B512F",
"O0+	c #795E3B",
"P0+	c #382F1F",
"Q0+	c #060602",
"R0+	c #534A39",
"S0+	c #7D6D52",
"T0+	c #887054",
"U0+	c #816A52",
"V0+	c #625744",
"W0+	c #7B766B",
"X0+	c #737067",
"Y0+	c #0F0905",
"Z0+	c #534330",
"`0+	c #7C684F",
" a+	c #7C6B53",
".a+	c #302B22",
"+a+	c #736651",
"@a+	c #5F523F",
"#a+	c #352B1F",
"$a+	c #211B14",
"%a+	c #474748",
"&a+	c #40332B",
"*a+	c #4C3F31",
"=a+	c #6F634E",
"-a+	c #9E927A",
";a+	c #7B7062",
">a+	c #6D6458",
",a+	c #50493D",
"'a+	c #474135",
")a+	c #2F2B24",
"!a+	c #4A413C",
"~a+	c #524941",
"{a+	c #53473F",
"]a+	c #5A5141",
"^a+	c #7A715F",
"/a+	c #998E79",
"(a+	c #A0917B",
"_a+	c #8D7E68",
":a+	c #685D4A",
"<a+	c #5C524A",
"[a+	c #473F3A",
"}a+	c #3B3D3E",
"|a+	c #3E4142",
"1a+	c #3E4241",
"2a+	c #847E6E",
"3a+	c #7F7863",
"4a+	c #7A705A",
"5a+	c #746A54",
"6a+	c #615645",
"7a+	c #554D3E",
"8a+	c #494238",
"9a+	c #3A332E",
"0a+	c #0D080A",
"aa+	c #0E0908",
"ba+	c #2B211C",
"ca+	c #594E42",
"da+	c #403937",
"ea+	c #464845",
"fa+	c #17191A",
"ga+	c #302B20",
"ha+	c #716756",
"ia+	c #8D7F6A",
"ja+	c #897962",
"ka+	c #81705A",
"la+	c #786551",
"ma+	c #796653",
"na+	c #786857",
"oa+	c #62564A",
"pa+	c #040606",
"qa+	c #2C2320",
"ra+	c #675C4E",
"sa+	c #716450",
"ta+	c #5F513B",
"ua+	c #62513D",
"va+	c #877965",
"wa+	c #60584E",
"xa+	c #3E3736",
"ya+	c #1B160E",
"za+	c #0D0A07",
"Aa+	c #0C0A07",
"Ba+	c #120905",
"Ca+	c #412D21",
"Da+	c #6B513B",
"Ea+	c #725436",
"Fa+	c #654624",
"Ga+	c #644421",
"Ha+	c #72522D",
"Ia+	c #664D32",
"Ja+	c #2B2014",
"Ka+	c #3D3424",
"La+	c #67563D",
"Ma+	c #775F44",
"Na+	c #785E43",
"Oa+	c #7C6246",
"Pa+	c #71583F",
"Qa+	c #665239",
"Ra+	c #160D08",
"Sa+	c #746149",
"Ta+	c #6C5D4A",
"Ua+	c #3B3023",
"Va+	c #302720",
"Wa+	c #363436",
"Xa+	c #3F3D3F",
"Ya+	c #120D10",
"Za+	c #342820",
"`a+	c #6A5E4D",
" b+	c #766A58",
".b+	c #8D816A",
"+b+	c #6B5F4E",
"@b+	c #524C40",
"#b+	c #564F46",
"$b+	c #49443B",
"%b+	c #877763",
"&b+	c #95836C",
"*b+	c #93816B",
"=b+	c #8C7B67",
"-b+	c #353739",
";b+	c #383C3C",
">b+	c #383B3C",
",b+	c #7B7564",
"'b+	c #776F5A",
")b+	c #766955",
"!b+	c #786C56",
"~b+	c #6F6351",
"{b+	c #655B4B",
"]b+	c #362E2B",
"^b+	c #302824",
"/b+	c #473D38",
"(b+	c #201713",
"_b+	c #3D302A",
":b+	c #181113",
"<b+	c #3A3332",
"[b+	c #261F20",
"}b+	c #48473F",
"|b+	c #4A4A44",
"1b+	c #12110D",
"2b+	c #131009",
"3b+	c #150F04",
"4b+	c #362D1C",
"5b+	c #605440",
"6b+	c #73634D",
"7b+	c #7C6B52",
"8b+	c #7D6D57",
"9b+	c #615549",
"0b+	c #4B4236",
"ab+	c #50432D",
"bb+	c #5C4C37",
"cb+	c #7A6D55",
"db+	c #8B7F67",
"eb+	c #887D6A",
"fb+	c #574E3E",
"gb+	c #6D6453",
"hb+	c #6B6151",
"ib+	c #665E4D",
"jb+	c #594F3E",
"kb+	c #483A27",
"lb+	c #4E3A23",
"mb+	c #684D31",
"nb+	c #704F2E",
"ob+	c #64421E",
"pb+	c #613F1A",
"qb+	c #6C4B25",
"rb+	c #5B4227",
"sb+	c #151614",
"tb+	c #5F4D37",
"ub+	c #664E36",
"vb+	c #644B31",
"wb+	c #6A5134",
"xb+	c #684F33",
"yb+	c #6A563A",
"zb+	c #695841",
"Ab+	c #6E6759",
"Bb+	c #2F281D",
"Cb+	c #615440",
"Db+	c #7E6C55",
"Eb+	c #83745D",
"Fb+	c #6F6553",
"Gb+	c #453B2E",
"Hb+	c #6A5B45",
"Ib+	c #5F5140",
"Jb+	c #5F5247",
"Kb+	c #5C544D",
"Lb+	c #4B3F35",
"Mb+	c #5D5140",
"Nb+	c #6B604B",
"Ob+	c #635845",
"Pb+	c #6A5F53",
"Qb+	c #5F574F",
"Rb+	c #565143",
"Sb+	c #3D382F",
"Tb+	c #191211",
"Ub+	c #2B221F",
"Vb+	c #423630",
"Wb+	c #594F41",
"Xb+	c #998970",
"Yb+	c #A7957A",
"Zb+	c #A7957B",
"`b+	c #8A7A63",
" c+	c #5B4E3D",
".c+	c #60584B",
"+c+	c #665F53",
"@c+	c #7C7665",
"#c+	c #796F5A",
"$c+	c #7A6F58",
"%c+	c #83785E",
"&c+	c #82755E",
"*c+	c #7A6F5B",
"=c+	c #6E6453",
"-c+	c #665C4C",
";c+	c #695F51",
">c+	c #6A5E4F",
",c+	c #675B4C",
"'c+	c #6F6555",
")c+	c #564C44",
"!c+	c #221813",
"~c+	c #42362C",
"{c+	c #70614E",
"]c+	c #675845",
"^c+	c #494236",
"/c+	c #494A45",
"(c+	c #322E25",
"_c+	c #373023",
":c+	c #352B1A",
"<c+	c #443721",
"[c+	c #57472E",
"}c+	c #625038",
"|c+	c #77634D",
"1c+	c #7C6854",
"2c+	c #7E6C58",
"3c+	c #61554A",
"4c+	c #3B2D1F",
"5c+	c #564736",
"6c+	c #7A6C57",
"7c+	c #897D6A",
"8c+	c #62594D",
"9c+	c #19120A",
"0c+	c #6D614F",
"ac+	c #A4967F",
"bc+	c #A89B82",
"cc+	c #A5977F",
"dc+	c #6D5840",
"ec+	c #563F24",
"fc+	c #604428",
"gc+	c #674326",
"hc+	c #623B1C",
"ic+	c #67421E",
"jc+	c #6F4D2A",
"kc+	c #553C25",
"lc+	c #160E07",
"mc+	c #65503B",
"nc+	c #614A30",
"oc+	c #5C4528",
"pc+	c #674E2F",
"qc+	c #765D3E",
"rc+	c #867051",
"sc+	c #87755A",
"tc+	c #887A60",
"uc+	c #6C6554",
"vc+	c #92836B",
"wc+	c #948771",
"xc+	c #71604A",
"yc+	c #857359",
"zc+	c #8B7B65",
"Ac+	c #90867C",
"Bc+	c #6C6660",
"Cc+	c #281E17",
"Dc+	c #43392C",
"Ec+	c #685C4B",
"Fc+	c #7A6D5D",
"Gc+	c #8A7C6C",
"Hc+	c #9E9381",
"Ic+	c #8E8374",
"Jc+	c #574F43",
"Kc+	c #2A231B",
"Lc+	c #635C51",
"Mc+	c #474039",
"Nc+	c #312C24",
"Oc+	c #483E38",
"Pc+	c #5D5144",
"Qc+	c #756655",
"Rc+	c #968770",
"Sc+	c #9C8A71",
"Tc+	c #907F68",
"Uc+	c #897B67",
"Vc+	c #908570",
"Wc+	c #827B68",
"Xc+	c #2B2D2F",
"Yc+	c #817867",
"Zc+	c #817760",
"`c+	c #7D7058",
" d+	c #807259",
".d+	c #7F6F59",
"+d+	c #7F705B",
"@d+	c #7A6C58",
"#d+	c #837460",
"$d+	c #867864",
"%d+	c #8B7A67",
"&d+	c #8B7967",
"*d+	c #847562",
"=d+	c #857563",
"-d+	c #110A0A",
";d+	c #574B40",
">d+	c #6E5F4E",
",d+	c #7A6952",
"'d+	c #837158",
")d+	c #776553",
"!d+	c #695C4C",
"~d+	c #473F38",
"{d+	c #160F11",
"]d+	c #140E11",
"^d+	c #171115",
"/d+	c #161014",
"(d+	c #352D2A",
"_d+	c #292824",
":d+	c #2E2E29",
"<d+	c #484740",
"[d+	c #50514A",
"}d+	c #3C3629",
"|d+	c #4F4533",
"1d+	c #54452E",
"2d+	c #5A4A2D",
"3d+	c #5E4A2D",
"4d+	c #634F32",
"5d+	c #675339",
"6d+	c #77634C",
"7d+	c #826E5A",
"8d+	c #867561",
"9d+	c #32251B",
"0d+	c #57493A",
"ad+	c #857962",
"bd+	c #92856F",
"cd+	c #8A806B",
"dd+	c #312E27",
"ed+	c #120D06",
"fd+	c #6C614E",
"gd+	c #A7987D",
"hd+	c #A9997C",
"id+	c #A69779",
"jd+	c #5E462C",
"kd+	c #634A2B",
"ld+	c #634627",
"md+	c #5D3C1F",
"nd+	c #664728",
"od+	c #6E5335",
"pd+	c #52402B",
"qd+	c #050605",
"rd+	c #5C4B36",
"sd+	c #584428",
"td+	c #584023",
"ud+	c #7B6344",
"vd+	c #8D795A",
"wd+	c #87785C",
"xd+	c #80755C",
"yd+	c #746A56",
"zd+	c #676050",
"Ad+	c #14120D",
"Bd+	c #28241A",
"Cd+	c #564E3E",
"Dd+	c #827762",
"Ed+	c #9B9177",
"Fd+	c #9C917C",
"Gd+	c #817A6B",
"Hd+	c #75654D",
"Id+	c #937F63",
"Jd+	c #9D8A6F",
"Kd+	c #A69880",
"Ld+	c #9A907F",
"Md+	c #736D65",
"Nd+	c #494849",
"Od+	c #3E3E3F",
"Pd+	c #8C836F",
"Qd+	c #918874",
"Rd+	c #A09781",
"Sd+	c #6B6253",
"Td+	c #484134",
"Ud+	c #675F52",
"Vd+	c #6F695C",
"Wd+	c #6C665A",
"Xd+	c #433A36",
"Yd+	c #93866C",
"Zd+	c #A6967A",
"`d+	c #A08F75",
" e+	c #9B8A71",
".e+	c #90826C",
"+e+	c #8C846C",
"@e+	c #7A7562",
"#e+	c #544F45",
"$e+	c #7B7261",
"%e+	c #7D735C",
"&e+	c #7E7159",
"*e+	c #82755C",
"=e+	c #81735C",
"-e+	c #7C6D58",
";e+	c #7A6A55",
">e+	c #857360",
",e+	c #8E7F68",
"'e+	c #948571",
")e+	c #3C3022",
"!e+	c #190E08",
"~e+	c #1C130D",
"{e+	c #4C4239",
"]e+	c #837258",
"^e+	c #7F6C52",
"/e+	c #827055",
"(e+	c #6B5E50",
"_e+	c #161115",
":e+	c #100A0A",
"<e+	c #3A322E",
"[e+	c #39302C",
"}e+	c #231B18",
"|e+	c #221A18",
"1e+	c #120F06",
"2e+	c #322919",
"3e+	c #5E4F37",
"4e+	c #715C3E",
"5e+	c #76603E",
"6e+	c #786041",
"7e+	c #745D42",
"8e+	c #75624A",
"9e+	c #776551",
"0e+	c #564E44",
"ae+	c #847863",
"be+	c #90856E",
"ce+	c #837966",
"de+	c #5B5547",
"ee+	c #6A604D",
"fe+	c #A19377",
"ge+	c #A29174",
"he+	c #9F8F70",
"ie+	c #907E60",
"je+	c #7B664C",
"ke+	c #6C543C",
"le+	c #6D583C",
"me+	c #5C472C",
"ne+	c #4A351D",
"oe+	c #4A3623",
"pe+	c #382D21",
"qe+	c #0D0E0D",
"re+	c #1C161A",
"se+	c #34291A",
"te+	c #45321E",
"ue+	c #533B24",
"ve+	c #58422A",
"we+	c #5C4830",
"xe+	c #554A36",
"ye+	c #4F4937",
"ze+	c #464132",
"Ae+	c #312D24",
"Be+	c #5A5442",
"Ce+	c #736A57",
"De+	c #887F6C",
"Ee+	c #898171",
"Fe+	c #6F6B5F",
"Ge+	c #392F25",
"He+	c #76634D",
"Ie+	c #8E785C",
"Je+	c #978267",
"Ke+	c #8F8370",
"Le+	c #424143",
"Me+	c #665F4E",
"Ne+	c #675E4D",
"Oe+	c #776E5A",
"Pe+	c #796F5B",
"Qe+	c #5B5141",
"Re+	c #5C5243",
"Se+	c #595243",
"Te+	c #514C3F",
"Ue+	c #474339",
"Ve+	c #464339",
"We+	c #352E2D",
"Xe+	c #695D4C",
"Ye+	c #85775F",
"Ze+	c #908165",
"`e+	c #907F65",
" f+	c #85765E",
".f+	c #655E4C",
"+f+	c #585446",
"@f+	c #464034",
"#f+	c #4B4434",
"$f+	c #4E4433",
"%f+	c #574E3D",
"&f+	c #514636",
"*f+	c #514536",
"=f+	c #564B3B",
"-f+	c #534638",
";f+	c #62533F",
">f+	c #887862",
",f+	c #91816A",
"'f+	c #7F715A",
")f+	c #594E37",
"!f+	c #504533",
"~f+	c #574D3A",
"{f+	c #5B5243",
"]f+	c #867155",
"^f+	c #7C664B",
"/f+	c #78654B",
"(f+	c #635340",
"_f+	c #2D2520",
":f+	c #261E19",
"<f+	c #332A18",
"[f+	c #726244",
"}f+	c #907A55",
"|f+	c #977F56",
"1f+	c #967B57",
"2f+	c #947A59",
"3f+	c #856E52",
"4f+	c #17100C",
"5f+	c #807461",
"6f+	c #796F5D",
"7f+	c #585144",
"8f+	c #302E26",
"9f+	c #6C624E",
"0f+	c #A09275",
"af+	c #9B8969",
"bf+	c #938260",
"cf+	c #877356",
"df+	c #7F6B52",
"ef+	c #806E56",
"ff+	c #352817",
"gf+	c #1F130A",
"hf+	c #1B130D",
"if+	c #070704",
"jf+	c #110B04",
"kf+	c #5E4B3A",
"lf+	c #554332",
"mf+	c #403221",
"nf+	c #2D2214",
"of+	c #1D150C",
"pf+	c #18150C",
"qf+	c #111009",
"rf+	c #666255",
"sf+	c #746E60",
"tf+	c #837C6D",
"uf+	c #857E6B",
"vf+	c #6F6752",
"wf+	c #564E3C",
"xf+	c #5B544B",
"yf+	c #79674E",
"zf+	c #8B7759",
"Af+	c #8A7459",
"Bf+	c #8F7A63",
"Cf+	c #675D54",
"Df+	c #493F2F",
"Ef+	c #5E5442",
"Ff+	c #625747",
"Gf+	c #483F31",
"Hf+	c #2C261C",
"If+	c #332B27",
"Jf+	c #52473C",
"Kf+	c #6E5F4D",
"Lf+	c #766550",
"Mf+	c #7E6D56",
"Nf+	c #796952",
"Of+	c #423728",
"Pf+	c #2B261B",
"Qf+	c #24221B",
"Rf+	c #0C0904",
"Sf+	c #0F0B05",
"Tf+	c #140E0A",
"Uf+	c #110D08",
"Vf+	c #110D07",
"Wf+	c #100B07",
"Xf+	c #100903",
"Yf+	c #867763",
"Zf+	c #95856C",
"`f+	c #8C7E61",
" g+	c #86785B",
".g+	c #97886A",
"+g+	c #A19370",
"@g+	c #A19470",
"#g+	c #948A6B",
"$g+	c #42372A",
"%g+	c #7E6A53",
"&g+	c #866E52",
"*g+	c #856E4F",
"=g+	c #735E45",
"-g+	c #4C3D2B",
";g+	c #2F2621",
">g+	c #382F2A",
",g+	c #3F3531",
"'g+	c #37342D",
")g+	c #362B1B",
"!g+	c #7A694D",
"~g+	c #96805C",
"{g+	c #9E855D",
"]g+	c #9C835E",
"^g+	c #998261",
"/g+	c #89745B",
"(g+	c #635141",
"_g+	c #31251A",
":g+	c #1A120B",
"<g+	c #120F0B",
"[g+	c #786D5C",
"}g+	c #736859",
"|g+	c #575044",
"1g+	c #110B06",
"2g+	c #6D614D",
"3g+	c #9C8D71",
"4g+	c #978467",
"5g+	c #938062",
"6g+	c #8E7A5D",
"7g+	c #8E7A5E",
"8g+	c #8C7B60",
"9g+	c #6E6152",
"0g+	c #0A0503",
"ag+	c #3F3530",
"bg+	c #1F1810",
"cg+	c #0A0704",
"dg+	c #4A473E",
"eg+	c #948D7D",
"fg+	c #A59E8A",
"gg+	c #B1A994",
"hg+	c #AFA690",
"ig+	c #877B69",
"jg+	c #3F3730",
"kg+	c #3E3833",
"lg+	c #392D24",
"mg+	c #6F5E48",
"ng+	c #826D51",
"og+	c #867056",
"pg+	c #8C7861",
"qg+	c #857665",
"rg+	c #635951",
"sg+	c #211B15",
"tg+	c #5E5647",
"ug+	c #6B6352",
"vg+	c #6A6150",
"wg+	c #655C4B",
"xg+	c #433B2F",
"yg+	c #1E1712",
"zg+	c #3C393B",
"Ag+	c #3D393A",
"Bg+	c #6C5D4C",
"Cg+	c #756652",
"Dg+	c #70624F",
"Eg+	c #7F7564",
"Fg+	c #877B65",
"Gg+	c #8B7F62",
"Hg+	c #918465",
"Ig+	c #AB9C79",
"Jg+	c #B4A47C",
"Kg+	c #AFA176",
"Lg+	c #9A8E6B",
"Mg+	c #685F4C",
"Ng+	c #433729",
"Og+	c #88755A",
"Pg+	c #917B5C",
"Qg+	c #8A7354",
"Rg+	c #746047",
"Sg+	c #413425",
"Tg+	c #19120D",
"Ug+	c #0C070A",
"Vg+	c #3D342F",
"Wg+	c #463C37",
"Xg+	c #473D3A",
"Yg+	c #413937",
"Zg+	c #504A46",
"`g+	c #393630",
" h+	c #0A0602",
".h+	c #362C1D",
"+h+	c #706149",
"@h+	c #867355",
"#h+	c #8B7757",
"$h+	c #897557",
"%h+	c #867459",
"&h+	c #786854",
"*h+	c #191916",
"=h+	c #797261",
"-h+	c #545045",
";h+	c #32302A",
">h+	c #95886F",
",h+	c #928368",
"'h+	c #908064",
")h+	c #89785F",
"!h+	c #8B7B62",
"~h+	c #8C7E68",
"{h+	c #918773",
"]h+	c #463F35",
"^h+	c #16140E",
"/h+	c #060604",
"(h+	c #403E35",
"_h+	c #857D6F",
":h+	c #9F9885",
"<h+	c #ADA892",
"[h+	c #ABA48F",
"}h+	c #877F6F",
"|h+	c #4A443A",
"1h+	c #78674E",
"2h+	c #7E6C56",
"3h+	c #877864",
"4h+	c #847A6B",
"5h+	c #5F5B4C",
"6h+	c #6F6B5A",
"7h+	c #6C6756",
"8h+	c #676251",
"9h+	c #433E33",
"0h+	c #443E37",
"ah+	c #5E564A",
"bh+	c #645A4B",
"ch+	c #685E4E",
"dh+	c #2B292D",
"eh+	c #6F6A5C",
"fh+	c #746E5A",
"gh+	c #79725A",
"hh+	c #847A61",
"ih+	c #9C9173",
"jh+	c #A39573",
"kh+	c #9E926B",
"lh+	c #877C5C",
"mh+	c #5E5643",
"nh+	c #41382A",
"oh+	c #8B7B5F",
"ph+	c #948261",
"qh+	c #816D51",
"rh+	c #6D5D45",
"sh+	c #3C3124",
"th+	c #1A1411",
"uh+	c #332A25",
"vh+	c #38302A",
"wh+	c #3B332E",
"xh+	c #433A37",
"yh+	c #3E3735",
"zh+	c #483C2C",
"Ah+	c #4B3F2E",
"Bh+	c #493E2F",
"Ch+	c #473E30",
"Dh+	c #3F3A3B",
"Eh+	c #3B3637",
"Fh+	c #3A3637",
"Gh+	c #5B574D",
"Hh+	c #3E3B34",
"Ih+	c #100906",
"Jh+	c #6A5F51",
"Kh+	c #6B5E4E",
"Lh+	c #695D4B",
"Mh+	c #5F5345",
"Nh+	c #5B5145",
"Oh+	c #5C574C",
"Ph+	c #161512",
"Qh+	c #22221C",
"Rh+	c #777165",
"Sh+	c #837E70",
"Th+	c #7F7A6C",
"Uh+	c #676256",
"Vh+	c #6C635B",
"Wh+	c #0A0605",
"Xh+	c #0E0907",
"Yh+	c #4C493F",
"Zh+	c #48443A",
"`h+	c #464237",
" i+	c #161410",
".i+	c #433D34",
"+i+	c #0E0B10",
"@i+	c #3E3B33",
"#i+	c #464033",
"$i+	c #645B46",
"%i+	c #685D44",
"&i+	c #675D40",
"*i+	c #584F37",
"=i+	c #3F392B",
"-i+	c #6A5B46",
";i+	c #77664C",
">i+	c #63513C",
",i+	c #130E13",
"'i+	c #15100E",
")i+	c #251E1A",
"!i+	c #29231F",
"~i+	c #393434",
"{i+	c #0C0703",
"]i+	c #4E4A49",
"^i+	c #1E1811",
"/i+	c #3D3C36",
"(i+	c #3D3D36",
"_i+	c #42413A",
":i+	c #403D36",
"<i+	c #140D0B",
"[i+	c #1F1A16",
"}i+	c #2E2A2C",
"|i+	c #27252A",
"1i+	c #0C0806",
"2i+	c #110D09",
"3i+	c #251F13",
"4i+	c #2E2616",
"5i+	c #332C1A",
"6i+	c #2E281A",
"7i+	c #262119",
"8i+	c #382B1F",
"9i+	c #4A3B2B",
"0i+	c #433526",
"ai+	c #140F0D",
"bi+	c #403C3B",
"ci+	c #4F4B4A",
"di+	c #2E2D32",
"ei+	c #383639",
"fi+	c #39373A",
"gi+	c #211E24",
"hi+	c #2E2B30",
"ii+	c #363336",
"ji+	c #3C393D",
"ki+	c #413F43",
"li+	c #424045",
"mi+	c #444146",
"ni+	c #403D41",
"oi+	c #2F2C30",
"pi+	c #231E16",
"qi+	c #29241B",
"ri+	c #070300",
"si+	c #20170F",
"ti+	c #282018",
"ui+	c #3E3C3D",
"vi+	c #313137",
"wi+	c #303237",
"xi+	c #2B2C32",
"yi+	c #292A30",
"zi+	c #1E1F25",
"Ai+	c #3D393B",
"Bi+	c #333336",
"Ci+	c #302D32",
"Di+	c #333035",
"Ei+	c #2F2C32",
"Fi+	c #2F2C31",
"Gi+	c #181713",
"Hi+	c #020302",
"Ii+	c #140F0A",
"Ji+	c #0E0A08",
"Ki+	c #1F2027",
"Li+	c #16161E",
"Mi+	c #111218",
"Ni+	c #211D22",
"Oi+	c #231E25",
"Pi+	c #1F1C21",
"Qi+	c #131515",
"Ri+	c #040401",
"Si+	c #0B0E03",
"Ti+	c #121605",
"Ui+	c #141704",
"Vi+	c #121603",
"Wi+	c #0B0D01",
"Xi+	c #040400",
"Yi+	c #010200",
"Zi+	c #0B0F03",
"`i+	c #242D0E",
" j+	c #434D1F",
".j+	c #545F29",
"+j+	c #59652D",
"@j+	c #444D1C",
"#j+	c #1E2507",
"$j+	c #070B00",
"%j+	c #060901",
"&j+	c #080B03",
"*j+	c #0D1103",
"=j+	c #0C1102",
"-j+	c #101504",
";j+	c #101405",
">j+	c #111608",
",j+	c #0A0E06",
"'j+	c #050603",
")j+	c #040502",
"!j+	c #000202",
"~j+	c #020403",
"{j+	c #030502",
"]j+	c #111604",
"^j+	c #374317",
"/j+	c #626F2B",
"(j+	c #738432",
"_j+	c #778A37",
":j+	c #5F6C2A",
"<j+	c #2D360D",
"[j+	c #0B1200",
"}j+	c #080E01",
"|j+	c #111605",
"1j+	c #212909",
"2j+	c #2D370E",
"3j+	c #394417",
"4j+	c #3B451A",
"5j+	c #3B461F",
"6j+	c #293014",
"7j+	c #18180A",
"8j+	c #18160A",
"9j+	c #0F0B03",
"0j+	c #000200",
"aj+	c #020500",
"bj+	c #060801",
"cj+	c #0C1004",
"dj+	c #0B0F04",
"ej+	c #050703",
"fj+	c #070803",
"gj+	c #070901",
"hj+	c #191F03",
"ij+	c #424F19",
"jj+	c #6A7A2B",
"kj+	c #718526",
"lj+	c #6F8428",
"mj+	c #58671E",
"nj+	c #2A3508",
"oj+	c #081100",
"pj+	c #060C00",
"qj+	c #171E06",
"rj+	c #333E10",
"sj+	c #48531A",
"tj+	c #5B6626",
"uj+	c #5F692E",
"vj+	c #5D6830",
"wj+	c #464D1F",
"xj+	c #393A17",
"yj+	c #393416",
"zj+	c #2B1E09",
"Aj+	c #160600",
"Bj+	c #110200",
"Cj+	c #0C0100",
"Dj+	c #100500",
"Ej+	c #120A02",
"Fj+	c #1C1A08",
"Gj+	c #1E210A",
"Hj+	c #22250F",
"Ij+	c #232511",
"Jj+	c #222610",
"Kj+	c #1D210E",
"Lj+	c #1A1D0A",
"Mj+	c #141805",
"Nj+	c #111704",
"Oj+	c #101705",
"Pj+	c #121908",
"Qj+	c #121907",
"Rj+	c #131C07",
"Sj+	c #141D07",
"Tj+	c #161F08",
"Uj+	c #182007",
"Vj+	c #1A2307",
"Wj+	c #1A2506",
"Xj+	c #1E2908",
"Yj+	c #222B0A",
"Zj+	c #2D3510",
"`j+	c #313916",
" k+	c #212510",
".k+	c #070701",
"+k+	c #0A0803",
"@k+	c #0B0904",
"#k+	c #0B0803",
"$k+	c #0B0903",
"%k+	c #0D0B05",
"&k+	c #0C0A04",
"*k+	c #0B0802",
"=k+	c #090501",
"-k+	c #080400",
";k+	c #0A0501",
">k+	c #0A0702",
",k+	c #090602",
"'k+	c #090702",
")k+	c #090802",
"!k+	c #080702",
"~k+	c #080703",
"{k+	c #0A0906",
"]k+	c #0C0B07",
"^k+	c #0E0D09",
"/k+	c #0F0E0A",
"(k+	c #100F0B",
"_k+	c #100E0A",
":k+	c #0F0D09",
"<k+	c #1C1B14",
"[k+	c #1B1A12",
"}k+	c #1C1B11",
"|k+	c #1E1D0E",
"1k+	c #24260F",
"2k+	c #242809",
"3k+	c #2F360A",
"4k+	c #4A561B",
"5k+	c #657425",
"6k+	c #677B21",
"7k+	c #62751E",
"8k+	c #4C5B13",
"9k+	c #263103",
"0k+	c #0B1300",
"ak+	c #0D1401",
"bk+	c #202806",
"ck+	c #465219",
"dk+	c #68762E",
"ek+	c #819140",
"fk+	c #869448",
"gk+	c #809048",
"hk+	c #636D31",
"ik+	c #4F5221",
"jk+	c #4C441A",
"kk+	c #46330F",
"lk+	c #3C1E06",
"mk+	c #3A1805",
"nk+	c #321200",
"ok+	c #301702",
"pk+	c #3A290B",
"qk+	c #534F21",
"rk+	c #5E642D",
"sk+	c #636B35",
"tk+	c #666C38",
"uk+	c #646B37",
"vk+	c #5D6432",
"wk+	c #515829",
"xk+	c #424B1D",
"yk+	c #3C491A",
"zk+	c #3F4D1E",
"Ak+	c #445224",
"Bk+	c #485525",
"Ck+	c #4A5924",
"Dk+	c #4B5A24",
"Ek+	c #4D5C25",
"Fk+	c #4E5D23",
"Gk+	c #4E5D21",
"Hk+	c #4C5C1F",
"Ik+	c #4C5B1F",
"Jk+	c #4B591C",
"Kk+	c #52611F",
"Lk+	c #5F6B2D",
"Mk+	c #484F24",
"Nk+	c #1D1F0A",
"Ok+	c #12120A",
"Pk+	c #16120E",
"Qk+	c #080805",
"Rk+	c #0C0C09",
"Sk+	c #15100B",
"Tk+	c #19150D",
"Uk+	c #1B170E",
"Vk+	c #1C1911",
"Wk+	c #1C1912",
"Xk+	c #18150D",
"Yk+	c #130F09",
"Zk+	c #100C07",
"`k+	c #0F0D08",
" l+	c #120F0A",
".l+	c #13100B",
"+l+	c #1C1914",
"@l+	c #29261F",
"#l+	c #26231C",
"$l+	c #24211B",
"%l+	c #2D2821",
"&l+	c #312D27",
"*l+	c #35332D",
"=l+	c #12100C",
"-l+	c #29251D",
";l+	c #353128",
">l+	c #433D33",
",l+	c #423B30",
"'l+	c #342B1F",
")l+	c #191712",
"!l+	c #201E19",
"~l+	c #353027",
"{l+	c #3C372C",
"]l+	c #3E392E",
"^l+	c #3D382D",
"/l+	c #3C382C",
"(l+	c #3A362B",
"_l+	c #3B362C",
":l+	c #38332C",
"<l+	c #37332B",
"[l+	c #38342C",
"}l+	c #3F3A32",
"|l+	c #454138",
"1l+	c #423E36",
"2l+	c #3F3C33",
"3l+	c #47453B",
"4l+	c #4F4C41",
"5l+	c #585447",
"6l+	c #5A5648",
"7l+	c #5C5948",
"8l+	c #595641",
"9l+	c #565437",
"0l+	c #54522A",
"al+	c #5A5C26",
"bl+	c #565A1E",
"cl+	c #4F5918",
"dl+	c #4B5917",
"el+	c #57681C",
"fl+	c #5B6C19",
"gl+	c #5D6D1A",
"hl+	c #4D5A14",
"il+	c #36410C",
"jl+	c #29320A",
"kl+	c #2D350E",
"ll+	c #3A4315",
"ml+	c #596626",
"nl+	c #778837",
"ol+	c #8EA348",
"pl+	c #8FA34C",
"ql+	c #899B4C",
"rl+	c #727C3C",
"sl+	c #686F33",
"tl+	c #5E5B27",
"ul+	c #5A4818",
"vl+	c #5A3711",
"wl+	c #5C310E",
"xl+	c #4F2904",
"yl+	c #472B04",
"zl+	c #554311",
"Al+	c #777232",
"Bl+	c #879146",
"Cl+	c #8C984D",
"Dl+	c #8B954D",
"El+	c #8C974C",
"Fl+	c #828B45",
"Gl+	c #6F7636",
"Hl+	c #596424",
"Il+	c #50601F",
"Jl+	c #556624",
"Kl+	c #5D6D2B",
"Ll+	c #61712F",
"Ml+	c #63752F",
"Nl+	c #64752F",
"Ol+	c #667830",
"Pl+	c #65772E",
"Ql+	c #66792D",
"Rl+	c #63772A",
"Sl+	c #607328",
"Tl+	c #5C6D21",
"Ul+	c #627320",
"Vl+	c #707F30",
"Wl+	c #5A632B",
"Xl+	c #343616",
"Yl+	c #353623",
"Zl+	c #484639",
"`l+	c #49423A",
" m+	c #37342F",
".m+	c #534A3E",
"+m+	c #564E40",
"@m+	c #574F42",
"#m+	c #585043",
"$m+	c #554D40",
"%m+	c #4A4336",
"&m+	c #383124",
"*m+	c #2C251A",
"=m+	c #2E2A22",
"-m+	c #302C24",
";m+	c #39352D",
">m+	c #47423B",
",m+	c #464139",
"'m+	c #373227",
")m+	c #363127",
"!m+	c #3D382C",
"~m+	c #433C30",
"{m+	c #4A4135",
"]m+	c #4B4336",
"^m+	c #494033",
"/m+	c #382F25",
"(m+	c #16100D",
"_m+	c #322821",
":m+	c #4E4742",
"<m+	c #4E4741",
"[m+	c #49423C",
"}m+	c #4E4841",
"|m+	c #4F4A41",
"1m+	c #4F4A42",
"2m+	c #5F584F",
"3m+	c #575249",
"4m+	c #524B44",
"5m+	c #13120F",
"6m+	c #665B4F",
"7m+	c #5E5245",
"8m+	c #5F5142",
"9m+	c #685848",
"0m+	c #6A5C4D",
"am+	c #6C6053",
"bm+	c #655C53",
"cm+	c #534E48",
"dm+	c #0E0E0C",
"em+	c #484238",
"fm+	c #6C6557",
"gm+	c #706959",
"hm+	c #6B6558",
"im+	c #6D6659",
"jm+	c #6F675C",
"km+	c #666055",
"lm+	c #6E675C",
"mm+	c #646055",
"nm+	c #706B5E",
"om+	c #787362",
"pm+	c #7A7461",
"qm+	c #7D775F",
"rm+	c #787254",
"sm+	c #726D42",
"tm+	c #6A672D",
"um+	c #727129",
"vm+	c #6E6D24",
"wm+	c #535917",
"xm+	c #3E480C",
"ym+	c #455213",
"zm+	c #4B5914",
"Am+	c #556218",
"Bm+	c #515D19",
"Cm+	c #4E581E",
"Dm+	c #474E1D",
"Em+	c #4A521F",
"Fm+	c #4D5521",
"Gm+	c #606C2B",
"Hm+	c #758535",
"Im+	c #83943E",
"Jm+	c #849543",
"Km+	c #849548",
"Lm+	c #7A8543",
"Mm+	c #727B3E",
"Nm+	c #5F5C29",
"Om+	c #574A19",
"Pm+	c #583A11",
"Qm+	c #5D360E",
"Rm+	c #512D05",
"Sm+	c #482C02",
"Tm+	c #564510",
"Um+	c #7B7732",
"Vm+	c #909949",
"Wm+	c #93A04E",
"Xm+	c #909B4B",
"Ym+	c #909D48",
"Zm+	c #879242",
"`m+	c #737C33",
" n+	c #5B671F",
".n+	c #506119",
"+n+	c #55671F",
"@n+	c #5D6E26",
"#n+	c #607029",
"$n+	c #62732B",
"%n+	c #61722A",
"&n+	c #63752C",
"*n+	c #63742B",
"=n+	c #65772B",
"-n+	c #627528",
";n+	c #607326",
">n+	c #5B6C20",
",n+	c #5F6E1D",
"'n+	c #6B7729",
")n+	c #575D25",
"!n+	c #353612",
"~n+	c #403E26",
"{n+	c #5A5544",
"]n+	c #655E4F",
"^n+	c #665C4F",
"/n+	c #645A4E",
"(n+	c #60584C",
"_n+	c #5D534A",
":n+	c #564E45",
"<n+	c #554E45",
"[n+	c #84796B",
"}n+	c #847769",
"|n+	c #7E7364",
"1n+	c #776C5F",
"2n+	c #776D5E",
"3n+	c #7B7061",
"4n+	c #7A6E5F",
"5n+	c #6F6355",
"6n+	c #544A3C",
"7n+	c #3F362F",
"8n+	c #474238",
"9n+	c #615A4F",
"0n+	c #595146",
"an+	c #554E41",
"bn+	c #585042",
"cn+	c #6C6252",
"dn+	c #736757",
"en+	c #5B4F41",
"fn+	c #4A3D34",
"gn+	c #524B46",
"hn+	c #4F4942",
"in+	c #4C443E",
"jn+	c #4D433D",
"kn+	c #4C423C",
"ln+	c #65615A",
"mn+	c #5A534C",
"nn+	c #62605D",
"on+	c #555352",
"pn+	c #262521",
"qn+	c #6B665D",
"rn+	c #6E655B",
"sn+	c #695E53",
"tn+	c #615346",
"un+	c #655648",
"vn+	c #716051",
"wn+	c #746557",
"xn+	c #121311",
"yn+	c #403C33",
"zn+	c #4F493E",
"An+	c #787061",
"Bn+	c #7B7364",
"Cn+	c #777061",
"Dn+	c #756F60",
"En+	c #726B5F",
"Fn+	c #736C62",
"Gn+	c #80796D",
"Hn+	c #82786C",
"In+	c #82786B",
"Jn+	c #7B7265",
"Kn+	c #6B6659",
"Ln+	c #6E695D",
"Mn+	c #706A5F",
"Nn+	c #726C60",
"On+	c #716B5F",
"Pn+	c #5A554B",
"Qn+	c #666156",
"Rn+	c #726E5F",
"Sn+	c #797463",
"Tn+	c #79725F",
"Un+	c #7D775E",
"Vn+	c #797352",
"Wn+	c #726E40",
"Xn+	c #6B682D",
"Yn+	c #74732B",
"Zn+	c #717329",
"`n+	c #505618",
" o+	c #343D0C",
".o+	c #374012",
"+o+	c #3E4815",
"@o+	c #475218",
"#o+	c #474F19",
"$o+	c #48501E",
"%o+	c #444B1D",
"&o+	c #454B1D",
"*o+	c #454A1D",
"=o+	c #525B21",
"-o+	c #6B7A30",
";o+	c #798A39",
">o+	c #77863A",
",o+	c #798B41",
"'o+	c #727F3F",
")o+	c #6E773E",
"!o+	c #5A5C2C",
"~o+	c #4F4919",
"{o+	c #4A390E",
"]o+	c #50350B",
"^o+	c #482D04",
"/o+	c #442F03",
"(o+	c #51440F",
"_o+	c #74732F",
":o+	c #8B9546",
"<o+	c #909E4B",
"[o+	c #8E9B49",
"}o+	c #8B9A46",
"|o+	c #818E3D",
"1o+	c #717B30",
"2o+	c #52621A",
"3o+	c #55681F",
"4o+	c #596C23",
"5o+	c #5C6E28",
"6o+	c #5C6E2B",
"7o+	c #5B6C2C",
"8o+	c #5C6E2F",
"9o+	c #5B6B2E",
"0o+	c #5B6D2D",
"ao+	c #58692A",
"bo+	c #596A29",
"co+	c #576626",
"do+	c #5C6A26",
"eo+	c #66712F",
"fo+	c #555A28",
"go+	c #323314",
"ho+	c #3C3A24",
"io+	c #544F3D",
"jo+	c #605949",
"ko+	c #65594C",
"lo+	c #64584B",
"mo+	c #60574A",
"no+	c #3A352D",
"oo+	c #8E8172",
"po+	c #8B7D6E",
"qo+	c #726D5F",
"ro+	c #746D5F",
"so+	c #736C5F",
"to+	c #766E61",
"uo+	c #786E61",
"vo+	c #7D7263",
"wo+	c #736759",
"xo+	c #453B31",
"yo+	c #433D35",
"zo+	c #5E574B",
"Ao+	c #5F5648",
"Bo+	c #7B705E",
"Co+	c #786B5B",
"Do+	c #43382E",
"Eo+	c #232019",
"Fo+	c #4C3F36",
"Go+	c #4D4641",
"Ho+	c #4F4742",
"Io+	c #403832",
"Jo+	c #48413B",
"Ko+	c #473E39",
"Lo+	c #473C35",
"Mo+	c #453A34",
"No+	c #463D37",
"Oo+	c #524C45",
"Po+	c #554E47",
"Qo+	c #524B43",
"Ro+	c #53514B",
"So+	c #494948",
"To+	c #50443C",
"Uo+	c #4E4138",
"Vo+	c #55463D",
"Wo+	c #625348",
"Xo+	c #64574D",
"Yo+	c #43403A",
"Zo+	c #4D473D",
"`o+	c #665F52",
" p+	c #736C5D",
".p+	c #7A7065",
"+p+	c #7A6F63",
"@p+	c #74695E",
"#p+	c #72685B",
"$p+	c #6E6459",
"%p+	c #6A6157",
"&p+	c #635D51",
"*p+	c #6D675C",
"=p+	c #635E54",
"-p+	c #76715F",
";p+	c #78715D",
">p+	c #7A725A",
",p+	c #736C4F",
"'p+	c #6C6642",
")p+	c #686437",
"!p+	c #676432",
"~p+	c #61612D",
"{p+	c #45491D",
"]p+	c #2A2E10",
"^p+	c #272B14",
"/p+	c #2B3016",
"(p+	c #323719",
"_p+	c #323418",
":p+	c #34361A",
"<p+	c #323518",
"[p+	c #323315",
"}p+	c #414419",
"|p+	c #5D6729",
"1p+	c #697730",
"2p+	c #646F2F",
"3p+	c #606E30",
"4p+	c #57642E",
"5p+	c #535F2D",
"6p+	c #484D20",
"7p+	c #414014",
"8p+	c #413B0E",
"9p+	c #473D0F",
"0p+	c #453A0C",
"ap+	c #443B0B",
"bp+	c #4A4311",
"cp+	c #5C5E21",
"dp+	c #697330",
"ep+	c #6E7B34",
"fp+	c #6D7833",
"gp+	c #6D7B32",
"hp+	c #68762C",
"ip+	c #606B24",
"jp+	c #55601B",
"kp+	c #4E5D18",
"lp+	c #52631D",
"mp+	c #556623",
"np+	c #506227",
"op+	c #435321",
"pp+	c #3B481F",
"qp+	c #3A4723",
"rp+	c #3A4523",
"sp+	c #3D4823",
"tp+	c #3C4622",
"up+	c #404A24",
"vp+	c #414723",
"wp+	c #454B25",
"xp+	c #4D512B",
"yp+	c #464627",
"zp+	c #302D19",
"Ap+	c #393425",
"Bp+	c #4F493A",
"Cp+	c #61564B",
"Dp+	c #61564A",
"Ep+	c #63574B",
"Fp+	c #61574B",
"Gp+	c #595044",
"Hp+	c #534C40",
"Ip+	c #796F63",
"Jp+	c #887C6E",
"Kp+	c #86796B",
"Lp+	c #807567",
"Mp+	c #776E61",
"Np+	c #6D685C",
"Op+	c #6B675C",
"Pp+	c #433B36",
"Qp+	c #443D3A",
"Rp+	c #3F3A37",
"Sp+	c #565148",
"Tp+	c #655D55",
"Up+	c #645E53",
"Vp+	c #6E6557",
"Wp+	c #706456",
"Xp+	c #6C6052",
"Yp+	c #3D322B",
"Zp+	c #352C27",
"`p+	c #453B35",
" q+	c #483E36",
".q+	c #42362E",
"+q+	c #4A433C",
"@q+	c #433B35",
"#q+	c #38312C",
"$q+	c #37322D",
"%q+	c #433730",
"&q+	c #42362F",
"*q+	c #4F4840",
"=q+	c #4E473E",
"-q+	c #0C0C0A",
";q+	c #1D1C18",
">q+	c #24231F",
",q+	c #423B35",
"'q+	c #30241E",
")q+	c #392B26",
"!q+	c #493B35",
"~q+	c #4A3F39",
"{q+	c #4A423D",
"]q+	c #524B40",
"^q+	c #6B6456",
"/q+	c #70695D",
"(q+	c #474038",
"_q+	c #756C60",
":q+	c #6C6257",
"<q+	c #675E52",
"[q+	c #5A5248",
"}q+	c #564F44",
"|q+	c #605B4F",
"1q+	c #696458",
"2q+	c #6A6559",
"3q+	c #5F5A51",
"4q+	c #706A5A",
"5q+	c #726A57",
"6q+	c #756D56",
"7q+	c #736B51",
"8q+	c #70684E",
"9q+	c #615940",
"0q+	c #4E472F",
"aq+	c #454128",
"bq+	c #383721",
"cq+	c #282819",
"dq+	c #26261B",
"eq+	c #23241A",
"fq+	c #24251A",
"gq+	c #242218",
"hq+	c #262419",
"iq+	c #242317",
"jq+	c #232314",
"kq+	c #252311",
"lq+	c #393918",
"mq+	c #58612A",
"nq+	c #64712F",
"oq+	c #5A6629",
"pq+	c #4F5A24",
"qq+	c #465120",
"rq+	c #444E1F",
"sq+	c #3F461A",
"tq+	c #404617",
"uq+	c #464B19",
"vq+	c #4F511D",
"wq+	c #50531D",
"xq+	c #50541D",
"yq+	c #4B4E1A",
"zq+	c #484F18",
"Aq+	c #455017",
"Bq+	c #49541A",
"Cq+	c #4A531B",
"Dq+	c #4C571B",
"Eq+	c #4C581A",
"Fq+	c #50591A",
"Gq+	c #4E5918",
"Hq+	c #4F5E18",
"Iq+	c #52641D",
"Jq+	c #546526",
"Kq+	c #495928",
"Lq+	c #2A3614",
"Mq+	c #161F0B",
"Nq+	c #161D10",
"Oq+	c #1C2115",
"Pq+	c #25291C",
"Qq+	c #27291C",
"Rq+	c #2A2C1F",
"Sq+	c #2B2A1E",
"Tq+	c #2C2C1F",
"Uq+	c #2D2C1F",
"Vq+	c #312D20",
"Wq+	c #342F23",
"Xq+	c #464134",
"Yq+	c #544F41",
"Zq+	c #5B5448",
"`q+	c #63584B",
" r+	c #64584C",
".r+	c #605649",
"+r+	c #5D5346",
"@r+	c #5C5346",
"#r+	c #534B3F",
"$r+	c #4C453C",
"%r+	c #221F18",
"&r+	c #7F7366",
"*r+	c #7B6F62",
"=r+	c #5B554A",
"-r+	c #514E45",
";r+	c #635A4F",
">r+	c #62574D",
",r+	c #454139",
"'r+	c #5C5447",
")r+	c #473D33",
"!r+	c #463C32",
"~r+	c #3E342C",
"{r+	c #352C26",
"]r+	c #362A24",
"^r+	c #332821",
"/r+	c #463E39",
"(r+	c #48403B",
"_r+	c #4E463E",
":r+	c #564B42",
"<r+	c #584D43",
"[r+	c #594E45",
"}r+	c #473E38",
"|r+	c #463931",
"1r+	c #44372F",
"2r+	c #403932",
"3r+	c #4A423C",
"4r+	c #4B443E",
"5r+	c #564E47",
"6r+	c #4A4440",
"7r+	c #4C4441",
"8r+	c #30241F",
"9r+	c #423530",
"0r+	c #453A36",
"ar+	c #443C39",
"br+	c #605850",
"cr+	c #635B51",
"dr+	c #6E645B",
"er+	c #61574E",
"fr+	c #5E574E",
"gr+	c #645E54",
"hr+	c #706655",
"ir+	c #766B56",
"jr+	c #7B705B",
"kr+	c #7E7362",
"lr+	c #3A382E",
"mr+	c #35342C",
"nr+	c #2F2D27",
"or+	c #25211A",
"pr+	c #252315",
"qr+	c #38371B",
"rr+	c #535929",
"sr+	c #5B6629",
"tr+	c #545F25",
"ur+	c #4B5722",
"vr+	c #404B1C",
"wr+	c #414B1E",
"xr+	c #3F461B",
"yr+	c #444D1D",
"zr+	c #4E5822",
"Ar+	c #576128",
"Br+	c #576126",
"Cr+	c #555F24",
"Dr+	c #4C541F",
"Er+	c #424A19",
"Fr+	c #3D4616",
"Gr+	c #414A1A",
"Hr+	c #434B1B",
"Ir+	c #47521D",
"Jr+	c #48531B",
"Kr+	c #4E571C",
"Lr+	c #4E581B",
"Mr+	c #4E5D1A",
"Nr+	c #4E5F1C",
"Or+	c #516226",
"Pr+	c #47552B",
"Qr+	c #222C14",
"Rr+	c #0A1209",
"Sr+	c #0C120F",
"Tr+	c #1B1F1B",
"Ur+	c #292B25",
"Vr+	c #272620",
"Wr+	c #2C2A23",
"Xr+	c #5B554B",
"Yr+	c #60574D",
"Zr+	c #61584C",
"`r+	c #62574B",
" s+	c #5F564A",
".s+	c #5E5346",
"+s+	c #5C5246",
"@s+	c #5B5045",
"#s+	c #756A5F",
"$s+	c #7C6E63",
"%s+	c #796B60",
"&s+	c #4D473E",
"*s+	c #564A41",
"=s+	c #3F3935",
"-s+	c #3B332F",
";s+	c #534B43",
">s+	c #574E44",
",s+	c #635B4F",
"'s+	c #665D52",
")s+	c #574D45",
"!s+	c #352D28",
"~s+	c #3B3630",
"{s+	c #4C433C",
"]s+	c #544942",
"^s+	c #4B4139",
"/s+	c #3A2F29",
"(s+	c #342824",
"_s+	c #514841",
":s+	c #544B42",
"<s+	c #5A4E45",
"[s+	c #5E5248",
"}s+	c #5E5147",
"|s+	c #5F544A",
"1s+	c #5E554C",
"2s+	c #3C3630",
"3s+	c #433E38",
"4s+	c #4D3F37",
"5s+	c #4B3D34",
"6s+	c #4A3E36",
"7s+	c #463E37",
"8s+	c #1B1915",
"9s+	c #403530",
"0s+	c #413C39",
"as+	c #6D645A",
"bs+	c #70695E",
"cs+	c #726C61",
"ds+	c #726D64",
"es+	c #554F45",
"fs+	c #6B665B",
"gs+	c #756957",
"hs+	c #7D715B",
"is+	c #897D67",
"js+	c #8D8473",
"ks+	c #6D685B",
"ls+	c #3A3630",
"ms+	c #35322A",
"ns+	c #363328",
"os+	c #343123",
"ps+	c #414025",
"qs+	c #555B2B",
"rs+	c #5B672A",
"ss+	c #505C22",
"ts+	c #485520",
"us+	c #434F21",
"vs+	c #444F22",
"ws+	c #424920",
"xs+	c #454E1F",
"ys+	c #4D5723",
"zs+	c #576229",
"As+	c #556126",
"Bs+	c #526024",
"Cs+	c #48551E",
"Ds+	c #404B1A",
"Es+	c #3C4619",
"Fs+	c #424B1E",
"Gs+	c #474E22",
"Hs+	c #4B5625",
"Is+	c #4C5923",
"Js+	c #4F5C22",
"Ks+	c #4F5B1F",
"Ls+	c #50601E",
"Ms+	c #4C5E1E",
"Ns+	c #51632A",
"Os+	c #45542B",
"Ps+	c #202B14",
"Qs+	c #0A120A",
"Rs+	c #0E1412",
"Ss+	c #222623",
"Ts+	c #383933",
"Us+	c #58544B",
"Vs+	c #61594B",
"Ws+	c #5F574A",
"Xs+	c #5D5447",
"Ys+	c #5D5446",
"Zs+	c #564E48",
"`s+	c #7C7266",
" t+	c #665D53",
".t+	c #3D3930",
"+t+	c #423933",
"@t+	c #37312D",
"#t+	c #675E54",
"$t+	c #797066",
"%t+	c #7D746A",
"&t+	c #7B726A",
"*t+	c #5E544B",
"=t+	c #342A26",
"-t+	c #5A5148",
";t+	c #5D5147",
">t+	c #605349",
",t+	c #61544A",
"'t+	c #62564C",
")t+	c #4E443C",
"!t+	c #4D3F36",
"~t+	c #494037",
"{t+	c #252320",
"]t+	c #696863",
"^t+	c #403A37",
"/t+	c #201712",
"(t+	c #3B2F2B",
"_t+	c #423833",
":t+	c #413A36",
"<t+	c #6C645C",
"[t+	c #6F665D",
"}t+	c #6E685E",
"|t+	c #6A665B",
"1t+	c #796B56",
"2t+	c #83735C",
"3t+	c #8E7D68",
"4t+	c #8F8271",
"5t+	c #72695D",
"6t+	c #524B45",
"7t+	c #57504E",
"8t+	c #666053",
"9t+	c #544B45",
"0t+	c #403D26",
"at+	c #4F5326",
"bt+	c #565F23",
"ct+	c #4C561D",
"dt+	c #434F1D",
"et+	c #3C451E",
"ft+	c #3B4421",
"gt+	c #363C1E",
"ht+	c #363E1A",
"it+	c #414A1D",
"jt+	c #4C5621",
"kt+	c #47541E",
"lt+	c #414B1B",
"mt+	c #3C4419",
"nt+	c #39421A",
"ot+	c #3D451E",
"pt+	c #414725",
"qt+	c #464D29",
"rt+	c #465026",
"st+	c #495424",
"tt+	c #47521F",
"ut+	c #48571C",
"vt+	c #47571D",
"wt+	c #4A5B27",
"xt+	c #3E4D25",
"yt+	c #1C2711",
"zt+	c #080E07",
"At+	c #0E1210",
"Bt+	c #252925",
"Ct+	c #3F4039",
"Dt+	c #47423F",
"Et+	c #5F5B4D",
"Ft+	c #625B4F",
"Gt+	c #5E5649",
"Ht+	c #5B5346",
"It+	c #60564D",
"Jt+	c #777065",
"Kt+	c #746C61",
"Lt+	c #413E35",
"Mt+	c #504741",
"Nt+	c #6D6358",
"Ot+	c #776F66",
"Pt+	c #534D43",
"Qt+	c #5C5045",
"Rt+	c #5D5148",
"St+	c #584E47",
"Tt+	c #453D37",
"Ut+	c #443830",
"Vt+	c #41352D",
"Wt+	c #3D352F",
"Xt+	c #3F3833",
"Yt+	c #221916",
"Zt+	c #615A54",
"`t+	c #64615A",
" u+	c #6F695F",
".u+	c #685D4E",
"+u+	c #72634F",
"@u+	c #83715A",
"#u+	c #907D66",
"$u+	c #948470",
"%u+	c #807364",
"&u+	c #6E6159",
"*u+	c #766B5D",
"=u+	c #756A5A",
"-u+	c #6C6352",
";u+	c #332D26",
">u+	c #1C190C",
",u+	c #2C2E0C",
"'u+	c #464B16",
")u+	c #464D17",
"!u+	c #3A4316",
"~u+	c #282D11",
"{u+	c #1D220E",
"]u+	c #15170B",
"^u+	c #141707",
"/u+	c #282E0F",
"(u+	c #434A1E",
"_u+	c #485120",
":u+	c #434E1D",
"<u+	c #3F471C",
"[u+	c #3D431D",
"}u+	c #373D1B",
"|u+	c #303518",
"1u+	c #252712",
"2u+	c #232714",
"3u+	c #262C15",
"4u+	c #2D3315",
"5u+	c #2B310F",
"6u+	c #2F3A0C",
"7u+	c #36450F",
"8u+	c #394817",
"9u+	c #303E18",
"0u+	c #161F0A",
"au+	c #090F06",
"bu+	c #111611",
"cu+	c #252823",
"du+	c #363732",
"eu+	c #625A4E",
"fu+	c #665F51",
"gu+	c #675E51",
"hu+	c #645B4D",
"iu+	c #60584A",
"ju+	c #5E5749",
"ku+	c #5D5547",
"lu+	c #38352D",
"mu+	c #3B3931",
"nu+	c #2B2721",
"ou+	c #746960",
"pu+	c #6F635A",
"qu+	c #5F564C",
"ru+	c #544C43",
"su+	c #4B453C",
"tu+	c #55493F",
"uu+	c #53473E",
"vu+	c #3A322D",
"wu+	c #362C25",
"xu+	c #45403C",
"yu+	c #696562",
"zu+	c #6D6966",
"Au+	c #726E6A",
"Bu+	c #6D6865",
"Cu+	c #655F5D",
"Du+	c #504E4E",
"Eu+	c #5D5957",
"Fu+	c #534C41",
"Gu+	c #7A6854",
"Hu+	c #877560",
"Iu+	c #907F6A",
"Ju+	c #8B7C6C",
"Ku+	c #85776B",
"Lu+	c #817669",
"Mu+	c #786C5E",
"Nu+	c #746A59",
"Ou+	c #171903",
"Pu+	c #414816",
"Qu+	c #424815",
"Ru+	c #353B14",
"Su+	c #1D1F0C",
"Tu+	c #080A05",
"Uu+	c #030402",
"Vu+	c #414624",
"Wu+	c #474F24",
"Xu+	c #424C20",
"Yu+	c #3C431D",
"Zu+	c #3E4320",
"`u+	c #3E4024",
" v+	c #2F2F1B",
".v+	c #111007",
"+v+	c #080803",
"@v+	c #101109",
"#v+	c #1D1F0F",
"$v+	c #1D210A",
"%v+	c #232D05",
"&v+	c #2F3E0A",
"*v+	c #334210",
"=v+	c #2A3812",
"-v+	c #121C07",
";v+	c #070D04",
">v+	c #101510",
",v+	c #262925",
"'v+	c #696055",
")v+	c #696155",
"!v+	c #6A6355",
"~v+	c #5F5649",
"{v+	c #5F584A",
"]v+	c #5F584B",
"^v+	c #4B433A",
"/v+	c #453E36",
"(v+	c #47403B",
"_v+	c #383231",
":v+	c #0D0906",
"<v+	c #0E0806",
"[v+	c #786F68",
"}v+	c #82786D",
"|v+	c #7F7469",
"1v+	c #7D7167",
"2v+	c #6D6259",
"3v+	c #12100D",
"4v+	c #483F3C",
"5v+	c #5A4E46",
"6v+	c #584C43",
"7v+	c #514843",
"8v+	c #161010",
"9v+	c #65615F",
"0v+	c #74706C",
"av+	c #716C69",
"bv+	c #110C0A",
"cv+	c #6D6A65",
"dv+	c #6C6964",
"ev+	c #514E4C",
"fv+	c #4E4E4C",
"gv+	c #2C2C27",
"hv+	c #706A63",
"iv+	c #4F4940",
"jv+	c #66594A",
"kv+	c #786A58",
"lv+	c #827361",
"mv+	c #908473",
"nv+	c #8E8375",
"ov+	c #877D70",
"pv+	c #827A6A",
"qv+	c #797061",
"rv+	c #686050",
"sv+	c #181B05",
"tv+	c #414918",
"uv+	c #444D17",
"vv+	c #353D17",
"wv+	c #1C200F",
"xv+	c #080B07",
"yv+	c #050805",
"zv+	c #1E2314",
"Av+	c #41472B",
"Bv+	c #464E2A",
"Cv+	c #434D25",
"Dv+	c #3F4723",
"Ev+	c #414625",
"Fv+	c #43462A",
"Gv+	c #343322",
"Hv+	c #13110A",
"Iv+	c #0F0F0A",
"Jv+	c #1B1D11",
"Kv+	c #1C1F0C",
"Lv+	c #232E09",
"Mv+	c #2F400C",
"Nv+	c #354612",
"Ov+	c #2D3D13",
"Pv+	c #162109",
"Qv+	c #0E1508",
"Rv+	c #171C15",
"Sv+	c #282B26",
"Tv+	c #31332D",
"Uv+	c #6F695D",
"Vv+	c #635E53",
"Wv+	c #574F45",
"Xv+	c #5E584B",
"Yv+	c #605A4D",
"Zv+	c #655E51",
"`v+	c #413A35",
" w+	c #312F29",
".w+	c #4C4541",
"+w+	c #857B70",
"@w+	c #80766B",
"#w+	c #5B514C",
"$w+	c #5F534D",
"%w+	c #5F534C",
"&w+	c #615651",
"*w+	c #181A1B",
"=w+	c #0E1213",
"-w+	c #0B0D10",
";w+	c #706E69",
">w+	c #696461",
",w+	c #150F0C",
"'w+	c #1D1614",
")w+	c #575653",
"!w+	c #706B62",
"~w+	c #736C64",
"{w+	c #746E66",
"]w+	c #60564A",
"^w+	c #6B6152",
"/w+	c #766B5C",
"(w+	c #857B6F",
"_w+	c #746F63",
":w+	c #6D665A",
"<w+	c #696355",
"[w+	c #60594B",
"}w+	c #4E483C",
"|w+	c #121208",
"1w+	c #292D0E",
"2w+	c #434B17",
"3w+	c #434B14",
"4w+	c #333B16",
"5w+	c #1D2011",
"6w+	c #0C0F0A",
"7w+	c #080A08",
"8w+	c #1E2318",
"9w+	c #3A3F2C",
"0w+	c #3E452A",
"aw+	c #3B4526",
"bw+	c #3A4124",
"cw+	c #404429",
"dw+	c #43442C",
"ew+	c #353424",
"fw+	c #13130B",
"gw+	c #141706",
"hw+	c #202905",
"iw+	c #2F3F0A",
"jw+	c #34460F",
"kw+	c #2C3C11",
"lw+	c #18230A",
"mw+	c #101609",
"nw+	c #1A1E16",
"ow+	c #262823",
"pw+	c #2A2B25",
"qw+	c #565147",
"rw+	c #6A665A",
"sw+	c #595348",
"tw+	c #685F53",
"uw+	c #1D1D18",
"vw+	c #413A37",
"ww+	c #776E65",
"xw+	c #70685E",
"yw+	c #423834",
"zw+	c #443B38",
"Aw+	c #3C3533",
"Bw+	c #05080A",
"Cw+	c #000205",
"Dw+	c #201B15",
"Ew+	c #1E1710",
"Fw+	c #4F4C44",
"Gw+	c #53524F",
"Hw+	c #4F4F48",
"Iw+	c #6F6A61",
"Jw+	c #4C473E",
"Kw+	c #575046",
"Lw+	c #727068",
"Mw+	c #54534B",
"Nw+	c #524D43",
"Ow+	c #514D41",
"Pw+	c #1F1D17",
"Qw+	c #252513",
"Rw+	c #373F13",
"Sw+	c #455114",
"Tw+	c #434F14",
"Uw+	c #353F17",
"Vw+	c #202413",
"Ww+	c #121510",
"Xw+	c #0D100E",
"Yw+	c #161912",
"Zw+	c #212519",
"`w+	c #212617",
" x+	c #212816",
".x+	c #262B19",
"+x+	c #3A3E28",
"@x+	c #45452F",
"#x+	c #363725",
"$x+	c #17160D",
"%x+	c #090A05",
"&x+	c #0A0D02",
"*x+	c #1C2503",
"=x+	c #33440B",
"-x+	c #394E11",
";x+	c #2F4112",
">x+	c #1B260A",
",x+	c #121A09",
"'x+	c #1C2217",
")x+	c #262921",
"!x+	c #262922",
"~x+	c #22221D",
"{x+	c #4C473F",
"]x+	c #58544A",
"^x+	c #545047",
"/x+	c #3F3932",
"(x+	c #453F36",
"_x+	c #575248",
":x+	c #615C51",
"<x+	c #30302A",
"[x+	c #20211C",
"}x+	c #171815",
"|x+	c #484039",
"1x+	c #433D36",
"2x+	c #1B1210",
"3x+	c #1A1210",
"4x+	c #130D0D",
"5x+	c #362F2B",
"6x+	c #514944",
"7x+	c #49423E",
"8x+	c #2E2218",
"9x+	c #2D2116",
"0x+	c #2A2015",
"ax+	c #78736C",
"bx+	c #827E75",
"cx+	c #7C786F",
"dx+	c #4E4946",
"ex+	c #78736B",
"fx+	c #908A80",
"gx+	c #948D82",
"hx+	c #8A8278",
"ix+	c #21210E",
"jx+	c #343D0F",
"kx+	c #414D0F",
"lx+	c #404A11",
"mx+	c #323A14",
"nx+	c #1E2214",
"ox+	c #141715",
"px+	c #0F1210",
"qx+	c #0E110D",
"rx+	c #0A0E0A",
"sx+	c #0B1009",
"tx+	c #181C12",
"ux+	c #363729",
"vx+	c #444230",
"wx+	c #363626",
"xx+	c #030500",
"yx+	c #172003",
"zx+	c #32410B",
"Ax+	c #384A0F",
"Bx+	c #304011",
"Cx+	c #1B2609",
"Dx+	c #101807",
"Ex+	c #1A1F13",
"Fx+	c #23271E",
"Gx+	c #23251D",
"Hx+	c #3F3832",
"Ix+	c #5E5A4F",
"Jx+	c #25242B",
"Kx+	c #61605D",
"Lx+	c #636260",
"Mx+	c #191111",
"Nx+	c #352A23",
"Ox+	c #38281D",
"Px+	c #38281A",
"Qx+	c #352416",
"Rx+	c #362617",
"Sx+	c #342618",
"Tx+	c #30231A",
"Ux+	c #422E1E",
"Vx+	c #362C23",
"Wx+	c #494748",
"Xx+	c #8F8C81",
"Yx+	c #7D7871",
"Zx+	c #958E84",
"`x+	c #979083",
" y+	c #8D8479",
".y+	c #161817",
"+y+	c #1A1C0A",
"@y+	c #323A0C",
"#y+	c #465212",
"$y+	c #475216",
"%y+	c #373F18",
"&y+	c #242819",
"*y+	c #1D201E",
"=y+	c #131716",
"-y+	c #0F1313",
";y+	c #0B0E0F",
">y+	c #0C100E",
",y+	c #181C15",
"'y+	c #36372B",
")y+	c #444331",
"!y+	c #373726",
"~y+	c #19180D",
"{y+	c #161E04",
"]y+	c #313F0D",
"^y+	c #384912",
"/y+	c #304112",
"(y+	c #1C280A",
"_y+	c #111A07",
":y+	c #1C2314",
"<y+	c #272C20",
"[y+	c #282A20",
"}y+	c #585449",
"|y+	c #5F5B50",
"1y+	c #2B2931",
"2y+	c #292930",
"3y+	c #16151D",
"4y+	c #32322D",
"5y+	c #1D1E1B",
"6y+	c #090906",
"7y+	c #565553",
"8y+	c #646260",
"9y+	c #686764",
"0y+	c #1C1712",
"ay+	c #0D090A",
"by+	c #201715",
"cy+	c #1E1615",
"dy+	c #130E0D",
"ey+	c #140F0E",
"fy+	c #3D3129",
"gy+	c #55483E",
"hy+	c #110F08",
"iy+	c #17140E",
"jy+	c #372415",
"ky+	c #382312",
"ly+	c #37210F",
"my+	c #382411",
"ny+	c #362415",
"oy+	c #2D2118",
"py+	c #241B15",
"qy+	c #332013",
"ry+	c #3F2713",
"sy+	c #432811",
"ty+	c #472B15",
"uy+	c #432C18",
"vy+	c #322E27",
"wy+	c #838179",
"xy+	c #8C877D",
"yy+	c #8E897C",
"zy+	c #847D71",
"Ay+	c #756E63",
"By+	c #706C66",
"Cy+	c #141612",
"Dy+	c #191C0A",
"Ey+	c #343C0F",
"Fy+	c #4A5518",
"Gy+	c #4C561B",
"Hy+	c #3E461E",
"Iy+	c #2B2E20",
"Jy+	c #1C2021",
"Ky+	c #121516",
"Ly+	c #121614",
"My+	c #1D211B",
"Ny+	c #35352A",
"Oy+	c #413F2E",
"Py+	c #373524",
"Qy+	c #1B190D",
"Ry+	c #0C0A05",
"Sy+	c #111603",
"Ty+	c #26320A",
"Uy+	c #2D3C0F",
"Vy+	c #29360F",
"Wy+	c #192409",
"Xy+	c #1E2416",
"Yy+	c #2C3024",
"Zy+	c #2C2E25",
"`y+	c #27251F",
" z+	c #403935",
".z+	c #605C52",
"+z+	c #28262D",
"@z+	c #27252C",
"#z+	c #15131B",
"$z+	c #1E1D17",
"%z+	c #63615E",
"&z+	c #261B18",
"*z+	c #231A18",
"=z+	c #1A110D",
"-z+	c #1D140E",
";z+	c #1B110D",
">z+	c #211914",
",z+	c #231A11",
"'z+	c #24190E",
")z+	c #36271C",
"!z+	c #4E3D31",
"~z+	c #594839",
"{z+	c #56473A",
"]z+	c #483B32",
"^z+	c #433A31",
"/z+	c #4A3F34",
"(z+	c #35200D",
"_z+	c #331B07",
":z+	c #341B07",
"<z+	c #38220D",
"[z+	c #332111",
"}z+	c #2A1F15",
"|z+	c #211811",
"1z+	c #2C190C",
"2z+	c #381E0A",
"3z+	c #3C1F07",
"4z+	c #3E2109",
"5z+	c #3E240E",
"6z+	c #342315",
"7z+	c #5C5855",
"8z+	c #534F4E",
"9z+	c #716B61",
"0z+	c #766F68",
"az+	c #262721",
"bz+	c #272812",
"cz+	c #3C4414",
"dz+	c #54601E",
"ez+	c #586423",
"fz+	c #4A5426",
"gz+	c #353A27",
"hz+	c #2F3230",
"iz+	c #2C3032",
"jz+	c #252A2B",
"kz+	c #1C2122",
"lz+	c #141819",
"mz+	c #141816",
"nz+	c #20231D",
"oz+	c #35362A",
"pz+	c #41402D",
"qz+	c #373723",
"rz+	c #201E0F",
"sz+	c #131209",
"tz+	c #0D0D07",
"uz+	c #070A00",
"vz+	c #0F1702",
"wz+	c #161E05",
"xz+	c #151D04",
"yz+	c #111804",
"zz+	c #131A0A",
"Az+	c #272E1F",
"Bz+	c #383E31",
"Cz+	c #373A2F",
"Dz+	c #313129",
"Ez+	c #36342C",
"Fz+	c #48423A",
"Gz+	c #6E6A5F",
"Hz+	c #6D685D",
"Iz+	c #69665B",
"Jz+	c #22211D",
"Kz+	c #04060B",
"Lz+	c #302520",
"Mz+	c #2C201C",
"Nz+	c #281D19",
"Oz+	c #271C1A",
"Pz+	c #241A19",
"Qz+	c #160D0A",
"Rz+	c #1E1009",
"Sz+	c #201009",
"Tz+	c #21120A",
"Uz+	c #23150D",
"Vz+	c #21140E",
"Wz+	c #251910",
"Xz+	c #24170F",
"Yz+	c #22170C",
"Zz+	c #241609",
"`z+	c #3A271A",
" A+	c #564030",
".A+	c #5D4735",
"+A+	c #584332",
"@A+	c #564434",
"#A+	c #5F5449",
"$A+	c #443320",
"%A+	c #321B08",
"&A+	c #311703",
"*A+	c #301603",
"=A+	c #2F1A08",
"-A+	c #2A1A0D",
";A+	c #211006",
">A+	c #291102",
",A+	c #2E1301",
"'A+	c #311502",
")A+	c #301604",
"!A+	c #28160A",
"~A+	c #817B74",
"{A+	c #867F78",
"]A+	c #7E7871",
"^A+	c #716C65",
"/A+	c #414042",
"(A+	c #4B4C4B",
"_A+	c #4D4E49",
":A+	c #46463D",
"<A+	c #3F4128",
"[A+	c #444D1B",
"}A+	c #545F20",
"|A+	c #5B6326",
"1A+	c #4E5529",
"2A+	c #3A3E2A",
"3A+	c #343734",
"4A+	c #34373B",
"5A+	c #33383B",
"6A+	c #292F31",
"7A+	c #1D2224",
"8A+	c #14191A",
"9A+	c #20231F",
"0A+	c #35362B",
"aA+	c #3E3C2B",
"bA+	c #363521",
"cA+	c #222110",
"dA+	c #19180F",
"eA+	c #030600",
"fA+	c #060B02",
"gA+	c #10140B",
"hA+	c #2B3026",
"iA+	c #393D33",
"jA+	c #363930",
"kA+	c #35372D",
"lA+	c #47453C",
"mA+	c #564E49",
"nA+	c #352E2B",
"oA+	c #636055",
"pA+	c #6C685E",
"qA+	c #18151B",
"rA+	c #302E27",
"sA+	c #3A362F",
"tA+	c #423D3B",
"uA+	c #251F1B",
"vA+	c #05070C",
"wA+	c #22211E",
"xA+	c #291F19",
"yA+	c #312520",
"zA+	c #271C19",
"AA+	c #291E1C",
"BA+	c #251C1A",
"CA+	c #1F1615",
"DA+	c #190C08",
"EA+	c #220E06",
"FA+	c #261004",
"GA+	c #251006",
"HA+	c #281409",
"IA+	c #29180D",
"JA+	c #291A0E",
"KA+	c #27180C",
"LA+	c #291A0A",
"MA+	c #3A2615",
"NA+	c #543B29",
"OA+	c #5D4530",
"PA+	c #59412E",
"QA+	c #55412F",
"RA+	c #524134",
"SA+	c #5C5046",
"TA+	c #645C4D",
"UA+	c #5B4E3C",
"VA+	c #473420",
"WA+	c #341C0A",
"XA+	c #331907",
"YA+	c #2E1505",
"ZA+	c #2A1608",
"`A+	c #24170C",
" B+	c #160F0B",
".B+	c #1D0E05",
"+B+	c #240D01",
"@B+	c #280D00",
"#B+	c #2C1001",
"$B+	c #2A1203",
"%B+	c #221208",
"&B+	c #827E78",
"*B+	c #807B75",
"=B+	c #464746",
"-B+	c #49484B",
";B+	c #63625D",
">B+	c #5E5D52",
",B+	c #505438",
"'B+	c #444E1D",
")B+	c #4B571D",
"!B+	c #545C25",
"~B+	c #4E5429",
"{B+	c #3D402C",
"]B+	c #393C38",
"^B+	c #393D40",
"/B+	c #393E41",
"(B+	c #2E3536",
"_B+	c #202728",
":B+	c #151A1B",
"<B+	c #151A18",
"[B+	c #222621",
"}B+	c #36372C",
"|B+	c #403D2C",
"1B+	c #242211",
"2B+	c #1B1A10",
"3B+	c #10120B",
"4B+	c #030603",
"5B+	c #10130F",
"6B+	c #282D25",
"7B+	c #33372F",
"8B+	c #2C2F28",
"9B+	c #32342C",
"0B+	c #525149",
"aB+	c #675F58",
"bB+	c #564F4A",
"cB+	c #38322D",
"dB+	c #474240",
"eB+	c #4C463D",
"fB+	c #514D42",
"gB+	c #57544A",
"hB+	c #65635A",
"iB+	c #3D3A33",
"jB+	c #04070B",
"kB+	c #1F191E",
"lB+	c #0E090D",
"mB+	c #231A15",
"nB+	c #281D17",
"oB+	c #2C201A",
"pB+	c #2D211B",
"qB+	c #291D18",
"rB+	c #150E0C",
"sB+	c #190F0B",
"tB+	c #25130D",
"uB+	c #2E1408",
"vB+	c #321606",
"wB+	c #301506",
"xB+	c #301808",
"yB+	c #2F190A",
"zB+	c #301C0E",
"AB+	c #2C1B0C",
"BB+	c #2A1807",
"CB+	c #4D321D",
"DB+	c #573924",
"EB+	c #543724",
"FB+	c #513B28",
"GB+	c #55483C",
"HB+	c #5E5546",
"IB+	c #46301D",
"JB+	c #351C0B",
"KB+	c #321807",
"LB+	c #2C1608",
"MB+	c #26160A",
"NB+	c #20160E",
"OB+	c #1F1009",
"PB+	c #281207",
"QB+	c #2C1205",
"RB+	c #2E1305",
"SB+	c #291306",
"TB+	c #1D1108",
"UB+	c #706D6A",
"VB+	c #74726D",
"WB+	c #666460",
"XB+	c #5C5C5A",
"YB+	c #61615B",
"ZB+	c #5D5D51",
"`B+	c #4D5038",
" C+	c #333B10",
".C+	c #3A3F16",
"+C+	c #3E421E",
"@C+	c #3A3C29",
"#C+	c #3C3E42",
"$C+	c #3B4042",
"%C+	c #313839",
"&C+	c #202628",
"*C+	c #14191B",
"=C+	c #131817",
"-C+	c #21241F",
";C+	c #3F3B2A",
">C+	c #373320",
",C+	c #231F10",
"'C+	c #16140B",
")C+	c #0C0D07",
"!C+	c #212421",
"~C+	c #1B1D1B",
"{C+	c #3D3633",
"]C+	c #514C42",
"^C+	c #251D1A",
"/C+	c #1F1A1E",
"(C+	c #291E17",
"_C+	c #291D17",
":C+	c #271B16",
"<C+	c #241712",
"[C+	c #321C13",
"}C+	c #3C1D0D",
"|C+	c #3E1C08",
"1C+	c #3C1C08",
"2C+	c #391D0A",
"3C+	c #341C0C",
"4C+	c #321E0E",
"5C+	c #301D0F",
"6C+	c #2F1C0D",
"7C+	c #2C1808",
"8C+	c #331D08",
"9C+	c #41250E",
"0C+	c #4C2C16",
"aC+	c #51321C",
"bC+	c #4E3520",
"cC+	c #493726",
"dC+	c #554939",
"eC+	c #564B39",
"fC+	c #4E3F2C",
"gC+	c #402D1A",
"hC+	c #331E0D",
"iC+	c #311C0D",
"jC+	c #2B1B0E",
"kC+	c #291D12",
"lC+	c #281B15",
"mC+	c #301E14",
"nC+	c #341E12",
"oC+	c #362013",
"pC+	c #2E1B11",
"qC+	c #1C110C",
"rC+	c #585650",
"sC+	c #53544E",
"tC+	c #57574F",
"uC+	c #525346",
"vC+	c #454933",
"wC+	c #2C3315",
"xC+	c #212708",
"yC+	c #222507",
"zC+	c #2C2E11",
"AC+	c #3B3C29",
"BC+	c #43443D",
"CC+	c #424544",
"DC+	c #414646",
"EC+	c #343B3A",
"FC+	c #24292A",
"GC+	c #171B19",
"HC+	c #232620",
"IC+	c #363528",
"JC+	c #413C29",
"KC+	c #39351E",
"LC+	c #221F0E",
"MC+	c #131207",
"NC+	c #090A03",
"OC+	c #020300",
"PC+	c #0C0E0E",
"QC+	c #171918",
"RC+	c #706A60",
"SC+	c #5A584F",
"TC+	c #4D4A3F",
"UC+	c #4F4B3F",
"VC+	c #514C41",
"WC+	c #291E18",
"XC+	c #291E16",
"YC+	c #281D15",
"ZC+	c #271C15",
"`C+	c #241A15",
" D+	c #211915",
".D+	c #271A14",
"+D+	c #341D15",
"@D+	c #3E1C0E",
"#D+	c #401C09",
"$D+	c #3D1B09",
"%D+	c #3A1E0C",
"&D+	c #351E0D",
"*D+	c #301D0E",
"=D+	c #2C1C0F",
"-D+	c #2E1A0A",
";D+	c #311906",
">D+	c #361805",
",D+	c #3E1E0C",
"'D+	c #3F1F0F",
")D+	c #3E2414",
"!D+	c #392517",
"~D+	c #3C2C1E",
"{D+	c #3A2C1F",
"]D+	c #322517",
"^D+	c #2B1D11",
"/D+	c #2B1D12",
"(D+	c #281E1B",
"_D+	c #2F211B",
":D+	c #322119",
"<D+	c #352218",
"[D+	c #2F1F17",
"}D+	c #211612",
"|D+	c #736C67",
"1D+	c #424040",
"2D+	c #58534F",
"3D+	c #363726",
"4D+	c #262914",
"5D+	c #1B1F0A",
"6D+	c #181B06",
"7D+	c #252610",
"8D+	c #3D3D2B",
"9D+	c #3A3E3D",
"0D+	c #242624",
"aD+	c #3A3629",
"bD+	c #403925",
"cD+	c #38311B",
"dD+	c #221E0C",
"eD+	c #100F04",
"fD+	c #0A0B03",
"gD+	c #090B05",
"hD+	c #070804",
"iD+	c #49423F",
"jD+	c #443E35",
"kD+	c #554F42",
"lD+	c #554E43",
"mD+	c #38322E",
"nD+	c #291F1B",
"oD+	c #44433D",
"pD+	c #291D15",
"qD+	c #291D16",
"rD+	c #251B15",
"sD+	c #251B17",
"tD+	c #2F1D17",
"uD+	c #371B10",
"vD+	c #381A0C",
"wD+	c #361B0D",
"xD+	c #331D10",
"yD+	c #2F1E11",
"zD+	c #2C1F13",
"AD+	c #281D12",
"BD+	c #2C1E11",
"CD+	c #2E1B0D",
"DD+	c #321B0B",
"ED+	c #311608",
"FD+	c #2F1407",
"GD+	c #290F06",
"HD+	c #29150B",
"ID+	c #26160C",
"JD+	c #25180D",
"KD+	c #20140B",
"LD+	c #1D130A",
"MD+	c #181007",
"ND+	c #18110A",
"OD+	c #2A241F",
"PD+	c #2C2624",
"QD+	c #362922",
"RD+	c #7C746D",
"SD+	c #736D68",
"TD+	c #66615D",
"UD+	c #68635E",
"VD+	c #5F574D",
"WD+	c #5B534A",
"XD+	c #2F2F26",
"YD+	c #2F3122",
"ZD+	c #282A19",
"`D+	c #212414",
" E+	c #1C200D",
".E+	c #272912",
"+E+	c #42432E",
"@E+	c #4E4E42",
"#E+	c #414543",
"$E+	c #3B3E3D",
"%E+	c #39372F",
"&E+	c #413B2B",
"*E+	c #433A24",
"=E+	c #3C351B",
"-E+	c #26230D",
";E+	c #171709",
">E+	c #17190E",
",E+	c #1B1D13",
"'E+	c #171911",
")E+	c #0C0F09",
"!E+	c #5C5A52",
"~E+	c #5E5752",
"{E+	c #4C4542",
"]E+	c #595346",
"^E+	c #5F594A",
"/E+	c #5D574A",
"(E+	c #26282C",
"_E+	c #202227",
":E+	c #46403C",
"<E+	c #2B2019",
"[E+	c #241B17",
"}E+	c #291812",
"|E+	c #2B1810",
"1E+	c #291912",
"2E+	c #261D18",
"3E+	c #261F18",
"4E+	c #2F2013",
"5E+	c #321D10",
"6E+	c #2C1309",
"7E+	c #210B05",
"8E+	c #170804",
"9E+	c #180E0B",
"0E+	c #211814",
"aE+	c #1F1813",
"bE+	c #1A140F",
"cE+	c #3D3733",
"dE+	c #443932",
"eE+	c #6E6761",
"fE+	c #60584F",
"gE+	c #5B534B",
"hE+	c #2A2B20",
"iE+	c #2B2D1F",
"jE+	c #26291B",
"kE+	c #1F2111",
"lE+	c #262811",
"mE+	c #42412C",
"nE+	c #514E41",
"oE+	c #454747",
"pE+	c #434545",
"qE+	c #3D3E3F",
"rE+	c #3F3B30",
"sE+	c #443A27",
"tE+	c #44371F",
"uE+	c #3C3418",
"vE+	c #26220C",
"wE+	c #1B1A0D",
"xE+	c #202016",
"yE+	c #26271D",
"zE+	c #202219",
"AE+	c #11130C",
"BE+	c #56544C",
"CE+	c #070408",
"DE+	c #4E473C",
"EE+	c #675F51",
"FE+	c #706858",
"GE+	c #70675A",
"HE+	c #343637",
"IE+	c #23262B",
"JE+	c #1F2227",
"KE+	c #1C1614",
"LE+	c #2A2121",
"ME+	c #424039",
"NE+	c #4B4A43",
"OE+	c #42413B",
"PE+	c #2C2018",
"QE+	c #281D16",
"RE+	c #292017",
"SE+	c #2E2014",
"TE+	c #311E11",
"UE+	c #2A140A",
"VE+	c #1B0B06",
"WE+	c #0F0806",
"XE+	c #504A41",
"YE+	c #625A52",
"ZE+	c #272722",
"`E+	c #2B2C24",
" F+	c #282A21",
".F+	c #22241B",
"+F+	c #191B0E",
"@F+	c #22240F",
"#F+	c #44442D",
"$F+	c #565443",
"%F+	c #474949",
"&F+	c #464849",
"*F+	c #3E4042",
"=F+	c #3D372C",
"-F+	c #463923",
";F+	c #493A1D",
">F+	c #403617",
",F+	c #2C270F",
"'F+	c #222111",
")F+	c #26271B",
"!F+	c #2B2D22",
"~F+	c #25271E",
"{F+	c #151810",
"]F+	c #060805",
"^F+	c #040503",
"/F+	c #524E44",
"(F+	c #3B3430",
"_F+	c #524A3F",
":F+	c #6E6658",
"<F+	c #797060",
"[F+	c #7C7364",
"}F+	c #555148",
"|F+	c #24282C",
"1F+	c #202429",
"2F+	c #202328",
"3F+	c #120B0A",
"4F+	c #362C2B",
"5F+	c #332929",
"6F+	c #271F1E",
"7F+	c #201A19",
"8F+	c #36352E",
"9F+	c #3A3731",
"0F+	c #2A1E17",
"aF+	c #2A1F16",
"bF+	c #2D1D12",
"cF+	c #301B0E",
"dF+	c #190B06",
"eF+	c #68615D",
"fF+	c #6D655E",
"gF+	c #595248",
"hF+	c #4F4640",
"iF+	c #544F46",
"jF+	c #625A54",
"kF+	c #2A2C26",
"lF+	c #1C1F18",
"mF+	c #11130A",
"nF+	c #1B1E0C",
"oF+	c #42422D",
"pF+	c #585544",
"qF+	c #434549",
"rF+	c #3E4045",
"sF+	c #3D3629",
"tF+	c #45361B",
"uF+	c #483414",
"vF+	c #443313",
"wF+	c #332911",
"xF+	c #292413",
"yF+	c #27261A",
"zF+	c #292A1E",
"AF+	c #17170F",
"BF+	c #080804",
"CF+	c #49433A",
"DF+	c #3E3731",
"EF+	c #726A5B",
"FF+	c #212526",
"GF+	c #202326",
"HF+	c #202428",
"IF+	c #202327",
"JF+	c #140E0D",
"KF+	c #130A09",
"LF+	c #3E3533",
"MF+	c #181312",
"NF+	c #36342E",
"OF+	c #29201C",
"PF+	c #251D18",
"QF+	c #2D1F14",
"RF+	c #32190A",
"SF+	c #291005",
"TF+	c #1B0C08",
"UF+	c #6B6561",
"VF+	c #585755",
"WF+	c #4D4F49",
"XF+	c #343831",
"YF+	c #1D221B",
"ZF+	c #11150C",
"`F+	c #1F2210",
" G+	c #454631",
".G+	c #595744",
"+G+	c #434649",
"@G+	c #404247",
"#G+	c #433B2C",
"$G+	c #4B3C1B",
"%G+	c #4E3C12",
"&G+	c #4E3B13",
"*G+	c #453519",
"=G+	c #3E3623",
"-G+	c #363426",
";G+	c #343527",
">G+	c #2A2B1F",
",G+	c #1A1A10",
"'G+	c #51493C",
")G+	c #564D42",
"!G+	c #212528",
"~G+	c #190E0B",
"{G+	c #1F1311",
"]G+	c #1E1412",
"^G+	c #1C1413",
"/G+	c #3E3C34",
"(G+	c #3D3B34",
"_G+	c #2D2C27",
":G+	c #281F1C",
"<G+	c #281E19",
"[G+	c #231B1A",
"}G+	c #281D14",
"|G+	c #2F1C0E",
"1G+	c #331908",
"2G+	c #331404",
"3G+	c #2B0E03",
"4G+	c #1E0D0A",
"5G+	c #150C0E",
"6G+	c #353637",
"7G+	c #3F3F41",
"8G+	c #4D4C4D",
"9G+	c #5A5758",
"0G+	c #68635F",
"aG+	c #67615C",
"bG+	c #5B5148",
"cG+	c #585454",
"dG+	c #636060",
"eG+	c #615F5E",
"fG+	c #515350",
"gG+	c #373B37",
"hG+	c #242923",
"iG+	c #1B2017",
"jG+	c #2A2C1D",
"kG+	c #4C4D38",
"lG+	c #595743",
"mG+	c #524F46",
"nG+	c #424547",
"oG+	c #3F4247",
"pG+	c #3C4045",
"qG+	c #453D2E",
"rG+	c #4D3C1A",
"sG+	c #4D390D",
"tG+	c #533F12",
"uG+	c #544422",
"vG+	c #524A36",
"wG+	c #4C493D",
"xG+	c #4A4A3E",
"yG+	c #3F3E34",
"zG+	c #26251C",
"AG+	c #342E30",
"BG+	c #4D4642",
"CG+	c #0B0607",
"DG+	c #3E342F",
"EG+	c #1E1410",
"FG+	c #1D100C",
"GG+	c #1F120E",
"HG+	c #1F120F",
"IG+	c #4E4C43",
"JG+	c #4A4941",
"KG+	c #47463E",
"LG+	c #221915",
"MG+	c #221815",
"NG+	c #201815",
"OG+	c #201917",
"PG+	c #0E0E0B",
"QG+	c #31190A",
"RG+	c #351605",
"SG+	c #351403",
"TG+	c #2C1105",
"UG+	c #181011",
"VG+	c #4E4B41",
"WG+	c #4B473F",
"XG+	c #393A3B",
"YG+	c #404042",
"ZG+	c #5F5D5A",
"`G+	c #605E5D",
" H+	c #3B3F39",
".H+	c #2E342C",
"+H+	c #282E23",
"@H+	c #343725",
"#H+	c #4E5038",
"$H+	c #5A5A43",
"%H+	c #524F45",
"&H+	c #3D4246",
"*H+	c #4B4431",
"=H+	c #51421B",
"-H+	c #4D390B",
";H+	c #4D3A0B",
">H+	c #50421D",
",H+	c #574F3C",
"'H+	c #57544C",
")H+	c #5D5D55",
"!H+	c #55554C",
"~H+	c #333129",
"{H+	c #0B0D0F",
"]H+	c #3D342E",
"^H+	c #342A22",
"/H+	c #231813",
"(H+	c #20120E",
"_H+	c #21140F",
":H+	c #1D1414",
"<H+	c #1D1515",
"[H+	c #171013",
"}H+	c #262520",
"|H+	c #535148",
"1H+	c #140E0E",
"2H+	c #150F0E",
"3H+	c #160F0D",
"4H+	c #1A120F",
"5H+	c #2A180D",
"6H+	c #301002",
"7H+	c #301103",
"8H+	c #2A1108",
"9H+	c #20100F",
"0H+	c #4C4940",
"aH+	c #55534A",
"bH+	c #44443F",
"cH+	c #585854",
"dH+	c #615952",
"eH+	c #61574A",
"fH+	c #5F5A5A",
"gH+	c #5E5B59",
"hH+	c #3E413C",
"iH+	c #323730",
"jH+	c #292D22",
"kH+	c #2F3320",
"lH+	c #474932",
"mH+	c #54523F",
"nH+	c #525045",
"oH+	c #434749",
"pH+	c #44484C",
"qH+	c #454B4F",
"rH+	c #4A4C47",
"sH+	c #4C4430",
"tH+	c #4C3B14",
"uH+	c #493405",
"vH+	c #473408",
"wH+	c #4C411F",
"xH+	c #585244",
"yH+	c #5B5958",
"zH+	c #626161",
"AH+	c #332E31",
"BH+	c #363033",
"CH+	c #1F191A",
"DH+	c #362B22",
"EH+	c #31271C",
"FH+	c #20130E",
"GH+	c #1F120D",
"HH+	c #1F1413",
"IH+	c #302823",
"JH+	c #27211B",
"KH+	c #1A1215",
"LH+	c #292823",
"MH+	c #535048",
"NH+	c #1E1515",
"OH+	c #27170B",
"PH+	c #291105",
"QH+	c #290E03",
"RH+	c #281006",
"SH+	c #24110B",
"TH+	c #4E4C45",
"UH+	c #595854",
"VH+	c #454640",
"WH+	c #373B33",
"XH+	c #2C3124",
"YH+	c #2E331E",
"ZH+	c #42442D",
"`H+	c #504F3B",
" I+	c #4F4E41",
".I+	c #494B47",
"+I+	c #44494A",
"@I+	c #4A4D53",
"#I+	c #505558",
"$I+	c #585B51",
"%I+	c #544F32",
"&I+	c #483A0F",
"*I+	c #453203",
"=I+	c #4D3D11",
"-I+	c #574D30",
";I+	c #606062",
">I+	c #69696C",
",I+	c #616261",
"'I+	c #252125",
")I+	c #363136",
"!I+	c #3A3538",
"~I+	c #382F28",
"{I+	c #352A1E",
"]I+	c #382D20",
"^I+	c #352B20",
"/I+	c #20140E",
"(I+	c #1F130D",
"_I+	c #1E130F",
":I+	c #1F1616",
"<I+	c #160E10",
"[I+	c #170F11",
"}I+	c #170F12",
"|I+	c #171114",
"1I+	c #0C070B",
"2I+	c #0D080C",
"3I+	c #191312",
"4I+	c #1B1312",
"5I+	c #1E1514",
"6I+	c #23180F",
"7I+	c #23130B",
"8I+	c #23120B",
"9I+	c #1A100F",
"0I+	c #464640",
"aI+	c #474841",
"bI+	c #40433A",
"cI+	c #3A3F30",
"dI+	c #3B402B",
"eI+	c #41442E",
"fI+	c #464833",
"gI+	c #444538",
"hI+	c #424540",
"iI+	c #404546",
"jI+	c #474C51",
"kI+	c #505658",
"lI+	c #575A4F",
"mI+	c #504B2C",
"nI+	c #433509",
"oI+	c #3E2C01",
"pI+	c #56481D",
"qI+	c #675E45",
"rI+	c #605F65",
"sI+	c #69686E",
"tI+	c #605F62",
"uI+	c #130F13",
"vI+	c #19141A",
"wI+	c #342A24",
"xI+	c #34291F",
"yI+	c #352A1C",
"zI+	c #221A14",
"AI+	c #1E140F",
"BI+	c #1E130E",
"CI+	c #1D1410",
"DI+	c #180F11",
"EI+	c #191113",
"FI+	c #1A1216",
"GI+	c #231B16",
"HI+	c #1F1714",
"II+	c #43443E",
"JI+	c #44463F",
"KI+	c #514C4A",
"LI+	c #505148",
"MI+	c #4D5046",
"NI+	c #4C5041",
"OI+	c #4A4F3C",
"PI+	c #454734",
"QI+	c #444733",
"RI+	c #404234",
"SI+	c #3F433C",
"TI+	c #3A4140",
"UI+	c #3D4446",
"VI+	c #444C4B",
"WI+	c #484E43",
"XI+	c #433F23",
"YI+	c #3C3106",
"ZI+	c #3C2D02",
"`I+	c #5A4D26",
" J+	c #6D664F",
".J+	c #686862",
"+J+	c #616167",
"@J+	c #6A6A70",
"#J+	c #5E5D61",
"$J+	c #0F0A10",
"%J+	c #1C171D",
"&J+	c #242025",
"*J+	c #090C10",
"=J+	c #0D1014",
"-J+	c #372C25",
";J+	c #372B20",
">J+	c #362A1C",
",J+	c #1E1510",
"'J+	c #191A18",
")J+	c #17100F",
"!J+	c #170F10",
"~J+	c #140C0F",
"{J+	c #080509",
"]J+	c #09050A",
"^J+	c #0A060A",
"/J+	c #0B070B",
"(J+	c #1A1316",
"_J+	c #161015",
":J+	c #121418",
"<J+	c #0E1017",
"[J+	c #3F403B",
"}J+	c #7B7266",
"|J+	c #6D6864",
"1J+	c #54544C",
"2J+	c #52544B",
"3J+	c #4F5146",
"4J+	c #4C4F3F",
"5J+	c #454737",
"6J+	c #414332",
"7J+	c #3C3D31",
"8J+	c #3B3E39",
"9J+	c #353A3B",
"0J+	c #343B3C",
"aJ+	c #333C3A",
"bJ+	c #373D32",
"cJ+	c #343219",
"dJ+	c #312804",
"eJ+	c #342602",
"fJ+	c #534728",
"gJ+	c #67624F",
"hJ+	c #60605D",
"iJ+	c #5E5F65",
"jJ+	c #64656B",
"kJ+	c #56545A",
"lJ+	c #130F14",
"mJ+	c #1B161C",
"nJ+	c #2C2D29",
"oJ+	c #05080C",
"pJ+	c #080B0F",
"qJ+	c #39302E",
"rJ+	c #312927",
"sJ+	c #1C1711",
"tJ+	c #1A1C18",
"uJ+	c #332B2A",
"vJ+	c #130C0E",
"wJ+	c #09060A",
"xJ+	c #0C070C",
"yJ+	c #201817",
"zJ+	c #130D0A",
"AJ+	c #130C09",
"BJ+	c #150E0D",
"CJ+	c #0F1117",
"DJ+	c #746D63",
"EJ+	c #7E7469",
"FJ+	c #6E6A65",
"GJ+	c #736E6A",
"HJ+	c #605E57",
"IJ+	c #585750",
"JJ+	c #575850",
"KJ+	c #505147",
"LJ+	c #494B3E",
"MJ+	c #404134",
"NJ+	c #404233",
"OJ+	c #3B3D32",
"PJ+	c #383C37",
"QJ+	c #343A39",
"RJ+	c #2A3332",
"SJ+	c #2F362C",
"TJ+	c #2C2D16",
"UJ+	c #2C2705",
"VJ+	c #2E2603",
"WJ+	c #4A4325",
"XJ+	c #5B5947",
"YJ+	c #585857",
"ZJ+	c #595B61",
"`J+	c #5A5B61",
" K+	c #46464B",
".K+	c #3E3E38",
"+K+	c #201916",
"@K+	c #05070B",
"#K+	c #44392C",
"$K+	c #4B4030",
"%K+	c #514637",
"&K+	c #3C3430",
"*K+	c #3F3632",
"=K+	c #1F1A15",
"-K+	c #1E1E19",
";K+	c #191A16",
">K+	c #1A1B17",
",K+	c #312928",
"'K+	c #181110",
")K+	c #160F0E",
"!K+	c #191311",
"~K+	c #514C49",
"{K+	c #44443D",
"]K+	c #6B635A",
"^K+	c #66625E",
"/K+	c #45463D",
"(K+	c #3C3D33",
"_K+	c #3B3C31",
":K+	c #3B3C32",
"<K+	c #373A36",
"[K+	c #2A3133",
"}K+	c #273031",
"|K+	c #293028",
"1K+	c #282916",
"2K+	c #282607",
"3K+	c #282303",
"4K+	c #3B371C",
"5K+	c #464535",
"6K+	c #48494E",
"7K+	c #45454A",
"8K+	c #1E1719",
"9K+	c #594C3D",
"0K+	c #2A211E",
"aK+	c #1A1212",
"bK+	c #1D1516",
"cK+	c #1D1710",
"dK+	c #1F1911",
"eK+	c #201B14",
"fK+	c #1B1C17",
"gK+	c #1A1B16",
"hK+	c #1C1D18",
"iK+	c #1C1C18",
"jK+	c #1C1415",
"kK+	c #332B23",
"lK+	c #44443E",
"mK+	c #5D564B",
"nK+	c #5E584D",
"oK+	c #5B564C",
"pK+	c #414239",
"qK+	c #414139",
"rK+	c #43433D",
"sK+	c #3E403D",
"tK+	c #272E31",
"uK+	c #242D2D",
"vK+	c #272E27",
"wK+	c #2B2C1A",
"xK+	c #2D2C10",
"yK+	c #2C290C",
"zK+	c #323118",
"AK+	c #313122",
"BK+	c #3E3831",
"CK+	c #261D1A",
"DK+	c #291F1A",
"EK+	c #1F1612",
"FK+	c #100A0D",
"GK+	c #251E15",
"HK+	c #272015",
"IK+	c #282119",
"JK+	c #29231B",
"KK+	c #27231B",
"LK+	c #1F201A",
"MK+	c #1F201B",
"NK+	c #242420",
"OK+	c #241B1C",
"PK+	c #140D0C",
"QK+	c #2D2521",
"RK+	c #0F0A0E",
"SK+	c #303437",
"TK+	c #22282D",
"UK+	c #1E2529",
"VK+	c #222924",
"WK+	c #272A19",
"XK+	c #2B2B12",
"YK+	c #29280E",
"ZK+	c #2C2A14",
"`K+	c #1C1517",
" L+	c #1E1618",
".L+	c #2C231F",
"+L+	c #362D29",
"@L+	c #504642",
"#L+	c #595148",
"$L+	c #261C17",
"%L+	c #231914",
"&L+	c #0A0404",
"*L+	c #040104",
"=L+	c #2D271E",
"-L+	c #31291E",
";L+	c #342C1F",
">L+	c #332B1F",
",L+	c #1F1E18",
"'L+	c #292924",
")L+	c #271E1C",
"!L+	c #231B17",
"~L+	c #271F1A",
"{L+	c #5F5E5A",
"]L+	c #515352",
"^L+	c #323639",
"/L+	c #21272D",
"(L+	c #1D2428",
"_L+	c #1F2521",
":L+	c #212317",
"<L+	c #26250D",
"[L+	c #2C2A15",
"}L+	c #29261B",
"|L+	c #2B211E",
"1L+	c #2C221E",
"2L+	c #2C211D",
"3L+	c #2E231E",
"4L+	c #312622",
"5L+	c #342A27",
"6L+	c #302725",
"7L+	c #312820",
"8L+	c #392E27",
"9L+	c #5D554D",
"0L+	c #554C45",
"aL+	c #271F1C",
"bL+	c #271E19",
"cL+	c #352C21",
"dL+	c #22211B",
"eL+	c #261D1C",
"fL+	c #120B0D",
"gL+	c #110B0D",
"hL+	c #221B18",
"iL+	c #241C19",
"jL+	c #4C483F",
"kL+	c #564F45",
"lL+	c #5C5957",
"mL+	c #62605E",
"nL+	c #525253",
"oL+	c #323539",
"pL+	c #1F2329",
"qL+	c #1C2025",
"rL+	c #1E221F",
"sL+	c #1F2014",
"tL+	c #23240E",
"uL+	c #25240C",
"vL+	c #2C2914",
"wL+	c #2A271C",
"xL+	c #1A1315",
"yL+	c #261B1B",
"zL+	c #2A1E1B",
"AL+	c #514845",
"BL+	c #5C544F",
"CL+	c #281E18",
"DL+	c #271D16",
"EL+	c #271C17",
"FL+	c #0A0403",
"GL+	c #0A0405",
"HL+	c #0D0709",
"IL+	c #0A0509",
"JL+	c #27241D",
"KL+	c #261D1D",
"LL+	c #271E1D",
"ML+	c #342C26",
"NL+	c #4F4B42",
"OL+	c #5C5A57",
"PL+	c #333637",
"QL+	c #222528",
"RL+	c #242520",
"SL+	c #262617",
"TL+	c #2A2911",
"UL+	c #2E2C12",
"VL+	c #37351E",
"WL+	c #2E2C1F",
"XL+	c #2B211F",
"YL+	c #2C221F",
"ZL+	c #2A201E",
"`L+	c #2D2523",
" M+	c #3B3532",
".M+	c #2D231C",
"+M+	c #2C221C",
"@M+	c #201814",
"#M+	c #110B0C",
"$M+	c #070205",
"%M+	c #2D241D",
"&M+	c #2F251D",
"*M+	c #25211C",
"=M+	c #291F1C",
"-M+	c #555046",
";M+	c #534E44",
">M+	c #554D44",
",M+	c #353323",
"'M+	c #38351D",
")M+	c #353219",
"!M+	c #373420",
"~M+	c #2D2B20",
"{M+	c #352D29",
"]M+	c #322924",
"^M+	c #3A3331",
"/M+	c #3E3835",
"(M+	c #322822",
"_M+	c #4C4B48",
":M+	c #322A29",
"<M+	c #140F13",
"[M+	c #281F1D",
"}M+	c #2D221F",
"|M+	c #332824",
"1M+	c #433C39",
"2M+	c #565146",
"3M+	c #575246",
"4M+	c #555044",
"5M+	c #514D44",
"6M+	c #524A42",
"7M+	c #47473E",
"8M+	c #3F3C2D",
"9M+	c #3A3823",
"0M+	c #363420",
"aM+	c #312F21",
"bM+	c #160F12",
"cM+	c #3B3432",
"dM+	c #2C241F",
"eM+	c #27221A",
"fM+	c #302727",
"gM+	c #150F14",
"hM+	c #191318",
"iM+	c #2E2322",
"jM+	c #372E2B",
"kM+	c #382F2E",
"lM+	c #363130",
"mM+	c #544E43",
"nM+	c #544C45",
"oM+	c #4D4A4B",
"pM+	c #37332A",
"qM+	c #262418",
"rM+	c #222015",
"sM+	c #37302F",
"tM+	c #121416",
"uM+	c #111416",
"vM+	c #0D1011",
"wM+	c #747066",
"xM+	c #726E65",
"yM+	c #29201E",
"zM+	c #271F1F",
"AM+	c #545043",
"BM+	c #4E493F",
"CM+	c #3A342C",
"DM+	c #4B443B",
"EM+	c #514B46",
"FM+	c #332D24",
"GM+	c #28231B",
"HM+	c #18150F",
"IM+	c #17140F",
"JM+	c #251B1C",
"KM+	c #231A1A",
"LM+	c #49453B",
"MM+	c #5B5348",
"NM+	c #4F473E",
"OM+	c #484647",
"PM+	c #201716",
"QM+	c #221917",
"RM+	c #39332F",
"SM+	c #2C2420",
"TM+	c #1B1711",
"UM+	c #221A17",
"VM+	c #5C594F",
"WM+	c #444138",
"XM+	c #454037",
"YM+	c #5C554A",
"ZM+	c #5B5449",
"`M+	c #4D483E",
" N+	c #020404",
".N+	c #3A332F",
"+N+	c #1C1618",
"@N+	c #373028",
"#N+	c #2B251D",
"$N+	c #2D2322",
"%N+	c #0D0F0F",
"&N+	c #494340",
"*N+	c #1B1315",
"=N+	c #4C483E",
"-N+	c #414043",
";N+	c #403F42",
">N+	c #0A0C0B",
",N+	c #39312D",
"'N+	c #1D191F",
")N+	c #262018",
"!N+	c #373130",
"~N+	c #322F29",
"{N+	c #464239",
"]N+	c #4F4B41",
"^N+	c #595147",
"/N+	c #3D3836",
"(N+	c #423F42",
"_N+	c #434244",
":N+	c #0F100F",
"<N+	c #2E2523",
"[N+	c #06050D",
"}N+	c #020108",
"|N+	c #020208",
"1N+	c #010206",
"2N+	c #2F292B",
"3N+	c #413934",
"4N+	c #363030",
"5N+	c #484339",
"6N+	c #312F33",
"7N+	c #10110F",
"8N+	c #201F1B",
"9N+	c #191317",
"0N+	c #100D15",
"aN+	c #38302C",
"bN+	c #211A1D",
"cN+	c #443D35",
"dN+	c #2D2B30",
"eN+	c #25221C",
"fN+	c #181216",
"gN+	c #342C29",
"hN+	c #383130",
"iN+	c #3E3732",
"jN+	c #353132",
"kN+	c #494139",
"lN+	c #1A141A",
"mN+	c #05040C",
"nN+	c #010107",
"oN+	c #342C2C",
"pN+	c #372F2F",
"qN+	c #312829",
"rN+	c #454142",
"sN+	c #3F3B3C",
"tN+	c #1E2022",
"uN+	c #1A151D",
"vN+	c #3F3C3E",
"wN+	c #3D3A3C",
"xN+	c #302F33",
"yN+	c #3C3B3E",
"zN+	c #3C3C3F",
"AN+	c #1B1A22",
"BN+	c #25242C",
"CN+	c #25252C",
"DN+	c #443F40",
"EN+	c #403B3C",
"FN+	c #2C292F",
"GN+	c #3B3638",
"HN+	c #130F17",
"IN+	c #0D0809",
"JN+	c #3B383B",
"KN+	c #3C3C3E",
"LN+	c #1C1C24",
"MN+	c #26262E",
"NN+	c #272023",
"ON+	c #1A171F",
"PN+	c #1B1921",
"QN+	c #2A292E",
"RN+	c #302F34",
"SN+	c #393538",
"TN+	c #3B373A",
"UN+	c #0A0607",
"VN+	c #0A080D",
"WN+	c #241E21",
"XN+	c #1A1820",
"YN+	c #19161E",
"ZN+	c #16141C",
"`N+	c #15121A",
" O+	c #2B2B30",
".O+	c #282428",
"+O+	c #2C292D",
"@O+	c #100D12",
"#O+	c #11100C",
"$O+	c #100D09",
"%O+	c #595048",
"&O+	c #010303",
"*O+	c #504D46",
"=O+	c #595650",
"-O+	c #594F46",
";O+	c #7C7062",
">O+	c #786D5F",
",O+	c #444545",
"'O+	c #555354",
")O+	c #5A5959",
"!O+	c #625C57",
"~O+	c #675950",
"{O+	c #847466",
"]O+	c #6B5E53",
"^O+	c #48413C",
"/O+	c #3F3835",
"(O+	c #524E50",
"_O+	c #5B5859",
":O+	c #4B463E",
"<O+	c #4E483F",
"[O+	c #5F5954",
"}O+	c #070201",
"|O+	c #0A0300",
"1O+	c #090200",
"2O+	c #0A0200",
"3O+	c #0E0301",
"4O+	c #120703",
"5O+	c #180E05",
"6O+	c #726355",
"7O+	c #877766",
"8O+	c #817262",
"9O+	c #6D6155",
"0O+	c #3D3833",
"aO+	c #443E38",
"bO+	c #463F3A",
"cO+	c #2D2924",
"dO+	c #504E4F",
"eO+	c #464344",
"fO+	c #35302A",
"gO+	c #34302A",
"hO+	c #423C3B",
"iO+	c #4F483F",
"jO+	c #4F473F",
"kO+	c #514941",
"lO+	c #0A0402",
"mO+	c #3D2916",
"nO+	c #3D2812",
"oO+	c #3D2814",
"pO+	c #412A16",
"qO+	c #402712",
"rO+	c #3E2612",
"sO+	c #392311",
"tO+	c #382211",
"uO+	c #3C2513",
"vO+	c #4B331F",
"wO+	c #59402B",
"xO+	c #664D39",
"yO+	c #6F5A45",
"zO+	c #7F6C58",
"AO+	c #857461",
"BO+	c #7E6F60",
"CO+	c #685C52",
"DO+	c #3D3831",
"EO+	c #53524D",
"FO+	c #130A05",
"GO+	c #4E3724",
"HO+	c #71502A",
"IO+	c #754F21",
"JO+	c #764F22",
"KO+	c #764F25",
"LO+	c #795127",
"MO+	c #774E25",
"NO+	c #734C25",
"OO+	c #6B4523",
"PO+	c #684322",
"QO+	c #724D2B",
"RO+	c #8F6A45",
"SO+	c #A17B57",
"TO+	c #A5815E",
"UO+	c #9A795B",
"VO+	c #8D7258",
"WO+	c #847059",
"XO+	c #84725F",
"YO+	c #7E6F61",
"ZO+	c #6A6055",
"`O+	c #544C47",
" P+	c #595451",
".P+	c #555150",
"+P+	c #585353",
"@P+	c #3B352D",
"#P+	c #645D59",
"$P+	c #605A57",
"%P+	c #514F50",
"&P+	c #5F594F",
"*P+	c #767068",
"=P+	c #736D64",
"-P+	c #5E5753",
";P+	c #524A43",
">P+	c #605B52",
",P+	c #6F6C67",
"'P+	c #7A7773",
")P+	c #6B6866",
"!P+	c #615C58",
"~P+	c #635D5B",
"{P+	c #585351",
"]P+	c #150A05",
"^P+	c #573B20",
"/P+	c #7C5422",
"(P+	c #7F5217",
"_P+	c #82551B",
":P+	c #80521D",
"<P+	c #82541F",
"[P+	c #81521F",
"}P+	c #7C4F1E",
"|P+	c #71471B",
"1P+	c #6C4219",
"2P+	c #794F23",
"3P+	c #9A7044",
"4P+	c #AD8258",
"5P+	c #AB845C",
"6P+	c #9E7C5A",
"7P+	c #8F745A",
"8P+	c #827262",
"9P+	c #4E4640",
"0P+	c #777267",
"aP+	c #79746A",
"bP+	c #78736A",
"cP+	c #51524F",
"dP+	c #47453D",
"eP+	c #090C0F",
"fP+	c #736E69",
"gP+	c #544E4A",
"hP+	c #5D5856",
"iP+	c #635D5A",
"jP+	c #575250",
"kP+	c #170902",
"lP+	c #57381A",
"mP+	c #7C511A",
"nP+	c #7E4F11",
"oP+	c #825316",
"pP+	c #815318",
"qP+	c #83541B",
"rP+	c #7F4F18",
"sP+	c #784B16",
"tP+	c #6D4213",
"uP+	c #683E12",
"vP+	c #764C1E",
"wP+	c #996D41",
"xP+	c #AD8256",
"yP+	c #A9825A",
"zP+	c #9D7C5A",
"AP+	c #8F765E",
"BP+	c #847262",
"CP+	c #7B7367",
"DP+	c #595755",
"EP+	c #63605F",
"FP+	c #615E5C",
"GP+	c #554C46",
"HP+	c #6B635B",
"IP+	c #59514A",
"JP+	c #45403F",
"KP+	c #4F4A4A",
"LP+	c #514D4D",
"MP+	c #3B342C",
"NP+	c #453E3C",
"OP+	c #767067",
"PP+	c #5A5450",
"QP+	c #4E4B44",
"RP+	c #090C0E",
"SP+	c #5C564A",
"TP+	c #5E574D",
"UP+	c #635B52",
"VP+	c #68615A",
"WP+	c #6B635E",
"XP+	c #716B67",
"YP+	c #514A48",
"ZP+	c #5B5656",
"`P+	c #5F5856",
" Q+	c #0E0501",
".Q+	c #120500",
"+Q+	c #140800",
"@Q+	c #130700",
"#Q+	c #2B1504",
"$Q+	c #5D3916",
"%Q+	c #784A14",
"&Q+	c #7A4B0F",
"*Q+	c #7B4B12",
"=Q+	c #7D4F17",
"-Q+	c #7F5118",
";Q+	c #7E4D16",
">Q+	c #784A13",
",Q+	c #6D410F",
"'Q+	c #673C0F",
")Q+	c #74491C",
"!Q+	c #976D43",
"~Q+	c #AB8359",
"{Q+	c #A88660",
"]Q+	c #997E61",
"^Q+	c #8D7A65",
"/Q+	c #7C756A",
"(Q+	c #595756",
"_Q+	c #49413D",
":Q+	c #4D4D48",
"<Q+	c #474241",
"[Q+	c #3B362E",
"}Q+	c #58554C",
"|Q+	c #716D62",
"1Q+	c #706C62",
"2Q+	c #56514F",
"3Q+	c #484945",
"4Q+	c #4E4F4E",
"5Q+	c #48443B",
"6Q+	c #21221E",
"7Q+	c #1E201E",
"8Q+	c #595447",
"9Q+	c #6F6D66",
"0Q+	c #63615D",
"aQ+	c #0B0400",
"bQ+	c #31200E",
"cQ+	c #4F3419",
"dQ+	c #553919",
"eQ+	c #583A1A",
"fQ+	c #64411D",
"gQ+	c #7F4F17",
"hQ+	c #7C4C11",
"iQ+	c #7D4D15",
"jQ+	c #7A4E18",
"kQ+	c #7F511A",
"lQ+	c #7D4C16",
"mQ+	c #805018",
"nQ+	c #764813",
"oQ+	c #704515",
"pQ+	c #744D21",
"qQ+	c #88653F",
"rQ+	c #907351",
"sQ+	c #8E7658",
"tQ+	c #82725B",
"uQ+	c #7C7161",
"vQ+	c #737068",
"wQ+	c #3F3E37",
"xQ+	c #342E2D",
"yQ+	c #6A665C",
"zQ+	c #6A665D",
"AQ+	c #403E36",
"BQ+	c #47433B",
"CQ+	c #4F483E",
"DQ+	c #4C463C",
"EQ+	c #535050",
"FQ+	c #100600",
"GQ+	c #553C1E",
"HQ+	c #876134",
"IQ+	c #8C6231",
"JQ+	c #8C602F",
"KQ+	c #8D5F2E",
"LQ+	c #8A5925",
"MQ+	c #89571D",
"NQ+	c #85541A",
"OQ+	c #85571F",
"PQ+	c #7F511C",
"QQ+	c #83551D",
"RQ+	c #8B5C22",
"SQ+	c #89581F",
"TQ+	c #83531E",
"UQ+	c #784D1F",
"VQ+	c #64411C",
"WQ+	c #5D4327",
"XQ+	c #574431",
"YQ+	c #393331",
"ZQ+	c #202222",
"`Q+	c #49473D",
" R+	c #605E5B",
".R+	c #554D49",
"+R+	c #453E3A",
"@R+	c #120701",
"#R+	c #614422",
"$R+	c #956937",
"%R+	c #986831",
"&R+	c #91612C",
"*R+	c #91602C",
"=R+	c #8E5B26",
"-R+	c #8E5C22",
";R+	c #86551C",
">R+	c #82521C",
",R+	c #835620",
"'R+	c #885B23",
")R+	c #8B5A20",
"!R+	c #936224",
"~R+	c #916228",
"{R+	c #7D5224",
"]R+	c #563615",
"^R+	c #181B1C",
"/R+	c #50514C",
"(R+	c #4D4E46",
"_R+	c #4A4A43",
":R+	c #585754",
"<R+	c #54534E",
"[R+	c #2B2A2F",
"}R+	c #49463D",
"|R+	c #6C6A66",
"1R+	c #5F5752",
"2R+	c #141719",
"3R+	c #555353",
"4R+	c #545251",
"5R+	c #4B4949",
"6R+	c #110600",
"7R+	c #5D401F",
"8R+	c #916636",
"9R+	c #976732",
"0R+	c #936430",
"aR+	c #916330",
"bR+	c #8C5C2A",
"cR+	c #895924",
"dR+	c #855621",
"eR+	c #845724",
"fR+	c #825524",
"gR+	c #865723",
"hR+	c #895922",
"iR+	c #926225",
"jR+	c #906127",
"kR+	c #7F5426",
"lR+	c #543516",
"mR+	c #2E1D0E",
"nR+	c #322C30",
"oR+	c #262124",
"pR+	c #34343A",
"qR+	c #333439",
"rR+	c #2B2C31",
"sR+	c #4E4F49",
"tR+	c #4C4D46",
"uR+	c #4E4F48",
"vR+	c #1B1F21",
"wR+	c #1A1D20",
"xR+	c #1A1D21",
"yR+	c #3F3E38",
"zR+	c #2D2525",
"AR+	c #3E3C3E",
"BR+	c #191B1C",
"CR+	c #49453D",
"DR+	c #5A544F",
"ER+	c #565454",
"FR+	c #0F0500",
"GR+	c #503719",
"HR+	c #7F5A31",
"IR+	c #885F32",
"JR+	c #855D30",
"KR+	c #825C31",
"LR+	c #7C562B",
"MR+	c #7B5427",
"NR+	c #775224",
"OR+	c #7A5528",
"PR+	c #785228",
"QR+	c #7F5829",
"RR+	c #845927",
"SR+	c #895E27",
"TR+	c #865C28",
"UR+	c #755026",
"VR+	c #4D3216",
"WR+	c #2C1D0F",
"XR+	c #302C30",
"YR+	c #2D2D32",
"ZR+	c #2D2E32",
"`R+	c #484A45",
" S+	c #454742",
".S+	c #484944",
"+S+	c #1C1F22",
"@S+	c #3F3D35",
"#S+	c #2D2B2F",
"$S+	c #1F2026",
"%S+	c #1E1F24",
"&S+	c #222526",
"*S+	c #3D270E",
"=S+	c #5F401E",
"-S+	c #664421",
";S+	c #644322",
">S+	c #604223",
",S+	c #5B3D1E",
"'S+	c #573B1A",
")S+	c #553A19",
"!S+	c #583C1D",
"~S+	c #563A1B",
"{S+	c #5C3E1B",
"]S+	c #5E3C17",
"^S+	c #603D15",
"/S+	c #593813",
"(S+	c #4E3113",
"_S+	c #36210D",
":S+	c #21140C",
"<S+	c #29272C",
"[S+	c #2C2D32",
"}S+	c #2E2E34",
"|S+	c #2B2C30",
"1S+	c #262927",
"2S+	c #232027",
"3S+	c #6A665F",
"4S+	c #6B675E",
"5S+	c #5D574E",
"6S+	c #5F5955",
"7S+	c #716A63",
"8S+	c #202323",
"9S+	c #4C3014",
"0S+	c #503317",
"aS+	c #4D3219",
"bS+	c #4A311B",
"cS+	c #442C16",
"dS+	c #432D15",
"eS+	c #3F2A13",
"fS+	c #422C16",
"gS+	c #422B14",
"hS+	c #432A12",
"iS+	c #40230B",
"jS+	c #3F2308",
"kS+	c #391E04",
"lS+	c #321A05",
"mS+	c #251205",
"nS+	c #1A0E0A",
"oS+	c #20191B",
"pS+	c #1D191E",
"qS+	c #181114",
"rS+	c #201E26",
"sS+	c #524942",
"tS+	c #716A65",
"uS+	c #736C65",
"vS+	c #6D6660",
"wS+	c #605853",
"xS+	c #1C1F1E",
"yS+	c #2F1E0C",
"zS+	c #492F17",
"AS+	c #48301B",
"BS+	c #442F1C",
"CS+	c #412E19",
"DS+	c #3E2D18",
"ES+	c #42301B",
"FS+	c #45311C",
"GS+	c #442D17",
"HS+	c #3F250E",
"IS+	c #3B2109",
"JS+	c #361E07",
"KS+	c #311A08",
"LS+	c #251408",
"MS+	c #1A100C",
"NS+	c #272428",
"OS+	c #1F1719",
"PS+	c #211717",
"QS+	c #291F1D",
"RS+	c #2B2C27",
"SS+	c #554F4A",
"TS+	c #211818",
"US+	c #1F2221",
"VS+	c #2C1C0C",
"WS+	c #472F17",
"XS+	c #4C331A",
"YS+	c #48331D",
"ZS+	c #402E1B",
"`S+	c #3C2B16",
" T+	c #392A14",
".T+	c #40301A",
"+T+	c #43301A",
"@T+	c #432E17",
"#T+	c #3F270E",
"$T+	c #3B2309",
"%T+	c #362007",
"&T+	c #341E0A",
"*T+	c #271609",
"=T+	c #1A0F0A",
"-T+	c #29201D",
";T+	c #2F2F28",
">T+	c #373230",
",T+	c #473F36",
"'T+	c #2B1A0B",
")T+	c #452D16",
"!T+	c #452F1A",
"~T+	c #422F1C",
"{T+	c #30210D",
"]T+	c #2E1F0B",
"^T+	c #332310",
"/T+	c #392713",
"(T+	c #39240E",
"_T+	c #392009",
":T+	c #392006",
"<T+	c #341C03",
"[T+	c #271508",
"}T+	c #190D08",
"|T+	c #3F352C",
"1T+	c #272723",
"2T+	c #222524",
"3T+	c #312F27",
"4T+	c #252723",
"5T+	c #282C26",
"6T+	c #2F312D",
"7T+	c #3A3B36",
"8T+	c #40423C",
"9T+	c #302A24",
"0T+	c #1D1619",
"aT+	c #2C2F2C",
"bT+	c #2D302D",
"cT+	c #2A1A0C",
"dT+	c #432C16",
"eT+	c #462E16",
"fT+	c #442E18",
"gT+	c #332413",
"hT+	c #2A1D0B",
"iT+	c #281A08",
"jT+	c #2D1F0C",
"kT+	c #30200D",
"lT+	c #35210C",
"mT+	c #351E07",
"nT+	c #382006",
"oT+	c #371F05",
"pT+	c #351E09",
"qT+	c #291709",
"rT+	c #1A0D08",
"sT+	c #52463C",
"tT+	c #242623",
"uT+	c #232624",
"vT+	c #242725",
"wT+	c #232626",
"xT+	c #322E26",
"yT+	c #302E25",
"zT+	c #2D2C24",
"AT+	c #2C2D28",
"BT+	c #242721",
"CT+	c #262A23",
"DT+	c #2E312B",
"ET+	c #393C35",
"FT+	c #3E413A",
"GT+	c #1F171B",
"HT+	c #191316",
"IT+	c #2D2F31",
"JT+	c #33332D",
"KT+	c #2C2F2D",
"LT+	c #060100",
"MT+	c #402916",
"NT+	c #3F2916",
"OT+	c #302212",
"PT+	c #291B0B",
"QT+	c #251807",
"RT+	c #281B09",
"ST+	c #281908",
"TT+	c #2E1C08",
"UT+	c #311B05",
"VT+	c #361F06",
"WT+	c #371F09",
"XT+	c #291608",
"YT+	c #190C07",
"ZT+	c #332820",
"`T+	c #32271E",
" U+	c #342A21",
".U+	c #4C4037",
"+U+	c #242726",
"@U+	c #30231E",
"#U+	c #372A23",
"$U+	c #302E24",
"%U+	c #2E2D24",
"&U+	c #272A22",
"*U+	c #282C24",
"=U+	c #2F332B",
"-U+	c #383B33",
";U+	c #3F423A",
">U+	c #3D3E39",
",U+	c #1F1711",
"'U+	c #191214",
")U+	c #1B1E1D",
"!U+	c #23160A",
"~U+	c #3E2916",
"{U+	c #432C17",
"]U+	c #372716",
"^U+	c #302211",
"/U+	c #2D200D",
"(U+	c #2B1D0A",
"_U+	c #2D1E0A",
":U+	c #2E1E0A",
"<U+	c #321F0A",
"[U+	c #361F08",
"}U+	c #3B2208",
"|U+	c #3D2309",
"1U+	c #3B230C",
"2U+	c #2B1709",
"3U+	c #3A3831",
"4U+	c #32271F",
"5U+	c #41362F",
"6U+	c #0A0609",
"7U+	c #30211D",
"8U+	c #392924",
"9U+	c #3B2D26",
"0U+	c #3A2E25",
"aU+	c #302D24",
"bU+	c #2B2A25",
"cU+	c #2E2E27",
"dU+	c #2C2F26",
"eU+	c #33352C",
"fU+	c #36382F",
"gU+	c #3B3D35",
"hU+	c #2F2921",
"iU+	c #211712",
"jU+	c #49473E",
"kU+	c #1F1309",
"lU+	c #372412",
"mU+	c #3B2613",
"nU+	c #382413",
"oU+	c #322112",
"pU+	c #2C1F0E",
"qU+	c #31230E",
"rU+	c #362510",
"sU+	c #3B2912",
"tU+	c #3A2911",
"uU+	c #3D2910",
"vU+	c #3F280E",
"wU+	c #432A0E",
"xU+	c #40270C",
"yU+	c #3C240E",
"zU+	c #180A06",
"AU+	c #130B0B",
"BU+	c #33271F",
"CU+	c #2F292A",
"DU+	c #1D2020",
"EU+	c #1C1210",
"FU+	c #3C2C26",
"GU+	c #3E3029",
"HU+	c #332E24",
"IU+	c #292A25",
"JU+	c #20221F",
"KU+	c #151716",
"LU+	c #31312A",
"MU+	c #33352B",
"NU+	c #32352B",
"OU+	c #36392E",
"PU+	c #373930",
"QU+	c #393B33",
"RU+	c #38342B",
"SU+	c #383229",
"TU+	c #3A3229",
"UU+	c #241913",
"VU+	c #1F1613",
"WU+	c #170F0F",
"XU+	c #030409",
"YU+	c #292D2A",
"ZU+	c #1C0F07",
"`U+	c #331D0C",
" V+	c #301C0C",
".V+	c #2E1E0F",
"+V+	c #2F210F",
"@V+	c #3D2E16",
"#V+	c #4B3A1F",
"$V+	c #533F23",
"%V+	c #503C20",
"&V+	c #4E391C",
"*V+	c #493115",
"=V+	c #493112",
"-V+	c #452D0F",
";V+	c #3F2911",
">V+	c #2A180A",
",V+	c #160904",
"'V+	c #373830",
")V+	c #373730",
"!V+	c #31271D",
"~V+	c #2D241B",
"{V+	c #2A221C",
"]V+	c #2E271E",
"^V+	c #332C23",
"/V+	c #272A28",
"(V+	c #2F2727",
"_V+	c #0E080B",
":V+	c #1B1110",
"<V+	c #201311",
"[V+	c #2E1F1B",
"}V+	c #3B2B26",
"|V+	c #3F3029",
"1V+	c #2B2A24",
"2V+	c #181A1A",
"3V+	c #31322B",
"4V+	c #34362D",
"5V+	c #33372E",
"6V+	c #363931",
"7V+	c #363831",
"8V+	c #373832",
"9V+	c #35312A",
"0V+	c #363028",
"aV+	c #362C24",
"bV+	c #231610",
"cV+	c #231812",
"dV+	c #1F1611",
"eV+	c #180F0D",
"fV+	c #20191D",
"gV+	c #252825",
"hV+	c #262A28",
"iV+	c #2A2E2C",
"jV+	c #1B0E07",
"kV+	c #2E180D",
"lV+	c #321B0D",
"mV+	c #2F190B",
"nV+	c #2C1B0D",
"oV+	c #2F200E",
"pV+	c #45331C",
"qV+	c #564226",
"rV+	c #5C4628",
"sV+	c #5B4427",
"tV+	c #563E21",
"uV+	c #4C3317",
"vV+	c #472E11",
"wV+	c #452D10",
"xV+	c #3E2710",
"yV+	c #2A1708",
"zV+	c #150802",
"AV+	c #0F0606",
"BV+	c #080407",
"CV+	c #372D26",
"DV+	c #2C271E",
"EV+	c #332E26",
"FV+	c #130D10",
"GV+	c #2D1F1A",
"HV+	c #3A2A24",
"IV+	c #3E2F28",
"JV+	c #3C3028",
"KV+	c #272721",
"LV+	c #242521",
"MV+	c #33342E",
"NV+	c #32352D",
"OV+	c #30342D",
"PV+	c #32362F",
"QV+	c #2F322D",
"RV+	c #30322D",
"SV+	c #393229",
"TV+	c #281C14",
"UV+	c #1A1111",
"VV+	c #343129",
"WV+	c #252724",
"XV+	c #252927",
"YV+	c #1C120A",
"ZV+	c #311D11",
"`V+	c #362012",
" W+	c #301F0F",
".W+	c #48371F",
"+W+	c #594529",
"@W+	c #5E4A2C",
"#W+	c #5A4428",
"$W+	c #573F23",
"%W+	c #4D3318",
"&W+	c #483012",
"*W+	c #442C0F",
"=W+	c #402910",
"-W+	c #2E1A08",
";W+	c #1B0C03",
">W+	c #150B09",
",W+	c #160E0F",
"'W+	c #2B2319",
")W+	c #332D23",
"!W+	c #332F25",
"~W+	c #382B25",
"{W+	c #1D1E1C",
"]W+	c #2D312C",
"^W+	c #272D29",
"/W+	c #242A27",
"(W+	c #202422",
"_W+	c #202321",
":W+	c #392E25",
"<W+	c #33271E",
"[W+	c #31241E",
"}W+	c #2C211C",
"|W+	c #221716",
"1W+	c #1B110B",
"2W+	c #2F1C13",
"3W+	c #342114",
"4W+	c #342312",
"5W+	c #42301A",
"6W+	c #4F3A22",
"7W+	c #533F26",
"8W+	c #503B24",
"9W+	c #4E3620",
"0W+	c #492F18",
"aW+	c #493014",
"bW+	c #472E13",
"cW+	c #452C13",
"dW+	c #36210E",
"eW+	c #2A190D",
"fW+	c #251814",
"gW+	c #251B1A",
"hW+	c #272925",
"iW+	c #120C0F",
"jW+	c #150E10",
"kW+	c #191310",
"lW+	c #32281F",
"mW+	c #2F261C",
"nW+	c #2E261C",
"oW+	c #322E23",
"pW+	c #312D23",
"qW+	c #302D23",
"rW+	c #2F2D24",
"sW+	c #323633",
"tW+	c #201513",
"uW+	c #271A16",
"vW+	c #31251F",
"wW+	c #2B302B",
"xW+	c #232825",
"yW+	c #1C2120",
"zW+	c #151A19",
"AW+	c #161919",
"BW+	c #3B322A",
"CW+	c #3A2E24",
"DW+	c #3D3026",
"EW+	c #3A2E26",
"FW+	c #271D1A",
"GW+	c #1C1312",
"HW+	c #272926",
"IW+	c #000204",
"JW+	c #2C1B12",
"KW+	c #341D12",
"LW+	c #351D13",
"MW+	c #352313",
"NW+	c #3E2D19",
"OW+	c #43301C",
"PW+	c #473422",
"QW+	c #4A3421",
"RW+	c #48301C",
"SW+	c #4D351C",
"TW+	c #4F371B",
"UW+	c #4D341A",
"VW+	c #412B16",
"WW+	c #382516",
"XW+	c #32241C",
"YW+	c #322722",
"ZW+	c #1A1C1A",
"`W+	c #342D22",
" X+	c #332E23",
".X+	c #312D22",
"+X+	c #322F23",
"@X+	c #302E22",
"#X+	c #2F2E22",
"$X+	c #2E2E23",
"%X+	c #2E302A",
"&X+	c #2C2E29",
"   .  +  @  #  $  %  &  *  =  -  ;  >  ,  '  )  !  ~  {  ]  ^  /  (  _  :  <  [  }  |  1  2  3  4  5  6  7  8  9  0  a  b  c  d  e  f  g  h  i  j  k  l  m  n  o  p  q  r  s  t  u  u  v  w  x  y  z  {  A  B  C  D  D  E  F  G  G  H  I  J  K  I  L  M  N  O  P  Q  R  S  T  _  U  V  W  X  Y  Z  `   . .. +. @. #. $. %. &. *. =. -. ;. >. ,. '. ,. ). !. ~. {. ]. ^. /. (. _. ]. :. <. [. }. |. 1. 2. 3. 4. 5. 6. 7. 8. 9. 0. a. b. c. d. e. f. g. h. i. j. k. l. m. n. o. p. q. r. s. t. u. v. w. x. y. z. A. B. C. D. E. E. F. G. H. I. J. K. L. M. N. O. K  P. Q. R. R. S. T. U. V. b. W. X. Y. Z. Z. `.  + .+ ++ @+ #+ $+ %+ &+ *+ =+ -+ ;+ >+ ,+ '+ )+ !+ ~+ {+ {+ ]+ ^+ /+ (+ _+ :+ <+ [+ }+ |+ 1+ 2+ 3+ 4+ 5+ 6+ 7+ 8+ 9+ 0+ a+ B. b+ c+ &. d+ e+ f+ g+ h+ i+ j+ k+ l+ m+ n+ o+ p+ q+ r+ s+ t+ u+ o  v+ |+ w+ x+ y+ z+ A+ B+ C+ D+ E+ F+ G+ H+ I+ I+ J+ K+ L+ 1+ M+ n+ N+ O+ P+ Q+ R+ S+ T+ U+ V+ W+ X+ M+ Y+ Z+ `+  @ .@ +@ @@ #@ $@ %@ E. E. E. E. &@ *@ =@ -@ ;@ >@ ,@ '@ )@ !@ ~@ {@ ]@ ^@ /@ (@ 9  _@ s  :@ <@ ",
"[@ }@ |@ 1@ 2@ 3@ 4@ 5@ j  6@ 7@ 8@ 9@ 0@ a@ b@ c@ d@ 7+ e@ f@ g@ h@ i@ j@ k@ l@ m@ n@ o@ p@ q@ r@ s@ $. c. t@ u@ v@ w@ x@ y@ z@ O. A@ B@ $. C@ D@ E@ F@ D@ O  G@ H@ I@ I@ J@ K@ L@ M@ N@ ,  M@ u  O@ P@ Q@ R@ S@ T@ U@ V@ W@ X@ Y@ L  Z@ `@  # .# +# @# ## $# %# &# *# =# -# ;# ># ,# '# )# !# ~# {# ]# ^# /# (# b. _# :# w@ <# [# }# |# 1# 1# 2# 3# 4# 5# 6# 7# 5# {. 8# !. 8# 9# [. 0# a# b# c# d# e# f# g# h# i# j# k# l# D@ .@ m# n# o# p# g. g. p# q# r# s# t# u# v# w# x# y# z# A# B# C# D# E# F# G# H# A. I# J# E. E. E. K# L# M# N# J. O# I. P# Q# R# 8@ S# F@ T# U# V# W# X# Y# Z# `#  $ .$ +$ @$ #$ $$ %$ &$ *$ =$ -$ ;$ >$ ,$ [  '$ )$ 2. !$ ~$ {$ ]$ ^$ S. /$ B# ($ _$ :$ <$ [$ }$ +  |$ $. 1$ 2$ 3$ 4$ 5$ m+ 6$ 7$ 8$ 9$ 0$ q# 0$ i. a$ b$ c$ d$ e$ f$ g$ h$ i$ l+ 6+ 6+ j$ t+ k$ l$ )# m$ D  n$ o$ p$ q$ r$ s$ t$ u$ v$ D+ w$ x$ F+ y$ z$ A$ B$ C$ D$ D$ E$ 9@ F$ o+ G$ H$ I$ J$ H$ K$ L$ M$ N$ O$ P$ G@ Q$ R$ R$ (# S$ T$ U$ V$ W$ D. E. D. E. X$ Y$ Z$ `$  % .% +% @% #% $% %% &% *% =% -% >$ x@ ;% >% ,% N  ",
"'% )% V. !% ~% F$ {% k$ ]% O. ^% /% (% _% :% <% [% }% |% E  1% 2% 3% t+ 4% 5% 6% 7% *+ 8% 9% 0% a% b% P  c% F  d% e% f% g% e@ C@ h% i% j% k% l% m% n% o% p% q% r% s% t% u% v% w% x% y% z% A% B% C% h. /$ D% h$ E% T@ T@ F% X@ G% Y@ H% I% J% K% L% M% N% O% P% Q% R% S% T% U% V% W% X% Y% C@ 8@ Z% `%  & .& /# +& @& +@ #& $& %& && [# *& =& -& ;& >& ,& '& )& !& a# ~& {& {& a# {& 0# a# ]& =+ ^& /& (& 2  _& :& C# ]  <& W  [& R$ @. }& H  H% |& y% y% P$ 1& j+ 2& 3& 4& 5& 6& 7& U@ 8& 9& 0& a& b& c& d& q# e& f& g& E. E. E. h& i& j& L. I. k& K. l& m& r$ n& o& p& q& $# r& s& t& u& T$ v& ]+ w& x& y& z& -. A& B& 4@ C& D& E& F& G& H& I& J& K& L& M& N& O& P& Q& t@ B  R& S& T& U& V& W& +  X& <+ Y& Z& `&  * .* +* @* #* $* I  %* I  &* ** *# =* -* ;* >* ,* h+ '* )* m+ m+ !* ~* t+ y. {* ]* Y  ^* /* @@ (* _* :* <* [* }* l% x$ |* F+ 1* 2* 3* 3* 4* 5* g& 6* 7* 8* 9* 0* a* b* c* d* e* f* g* f* h* i* j* j* k* l* m* n* o* p* q* r* s* {# t* t* u* v* w* x* j$ d. %. y* z* A* B* C* D* E* D* F* G* H& H* I* C% +# ",
"J. J* K* K# L* M* N* L* &@ O* P* Q* R* S* T* U* U* d% V* y. r% W* n# n% F$ X* Y* Z* `*  = .= += @= $. #= $= %= @= @= &= *= == +@ -= ;= >= ,= '= )= != #@ ~= ~= {= ]= ~= ^= /= (= _= := [@ <= [= $= K+ }= |= 1= 2= 3= 4= 4= W@ 5= 6= G  7= 8@ K% 8= 9= 0= u& a= E$ b= *. -. '$ c= d= e= f= g= h= i= j= k= l= m= n= i% (  o= p= q= r= s= &+ t= u= v= w= x= y= z= A= B= }. C= '. D= ]& E= E= [  F= G= H= I= J= K= <  L= M= N= @@ $= O= R$ 7@ P= a. Q= s& R= .@  @ i  S= .= T= 1= j$ U= V= $* W= X= Y= P@ Z= `=  - S= .- E. E. E. E. D. V$ i* l& (# +- +- l& @- #- $- %- &- *- =- -- U$ ;- >- S$ y. ,- '- )- !- ~- {- ]- ^- /- (- _- :- B  a$ <- [- }- -# |- 1- O. (% r& u+ {+ 2- 3- 4- 5- 6- 7- 8- 9- 0- a- b- c- d- e- f- g- h- '= i- Z  j- Z  $@ k- l- m- n- o- p- q- r- '* h$ l+ h$ l+ e@ +* l$ r& s- b. t- u- v- w- -- S# x- y- z- !# A- B- C- D- D. E. E. E. E. E. E. E. E- E- g& F- G- H- I- K# J- H- K- L- M- M- N- O- P- Q- R- S- T- U- V- W- X- V$ u& Y- Z- x$ ]% `- e. G#  ; .; $% +; @; E* #; $; %; &; *; =; -; D@ ;; ",
">; (= ,; '; W$ ); N* !; ~; {; 9= s& P# ]; ^; :- F# ~* +* /; a. Q$ Q$ S* (; C& _; :; }# <; z@ ]% N= C$ #@ 6  [; }; |; 1; f& 2; f  3; G+ G+ 4; B+ 5; #@ #@ [= ]= 6; 7; 7; 8; 9; 0; .& a; [@ ^= ;  e  P= ]  b; i$ k+ c; d; 4= e; Y@ f; X@ g; 8@ /% h; /% )= i; B+ j; k; l; m; 0# n; o; p; q; r; s; E+ .. k= t; u; n= v; +@ w; x; y; z; A; =+ B; B; C; D; E; F; G; H; I; J; K; K; K; L; c$ K; [# M; N; O; P; Z* Q; R; {% 1- #- [= T$ S; T; U; q& V; W; P* X; Y; Z; `; x. +*  > !* G  .> +> @> I  #>  > w  -; $> v& |+ %> E. E. E. E. E. &> i* L. n= X; X; n= O. *> => &- -> M* ;> >> B+ U. U. @& T. ,> '> )> !> ~> {> ]> ^> /> 2$ +* ^; e@ |% (> B. _> :> <> [= [> Y  S# }> |> 1> )- 2> 3> 4> 5> 6> 7> 8> 7> 9> 0> a> b> c> |+ 5; d> e> f> V$ g> f> h> i> j> t. k> l> q- m> n> i+ =* a& )* o> p> i@ q> r> +@ k- ~; s> t> >=  @ u> v> w> q% w$ x> &- h& E. E. y> E. E. E. E. E. E- y> E- E- %> %> 6* %> %> z> H- A> B> C> D> O- P- E> F> G> H> I> J> C> K> (= L> M> N> O> #= P> Q> R> S> T> U> V> W> X> Y> Z> `>  , ., +, @, #, $, ",
"%, &, *, =, -, Z  >> ;, B- 5; >, ,, ', ), ~* U* !, ~, ~* {, ], ^, A% /, (, (> _, g# M; :, {% <, h% @- j% [, g  }, |, 1, '- 2, 3, 4, 5, 5, G+ 6, 6, C$ 7, 7, 3; e  ;  3; 8, >- 9, 0, a, S$ +& b, c, d, e, f, g, g, h, 3= 3= i, j, k, l, I  m, n, !# A+ N. o, %, p, q, j. ;* r, s, t, u, v, w, -, x, &> y, z, '% (# i% $= t+ I# A, B, C, D, E, E, F, G, H, I, J, K, L, <; M, N+ N+ N+ C& r# N, O, P, Q, R, S, T, s. U, ]% v$ V, l% >; W, X, Y, 7@ Q= Z, P* `,  ' /; .' o$ +' @' #' $' %' &' *' =' v+ j$ -' ;' E  >' E- E. E. E. E. D. M> +- H. +- (# +- /% b. -- ,' '' ~# )' }; !' N= B+ )= ~' y. Y& {' ]' ^' /' {- (' _' :' <' [' o+ }' |' n+ B  m+ '# 1' <, n,  # 2' 3' 4' 5' 2> 6' 7' 8' 9' 0' a' b' a' c' d' d' e' f' g' [; f> &> h' 9, &> f> i' j' L+ k' l' s# ,* r- m' n' o' p' a& 2$ q' V  t+ q> @- Z  D+ r' s' r$ l% t' u' v' Z; >- w' '' x' y' 4* z' %> %> E- E- E- A' B' C' D' E' F' G' H' I' J' v, C. g* K' L' M' N' O' P' Q' R' J> S' M- T' X- p* U' N> V' W' X' Y' Z' `' T> U>  ) .) +) @) #) $) %) &) *) =) #, $, ",
"-) ;) >) .. f> 5; r$ g= j' ,= W' ,) Q# [& e& ') )) !) ~) @# {) ]) ^) /) () _) :) <) [) }) |) s+ /; J  h% B@ g- }, 1) |> _+ 2) 3, 3) >= z$ +  G+ 6, 8, 4) 3; 3; 4) #@ #@ 5) g> Y- &> V$ 6) 7) 8) 9) 0) a) b) |= c) d) e) f) d) d) g) e@ f@ m, h) m% m% (# '% {= i) d  j) k) U% l) m) n) q$ o) V$ p) q) y, r) s) b, i% #. t) #&  % u) v) 3# w) x) E, y) z) A) B) C) d- V  D) t) y. E) X  t+ W  R% F) Y= G) G) H) I) J) $= [= #= v; 8) 9) X, %, @. K) L) j& M) N) O) [& A% P) Q) R) S) T) U) V) U= 9@ W) O  $, X) Y) D. E. E. E. E. E. &> (# Z) 9= `)  ! ^% +@ >> .! +! @! r+ |- #! 6  B$ G+ @. h@ t) {' $! %! &! *! =! -! ;! j@ A, a% _> >! ,! '! b) m  b% )! !! ~! {! ]! ^! /! (! _! :! <! 9' [! }! |! }! 1! 2! a> 3! 4! 5! [+ 6! 7! `% 8! 9! 8! 0! a! b! c! d! e! f! g! h! h! i! i! j! r. {% U, k! y. A@ 5) '= 6, [= .  D+ l! m! <= U$ n! T$ o! 0, p! B- q! >> _* r! s! t! u! v! 1; c) w! x! y! z! A! B! C! D! (- N  E! F! G! H! I! J! U- I> I> =, (= K! L! L! M! >) N! O! P! ,% Q! R! S! T! U! V! W! X! Y! Z! `!  ~ .~ +~ @~ ",
"#~ $~ %~ &~ *~ Y, O. k% -- 5; =~ l& -~ ;~ O& >~ ,~ u@ '~ )~ <* !~ ~~ {~ L$ ]~ ^~ /~ (~ -; L  #* _~ /; ^  :~ <~ [~ 1, }~ |~ 1~ g' 5, >= A$ 2~ >= B+ 5; >= 5; G+ ;= 5) 5, 3~ o) 8! 8! x, 4~ 5~ K) 6~ 7~ 8~ 9~ 0~ g, l+ a~ d) b~ a~ g) 3= }> c~ m, m% m% d~ e~ f~ T$ j% ,- j) g~ i! h~ @= K  i~ Q* 4~ j~ k~ l~ `) +- @. j% p, s@ 2$ m~ L, n~ o~ p~ q~ D; r~ s~ t~ u~ S= C@ J  /; O) Q$ n% ]* v~ v+ w~ x~ *  y~ z~ A~ p, ^  ]; ]; P  V; B~ O= C~ #. D~ l* E~ F~ 8= !! G~ u+ @' H~ I~ J~ K~ L~ M% $' M~ N~ O~ P~ Q~ R~ %> E. E. E. E. D. h' s& S~ T~ ^% U~ U~ m, V~ W~ X~ Y, Y~ Z~ `~  { h  7, .{ /; f@ |> j) +{ {- =. @{ <; #{ ${ %{ v@ &{ P@ *{ *{ f% ={ A% -{ ;{ >{ 2' ,{ '{ ){ !{ ~{ {{ ]{ ^{ /{ ({ _{ :{ ({ <{ [{ }{ |{ 1{ 2{ 3{ 4{ 1* 5{ 6{ 7{ 8{ 9{ 0{ |= a{ b{ c{ r- g$ h+ z; d{ m' e{ q' ]! l$ l$ y+ f{ [> g{ h{ '= i{ u* j{ {# U. +- +- K. M. k{ f> Z  l{ C@ m{ n{ s+ o{ W= w~ p{ q{ r{ s{ t{ u{ v{ w{ x{ y{ ,~ z{ A{ B{ C{ D{ E{ '; F{ G{ 9! K> H{ I{ L! M! J{ K{ L{ M{ ,% '  N{ O{ P{ Q{ R{ S{ T{ U{ V{ W{ X{ Y{ |& Q~ ",
"Z{ `{ %~  ] 8; .] j; m, +] ;= v; i* g{ _~ @] L$ #] $] %] &] L{ *] M{ =] -] ;] >] >] ,] '] U= n% )] a.  @ h% I+ |- d  '- !] ~] 3, 5, 2~ >= z$ >= 5; #- >= 5; {] 5) 3~ ]] 9{ o) F+ i' ^] /] (] _] :] <] [] R> }] !* :# |] !* |' d) f; ~* &* O. b. ^% K. 1] 2] 3] 4] 5]  @ ** 6] 1~ 7] D  8] 9] 0] a] b] c] d] e] J. @. -= m{ f] g] h] i] [  j] k] l] m] n] o] p] q] |- `+ U; P  7@ r] s] v~ v~ t] m+ u] N, x~ r. v] Y& w] ,> w] c. x] y] z] A] i% := (= a] B] C] m% K% |& D] E] F] G] H] I] J] K] G] L] M] N] O] K' &@ E. E. E. E. D. -, =~ i~ T~ U~ U~ s& @- P] Q] $- k% R] S] T] U] V] I+ U; a. S# {% W] X] Y] B& Z] 0& `] 2$ c&  ^ .^ .^ {  +^ @^ P) #^ t' $^ %^ 2' *= &^ *^ =^ -^ ;^ >^ ,^ '^ )^ C~ C~ !^ ~^ {^ [$ ]^ 5! ^^ /^ N* (^ t> _^ h> :^ <^ [^ }^ H) |^ 1^ h+ 2^ t, 3^ =$ Y= e{ ,- {! 7  T. V; S; R= 7@ ^% *~ 1* 4^ 4^ s* 5^ e] `) 6^ 7^ J* M> 8^ l% )] V; /; 9^ D@ 1$ 0^ a^ b^ c^ d^ e^ f^ g^ h^ i^ j^ k^ X* P$ +~ l^ m^ n^ D- D. D. o^ p^ N> N- q^ >) >) W' r^ s^ t^ u^ v^ w^ x^ y^ z^ A^ B^ C^ D^ E^ F^ G^ u% H^ ",
"I^ f~ ;) 8^ J^ T. P. t) K^ @@ g{ Y  I% L^ M^ N^ O^ ;] P^ Q^ R^ K] S^ T^ U^ V^ O~ W^ .> X^ Y^ Z^ p%  ' y+ b. f  `^  / {' ./ 2) +/ 7, 5, 6  @/ k% l{ Y, A@ [> 7; ;  4) 4) #/ 6  [, h% .{ $/ %/ [@ #~ &/ */ =/ -/ W  v+ ;/ |) ;/ >/ '# W  s+ m# m# ^% ,/ '/ )/ !/ ~/ {/ >, n, }> ]/ o{ *] ^/ // (/ !/ _/ P- :/ e] </ @. f{ ^  [/ }/ |/ 1/ 2/ 6# 3/ 4/ i^ 8# 5/ 6/ 7/ 8/ 9/ h% 0/ a/ c. b/ o  |) c/ g, d/ e/ k+ m) f/ >@ r. c/ 3$ g/ h/ i/ j/ 0) 0) %, k/ 1] l/ m/ +> K% W# n/ G  o/ $' p/ q/ r/ s/ t/ u/ T^ v/ w/ ', s> x/ 6* &@ z> y/ z/ ;- l& S~ U~ s& b. _# A/ 0* B/ C/ D/ d- E/ F/ G/ H/  @ I/ W# $# 5  J/ K/ c+ 2@ L/ M/ R% N/ 7+ O/ E& i. P/ M  }] Q/ Q/ Q/ -{ &* R/ S/ T/ U/ (! V/ *^ W/ 2) ]; .@ r] s] n  1$ X/ Y/ Z/ Z$ `/  ( .( x* 4, 8, +( {= @( #( $( :  Z& -# %( &( *( =( 4$ -( ;( `; >  E) q% }& U~  '  ' K' E+ &- t-    /= '% >( ,( '( )( L> t& m# W# h@ ^  !( ~( {( ]( ^( /( (( _( :( <( [( }( w) |( 1( 2( M+ j$ H  2% >- z> 3( E. 6! G. V$ p* 0; 4( 0; R= 5( 6( e& 7( 8( 9( 0( a( b( c( d( e( C= `! f( g( o% t% ",
"h( ]= i( 5; l{ b% j( k( l( $. m( n( s- ]* ], #' E] D] o( p( W' >, q( U^ T^ r( s( &' t( t( u( Y^ S~ S~ s& [= z$ v( ({ `^ w( x( y( i% 5, G+ N= @- (% z( A( n# Y, i% c, i) f  Y~ B( 5  =  C( D( a; :] E( F( m= -= @- E$ G( H( I( @= J( p$ @- #= [> l& K( 7^ L( L( M( N( '/ /% )! k$ E  O( P( Q( R( S( T( U( V( W( </ 8) U; b% X( Y( R] Z( q] `(  _ ._ +_ @_ #_ Z& $_ :~ :~ %_ H/ &_ *_ =_ 2+ 2+ -_ ;_ _' d= >_ ,_ 3^ 3^ h+ '_ )_ !_ ~_ {_ ]_ ^_ /_ (_ N) i~ T~ Q* Y; g{ A+ .' ]/ *' __ :_ J] I] q/ <_ [_ }_ |_ 1_ 2_ x$ 3_ 4_ 5_ y' D. E. 6_ k{ i* +& f~ <= l{ @- 7_ m# ]% D/ 8_ 9_ 0_ a_ L+ b_ c_ s( d_ A( G@ e_ 8  h. f_ ~% S= o+ +' 0~ !* /, t' V) N~ O~ z% A{ g_ 9@ h_ _  p; i_ j_ k_ l_ }/ m_ !# m% c_ n_ o_ e& p_ s. `& q_ r_ s_ t_ u_ H/ :~ $/ {= &/ v_ 0) p, w_ x_ f' y_ z_ A_ B_ |- C_ P  h@ Q$ q% q% D_ n% N% Y, )= U$ f~ /# E_ /= F_ J* p^ J* ;) 0, O. q> G_ d  Z& H_ I_ J_ K_ L_ M_ N_ O_ P_ Q_ R_ S_ T_ U_ V_ W_ u. e, X_ _* 3( y> E. Y_ f~ k/ Z_ `_  : .: a. G$ O$ +: @: #: $: %: &: *: =: -: ;: >: ,: ': M{ W* H^ ",
"9- 5) 8; A@ 7  ): 5  1$ ~% C_ 7  A% ;; H% $# ^, +# ,% U= !: V, !: U= R) ~: Y' {: ]: R^ ^: %' H] /: (: ^% ;  {] _: :: <: [: &_ }: y( 7, N= [, ]; {* |: 1: |&  @ H+ c, i) 2: ]^ 3: z~ 4: I+ D( := 5: Z{ {= 6: ;= 8, 7: M= %= ]% 8: 9: D$ $. @@ k% @& i* +. 0: a: b: )/ c: m% )# W= X@ d: e: f: g: h: P- i: j: '% T~ .@ )] k: l: ,> m: n: o: p: q: r: s: t: u: Y& v: C( Y, +@ !^ :+ ./ <$ q, =_ :' g$ _' w: x: g! y: z: A: B: C: D: E: F: G: H: I: J: K: L: O) #= 3; @/ T  _  ]! p> ]* V) I] I] M: N: O: P: Q: R: S: w' T: U: V: u* D. E. z> 9, W' n! U$ '= @@ s+ s- )! W: `~ X: (+ Y: Z: `:  < .< +< N] @< U= |& :@ e_ 8~ s+ q+ v+ 7& #< f. ]* $< %< &< *< =< v/ -< Q/ I  c~ }, ;< >< ,< '< P. r& I/ h; B{ )< !< P)  % ~< {< ]< ^< /< (< _< G_ :< << [< s) @( [^ }< |< x_ ,< 1< 2< 3< 4< }$ $. h% m( 5< b_ a. U~ S# 7  g{ +] +] -= 6) i& &~  ] %~ 6< J* a; 4; |- 7< 8< 9< 0< a< b< c< d< e< f< g< h< i< j< k< l< m< n< o< m> 2& p< 7< q< y> y> E. E+ @& r<  : s< t< u< I% v< ,  2@ ]- w< x< y< z< A< B< C< D< E< F< G< H< I< J< ",
"K< !% 7; ** c. o  L< Z+ r+ $. ** B% M< $, 3% 3% H% ;; s- y+ [= [> n( N< *] ,] O< -{ V= Y^ p/ p/ P< (: }& U; Q< _: :: |! R< S< T<  @ l{ $. _# s+ q> F  D@ r> C_ U< i) (  f  V& V< W< 2) X< Y< Z< `< a, Z<  [ >= [; _  D) ;( M= 8: D$ .[ g- ]% %= :* m, +[ 9, @[ #[ $[ h* !# v+ %[ 3= o_ &[ *[ =[ -[ ;[ >[ N- S$ `, 5< c. ,[ k( '[ )[ ![ ~[ {[ ][ Z~ ^[ /[ ([ Y( 7~ O= g{ n! [, _[ '> :[ <[ <$ [[ B, }[ |[ g! 1[ B) 2[ 3[ 4[ 5[ 6[ 7[ 8[ G: 9[ 0[ a[ b[ #( O= >= c[ d[ e[ f[ $_ 1+ v+ #* g[ h[ i[ ]: j[ k[ l[ m[ m% s' W~ .! C- n[ E. E. z> 0, o[ b. J^ *> 7: C@ U= *' J) p[ q[ r[ s[ t[ H/ 5< u[ v[ w[ m[ (: x[ y[ z[ M< q> n{ $# O& A[ #< B[ C[ D[ E[ u/ F[ G[ H[ u' .> h{ m, p$ ~% C@ m_ n  v~ n% I[ V) J[ K[ L[ M[ j) N[ O[ P[ Q[ R[ p; S[ q& 9) T[ U[ </  < z+ }< f] V[ W[ X[  / B_ |, %= O. ]; T. n# 3% S* m_ l$ .' [, C$ k% ~= Y[ Z[ `[ p* j:  } L> !% V& .} +} @} #} $} %} &} *} =} -} ;} >} ,} '} )} !} ~} {} ]} ^} 1/ /} 7< (} y> E. E. E+ +& /# 2] _} :} <} (% J@ @^ x; @{ [} }} |} 1} 2} 3} 4} 9( 5} 6} 7} H< =/ 8} ",
"9} [; j% P= j; -/ Y& w] m{ l{ ]; 0} a} b}  ' !# %^ t% h; v; '= |@ g{ c} d} u' t%  ' K% w% K] q/ U) U) U~ .] e} X< 4, (  a/ #( r] [& J  &* m_ o{ D  f} u+ n( +@ i) a/ j; 9/ Y~ 2) g} L+ C_ h} h} [@ [@ ]= -= 6  .[ {% }= i} Y% 2; j} _  q+ `; +* M^ i} k} n{ `@ l} I  m} V* |' n} o} p} U^ q} r} s} t} u} M- v}  ' w} Y( x} y} 7- z} A} A} B} C} Y~ D} E} F} h@ b_ G} a. O= K^ }, H} 3- %( 4$ I} J} K} L} M} N} O} P} Q} Q} R} S} T} U} V} W} t[ /_ }< X} v; 5) Y} Z} `} m:  | .| +| {* .# @| #^ #| $| %| c} Q~ 3% J) &| *| /* -> D. E. =| p& n( #* -/ l( -| I( G~ `@ 7: 4< d- ;| >| ,| G_ }& '| )| !| ~| {| S~ X) ]| L: /; x. t+ ;' g. ;' W# ^| /| (| _| :| u/ +< H^ <| -~ A+ !# X  )! #* #* o/ ]* o/ [| ## Q& L[ R& =* m~ }| || 1| k_ 2| i  j; R$ '% >( U[ #~ #. +@ J+ 3| `& 4| 5| 6| *# x. <, _~ A% t^  - f; g) 7| }' @* 9@ 3% q% )%  } L> L> 0; L> 8| .  B_ j) 9| 0| a| b| c| d| e| f| g| h| i| j| k| l| m| n< n| o| G) p| b) n$ q$ E. E. E. x> n= r< a] q| :} r| y. z{ @^ s| t| u| v| w| x| y| z| A| B| C| D| E| F| r> z( ",
"j; Y( x] P= +/ G| H| K+ J) [, l% U~ c% }& n= v; m& ~= m! C+ ]# I| J| .@ 1% N) R= v; o, K. K| L| u( M# =~ %, i) B@ /  h@ b_ U~ i* R* *' M| #& N& D@ N| v& f@ 7: O| P| Q| H| 9/ R] l( 9/ /  @. @. f~ h} n! j% D$ ;< I) B  e& v] S= z@ R| 1) 3' S| q# T| ,! :- 5+ U| V| W| X| Y| Z| 0~ 9@ `| M#  1 .1 '; y' 6{ l! O) [^ a/ 2: +1 @1 #1 $1 ~[ {[ %1 g  c. &1 *1 X, b, s% X) I/ s+ *# =1 3+ F) I} F# -1 ;1 >1 ,1 '1 )1 !1 ~1 {1 ]1 ^1 /1 (1 _1 :1 <1 R< e  [1 i& }1 |1 11 21 31 41 [$ k( t+ 51 61  - 71 81 91 t+ q> l: ]  7| Z' B[ 01 H- D. V: +@ n/ a1 b1 c1 d1 l( p$ [, A/ e1 f1 r[ ;| ,| p, Q= g1 h1 i1 j1 k1 l1 6) }@ +] ;= [= P  b% v~ X  Y, m1 n1 o1 p1 q1 r1 s1 N# =~ N! 9= t1 c_ N% I  f@ =' o+ 7& Y+ .% }^ u1 -# v1 w1 x1 y1 z1 A1 1) E$ h) R$ (# E~ ;) B1 x> C1 +/ Y/ D1 v1 F) A~ {% ^  `; X  +# E1 F1 U* G1 A, H1 e) V* u+ =/ K' 9; .: n^ H{ I1  } A- J1 K1 L1 M1 N1 O1 P1 Q1 R1 S1 T1 U1 V1 W1 X1 Y1 Z1 `1 k^  2 .2 j$ ;' {* t! E. E. E. _^ +& /# +2 a] @2 E_ S# ^) V# (- #2 $2 %2 &2 *2 =2 -2 -2 ;2 >2 ,2 '2 <* [/ q> ",
")2 !2 ): k! `+ ~^ j; ,> m{ A@ J^ #. f{ ~2 K) f~ +[ A- W$ i{ {2 ]2 C1 m, a. .@ #= <= <= ^2 /2 u( (2 _2 v} v} n! .] 7~ c% }& R* :2 p( B[ _% +' ={  - }] U@ m_ x. G_ <2 [2 9^ l( g- }$ 7: l{ 7, -= ]= ~= #@ 8, A/ }2 =1 r# (- /, += z@ z@ R| 2, r. |2 9$ c) 12 22 32 42 52 62 }[ 72 n} ]/ 82 ', 92 02 H- g& g& a2 A+ g@ m( x* 8- b2 c2 d2 e2 f2 g2 |$ 4, e  ;  7; n= c_ I< )! +* {% 5+ m) I} h2 i2 j2 k2 l2 m2 n2 o< o2 p2 q2 r2 {{ s2 t2 u2 v2 w2 }! x2 y2 W$ 4{ u- z2 A2 B2 C2 41 9^ @* D2 E2 F2 G2 71 [| H2 9@ i}  % I2 J2 +# K2 L2 H- C- l% A% M2 N2 O2 p| i@ _# )' P2 |; f' Q2 R2 =_ 0{ S2 '/ T2 U2 U[ 1] `{ D~ V2 V2 V2 <= l% h@ 7   @ ~= K> W2 X2 _2 Y2 Z2 c: `2  3 j* ,/ S~ v%  ' I/ 2' .3 g) +3 b; .% @3 3| !( #3 0& <; $3 h+ %3 &3 }$ _# X, R= o! w' *3 v- =3 |, 3$ C# s. h$ -3 g] C@ C@ W  f} E1 F1 ;3 U* U* >3 F# ,3 f_ 1% ~= G. )% '3 M> )3 ;- w$ !3 ~3 {3 >^ ]3 A; ^3 /3 (3 _3 :3 <3 [3 }3 |3 13 23 33 43 53 o{ {* 63 _~ 73 E. E. E. x> P# r< k* `{ @2 )% ;~ G2 F| ~, V+ 83 93 03 a3 b3 c3 d3 e3 f3 g3 h3 J2 f] t+ ",
"i3 j3 )2 k3 .{ U< /  0) m{ c, l3 T$ l3 ~2 u; '% m3 &> W$ F. {2 n3 o3 j% C( 8) 7; 5) *~  3 p3 Y^ s1 K( M. L' =~ +- Q= q3 S: r3 s3 H. n/ Z' t3 _% f} U@ ], m$ ** j; Q| 6@ Y( @- N= 7: 7: l{ 7, k% 8, +] G+ B$ q< u3 .= v3 t@ f_ i@ ~% z@ S= ,{ X= >! C& x~ E% ;# w3 52 W| x3 y3 z3 m+ &* O. Q# A3 &- 5* E. D. M* Y, 7   @ U< v( |! b2 B3 e2 C3 D3 E3 F3 G3 H3 8; o[ I3 W# S* Z+ :> 5+ 5$ J3 d; K3 j2 L3 ;1 M3 N3 O3 P3 Q3 R3 S3 T3 U3 V3 W3 X3 Y3 Z3 `3  4 F. 4^ 2* .4 +4 B2 @4 #4 P| m$ $4 %4 81 &4 F2 T@ W= W  ]  9& q# L@ *4 [> =4 -4 ;4 [> v~ >4 ,4 '4 )4 ,- D$ g= !4 ~4 {4 q, <[ =_ c. ]4 1] ^4 `_ L) l1 L) m3 )% <= ;= ~= g{ .] h@ m( +] /4 (4 $~ _4 p( K{ `2 v} =~ d~ J. ,/ s1 S~ A+ ), W  :# g, 1= Y/ Y& {% 1+ :4 <4 y@ S& 0& j@ [4 -| `; y+ y+ /* r; 5* v- =3 ;< 5$ Y= ;_ 1= c/ p> .' J+ W  -' n} ;3 }4 U* ;3 n} f) '# ], Q$ [@ L# |4 n^ &> N> 9, 14 24 34 <! 44 54 64 74 84 94 04 a4 b4 c4 d4 e4 f4 g4 h4 i4 ,  ]* y. =/ !# j4 E. E. E. *- @& o, `{ a] k4 ^= G~ l4 v< 0~ m4 n4 o4 p4 q4 r4 s4 t4 u4 v4 ,~ w4 x4 9^ Z+ ",
"y4 )2 ): }< A@ N= j% h% U; %, f~ h} S$ u; /# u; $~ 0, j= E+ z4 _^ a! -= i) #= #@ ;= #@ =~ A4 B4 M# H. Z2 r3 2_ C4 ,/ u( B4 D4 E4 F4 7= 61 @* W) G4  # [& [& b. X,  @ Q$ P= H4 J^ @- .' &* G~ 2' `@ `; @= M= 1; I4 .% i. J4 }' =' F$ <& K4 .= ${ x~ >! ;_ k+ L4 L} M4 m' N4 d= O4 H1 k$ m# ~' 0= w, P4 E. E. Q4 [> )] h@  @ P  +/ ~^ m: R4 @1 S4 +1 R< T4 i) << .] )] U= U4 o$ V4 J3 W4 h2 (, K3 X4 j2 -1 Y4 Z4 `4  5  5 .5 +5 @5 #5 G: 2! 8[ $5 |! %5 o3 _^ &5 *5 =5 -5 ;5 >5 n: ,5 '5 %4 91 )5 !5 o} d) S@ l+ ~5 {5 &{ ]5 I* K  ^5 => v$ `| o{ /5 (5 _5 /} S= :5 q$ <5 !' y} [5 }5 Y& g@ b, 1] |5 {/ L) l1 5] 5] ]= 7; #@ 4) A@ m( P= h% ,= 15 25 35 45 Q# m& N. :2 R$ X; Y; >, C4 <| 7_ x. p+ o> F# c/ R% ,- ,- @  v] 55 ,! 65 Y= J3 V4 ^; o$ ]* r& :* 75 B' 85 95 @= 5$ c) ~5 >!  > 05 p> :> f_ !* a5 F1 ;3 b5 c5 n} e@ >/ @* (% v} L# |4 X# V' Y- @[ .! d5 e5 f5 g5 I& h5 i5 j5 k5 l5 m5 n5 o5 p5 q5 r5 s5 t5 0  -; W  I  n% .@ =3 E. E. E. r; @& S$ 4] u5 @2 ^= s+ G2 I* ,! v5 w5 x5 y5 z5 A5 B5 C5 D5 E5 F5 G5 H5 {% I5 ",
"h% J5 7~  @ j% 2~ ,= |@ #@ 8; K5 6) m3 Z_ _] J* p^ i& 9; U$ G. 5) {; i( 5) i( ,= {; {; .: E{ L5 $[ j* K( G! g1 r1 r1 M5 N5 O5 P5 Q5 R5 S5 v$ T5 U5 V5 y$ u& x, W5 X5 *~ ~= +[ )= @& *' p} 4= V* T@ _- ^; Y5 Y5 I} ~5 Z5 t  `5  6 O& 0~ +' 0~ ,! ,! b; Y= i$ x3 .6 >_ +6 O4 {5 @6 F1 k$ l% K{ #6 $6 E. E. E. z> %6 h; v% c_ &6 &6 *6 c. =6 '[ b- ~^ -6 O| A] i) X, V; ]* U@ l, w~ ;6 >6 d; ~* j2 ,6 ,6 '6 )6 !6 ~6 {6 ]6 ^6 /6 b> (6 _: _6 :6 _6 _: G3 Q< @/ F3 <6 [6 }6 |6 16 C} $( o{ 26 36 46 56 66 a5 (> 5% 76 86 96 06 N$ G4 a6 b6 Y  c6 E  b% 1$ 3: 2) x* d6 A- >> Y} h  3, r+ `+ g{ ~2 l1 @2  : /# 4] r| r| K5 K5 ;= ;  e} h% h%  [ F+ '; S' $6 t- >- r$ p& V, y+ +- >, H. M# H. !: l{ %= @= h_ @= J( }$ K^ l{ h% <& .2 e6 e6 z# l+ !* 0~ |]  6 o{ f6 g6 v, J( (; S@ x~ >! '! >3 g) N& |] e& ~, a5 c5 c5 c5 h6 g) V* =' )# !# 0= L# |4 8| O> i6 j6 .! k6 l6 0| m6 i5 n6 o6 p6 13 q6 r6 s6 t6 u6 v6 w6 q@ .^ y  0~ += .@ h; b. s> E. E. E. ); ~2 S$ 7^ x6 Z_ ^= s+ x4 y6 |=  , z6 A6 A6 B6 C6 D6 E6 F6 G6 H6 I6 J6 K6 {% ",
"4; 3) 5, 4, 3) x2 L6 M6 y$ *~ a, #~ #~ T[ N6 (= O6 .: f~ o[ i% %, U$ V2 8^ O* g> g> }1 &> V' J{ P6 7^ Q6 R6 (| r1 S6 T6 U6 V6 W6 X6 Y6 Z6 i= `6 .! x> w, W$ n[ I> F{  7 X- h' => r$ .7 X@ +7 +7 @7 #7 $7 %7 W4 k+ b& &7 N^ ~) x4 *7 F1 +3 I# R@ x~ x~ x~ x~ 65 =7 D! -7 e/ d/ ;7 A, k} Z# W' >7 ,7 E. E. E. E- Y) %' B{ 0] Q: w[ '7 )7 Q| !7 $_ %_ O| C~ ~7 i) #. R= A( D@ :# e) {7 >6 e@ V* ]7 ^7 ,6 /7 (7 u, d5 _7 :7 <7 [7 9> }7 |7 17 27 E3 37 _{ 2: +/ 47 b- 57 67 77 87 97 Y~ l$ >{ 1' 07 a7 #7 b7 c7 d7 e7 }. f7 g7 h7 #* i7 %6 o( j7 ;; s+ w( 4< }2 Y} M6 |1 ;, k7 !4 d[ e[ @/ 7, f~ j* 7^ E~ +. 5] )% <= U$ <= #@ 7; -= A@ i% +( `% G{ D. G{ y' ;4 -- [> Z# y+ ^% ^% R* i* R* !: [= (* Y} l7 q< (} m7 n7 o7 >> x. ]  k+ p7 S@ D& t3 d% 71 Q) Z' c~ 73 q7 n{ r7 a5 '! '! A, (- !, H~ s7 F1 F1 }4 ;3 f, F1 h6 g) V* K4 W= _~ v} k{ |4 8| 25 t7 j6 14 u7 v7 w7 x7 y7 z7 A7 B7 C7 D7 E7 F7 G7 u6 v6 H7 q@ I7 e% T* ^  Z; D_ [> v- E. E. E. J7 @& ~2 /# u5 Z_ )% ;~ K7 >% L7 M7 N7 O7 P7 Q7 R7 S7 T7 U7 M7 &) V7 W7 6| {% ",
"[+ |$ z$ A$ 4; x2 L6 |1 |1 ,= +( 8; m3 5] X7 L> X- /= r< v; %, l3 [1 J| y$ m! 9{ 9{ Y7 }1 Z7 O> V' 5] `7 B{ &< ,/ r3 A4  8 .8 +8 @8 #8 #8 `6 `6 x$ x$ ); {2 G{ D. G{ 7! V$ Z- C- U5 &* r7 F# {7 (, >6 $7 %7 $8 k+ b& %8 ~) s7 H~ H~ ~, ~, R@ L7 x~ p| &8 x~ 65 =7 *8 =8 -8 ;8 E& e% l$ ^* =~ '3 >8 E. E. E. D. ,8 &< '8 )8 !8 ~8 {8 ]8 c. ^_ ^8 G| 2: -  C~ e} #@ @& L: ,% f; z# {7 >6 (, V* @7 /8 56 /7 H2 (8 _8 :8 <8 [8 2! :+ G3 }8 11 :: |! |! +1 |8 18 57 2! [7 28 ~[ >5 38 X[ V  48 R/ 58 68 U| 78 88 98 D= D= }# Y* 9  08 a8 b8 __ j7 c8 J5 X< }2 !' Y} >> o7 ;, k7 r! m7 9} B$ 3; T$ f~ 6) )% )% D~ <= [= ]= ~= #@ #@ #@ 4) 3; 3~ Y_ K# z> D. E- d8 e8 k% l{ m, y+ y+ !: ~' !: m# [= d6 >> !4 =- =- o7 x+ r; M* l{ /, f8 e6 ${ a~ g) t3 _% g8 f} h8 i8 j8 k8 Y@ I# H~ I# '! I# (- F1 H~ F1 }4 }4 F1 R@ }4 a5 |] ~* '# 05 X  ~= G. A3 8| -, t7 l8 m8 3< n8 o8 p8 n6 q8 r8 s8 t8 u8 v8 w8 x8 y8 z8 e4 A8 B8 O/ R@ i  Y, s& [= C8 E. E. E. V: ~2 ~2 L) u5 x6 ^= G~ J2 x- L7 D8 E8 F8 G8 C* H8 I8 J8 K8 L8 M8 N8 N@ ,- l$ ",
"j% ({ 8- 4, z$ 4; O8 3~ B+ ;= 8; l3 6) /# E_ F_  } r| ~2 ~2 T$ ;  5) B+ 5) K5 #@ Q< 5) >= y$ f> f> S$ x[ P8 H^ Q8 Q* (2 Y2 R8 S8 ^2 T8 g* U8 C$ [= h- 9} Y_  4 3{ W$ h' R# p& V8 W8 X8 8& h, h, {7 h2 >6 $8 h2 Y8 b& f% |% Z8 }4 F1 f, R@ L7 R@ y# x~ x~ y# =$ D! }[ =8 `8 ;8 7$ (- l$ v; m& '3  9 E. E. E. E- .9 &< +9 @9 #9 $9 %9 &9 H/ *9 {4 R] R< )^ =9 j% +] @@ 3% -9 !5 z# :- h2 (, (, #7 ;9 >9 46 ,9 .* '9 )9 !9 T] f' |- f[ ~9 {9 6> 1{ <{ 5! 5! '^ 67 ]9 ^{ ^9 /9 (9 ~[ U] 5+ W4 _9 :9 <9 [9 }9 |9 19 z! 29 &; 39  ^ q' 73 49 @> 59 $, T. ~% -| g' N= [; !% 9} l7 6  B$ 69 g- H( h% l% T$ ~= U$ <= J^ Y, 7@ y+ #= f{ #@ 7; 7; #@ J| Z% 79 .- v- ;> l7 ]% l{ 89 m, y+ g{ n, y+ 99 c~ 09 6, U8 D$ %= D$ N= <5 r! x. t^ |' i$ m+ a9 a5 @' l4 ^) I~ b9 c9 d9 e9 f9 (- !, F1 !, F1 (- F1 F1 F1 H~ }4 ;3 }4 F1 }4 n} 81 l, 8& O  o, k{ g9 8| 25 t7 l8 m8 h9 0< i9 j9 k9 l9 m9 n9 o9 p9 q9 r9 s9 y8 t9 z8 u9 v9 w9 Q@ 1~ m, /% |@ 3* E. E. E. x9 ~2 y9 /# u5 Z_ D~ G~ K7 Y{ ~, D8 z9 F8 A9 B9 C9 D9 E9 F9 G9 H9 I9 N$ p> X  ",
"c. j; f  @/ A$ 4; {] 4) -= 6; K5 l3 #~ +. r| l* p^ |4 o, n! }@ +( 3~ ;= 7; 6;  [ ;   [ Q< 3~ Y7 }1 l3 I< J9 y% A( X) Q~ L] K9 g_ g_ E  91 ], '5 ], '5 S* :~ /  h% o[ /% n% o/ 91 G  l, h, :- :- i2 {7 #7 c; {7 D& D% 9$ I2 L9 d% ~, R@ L7 x~ x~ x~ y@ x~ y# y# M9 *8 z3 T| i. a% e. g@ n! o! '3 >8 E. E. E. z> +[ F! N9 O9 P9 Q9 R9 Y( {^ {^ '[ `^ X< S9 f  j% G+ 8, S# M^ j, F# ${ J3 L/ e@ -1 T9 ;/ W= ,9  * U9 ^{ V9 d' f' b- W9 ![ ![ S4 W9 7- X9 W9 W9 Y9 Z9 /6 `9  0 .0 +0 @0 S& Y| >_ #0 $0 %0 N3 &0 *0 a# =0 -0 ;0 >0 I5 r! '= R* N% 1% >  ,0 Y& `: 7: G+ Y} +  '0 7: %= E$ l( D) ** O. [= )0 *~ U$ l% }& n# q% .] %, #/ #/ #@ %, ;  h- *> s' x+ <5 +  N= 7: J  P= ]; m, ^  /; `@ p$ O. 89 n{ f@ l$ l$ t) `; !0 $# ={ G1 ~0 A, 9$ {0 ]0 ^0 G$ /0 (0 _0 :0 <0 Z' H~ F1 !, (- H~ H~ I# H~ I# @' }4 @' F1 F1 }4 ={ |] 7| O& [0 n! G. |4 8| i6 }0 |0 -> 3< 10 20 30 40 50 60 70 80 90 00 a0 b0 c0 d0 e0 f0 g0 h0 i0 _+ m, R* 5; P4 E. E. E. ~; v; +& 4] u5 x6 %/ K  z. j0 k0 l0 m0 n0 o0 p0 q0 C9 r0 p0 s0 t0 u0 v0 *' n# ",
"k3 v: 7: 6  >= 5, 4) 0) h@ O= ;  m3 m3 m3 r| <} >7 $~ f~ o, }@ 5) *~ #@ w0 j% ;  ;  ]=  [ ;= .  8^ -= W* x0 y0 z0 &6 A0 P^ B0 B0 D]  6 |] 7| |] M+ |] N& D@ 8~ t^ n/ t' {, M^ 8& 6= -' i, h, i, :- h, e) e) h, Y8 U* D% F1 c5 H1 H1 R@ g, y# y# x~ y@ g, y# D! *8 *8 C0 D% e% H~ o_ O) f~ o! '3 D0 E. E. E. %> )= C4 E0 C{ F0 G0 A( >  8/ y} Y~ `^ I+ H+ A@ j% G+ *> `@ #^ j, i2 H0 ${ S@ I0 c; T@ J0 W= I5 6| K0 L0 M0 q] 7/ |/ '^ 41 N0 X[ 3! c> '[ '^ O0 P0 d' Q0 R0 +} S0 T0 1/ U0 V0 <; >_ [9 W0 X0 Y0 Z0 E= `0  a .a >0 q' R  a= [> ,, Y  Q$ w; 1$ }/ p$ +] Y} [; 3; O. p$ q+ Z+ |) Z+ x. J^ /* .9 +[ o[ N) X) z+ }& X, 7; #@ l3 %, i% h{ J^ |@ g= +a 6, 1- h) X  X  t) C@ k! ], U4 s+ ), K  m$ M^ `- t^  6 N| U@  - ]0 8$ @a @a #a %8 -; %8 $a %a %4 &a *a V@ `5 =a !, F1 !, F1 '! F1 '! I# c5 c5 F1 !, G1 }4 I# ={ +' -a ;a =~ k{ 0= 8| >a }0 |0 m8 ,a 'a D: e$ )a !a ~a {a ]a ^a /a (a _a :a <a [a }a |a 1a 2a 3a ]; p( (* P4 E. E. E. 4a %, P# 4] a] 5a := `@ z. j0 ~, l0 a3 6a 7a 8a 9a 0a aa ba ca (~ da 0% 9@ )! ",
"c% q& H3 5, 4; ea fa ga L: h@ -= a, -) [@ /= L# L# 0= 0= 0= U$ *~ i& *~ +( ;= {; 0,    O* 3~ j- }1 +( b_ Q~ X) o% W* c} '] ha N< ia F2 F2 9~ E1 #< e. g. C% C% 8~ n$ {* #* [| ~* 8& -' f; -' d) -' d) d) -' d) |' g, H1 R@ H1 >3 a5 g, y@ x~ x~ x~ x~ y@ a{ D! D! ja f, |'  6 P$ d_ P# D~ A3 o&  9 E. E. E. E- ^5 ka N! 1] r3 s& h@ %_ R] [$  / w( d  !^ h% +@ J^ 6, A+ V@ Y@ e; #7 @7 i} j$ +7 W) G~ `@ G~ i  1, la ma na Y+ I) f' j> f- f' $_ oa 9/ r+ l( d  Z( H: pa qa +0 ra %( sa C0 ++ m' ta ,1 h+ ua -$ o- va wa t| xa ya za !; X~ K{ n, O) Q| n  K+ O. 5; .  2~ 8, 7: A@ l$ <& i} w; P  ;  J^ )= k{ =~ }& W* W* U~ Q# }@ <= }@ f~ 6) m& 5; e> >> +] C$ Z# h) X  E) _~ k$ f_ o+ [' '# o{ |) t^  - #< _% -a o# u+  6 ~) A, b7 ja ~0 Aa q# |% |% H5 Ba Ca Da &4 L9 }4 F1 F1 F1 F1 '! f, }4 f, f, }4 !, I2 Ea !, F1 E1 9~ g8 Fa o, >7 |4 8| t7 &- Ga Ha p[ Ia Ja  + Ka La Ma Na Oa Pa Qa Ra Sa Ta Ua Va d0 Wa Xa Ya 3a h) Za U5 P4 E. E. E. `a l3 u; Z_  b .b /] 99 +b @b #b }# a3 $b %b &b *b =b -b ;b L8 G& >b :% p> Q$ ",
"~2 -= ;= 8, h( 7; U; ,b 'b 1% n! G. D~ )% /= )( p^ L# k{ '3 j- ;- &> h' )b F+ 7! 6{ '; !b O8 3~ a! J| +@ m( Y, v; g{ U= `- ,] l4 G2 &4 &4 `5 ={ $> J4 M  ~b m$ M| o  f_ U@ ~* l, e) f; 7| !5 a~ f; a~ j, f; f; |' 6+ c) a9 >3 g, ;3 H1 A# y@ y# y# A# y@ {b A# ja ja g) o{ #* n% >, n^ M> I1 Y- ]b E. E. E. E. D0 ^b 15 )b e> $. x} [$ X[ f1 B( !( 1+ /b S* /; `| <0 n% (b _b Y@ ]7 :b U4 '5 {, <0 <b '3 T$ l{ I( ,{ e@ (- P/ e& -3 '< '< I) 1+ m{ O. O) z( X  8/ '^ b- 67 c' e- =_ h$ Y= a& [b '* i+ m) 5+ -( Z& }b #+ F) V[ |b E. D. }0 n& T$ T$ l% +@ +@ +] U$ '= 5; 5, l{ J) k! v&  6 M| g{ J^ f{ <= +[ A3 @& R= >, o[ T$ j- 8^ C+ h' X5 |0 =4 1b D+ U; A+ 2b #= Y, l{ _# += o+ g) D& a~ g) e& E1 &4 H~ $> M  M| t+ ]  I2 ;3 A# g, A# ;3 D% !, I2 H5 N^ H5 3b 4b 5b F1 '! ;3 F1 F1 (- }4 H1 R@ H1 f, I2 Aa Aa G1 '! O& !* f; U= 0= t& .: 6b 6! ,7 =4 =4 _8 7b 8b 9b 0b ab bb cb db eb fb gb hb ib jb kb lb mb ^. nb ob J  pb U8 4* E. E. E. 4^ K5 /# N6 N' m* qb 8@ rb O$ |= [  w5 sb tb ub vb wb xb z6 yb B8 y7 zb F$ E) ",
"6< ;) 4~ S$ =~ o, @. W* z0 N) ~= V2 +( ~= [@ g9 >7 Ab '3 <b k{ '3    V. F+ ]# Bb I> D. 8{ Q< 8, Q  *> $= +@ #- .  [= n% Cb Db G2 Eb Eb d% &4 @' 8  <* #< t+  # *' '5 u+ t^ 7| -' 81 -' 6= 7| 7| 6=  -  -  -  - 6= g) |' D& >3 H1 c5 f, H1 g, A# R@ A# g, A# H1 A# f, e) k$ Y; 9= y9 M> x, )b s; &@ E. E. E. E. E- g& 4a Fb Gb 3, Hb Ib Jb t[ Kb Lb .2 Mb p> *' Nb L% V) Ob Pb _b r7 Qb g; f@ /; R# O> D> &~ V2 @! *# N& L@ Rb v3 Sb c/ c/ }^ n  @- ~= F~ Tb Ub V; f  |+ |8 :+ '^ }5 -# I0 F) '* p| 9& 4% 3' _# g' j> Vb (8 4< Wb E. E. Xb @[ X-  ] N> Z7 V$ &, /= G. v} $~ W' R$ G} 0} *4 b} Q# 0= ~2 P# R# 0= m& ^* R* @& l3 y$ Yb Y_ 7{ F{ D- D. D- Yb N) u$ 63 Z; O. 6, :5 {! l, 2= Zb D& a5 `b @' 71 Q) E] F   c <> t+ 9~ c) x~ x~ g, R@ '! A, ~) J2 ^0 H5 J2 H5 .c F1 F1 }4 U* f, }4 ~, H1 6+ 0~ f, I2 |% 8$ ~) }4 -' i} +c p% L# @c n^ @[ #c y/ $c x' %c &c *c =c -c ;c >c ,c 'c )c !c ~c {c ]c ^c /c (c _c :c <c [c i  U= 89 z' E. E. E. 3( }1 4~ %~ }c t; |c 1c ~: 2c p< 3c 4c 5c 6c 7c 8c 9c 0c ac bc cc dc  ^ M| z( ",
"4( (= |4 i~ c_ i~ l& Q* r% s& +] |@ J^ O= R* p( f* 1c f* _4 ,) h* o! '3 ec )b 7! fc S' gc m, `@ hc K^ m{ J) :5 -- k% )! ic l4 Ba %a G2 G2 l4 4b x4 jc e. o{ 9@ o{ +c Z'  -  6 7| k, 6= kc  6 |]  6  6  6  6  - k, a~ g) |' }4 F1 F1 U* '! }4 H1 R@ ;3 ja C& lc mc U* d) 9@ o% nc (2 8| oc Y- 14 7* E. E. E. E. P4 z> &@ &@ pc R] qc 3! rc Z: sc tc j  Mb k! m$ uc __ vc $| ha g8 Y@ X8 ), .' `@ v$ r* wc xc h' D$ ]! e& '~ ,  v3 M+ s@ :4 [2 -/ f{ $~ yc zc Ac }& #= 7: 2: w( '^ Bc -# I} U| Y= B# ~5 X= {% m{ r+ B_ 1, 1~ -| Cc E. E. Dc M! H{ >) .. I{ J{ (= `{ Ec j& L. 6^ y9 K( Fc Ub Gc y9 L' >, N% p% h; Z^ (: d_ @< a. J^ '= Y7 F+ j{ z> g& 1b V5 n/ =] Hc u+ l$ H( H( (; C  D& Ic Jc n} E1 Q) &4 rb o_ {, Kc r' s+ Lc ,! b; h$ g, ;3 D% v3 J6 H5 N^ ^0 Mc 3b ^0 !, !, !, =a ;3 U* f, I# |' D& R@ Nc &7 Oc %8 L9 e@ %[ |) I/ Ab L> n^ N> ,7 D- $c z/ Pc Qc Rc Sc Tc Uc Vc Wc Xc Yc Zc `c  d .d +d @d #d $d %d &d *d l$ c6 _~ =d E. E. E. E. x> Z7 >) p* t; Y[ Z# -d ;d p< >d ,d 'd )d !d ~d {d ]d ^d 8# /d !  (d 7| [0 ",
"_d  ] 0= x[ :d <d +- v; v; J^ +] J^ A@ h@  ' g[ [d }d O% V= V) 8= /% N. |@ B+ o) ]# |d B+ U, k} += >  ,0 p+ W: p$ `; W) 1d 71 L9 5b l4 Eb G2 G2 4b J4 g8 N| /, -9 M^ G% M^ M^ r7  - |] F2  6 kc  6  6 6= g.  6  - d) k, g) E1 ={ }4 2d n} l+ d) l+ '! T| 3d 4d 4d 9$ k, {* I< .< m/ )( V. )b C- 7* E. E. E. E. E- D. 3( 4* i> `^ 5d 6d N0 t[ 7d /[ 7< ,- ,> ], |: A{ 8d j[ I~  6 ~* W= ;( ), G( p& d> -, Z- e> 1- *# e@ ~) z{ 7| 9d Y& Y& -/ J) 8; 0d ad bd cd ^% i% A@ (  3,  { H} 2+ dd ed )* fd |2 `$ [2 n  i@ S= K6 '< z@ g6 E. E. 1b M! O6 p* N> V' 0; 4( '( 1] gd hd J. Ec 7^ >( id jd j* M. jd kd y% Q~ P~ ld <@ md r& m, @@ j% B+ x> L* 14 o) r$ #* -a Hc N& n$ p> p> ^; I0 d) Jc o} t3 _% M  F2 o_ |: ]* [> 49 .' j$ S| e{ I0 l+ '! 9$ v3 |% ~) ~) ~) ^0 ^0 .c I2 I2 !, F1 !, F1 |] a~ -' e) }4 nd od pd qd I# V* W  v+ Q$ .: X-  } $- 1b K# J- F. rd sd td ud vd wd xd yd zd Ad Bd Cd Dd Ed Fd Gd Hd Id Jd Kd q] S* Ld n( Md E. E. E. E. V: F+ xc J{ 6< q) [> N< Hc j+ Nd 'd Od Pd Qd Rd Sd Td Ud w) 7#  , Vd Wd B% ",
"%~ M> <b Xd Yd Gc R$ R# )0 p& 3; l% $= h% D_ $' $' q( X^ $' s( k[ Zd D_ ^* n! +[ f> oc j% m$ @* k$ 08 l$ W  k} 9@ U4 X@ 5= `d  e 5b Eb l4 &4 Db kc kc f} f_ M| N| o{ k} `@  c 9@ N& 9~ E1 t3 t3 _% _% kc kc 7| g) d) S@ f) f) f) F# (, d; >/ .e (, I2 +e @e *{ *{ Oc t3  # 99 jd N# X- xc &- *3 6* #e E. E. E. E- F- g& 5* Gb G| $e %e &e +0 W] 7< !( p+ Z+ H% 0. *e =e -e ;e p} >e k} += C@ ~! :* ^* ,e ', h{ `; 3' o> !* t3 /, K6 d  +/ B@ $= ]= E~ 'e ad )e s& B~ `+ C_ }$ !e z@ .* K6 ~e S| 3d () {e ]e r& >  -| 1, += I( 8* E. E. 1b ^e I1 N> N> N> &~ %~ M' <} U[ k& k& E~ `{ 4] d~ /e >( (e >, Q8 V) U= 59 *4 _e :@ v~ m, h% ^  l{ >> :e q$ r$ V, n% B% M< i} u+ f_ o> X= S@ z# 2= o} 71 D] E] <e G  %^ #* (% !! L^ +c 4% [e 05 T* e% w  t  q# ~) z{ ~) H5 J2 H5 Ea !, !, I2 !, |] }e a7 ,9 05 a5 !) |e 1e 2e D% [' :> ], y. 0= 0, '3 I1 t* y' y' V- :7 3e 4e 5e 6e 7e 8e 9e 0e ae be ce de ee fe ge he ie je ke le G~ G] I% 4_ E. E. E. E. `% -, r* J{ 6< Z7 m& Pb me S@ Nd V> ne oe pe qe re se te ue ve we xe )* ): ",
"0; `[ V$ o! S$ f~ a, }@ U$ }@ ;  f{ |@ 5; R* ye ze Ae s/ S) Be Ce De Xd l& v; T$ Ee    f{ m_ ]* I  n{ n{ *' {* 91 n$ Fe f9 &4 l4 l4 -a g8  6 f9 Ge L  S* J  J) J  m, _# He V8 G~ M< p# M  _% t3 |] o} |] |] !* g) f8 :- ,3 _9 _9 >/ 05 %[ :> Ie ,3 v3 7+ +^ @e Je +e O& Ke U5 A3 J* D> K* '; H- E- y> E. E. E- J7 x$ j' Yb Q  S[ Le V} [7 :1 W< Me x_ P| b% 'b I@ Ne Oe '] t' *' 51 ;( [& ]; K  ;~ Nb d_ $, n/ l$ *# :> }= G# }^ 1@ X< U< U< -= 5~ Z{ L) Pe Qe >; W, C( B@ C_ T  }, Re 2; _  :> *7 E@ P. h@ ]; k% Se !' 69 )' 3_ E. E. >8 Te O> O> Te I{ `[ j: %~ %~ L# /= 5a N6 Z_ <} +. 7^ U[ /# =~ W' Za N% v' Ue Ve _e +~ S# 7  T. P  '= x+ P] .9 T$ A+ y. $# $# +c /, ~* e@ ${ T* a~ k, 6=  - <e A0 *' H4 c~ J  3% z( D  m$ +* +* #& We Xe P/ P/ J4 J4 s7 s7 *7 s7 H~ Z8 f, '! e% a~ ~e R/ Ye I5 ={ +^ Ze `e +^ q# /, +* <& n# $~ 0, L# )3 Xb D- V- y'  f .f +f @f #f $f %f &f *f =f =f -f ;f >f ,f 'f )f !f ~f {f N[ 8@ R^ Za L* E. E. E. E. `% x, j= ]f j: p) K' R) ^f :4 {- A* /f (f _f :f <f [f }f |f 1f 2f 3f B, b/ ",
"I{ N> g> 0, Z7    /] v} }@ )0 U$ v$ -- g= Y; 4f 5f 6f 7f T^ 8f 9f z% 0f s& _4 o, G. j- l% X  @* *' 7= I[ %* $^ b} H% #| Z' af af Ba Q) &4  6 <e M^ o{ n, 09 bf cf v$ @! k% ', 0f N  ia &4 71 &4 `5 `5 `5 a5 n} >3 g, df S@ #7 (, l, ~* M^ ~b =' ~* t  ef :% ff )) gf hf if l! t& n^ jf ,; D- z> #e #e E. E. 6* .9 m( P= C( kf lf mf nf v2 of pf qf rf sf tf H  ~: uf vf u' %^  # ~! wf C@ C@ ;~ #* u$ r^ Y' ld U4 *# I5 T* +' {e k! +@ j% w0 I^ [< [< xf yf K) @. U; h% /  p$ zf Af T  !e M= p> 9~ t^ ]; C$ [= J| K< Cc *@ Bf ]b E. E. >8 i6 O> Te Te -, Z7 M> &, Cf (= (= L# <} 5] k* 4] 7^ /e r< ka Df 2b Ef Ff Gf j0 Gf o_ s- q> v~ )] [= e8 ~# .9 [> !# Y  L^ ], M^ -9 81 l, 8& j, k, 81 81 Y@ ic 91  # U8 h8 c~ I  W# H% E  v+ ], ;' K@ /) Hf v< ^) ~) s7 I2 !, !, F1 !, !, !, |% ~, '# H2 If Jf H~ 0% Kf Lf Mf '~ ~* W  $# =/ o, k{ $~ t& B> H- Nf 1* Of Pf Qf Rf Sf Tf Uf Vf Wf Xf Yf Zf `f  g .g +g @g #g $g %g ;! k8 &g `| *g E. E. E. y> x> p! O> I{ Z[ x, [= I~ E] -3 f+ p4 =g -g ;g >g ,g 'g )g !g ~g x5 {g =* $# ",
"X5 Z7 ]g O* &>    G. 6) #@ +[ B+ .9 >= |@ ^% Ce ^g /g (g _g v/ :g Q~ o% 7@ S2 T$ +( /] m& V= Ef __ Zd 0f G] k[ A{ <g {: [g ha *] }g ,] ,] N  o_ |: H  [& V, .9 v$ [= l{ ^* >, B{ X' *4 ~: @# ={ a5 }4 }4 F1 '! ja ~0 lc f; #^ +# ,% |: A0 63 m$ ^, me |g 1g 0@ %8 H~ o+ c~ >- G. L# .1 ,; D- z> E. E. E. E. &@ #= z+ (_ 2g 3g 4g 5g 6g 7g 8g U& 9g x_ ,[ 0g s] A% :g ag s- (% <0 `| A+ G~ G~ ;~ W# u$ bg cg ,% k! z@ ,- j$ 9~ D} &1 +@ -= dg [< [< [< eg fg #~ %, i) A@ B@ K^ l{ %= 7: Af %= s+ t^ M| 89 J^ T$ U. J7 =d =| gg %> E. E. $6 V. u& V$ u& u& ;- V$ qb Y[ i& n^ L# ;) -) r| E_ M. +& v; f{ V8 99 @< <@ hg uf ig ld &9 1% 1% b_ ;  *> '= +] J^ y+ [& y. n$ t^ ,% }] }] }] G% -9 }]  - +c V@ #* ), hc 89 `@ *' {* B[ s$ jg 0} ,% !< J@ Q& Q& J4 e% (- e% (- I# F1 !, *7 4b x4 g8 H  r& {, o/ Y' kg lg mg ng 6( D@ {, H  Ef c: L5 k/ X# og y/ J- V- }8 pg qg rg sg tg ug vg wg xg yg zg Ag Bg Cg Dg Eg Fg Gg Hg 4+ A+ &' I[ g6 E. E. E. y> x> M> M> M! p* W5 <= Ig *4 Jg f+ Kg Lg Mg Ng :f Og Pg Qg Rg Sg Tg Ug -# n  ",
"a, 9; V$ V$       i& ~= #@ |@ U8 h) J  P= O) __ K] M% q( A{ O! ld 2% a. b, b, n! l3 [@ P# i* Vg Wg Xg Yg E[ E0 Zg `g K] B{ De z% P> R) ag A( W# c% )] J  n, 8@ f{ ,= '= U. .: N# :_ t% Fa -9 @' Ea Aa Aa G1 ;3 ja ja f8 &* R* K. hd X; L. =~ m& o[ a. n# *' .7 l} ), !0 h8 )0 o,  h X- .h B> !; 6* #e E. E. ]b b. &9 w} i/ +h @h #h $h %h $h &h K+ *h 0{ =h ga z( O~ O~ N% I% !# ;~ ;~ I  ;~ X  2% b} u' O! H% y. `; U, 6@ a) b/ V; %, I^ -h ;h [< ;h ;h ;h m= @. +@ (  (  C_ H4 ]% l{ m# O. S# u$ {, l% <= 9; Te %> 3( D. z> E. D. z> C- k{ o, S$ @& b. i% ;= m! 0, +( ~= )% m! a; O* 9; l& t1 p% G~ `@ I/ X  63 0} u' $, Q~ 5< ^% s& s& i% O. @- 8@ @- .@ /; S# y. O  '5 A% H  0} 63 V@ E  ], {* *' c~ 09 ]% S* {, U@ ]* W# .@ 7@ Z; X  *6 A% s$ D@ `b >h v3 A, '! A, a5 |] o+ F  b} N% S$ f~ S$ @& h; Q~ n/ b} 63 0f D_ q% (: ,h 'h @c )h )3 !h J- K- K* j- p+ ~h {h ]h ^h /h (h _h :h <h [h }h |h 1h 2h 3h 4h 5h 6h =* n% 7h #* 73 E. E. E. E- &- 15 >) I{ J{  7 #6 59 :@ 8h L; 9h 0h ah bh ch dh eh fh gh hh ih jh r. tf ",
"Z, K) 9, V' X5 `[ ^# m! *~ ;= [& c8 kh F} W; o[ :2 J% +> K9 y[ A0 n# s& h} n! h} >; S; i* /# $~ E{ u< a] ^4 ^4 _} L) lh 1] j& mh nh oh ph b, #@ >= [= 7@ ,b z+ Y, U. |* ]# qh n^ S$ v; y+ ], `b |% {0 rh @a g% ~0 ~5 w~ [, qb :/ :/ o* sh th uh vh W- wc Xb wh za za xh ;4 0= j* 1] |4 E{ t& e> yh #e E. E. 4a b. zh *1 C~ Ah Bh Ch Dh Eh ]_ Fh x} }: Gh Hh r] =/ =/ (: p% )] a. I/ I  ;~ _~ X  X  U= @< S^ q> /; _# p$ J+ K+ m{ i% m3 -h Ih -h Jh Kh ;h ;h 7) 8) i) .{ A@ b. l{ O. V, m& Q# ^% H^ N) <= p)  7 '; E. E. E. E. E. E. G{ t7 != ^* O= b_ 7  V; ]= O* O* )% S$ [@ g> oc j= V$ S~ Lh *4 Ge )# I  Z; ~' m#  ' x[ T~ ~2 #~ m3 y9 S2 n# n# o% }& Q= b, b, o[ s& Q= Mh I. Nh Oh U~ U~ n, #= 6, >> 75 :5 *' A% |: A( 5< 3~ )b ^] V2 ;= 3; 3; ** @] Ph Qh ~5 f, y@ |= ]  t+ )] Rh e~ L! Sh vh =, ]# Th E+ -, j= 15 O> .: n= N! @[ 6_ 6_ =4 Uh V- 6_ Vh r< Wh Xh Yh jc B. g+ !f Zh `h  i .i +i @i #i $i %i &i ie *i `$ P< [_ $^ s! y> E. E. E. z> K# $c =i -i  . 35 A{ ,% Jg ;i !@ >i ah ,i 'i )i !i ~i {i e+ ]i t5 s@ Q| ",
"</ f~ qb Z[ k~ ^i y, qb j- [= z( /i (i _i P* 0= Ab R# m% z% y[ :i r% b, [@ ~= f~ <i i~ 9= /# J* [i 0: d] }i |i 1i 1i 1i +2 xf Z, 2i c8 3i 8) {; j- +( }& 4i [0 U~ O* )b ]# D> %~ E_ G. K' y. e. %8 7$ (> #a u] u] 9$ ${ h- y, 5i 6i 7i 8i 9i 0i ai H> J> I> G{ D. D. g& .! M. e] bi l1 ci r< != 8* P4 E. E. 4a @- z+ *1 di ei fi gi hi @/ S9 q& i/ 0) .] 7@ O) o% N% N% `, Q$ Q$ Q$ _~ n% I/ n# n% V) (: W# 1% [& K^ O. h) ^  h% h} T[ -h ii ji ki Qe li li 7) >; S; S2 b, R$ Q# @& v; W' y9 K( {| i~ 4~ D> mi D- E. E. E. E. E. D. I> Te 0= W' R= G} (_ c% n! i& i& m3 u; 5] Z[ r* B> u& c_ ni I@ ,] G  U4 8@ [= v} }& x% oi fg E_ .: /# T~ Ub x0 :i W* T~ `) j& pi U[ Qe qi qi ri si ti i~ >, R# h= x$ `6 [> c} u$ u' |& b_ e> 6! ]# Z7 }1 g> U. `+ ui vi >h v3 '! _> L7 e, S* .@ P* yf wi xi yi ai U- zi zi '; zi ';  . i& +& =~ $- y/ G{ D- D. y' %- Ai >( Bi Ci Di Ei Fi 0% Gi Hi Ii Ji Ki +i Li Mi Ni Oi Pi Qi Ri 7| H] Si $' Ti E- E. E. E. E. E. z> $c M- wc '3 A{ P$ Ui Vi Wi Xi Yi fe Zi `i  j .j +j 7( @j a  +| k3 ",
"+. a, l~ r) j~ #j ^i Z[  ] U$ o% $j %j &j !:  } 6b o! Y; d_ *j y% Q= h} `< i& E_ s)  ! d~ r| T' =j -j |i |i  b |i ;j |i .b x6 >j ,j R9 'j u; := l= G. +- z0 )j X; Y[ j=  7 J{ !j ~j n^ A3 !# N  ~) z{ I2 I2 f, I# }4 T9 5; ]f {j ]j ^j i: 9i /j (j _j ai fc '; '; y' t* V. j* e] :j  : 1] k/ o& <j #e E. E. 4a b. &1 X} [j }j |j di {; m! {; }@ ]= l3 }@ T$ =~ i* H. +- N# H. s& >, /% >, H. /% H. >, H. >, !: ^* J^ k% #= #= -= a, t; z, l~ .b l~ 1j 1j 1j l* N6 0d fg e~ e~ 4] +. Z_ @2 u5 m1 k1 k& _= q^ 2j ,; E. E. E. E. E. D. I> r* $~ M. f~ (# G} 3j f~ 4~ 4~ m3 u; )% .. M- s* Z7 P* '7 md 4j i} $# ]; f{ S$ t1 cd )e ~j 5j 6j N6 I. 7j ,j s% Z) N# L) U[ 8j 8j Pe 9j si 0j aj bj cj Xd R$ A3 => C+ @& d_ x0 z0 `, R* t& Z7 j= h' f> V$ i& ^% dj E@ ej Qh ej e% b) f_ K  X, fj gj hj ij 0i (j _j jj kj lj 6{  . W5 N6 j& j* ^e S' D. D. E. K# B> 9! l1 mj *[ &[ nj oj pj qj rj sj tj uj vj wj xj yj zj Aj Bj Cj C  Z^ S) __ Ti E- E. E. E. E. E. z> V- B> {# B+ A0 D@ a_ Dj Ej Fj Gj Hj Ij Jj Kj c^ Lj Mj Nj Oj w; s] ",
";) +. xf xf t; j~ k~ &~ &> Z  7; =/ nh Pj n! '3 8| o! Y; S^ u' y% .] l3 {; V$ &, Qj E_ <} (= J! Rj P' Sj |i Tj Tj m* 3] ;j 1i yf <i Uj gd gj z, X7 /= [@ P* Vj u; &~ Z7 `[ _= E~ l1 <} 0= R* ]* D  E  m$ W= 9@ f] ], +* U$ Wj {j c] 7i i: Xj Yj Zj (j Yj `j =, 8! j= M> D~ K(  k S6 .k <} L> C- x/ #e E. E. C8 +@ ga +k w0 6~ B~ S; ]= G. oc t7 ]# 8! ]# W5 Te V. V' N> N> @[ &> p! N> V. V' ^e V' V' V' V' O> => x$ D+ )b h' @k  7 Sh #k $k #k #k %k `j #k $k vh &k Wj y, q* L! *k =k *k =k -k _d :/ o* -k 0: O> z> E. E. E. E. D. S' V.  3 /# 4~ /= h} +& #~ +. +. S$ u; r|  7 W-  . j= V$ K' @- L  :# f} *' n, Y; ;k >k {| N6 l= ,k _= E_ ~2 m= Jh fg pi L) ji 'k Pe 'k )k !k ~k {k ]k ^k cj J. ~2 '3 i& S; I< 'j v% K( _2 ~2 r|    f> }1 '3 )% R= r> v& +| m  ui M+ #& f] h% %, fj /k (k hj _k :k sh j~ `[  ]  ] %~ F_ 8j O# 2_ I1 #c G{ D- E. K# B>  7  3 <k [k 8] Oe }k H& !f |k 1k 2k 3k 4k 5k 6k 7k 8k 9k 0k ak '* 7= &' )# bk ck E. E. E. E. E. z> y' B> {# 5; b} ([ r[ dk ek Sg fk gk hk Jj ik jk kk lk mk nk 6@ r> ",
"4~ 5] 'k ok pk qk k~  ] rk x$ Yb 6, $= 8) Z< 9; 8^ '3 >, d_ $, &9 R$ +( /] /] Y[ .& Z[ 0; j~ }c }c 4( sk -j d] Tj -j -j Tj tk ok qi qi aj uk m* 1j l* t; E_ Qj t; `[ j: (= 2] vk 'k 4] e~ X; D_ m% m% !: !: Y, Z; g@ g@ K5 ]f 7i c] uh $k Yj wk xk wk Xj 9! W5 oc Z[ J* l1 k1 yk zk :/ k~ E+ ]b E. E. E. E. B' -=  < 3j 6~ 6: Ak &/ 5] 4~ Bk K* n[ '; K* 7! 8! r* xc N- W5 W5 xc xc  7  7 8! Ai  7 -i M- M- ]# 8! ]# ]# ]# Th y2 6{ Ck jj _j (j (j (j (j Dk Yj Ek $k Fk uh Gk >[ Sh Hk Sh Ik Jk S- Hk Ik Kk a] n^ j{ E. E. E. E. D. S' N> r< $~ Z[ Z[ /= /# Ec U[ e~ Ec l1 J* 9! K* 7{ Ai ]# B> Lk l$ N& t^ v~  ' Q* Mk Nk Ok l~ Pk 6j _= _= E_ Qj 5a ~j Qk Rk yf ok k4 vk vk Sk Tk Uk Vk Wk Xk Yk B] 7^ N6 4] 1] Ec ci `{ /e `) 5] M> `[ rk i& )% ]4 U~ h@ P= S* n  Zk `k Z+ h% %, ;h uk  l .l +l r) m* l* l* .: J* Z_ L) O# hd N# .: i= G{ D. E. z> %- Bk 5] u[ P8 @l Ve #l $l %l &l *l =l -l ;l >l ,l 'l )l !l ~l {l e! 2' I/ +* ]l ^l E. E. E. E. D. h& y' `% `  G+ n$ 5  /l (l _l :l <l [l }l |l 1l 2l 3l 4l 5l 6l w; &9 ",
"/= Z_ x6 :} m* 7l :k &~ j= t- D+ U5 ;  i% +( U. p! i- ~' 8} [0 =/ o[ U$ Ee 0, ]g ]g J{ N>  ] p* K! }c }c 4( 0: t; :/ t; 8l 1i Rk 8j 8j {/ Z_ 2] ~j ~j _= t; j: p* j~ t; `{ {/ Pe {/ Ec `) J. <| Y; >, i* !: R$ /% }& }& <= X5 th th %k s* Ck 9l fc Ck (j $k M- Te 0l 4~ E~ k& al 9j _d &k 3{ x/ E. #e E. E. z' G+ V; b_ 8) m= <i I. |4 X- bl K# K# y' >8 bl r* V' V' N> N> &> N> N> N> V. V. V. N>  ] V' V' oc oc t- t- t- x, Th A> K* 7{ 7{ L- u} L- wc cl $k uh 7i q* q* I{ dl dl D> q^ C> cl el el Jk fl '( X# G- E. E. E. E. D. S' j6 D~ '3 O> V' /= e~ u; /e U[ >( l1 n^ W- K* 7{ Ai %- %- `6 ;~ f} F  W# D_ P* l^ gl Nh N6 5j 6j N6 E_ |4 <} 5a _] 5a k4 E~ Z_ Z_ 5a x6 1i .b |i `_ l/ gl hl il U2 u5 8l F_ :/ 3] u5 jl /e $~ M> `[ N>  } )% +& R$ Z; Z; /; y. P. b/ k!  @ 8) 7) Qj k~ =k _d kl 6< t; qb (= (= N6 a] >( ,( L. o! d> D- D. E. D- B> V' r< De b} A0 v< l# ll ml nl ol Ki pl ql rl sl tl ul vl wl xl yl o{ t' ;/ zl Al E. E. E. E. D. h& y' Dc x9 |@ H  +| ~3 Bl Cl Dl El Fl Gl |l 0a Hl +j w9 `' ;% v& Il ",
"&, E_ 1i 1i Jl Kl hj Te t7 Dc `6 i- ,= '= o) r; 1b &- +! V, A@ k% ~# )b 0! ]# 8! 8! W- M- Ai og xc r* N- .. Te .. q* `[ `[ p* 6< _= F_ _= 6< qb &~ 0;  ] >) N- r* N- qb l* k* N6 .b 8l N6 r| v} $~ g9 A3 g9 Ab A3 +[ 5; D+ Ll 3{ 3{ 1* j{ h& D. D. F{ F{ fc K* Dk C> `[ :/ x6 `_ a] q^ jj D. y> y> E. E. E. y> M* ;= @. h} f~ ~2 )% N> ]# n[ z> D. g& 4^ y' ~; Dc `% 6! Ai Ai E+ Ai Ai E+ C- E+ Bk xc xc xc Ai Ai 8! Ai 6! 8! `% >8 j{ y' 1* 1* 1* x' x' u} jj Dk cl C> 9! W- Xb wc 7! Xb s* A> V- V- K* B> @[ j6 Ml E. E. E. E. E. 3( t* s; C- Dc Ai &> 9; J* k* |4 $~ .: M> A> S' 1* t* Dc Xb r; C/ G( W8 /* +[ X- n^ J* &, Wj &k ]f j: .& V$ M> &~ &~ (= &~ V$ V$ V$ Z[ &> Z7 &> Z7 i& $~ o, 5] 4] ;)  } p^ (= Nl Nl %~ F_  } V. Bk t7 Ai x, C+ 9, l! '= '= .9 6, C$ '0 N= +  ,= J| ec o^ o^ :^ B1 oc `[ ^] V. V' Z7 &~ +. +. v} Z7 E+ D. E. E. h& B> M> f~ kd w; y4 Ol Pl Kd Ql Rl Sl Tl Ul Vl Wl Xl Yl Zl `l  m .m I& A0 S^ +c +m @m E. E. E. E. D. z> j{ Dc W$ |@ 63 b/ T0 #m $m %m &m *m =m -m ik ;m J= >m Q! ,m Zk *6 ",
"V$ $~ r| .b 6< =k (j u} u* u* &@ =| u- Fb 4* P4 E. 3( 4* =d Q4 Q4 5* 4* D. z> D. D- 4^ z> z> 4* z> 4^ D- 4^ 4^ 4^ D- 4^ n[ K# K# 1* F. 1* V- 1* 1* 1* y' V- V- 6{ 7{ M- 9! 8! 7! L- 'm Dk 7{ {# t* Dc %- &- %- V: gg =| 4* D. D. D. E. E. E. E. E. E. D. h& G{ S' F. 7! X5 F_ &, q* K* K# 3( #e #e #e #e #e E. 6* ~; x> )m O* *~ &> 7! t* 4* %> E- E- 3( E- E- 4* z> 4* 4* 4* 4* 4* 4^ 4* 4* !m 4^ 4^ 4^ n[ n[ K# K# j{ j{ j{ 4^ 5* ~m ~m P4 %> 4* 4* 4* 4^ D- D- D- n[ D- z> z> z> E- z> D. E. 3( 3( D. z> K# g& E. E. E. E. E. E- y> E- %> %> 4* j{ >8 W$ Xb B> Ai -, j= 8! F. n[ D- g& 4^ K# D- Md {m v-  9 3{ '; '; S' Bb ]m S' S' K* 1* u* `a y' y' 1* 1* u* `a `a `a 6* g& &@ 4a =d Q4 U: w, 6! `% 6! 6! ]# 7{ 3{ Bb V- j{ j{ g& K# `a `a `a ^m ^m 4a 4a 4a 4a 4a B' B' z' X$ &@ /m 4^ 4^ 4^ 5* %> j{ u* u* 1* V: F+ V2 )0 U$ `% %> E. E. E. n[ t7 35 W' |& 1$ d1 (m _m :m <m [m }m |m 1m 2m 3m 4m 5m 6m 7m 8m 9m 0m <g Ld #' am bm E. E. E. E. D. z> y' Dc Xb +[ s- !( +} cm dm em fm gm hm im jm km lm .^ ]$ mm Zk b/ ",
"h' G. 4~ .: nm 9! zi 3( E. y> E. E. E. E. E. E. E. E. E. E. y> y> E. E. E. E. E. E. E. E. E. E. E. E. E. E. E. E. E. E. E. E. E. E. E. E. E. E. E. E. E. D. D. 4^ '; V- x' >8 F. '; G{ D. D. z> z> g& j{ g& g& g& E- y> E. E. E. E. E. E. E. E. E. E. E. E. E. E. E. D- W$ Bk h> Xb D. E. E. y> E. E. E. E. E- y> 3( 5* %@ o) 3~ => >8 %> y> #e E. E. E. y> E. E. E. E. E. E. E. E. E. E. E. E. E. E. E. E. E. E. E. D. y> y> y> P4 y> y> #e #e y> y> y> E. E. E. D. D. E. y> y> #e E. E. E. E. E. E. E. E. E. E. E. E. E. E. E. y> y> E. E. #e 3( 3( E- z> z> g& K# `a &@ j{ D. 3( E. E. E. E. E. E. E. E. E. D. D. D. E. D. D. D. E. E. E. E. E. E. E. E. E. E. E. E. E. E. E. E. E. y> y> #e E- 4* E- 4* 3( 3( E. E. E. E. E. E. E. E. E. y> y> y> #e E- #e y> #e y> y> y> y> y> E. y> E. E. E. E. E. E. E. E. E. z> h& x9 t- t- g& E. E. E. E. om x, )= @& z( qf U] pm qm rm sm tm um vm wm xm ym zm Am Bm Cm Dm Em l) ;; u$ -' Fm bm E. E. E. 3( D. D- y' t* Xb <= v~ 1+ Gm Hm Im Jm Km Lm Mm I8 Nm Om Pm >m Qm P@ Rm =# ",
"79 U. V2 V2 oc {# h& E. E. y> E. E. E. E. E. E. E. E. E. E. #e #e E. E. E. E. E. E. E. Sm E. E. E. E. E. E. E. E. E. E. E. E. E. E. E. E. E. E. E. E. E. E. E. z> z> H- `a u* u* `a z> Tm E. E. z> 5* 4* %> %> %> E- #e E. E. E. E. E. E. E. E. E. E. E. E. E. E. E. z> j{ ~; =| ^m 3( E- #e #e #e #e #e P4 4* 5* g& g& u* x$ M6 x> H- E. E. #e E. E. E. E. E. E. E. E. E. E. E. E. E. E. E. E. E. E. E. E. E. E. E. E. y> y> Um Vm Um #e #e #e #e #e E. E. E. E. E. E. E. #e E. E. E. E. E. E. E. E. E. E. E. E. E. E. E. E. Sm #e #e E- E- E- E- %> 4* 4* %> 5* %> 5* %> ~m 3( 3( E. E. E. E. E. E. E. E. E. 3( D. E. E. D. D. D. E. E. E. E. E. E. E. E. E. E. E. E. E. E. E. E. E. E. #e #e y> E- E- 4* ck E- E. E. E. E. E. E. E. E. E. E. E. E- #e E. Sm #e #e E. E. #e y> E. E. #e E. E. E. E. E. E. E. E. D. z> D. &@ i{ 1b E. E. E. y> E. J7 A- Wm y+ A% Xm Ym T0 Zm `m  n .n +n @n #n $n %n &n *n =n -n ;n >n ,n e, o= 0^ 'n )n E. y> E. y> 4* 4^ `a t* t* +] v~ 6] !n ll dk ~n [} {n ]n ^n D9 /n (n _n w@ +^ #3 5  ",
"t* s; D+ => w, y' E. E. E. E. E. E. E. E. E. E. E. E. E. E. E. E. E. E. E. E. E. E. E. E. E. E. E. E. E. E. E. E. E. E. E. E. E. E. E. E. E. E. E. E. E. E. E. E. E. E. E. E. y> E. E. E. E. E. E. y> E- E- y> E. E. E. E. E. E. E. E. E. E. E. E. E. E. E. E. E. E. E. E. z> E- g& %> %> #e #e #e #e #e E- E- g& g& G{ G{ 1b }0 y' E. E. E. E. E. E. E. E. E. E. E. E. E. E. E. E. E. E. E. E. E. E. E. E. E. E. E. E. E. :n y> y> E. y> E. E. E. E. E. E. E. E. E. E. E. E. E. E. E. E. E. E. E. E. E. E. E. E. E. E. E. E. E. E. E. #e E. E. E. y> y> y> E. E. E. y> E. E. E. E. E. E. E. E. E. E. E. E. E. E. E. E. E. E. E. E. E. E. E. E. E. E. E. E. E. E. E. E. E. E. E. E. E. E. E. E. E. E. E. y> %> ck E. E. E. E. E. E. E. E. E. E. E. E. E. E. E. E. E. E. E. E. E. E. E. E. E. E. E. E. E. E. E. E. E. E. E. E. z> 3( E. E. E. E. E.  4 V$ m& 7@ `k <n `] a_ [n }n |n 1n 2n 3n 4n 5n 6n 7n 8n 9n 0n an bn cn v] -( dn en bm E. E. E. E. 4* 4* y' t* W$ != W# {% 1> fn gn Dj 5# hn in jn D9 kn ln mn ]$ ]~ Y+ o= ",
"G- wh >8 1b j{ 4^ D. E- E. E. E. E. E. E. E. E. E. E. E. E. E. E. E. E. E. E. E. E. E. E. E. E. E. E. E. E. E. E. E. E. E. E. E. E. E. E. E. E. E. E. E. E. E. E. E. E. E. E. E. y> E. E. E. E. E. E- E- ck P4 E- E- #e E. E. E. E. E. E. E. E. E. E. E. E. E. E. E. E. D. %> z> 6* g& 6* %> %> nn %> %> on g& `a g& K# pn D- g& D. E. E. E. E. E. E. E. E. E. E. E. E. E. E. E. E. E. E. E. E. E. E. E. E. E. E. E. E. E. P4 qn qn Um rn y> #e E. y> E. E. E. E. E. E. E. E. E. E. E. E. E. E. E. E. E. E. E. E. E. E. E. E. y> #e #e #e #e P4 #e #e E- P4 Um #e #e #e y> y> E. y> E. E. E. y> E. E. E. E. E. E. E. E. E. E. E. E. E. E. E. E. E. E. E. E. E. E. E. E. E. E. E. E. E. E. E. E. E. E. E. P4 ~m P4 E. E. E. E. E. E. E. E. E. E. E. E. Sm Sm E. E. Sm #e #e E. y> #e E. E. E. E. E. E. E. E. E. E. E. E- 3( E- 5* %> E. E. E. E. E. i{ ;- W' P= m  sn T= 2@ tn un vn wn xn yn zn An Bn Cn Dn En Fn Gn Hn In Jn Kn Ln Mn Nn E. #e E. 3( z> 4^ y' t* W$ != %^ p> 1> nb On Pn )& Qn Rn Sn Tn Un Vn Wn y7 Xn M+ D@ ",
"z> D- z> z> E- 3( E. E. E. E. E. E. E. E. E. E. E. E. E. E. E. E. E. E. E. E. E. E. E. E. E. E. E. E. E. E. E. E. E. E. E. E. E. E. E. E. E. E. E. E. E. E. E. E. E. E. E. E. E. E. E. E. E. E. E. E. E. #e #e #e E. E. E. E. E. E. E. E. E. E. E. E. E. E. E. E. E. E. E. E. E. D. D. E- E- nn Tm z> pn Ml F- F- z> z> D. E. E. E. E. E. E. E. E. E. E. E. E. E. E. E. E. E. E. E. E. E. E. E. E. E. E. E. E. E. E. E. E. E. E. y> y> Um y> E. E. E. E. E. E. E. E. E. E. E. E. E. E. E. E. E. E. E. E. E. E. E. E. E. E. E. E. y> y> y> y> y> y> y> y> y> y> y> y> E. E. E. E. E. E. E. E. E. E. E. E. E. E. E. E. E. E. E. E. E. E. E. E. E. E. E. E. E. E. E. E. E. E. E. E. E. E. E. E. E. E. E. E. E. E- %> ck %> E- Sm E. E. E. E. E. E. E. E. E. E. Sm Sm Sm #e #e y> E. y> E. E. E. E. E. E. E. E. E. E. E. y> y> y> E- 3( E. E. E. E. E. 1* U. l3 P= u: Yn l  Zn `n  o .o +o @o #o $o %o &o *o =o -o ;o >o ,o 'o )o !o ~o {o z' E. E. E. E. z> z> y' t* 1b != .> 08 |~ ]o ^o ^o /o (o _o jn :o Un Vn <o d@ nk [o 8~ ",
"4* 4* E- 4* ck ~m P4 #e E. E. E. E. E. E. E. y> E. E. E. E. E. y> E. #e E. E. E. y> E. E. E. #e y> E- E. y> E. E. E. E. E. E. E. E. E. E. E. E. E. E. E. E. E. E. E. E. E. E. E. y> E. y> E. #e y> P4 }o |o bm 1o ck #e E. E. E. E. E. E. E. y> E. E. E. E. E. E. E. E. E. E. E. E. Sm #e #e E- E- E- nn %> on 6* %> 3( E. E. E. E. E. E. E. E. E. #e Um ck Vm Vm Um Um Um Um Um Um Um qn qn qn Um Um y> y> y> Um Um @m 2o 3o 4o 5o y> y> #e E- #e P4 #e #e E. E. E. y> y> y> y> y> E. E. E. E. E. E. E. E. E. E. E. E. y> y> E. E. y> #e E. #e y> Um P4 Um y> Um Um Um Um Um Um Um Um Um Um Um Um #e y> y> E. E. E. E. E. E. y> y> E. y> E. E. E. E. E. E. E. E. E. E. E. E. E. E. E. y> E. E. y> y> y> Um Vm 6o Vm Vm ck P4 P4 P4 P4 ck Vm ck Vm Vm ck Vm 7o Vm Al Al Al Al 8o 8o 8o Al Al 9o Al Al 0o 0o ao ao bo co do Vm P4 3( E. E. E. E. E. v* l! @! z@ 9& eo x; fo go ho io jo ko lo mo no oo po qo ro so to uo vo wo xo yo zo 5o E. #e E. 3( z> D- G- !; `  )0 #* ]/ ob k> Ao Bo ~n Co Do Og Eo Fo Go c$ S+ Ho Io #& ",
"g= l7 _* l7 95 Jo `/ Ko Lo Mo No Oo C' Po Qo Ro So To Uo Vo Wo Xo Yo f= Zo `o ~m E- P4 =d j4 So m7 Z% D+ x$ V: ~; j{ 5* E- z> E. y> y>  p .p O0 +p 'n @p @p #p $p %p &p *p =p -p ;p >p ,p 'p )p )p &# $7 k+ h$ 0^ t] !p ~p x/ E. ck Wo {p ]p ^p /p (p _p :p <p [p }p |p 1p 2p 3p 4p 5p 6p 7p 8p 8p J( 9p h_ h_ S= @= w. 0p |b ap *g =d z' Vo bp cp n) dp +p ep fp gp hp ip ip fp jp ){ kp lp mp U/ np {< op 5- {< pp Ui qp rp sp -| g6 Md tp i7 +! Z% tp j8 9* j8 8* g6 pc up vp wp wp Cc pc *@ *@ xp xp yp yp zp Ap Qo w+ w+ M* V: i{ Q4 L* *@ xp Bp Cp Dp Ep Fp Gp Hp Q[ Ip Q[ Hp Ip Q[ Jp r_ Kp Lp Mp Np Op Pp Qp wp  p Rp Sp ~6 Tp Up Vp E- E. E. E. E. E. E. E. E. E. E. E. E. E. E. E. C' Wp Xp Xp Yp Zp `p  q .q +q @q #q $q ]< %q %q &q *q *q Q[ =q =q -q ;q >q ,q 'q )q !q ~q !q {q ]q ]q ^q /q (q _q :q <q [q z_ s_ }q |q 1q wp 2q 3q 4q 5q 6q j% [$ T& 7q 8q ~> 9q 0q aq bq cq dq eq fq gq hq iq jq kq lq mq nq m: e- oq pq 5o E. E. E. E. D. K# >8 x9 !b ;  U= +* :  k> Ao Ao ~n qq rq sq tq uq vq Nd wq xq yq [2 ",
"M| i} :4 :4 -3 2+ <$ zq ip Aq )> A_ O0 1) R% Bq Kb Y% Cq Xo Dq ,9 @' Eq e. ), Fq z' =d v, 08 #^ E  __ D_ H. v} ;- oc h' Z- Z- }0 Md C' u7 Gq (d Hq L; =. L; c$ [# Iq Jq zq Kq Lq ]' 5+ dd 2; E' v! !* Mq Nq Oq Pq Qq Rq d) Fq E- Sq &p Tq Uq Vq Wq Xq Yq Zq `q  r .r +r @r #r $r %r &r *r =r -r Iq ;r >r ,r 'r 'r 9% R; T= r. -_ -( v. )r !r 1) 5| h$ N+ 5% *; ~r -r 7( /d wa d$ {r B= ]r ^r /r (r _r F= _r :r <r [r }r |r 1r 2r 3r 4r 5r 6r !! `| `@ :* 7_ 2b 99 2b h) C_ 1; 7r 8r #! r+ S= V  p+ ,- p+ p+ t) p+ D) t) >  h@ @& V2 => `6 |1 He }, g} /> k) 9r 0r ar br cr dr er fr gr hr ir q- jr &^ kr lr Kn u7 mr 3< nr 8< or pr /d qr !6 3_ D. D. E- Ml D. E- E. E. E. E. E. E. E. E. %> 95 r# rr sr tr ur D= A= vr 5# s~ I, wr xr yr zr Ar Ar zr zr Br wr I, Cr Dr Dr Er Fr Gr ~. ~. ~. Gr Hr Ir z= A= Jr E; x= )& Kr Lr Y= K4 f& ,a h9 n) Mr !% 6q 7, Nr Or Pr Qr Rr Sr Tr Ur Vr Wr Xr Yr Zr `r  s .s +s @s #s $s %s H+ i  &s *s =s -s P4 y> P4 4* >8 5_ &- w, #= E  d1 $! ;s >d e+ !& >s |l ,s 's )s !s G6 @j xq o= ~s ",
"4j 9~ G# n+ `$ 12 {s ]s ^s /s le  * 1> 2+ +3 Z= (s _s <> V~ :s W@ <s [s }s #* a2 1b !; d6 #^ H< cg 9f |s 1s L. )( M> 8| |4 $~ )3 2s Wo >< H& h# 3s 4s 5s 4s 6s 7s 8s 9s /! 0s as bs ;_ j+ {! cs ds 7| es fs gs hs is js J2 ,' g& 3_ ks b; ls 86 ms l) ns l> os ps qs rs %r ss ts 9+ p6 us vs ws xs ys ys zs 4. 4. .$ As <; x~ L7 _s h_ Bs He (; C  C& Q@ Cs Ds Es Fs Es Gs d+ Hs `1 Is Js Ks Ls Ms Ns Ms Os Ps Ps Qs Rs Ss Ts Us Vs Ws q7 <0 $* 51 l} Xs &* I  n% n% I/ s+ q+ <~ f= T  s+ <& '5 v& n$ '5 ], *6 r& m$ ], r& @< Q* $[ Ys 25 d> V, W: {% k' d$ 0# w# C= '. C= ]& Zs Zs `s c$ f+  t 1/  * u, B_ ;< }, `~ [{ .t q] 2/ +t @t #t jr 85 E- %> 3( 4* E. E. E. E. E. E. E. E. E. E- ck Cp 64 G= $t %t &t *t =t -t ;t >t ,t 't )t )t !t !t !t !t !t ~t {t ]t ^t -t /t /t ^r (t _t _t _t :t :t /t -t <t [t }t |t 1t Hr 2t xa j$ 3t 4t l( x* Q  !% 5t Q< 6t 7t 8t 9t 0t at bt ct dt et ft gt ht it jt kt lt mt nt ot D/ (# .@ B_ pt qt X$ z' P4 X$ j{ 3{ r; 6! 6! l% n$ Jg rt st tt #$ 0# ut vt ,s wt xt yt yb zt At Zk 6@ ",
"{e O& }= e, 8h =1 A1 u~ Bt }| Ct Dt `] Et x; Ft Gt 8& C/ t! :s G  Ht It Jt -{ ~# W$ Dc e8 p} Kt J[ Lt cd gl '/ E{ j6 )3 n^ 0= Z  `6 Mt 'n Nt Ot Pt Pt |a Qt Pt Rt 5s St ]q Tt Ut Vt g~ ;_ 2, Wt cs |] Xt fs Yt Zt `t  u H< .u ,7 -> +u R@ As && mn 5& @u s# Lr #u $u d= %u q. %r &u tt *u =u g# -u ;u >u 3. ,u 'u .$ )u h+ !u %. o$ M= q$ !' 3' s@ 1= ~5 8+ G& 'r ~u ~u {u ]u ^u s= a# /u (u _u :u <u [u }u |u 1u 2u 3u 4u 5u 6u  $ }> 7u %# p> [4 !p I4 &3 ;( i@ S# f@ I( @= x* .( 8u M= J+ m_ b% n  b% 3% t) S* D) m$ v~ 8} Q* L5 25 |0 e> h{ U, $_ p| (' 9u #t ). '. D= ). H; H; 0u -. =. au bu N[ j> w( `~ w( :+ |{ cu N[ du eu fu gu hu iu 8o ju ku Al y> E. E. E. E. E. E. y> -s Vm ao lu mu @t nu ou pu qu ru su ;t tu >t ,t uu {t {t vu ~t wu ~t {t {t ^t xu eu /t /t (t yu wu _t yu :t zu Au >t pu Bu Cu Du Eu Fu Gu M, j$ {! q+ {! @@ $@ y$ ]g 3) Hu Iu Ju Ku Lu Mu Nu Ou Pu Qu Ru Su Tu Uu Vu Wu Xu Yu Zu `u +@ J. r% w( g2  v .v M* !b  4  4 z4 B- B- r; O. L  c/ Et +v @v #v 0# $v  j %v ,s &v Od )$ zt At Zk Zk ",
"Lc t@ 9& c/ 8< `] [c *v =v -v ;v >v R2 |^ t: ,v N, 5+ [~ M= ;( ~* Q) Y{ ]) m$ )' ;, g= g- ;' x4 [0 `, s1 K( k/ )h Te 15 Y- )= C$ !e Z$ ;! +v 'v |. |a |a )v Pt !v ~v {v ]v ^v /v (v #_ 0& -( U  08 f% _v :v <v [v }v |v Y' $- A> i= 8@ g) 0+ 1v 2v V0 3v 4v Y0 5v 6v 7v 8v q- N3 Y0 K; `* 9v 0v av bv cv dv ev ev fv {- gv _' B# ~5 I0 K4 Jg 1= a{ hv iv jv P, kv ls ^u va ls  t ;* 5# lv mv ]t !t nv ov pv qv rv sv Qt tv uv 3s vv wv xv X% [[ *( ]s yv m~ |~ ;( l( x. E$ |, zv .( w. }$ %_ J+ d, p, ,> t) J+ ,{ V  v] [2 Av o%  h j6 >a h' @- $( |> y~  t n; Bv Bo B= 0u 0# 9# 0# Cv -. Dv Z] 1^ |/ |- |- I+ <~ X< =@ o: Vb Ev ]& ,& Fv Gv Hv Iv q_ Jv Kv E. y> E. E. E. E. E. P4 Lv Mv Nv ~q Ov Pv Qv =t Rv Sv Tv Rv -t D; C; ^t (t Uv Vv yu Wv {t {t uu uu Xv Yv Zv /r Wv `v ;&  w .w Vv /u zu B; >t qu +w @w +w #w $w %w d{ s@ l( x. `; cf D+ h' q) a' &w *w =w -w ;w >w ,w 'w 'w )w !w ~w {w ]w ^w /w (w _w :w ,q j% <w h@ g- zp .v [w f> i' p) :^ @k i' |* _^ O. /, na %(  t Z! @v ,& }w 0a |w 1w 2w yt Vi 3w nk v& y4 ",
"P/ z  L& j+ 1> K0 [c 4w 5w 6w 7w 8w 9w ^3 #_ 1/ w1 0w u. aw |2 ;3 n} @' _% n$ q+ q+ :> :# x  K@ n( Q# o, =~ $~ '3 )b s; s; Wm U@ _> ]+ hv Q, l0 |a Pt bw ~v Qt cw dw  w ew Jm A) Ov 3& Z| >! (> `= fw gw hw iw jw kw lw -] w' Xb p! J  {+ Ui =1 ma :' m> mw E= M7 nw ow pw qw rw Zs }. sw tw *+ uw vw bv ww xw yw zw Aw L8 Bw v5 Es Cw $  T% e+ [# -. Dw du Ew du Fw c= Gw Hw Hw Iw Jw Kw ~t Lw w< :c Mw Nw Ow Pw o8 'a Qw Rw Sw Tw *8 *8 Uw Vw St _. /. Ww y~ 6| 8p I( _  f- v. `~ R| ]! ]! V  D) w] $( ,- [e v1 ;_ t. Xw Hf R> s- Yw P] Zw `; -( =1 `w  x .x +x @x qw pw 9# [. B= ]& )$ #x kv $x %x sf 9^ ,> G_ 9/ 3, .( p; 6/ &x *x =x o] fr r= Jq =( -x E. E. E. E. E. E. E. 4q ,< v1 n> ;x [. >x xu <t &t Sv Sv ,x Xv 'x )x u= !x ~x !x !x :t {x ;t >t ]x ^x =0 /x (x _x :x [. D= <x uw [x eu u= }x |x 1x 2x 1x 3x 4x 5x 6x 4% I( I( W: +a 79 C+ }1 7x 8x 9x 0x ax bx cx dx ex fx gx hx ix jx kx lx mx nx Yu ox px [, 8) Z; g  zp qx <^ -) |4 +. := i& ^] Yb rx <~ e@ v1 sx /' fv L8 H, tx ux vx 1w wx xx C= yx zx ]e H  ",
"s  Ax Bx b) '- Cx c- Dx Ex (! Fx Gx nv Hx Ix K0 _< %3 _5 Mj Jx B. }= +c o$ v+ 1+ C  !, +e Gt t@ `; != D~ 6) )% '3 t- V: U: ~' y6 Ho Jx >m /d }# |a Pt |a Pt ~v ~v ~v /r Kx Lx $m Mx Nx 2@ Ox Px Qx  ; Rx Sx Tx Ux Vx Wx ha => 3{ ec  @ }/ Xx c' m: la Yx gr ^o <r c# Zx `x /r  y cw b# b# .y Is ~v (r +y Pv [x @y @t #y $y %y ,u zs &y &y *y ,u =y -y ;y Xa +x >y /. Hw ,y H; ]& Bo 8# Ir ~n 9u 'y o8 )y !y ~y {y ]y Tp ^y /y (y _y ., rr @v :y <y [y }y |y x& .* Q% x* }, ;<  { f1 [5 1$ 1+ (; U, ]! ]! Bc p< %$ mn 0m -* P@ 5@ ]) @* 1y v! R| R% 55 2y 3y 3^ '_ 7v m; n; 4y 5# A= 5y [r 6y 7y 8y 9y 0y ay r> s] J5 I+ by |{ Z& {< cy N1 9u '$ Ao =. g~ dy E. E. E. E. E. E. E. S  ]+ ~u ey f+ ur fy `x gy &t hy &t iy t= jy ky ky |  uw uw ly Qv my ny oy py qy ry os w: sy fr ty sr 6% uy 1. c# !x ou vy wy xy yy zy Ay By ua /, M= _# p$ )' t> @k ec Cy Dy Ey Fy Gy Hy Iy Jy Ky Ly My Ny Oy Py Qy Ry lt Sy Ty Uy Vy Wy J^ l% Wy Xy Yy Zy e~ 1] jl Rk N6 Z7 D+ k- p$ }' 1^ `y  z c# <y .z +z @z #z $z %z &z Bo *z =z F} ]| ",
"jc -z r  @] z@ }, T] q[ ;z >z ,z :u <l 'z )z !z ~z 4+ {z t5 Mj ]z N& '# p> U4 P. {e '~ u  ^z 4% @- )0 v} :2 v} '3 s; L* 5_ Z# /z (z $  _n A& G6 _z tw )v ~v :z dw Vv ly eu <z y) [z 64 }z |z 1z 2z 23 3z 4z 5z 6z gs 7z -< 8z A> f> h) p> S] 4< e1 V[ z; cr e7 *& <x tw 9z 0z C= ). az H; H; ). ;. <x bz =+ c# cz dz #y #y %y 3. ez ~$ fz gz J= J= }r hz iz 4v 4v o- ^- <o 7( ~r Hs jz s= R, ^u d! kz lz ~z *s mz nz oz Bp pz %p z3 qz rz sz /& Yv Gj tz uz 8v !6 7r }$ `~ Re [~ 2) g} [e {% w] J+ S= z@ '< B  $  L; vz wz 1v qd Qh |) xz 1) ed 2$ n+ yz k' 12 dn h+ o- 5/ zz Az Bz uw cv Cz Dz Ez Fz 0y jg r> r> 7  r+ `}  { 1> @q Gz ._ Hz Iz sr /d t, Jz y> y> E. E. E. y> y> q< a$ ;$ A& Kz Lz 0#  w Mz Nz Oz <t <t %t Pz ky Qz Qz :y cz cz $t &t Rz Sz Tz Uz Vz .6 Wz Xz Yz Zz c$ `z  A _&  , .A ^r +A @A #A $A %A }  &A c7 Y@ *A Af p$ )' t> )b ec =A -A ;A >A ,A 'A )A !A ~A {A ]A ^A /A (A _A :A <A [A }A |A 1A X< [> [> '0 9- qx .& 4] @2 s< x6 l* N> w' o) `+ 2A n> 3A Dw 4A  y 5A 6A 7A 8A 9A 0A aA 2/ bA cA A( z( ",
"B% ,% u+ n# O. ]% }$ |, P0 dA eA .w fA gA hA iA 5- /> jA kA O+ w  O& O& t^ M^ n$ F@ Pl lA 7< D) A@ o[ S$ ~2 o, ;- 6! i{ K# >- R) L$ mA nA Wn )$ |a Pt Pt ~v ~v ~v <y  y yu oA pA {v ]o y  u   ^ qA (@ rA ~u h4 !+ sA tA X^ uA Uh -, m& i  d  vA :5 ]  wA xA yA `s $$ zA 2/ d7 AA @: BA (' CA 2/ /d zA J; l0 DA tw =+ uw EA cv sz s8 FA GA HA IA JA lk O, aw k' s| e% a% M@ L$ L$ KA W7 LA nd 7$ +3 e, V  W: x* }; MA x* }; 69 NA |2 OA PA l0 )$ QA RA SA 9w `y le L+ J+ 9/ -| R| L+ U, i@ ,0 $( U, p> p+ K4 !* zb TA :& d/ @6 M& N& 4% .% %. Sb  % 9& /[ h. o+ %[  > UA t# O1 VA r~ Yv ww WA Dz XA u1 X( L: s] c% m( +@ 21 Jn YA &^ ]< ZA 4& $$ `A  B !u .B y> y> E. E. E. E. E. nz Ez +B @B #B $B %B &B *B =B -B *t =B %t Pz ;B >B cz cz EA >x ,B Oz 'B )B !B ~B er Y= }[ V% {B ]B jz ^B ;r Hs s, 0# >. ~x ~x 'x /B (B _B mA 53 :B U8 [> O. B+ _^ j= @k <B [B }B |B 1B 2B 3B 4B 5B 6B 7B 8B 9B 0B aB bB cB dB eB @} 2- =/ P< q3 1c a! fB gB 6< .k _} 1i t; N> 8^ k7 E$ f/ hB iB jB  y wu kB lB mB nB oB pB qB rB /) p  (_ =/ ",
"[& 7_ R* J% ^* 1c V, 09 f= D# k) H; sB tB uB vB wB xB cc 3r I# |' yB zB AB BB CB t  DB EB o> v+ $# 63 m% R$ :2 o& A> K# D. FB GB dd ,3 b; mn HB _z tw tw ~v ~v ~v cw  w IB JB KB LB MB yz ]+ 5% d7 NB OB 9< A1 j) :4 m_ Y6 D. E. '; Y- @@ }, 8: 89 @, 4  PB QB RB <; sa ,_ =* 0^ 0^ S@ f8 Wd |= >! f% E& {  F& *. _z 4A cz SB 0v TB 1v R@ ~, UB VB B  [' +| A% b} s- ]: N~ -{ t' N~ M~ 36 .# @| n( (% n, R* ~' Z# m# 99 ;~ ;~ }> |= WB ;7 XB C, YB ZB `B wr  C *  |=  > g} 2, &= J+ ;( )! f@ I5 i} I# /$ v3 +3 }z {z l; .C nA B  S| |= c+ pj +C i. A, b) _% +# H% V* 0& @C #C $C -t Ks bw %C _' &C D} P. =/ S# )] Z; 3; R  Q%  > *$ >_ *C s# BA =C Nx `& -C y> y> E. y> E. y> E. ;C D1 3& >C ,C 'C )C !C @t ~C {C -B -B ]C ^C >B /C /C /C >x xw [y Sv (C _C :C <C (B [C }C V% |C 1C 2C qr A; Yq >* rw =0 3C 4C 5C ]3 6C 7C &= n{ 8C 9C Z# Q# >- E+ E+ xc 0C aC bC cC dC eC fC gC hC iC jC kC lC mC nC oC fr pC qC y# @' rC sC tC R^ U$ 0! o^ .. 3] :} +2 t; Z[ m! a! |, 1^ uC vC wC xC yC zC AC BC CC DC Wv :$ Y/ `- |: (_ L: ",
"J) R# v} `2 0= `2 K' R~ EC 08 t.  t FC ,& GC HC IC JC +B }= ;( p> ef KC LC MC &{ a5 _s n$ k} V* /5 |: ga O= l% Z  K# D. E. `a bk NC '{ m) kv DA |a tw )v ~v ~v ~v )v OC PC QC RC SC TC k. UC VC WC XC YC ZC `C  D .D >> K# E. E. E. z> A- N= A/ m, +D @D #D +% $D f/ .= B_ g- |+ ]% 09 %D [> 6r 8@  # )! E  o+ w  d+ *& &D fy |# ^- T= 2, J+ 6] }/ w] 7  c% `, &< ,h *D Vg =D -D -D ', -D ;D h* ,) h* >D Wg ,/ %< h* Vg q( 0f )! =' >/ >9 +* -3 ,D %! 'D /o Cv Dv )D !D bs ~D |, -| M= x. I( }~ {D B& #2 Mj ]D S& %u l' ls va ^D i! r= Hq #x ^- [- N+ M[ _s uc {, t+ /D (D _D Jw mv /u (. :D <D [D }D 3% y. O) a. g{ *> Fq f= u  |D 1D 2D -8 jv 3D `w |~ Op y> E- E. E. E. y> E. 4q +p 4D gp 5D =v 6D 7D [x *B 8D _u ~C ]C t= 9D /C /C >x $t ]C Mz Tv 0D aD bD cD qw =$ M9 V% {B Xz dD eD '1 fD &x Bo Z1 fy r, gD #_ f& C/ `+  @ #= )0 ^* #= l! `% ]# wc Y_ hD iD jD kD lD mD nD oD pD qD rD sD tD uD Tx vD k@ os wD ,! xD yD zD K9 6) Ll 4{ AD 0: )/ +2 _= Z[ 0, a! <~ ,_ Ia BD {f CD DD ED FD GD HD ID JD KD o= bg v' 2% z( ",
".' /* )= Df R# ,) W' LD MD p> b; ua g+ ND OD :l PD QD %$ A~ f= {! 7+ RD u9 fz SD v1 S= @= `; o= +3 t^ a. q& A@ M6 z> E. E. 6* TD 68 UD VD WD )$ bw )v )v !v ~v ~v )v ). XD YD ZD `D  E .E +E @E #E $E %E &E *E =E -E S  K# E. E. E. E. 79 N= A/ :* ;E <v q@ p{ >E f8 Y5 f= A/ #- +] +[ %6 ,E 92 R~ 1c -~ Y  )! p# Qx =u &+ 'E )E Q, u. x( ^  i@ >  t) S# (_ N% Ef !E :_  ' I[ 7_ 82 2b ,, Y2 ~E _4 M# 2_ p1 g1 g1 Wg <|  ' h; J% {E  # ]E %* M^ [2 S| :$ ^E 7s EA Dw /E K1 i_ (E (E u3 !3 Cp _E :E sr |. >d ;s 6/ .r Lr CA =! 3v <E [E }E `. |E 1E 2E M[ /, {, ]* l$ ,# 3E 4E 0# 5E tw du 1/ %. a) jg s] n# )] )] 99 #- 75 H( 6E 7E |D v@ f% {D /} S| &= 8E y> ~m y> E. E. E- E. P4 Rp s_ 9E _8 t_ 0E Vi aE Zv bE cE Js ]C dE 9D /C $t ]C we ~C eE fE gE hE iE jE kE lE lE mE &u g+ nE ,n oE >* fr [  |# pE qE Wn y@ ), c~ /; 7  b. K' ^* [> X~ {# 6! 7! .v rE sE tE uE vE wE xE yE zE AE BE CE DE EE FE F; GE HE )_ n> o+ <g 9f ;a )0 y' h& 1* X- u5 a] J* &~ i& A- !e ,_ !- IE JE KE LE ME NE OE PE QE RE SE n+ TE cg 0} H  ",
"J  [> h8 Q# p( Q8 h; <0 UE &* e) k+ -!  z VE ww [x Bo  = -3 I( C@ fd WE XE 6s J& _y zq ~e w] j3 +3 ~* h) c, (  YE D. E. E. 6* ZE `E 4D  F ms }# |a )v )v <y ~v Pt .F !C +F RC @F #F $F %F &F *F =F -F ;F >F ,F 'F )F !F g& E. E. E. E. x$ 8, B+ ^* x- ~F {F `e a% e@ I5 E$ %= H4 h{ Z# 6r 1c 82 -~ `| 7= .> o( ]F Q! ^F /F /F !  .^  > D) >  m_ m_ q> X  n# Q~ v/ Ce t% n# y. C@ G( H( p( p( p( 2_ (F _F K( 2_ g1 ,/ q3 i~ ,, *| :F #* M~ 8= s- q> Y%  *  B <F -y [F }F |F 1F 2F i_ %s ;q 3F _q y: R, A& AA $+ T= 4F lE 5F -* a{ ta n- Y] B8 6F 3y /> -@ /, o/ V@ @* J0 7F n> 5& c$ ;r 8F vi t^ v~ W# p% n# h; D_ n, V, (* `@ rb 9F 0F aF !* 05 }> (; T  C' y> P4 E- P4 E. E. D. 3( Ap u, (8 +p &^ 8v ^o vw bF bE _u cF ^C nu dE %t ]C we dF eF eE ,x fF gF hF iF jF kF lc 9+ lF o| mF j] ly .w ]& yA 1v #b _s T* {+  c 8@ Y  Z; R# != K' K' e> !b 0! 7! (^ nF oF pF qF rF sF tF uF vF wF xF yF zF AF BF CF DF EF FF GF 5| F$ r& ]; .! D. D. '; p* k* +2 l* V$ V2 a! g- v1 Ia HF IF JF KF LF MF NF OF PF QF ~- aw jc RF 'b Av ",
"I  G~ !! I/ V= V) n% Z@ wf Qb SF 62 =7 TF 9s @: Gw lF {5 9& H2 48 df UF VF G9 zA c= Ev hv a{ WF ;7 e& s+ P  U< Gb E. E. E. XF YF <9 3E ,1 ms tt ZF `F Qt dw !v ~v  w xC  G .G +G @G #G $G %G &G *G =G -G ;G >G ,G 'G )G gg !G H- H- t* V2 k% %6 ~G O~ me Q) t^ /, v+ v+ 08 += f@ S* G~ `| `@ A+ 7_ n, A+ D_ pb Fa J4 5@ +e b+ 3d ~, +| p+ t) X  X  q> *' W# @l {G ]G p% h{ h@ D) z@ H( R* 2_ M# 2_ N# 2_ K( K( 9= P* r% q% (% G~ *' {, ^G 36 $4 m_ Z+ :  R; #x /G (G _G 4w Zp /! v7 :G A: <G [G }G RB |G TF M, Wd I0 k+ lc lc )* r. b; B# 2@ '! Sb f8 e, l, (b G  4= T@ >/ I} 1G C0 N+ +3 ;' D  n( L% V= I/ !# !# O) <, 2b I  U@ 81 _s r7 2G 3t Af I( ks 3G y> P4 Um E- E. P4 D. ]b Q% S@ Y= @+ 4G J& |. vw bF Y1 _u cF nu ou Rv <t 5G Sv 6G 7G 8G 9G 0G aG p. 6v ~5 ~* d) ~0 {5 pC bG ;& Fj cG xw dG &h D+ F+ |$ <+ k% R# Y, [> 5; U$ T$ J^ U. `% 6! {# *- O0 eG fG gG hG iG jG kG lG mG nG oG pG qG rG sG tG uG vG C: jp -|  c d6 4* D. h& ';  ] k* wG J* L> 9; Y7 g- 0^ b{ xG yG zG AG BG CG DG EG FG GG HG IG JG ,  )2 1: ",
"3% #* n% 3% n% p% n% Z@ !! G4 >e KG ,3 L/ a& >_ z; y3 N+ Lb $# %# w~ LG ^B MG ;. |  ;. {- _' ^D n- ]+ +| x} NG OG E. E. E. `a PG QG *^ 3A iz #$ RG tw Pt tv SG Qt TG UG  G VG WG XG YG ZG `G  H .H +H @H #H $H %H &H *H -> =H -H Y# )3 0= Wm 35 ;H `2 Y  f@ /; t+ m$ ], k( 6] ,- 08 ;~ G~ n, 99 :* m, m# ~' W' !: ]; G( J) .' ~% >  7  J5 0) ** 7  n% )] y. 2% c8 'b O. 2~ I+ Hb S] R] R* i* i* N# N# 6^ N# +- +- S2 m% )] 3% t+ f] X  G4 I[ wf y. o= na Wz k> t| >H $3 T/ #q Dt &x [. Jr xC !C ,H 'H Y= c) }= j$ s@ ,3 X= (, o> 4% X= I0 e@ ~* d; o> V* f} (b ^G V@ V@ o$ J0 >/ 4% v+ E  $* %*  ' p% pb D_ Y  Y  A+ !# !# Z@ {* m} U4 {* s+ !0 *A 89 )H 6* E. y> E. E- E- %> E-  9 H( }4 T| ++ _' `. -y @y !H 8D {C {C gy ~H pu pu {H 8G ]H 8G ^H /H (H _H :H -( S* S# _~ U4 05 4+ Yx {& <H [H }H  B G| Xb L- |* [+ *> |@ v; m& +[ U$ T$ ~= e> `% `% s* w, O0 |H 1H 2H 3H 4H 'B 5H 6H 7H 8H 9H 0H aH bH cH dH eH fH Ow gH `~ !e hH 4* D. D. n[ `[ <} J* l* L> i& }1 7: `$ g~ e5 iH jH kH lH mH nH oH pH qH rH sH tH uH vH <4 ",
"*' #* l$ G4 )! V) .> G4 wH 36 >e m} 2G xH a7 yH a& |2 xa M& v+ zH dd AH BH tt Bw CH 4A DH Z| EH m+ xa Io $_ FH !m E. E. E. Vo GH HH IH JH &0 z! HB [r 9v <r 5s <r Pt KH LH MH NH IF OH PH QH RH SH TH UH VH WH XH YH ZH ,' `H ;- /4  I o& l! -H j6 g9 _4 G~ ;~ $# +c N| o  4% dd 05 W  U4 ;~ K  J  <, 8@ n, >, Q* Z; 7_ Y, h) 89 [& d, S# h) ]; d, X  ga _~ y+ y+ P  |@ m7 h  i  L+ r+ !: h* _2 _2 N# 6^ _F N# +- s& .@ h; z( m$ S* `@ ~! 7_ `@ !# '5 Y/ -# .I wD 1^ !u T/ +I @I Ev C= #I /u ~v $I q. %I e) e@ l, {+ _- >9 _- T9 d; V4 &I _- _- ;/ V* V* ~* X@ F% >e [| *I ;/ m} .3 +* )# G4 Z@ I/ V= pb pb Y  Y  !! (% ;~ $* L^ W) .3 .3 =I -I W8 `@ >' ;I E. #e y> y> E. P4 ~m .- Xs H5 %8 g% -* >I ,I 'I Ls )I )I !I !H _u -B ~I {I RE ]I ^I /I (I ~v @C K6 2' Y; n, h) `@ J+ 4' u~ Kz /& _I :I Q@ %= `% `% |* X& g= -- R# m& +] +] R# K' Z  `% V: W$ Y_ [~ <I [I }I |I 1I 2I 3I 4I 5I 6I 7I 8I 9I 0I aI bI cI dI eI fI gI G( +a ]b D. 3( n[ oc .: J* n^ L> ;- f> @@ Wd M, hI ll iI jI kI lI mI nI oI pI qI rI sI tI c1 ~< ",
"*' *' *' *' *' *' n( %^ ]E ;{ :B uI vI wI xI /8 n} a% ]0 yI 61 zI U4 ;3 &{ AI ;$ `z 6y {  f. o{ E  |] 'b {^ BI y> E. D. E. CI DI EI FI GI HI Hz II JI Y* s0 3s 3s KI LI Xa MI NI bG OI PI QI RI SI TI UI VI WI XI YI ZI 8^ o, o! 8| Y# i- 8^ Y# I1 L' Y; .> E  ;; D@ j$ |) s@ I0 ]  X_ F$ )# t+ f@ I  K  !# o% I< 1% Q$ O) O) [& Q$ r] P= m, C_ C@ v~ s$ &9 A@ #@ ]] g> gc [+ I+ %_ +/ ~' d~ L. L. L. N# N# `) s& R= s& r% Pj b% =I G( wf Y  `| !# *' $# j( Jg 5$ 8h 2- `] A_ jp x& `I  a )$ 2/ V0 T= C  :# f} f_ 4% T@ ;/ d; ;/ ;/ T9 ;9 ;/ ;9 [| V* T@ T@ L  4= >e m} o{ o$ '# '# W  p> w] l$ S# G~ !! Y  O) !# !# !# S# k} )# @* W  9@ 51  # G( `; C/ 6* E. E. E. Um Vo 85 Bf v, Xs E1 /$ B  ,v  J .J +J @J #J $J 'I EA uy *& &+ [x %J ,I &J *J =J zA -J J+ A+ 99 99 !: Z; J  C@ g} _5 ;J ~u )u Kb x* F+ r; YE 5q o7 $@ }@ T$ }@ <= ;  ~= e> {# {# Ll z4 d  ]s >J ,J 'J <t Nz )J !J ~J {J ]J ^J /J (J _J @F :J HI <J Re p$ ~! 09  9 E. D. n[ .. J* F_ L> X- 0, f> f{ M+ [J -# o- fy )t }J |J 1J 2J 3J 4J v^ 5J 6J 7J 8J 9J ",
"#* *' *' 9@ *' *' %^ L^ ;{ 36 .# ;{ 0J aJ aJ :B %4 ;e ^G uc $^ &' N~ bJ cJ dJ =; eJ %{ fJ 59 gJ R^ hJ [> >> do y> E. iJ jJ kJ lJ mJ nJ oJ pJ qJ rJ sJ b$ tJ K= *. I7 5% n- )* j2 d) uJ vJ wJ xJ yJ zJ AJ BJ SI CJ DJ EJ /* Z^ D_ ,) FJ h* !: 7_ =D Q8 Nb GJ D  +# Ge f} i} T* |= 9& e@ T@ 05 %[ Mb W  s+ /;  ' W*  ' D_ R* /% ^% r% h; A+ m, ]; S* M| P$ HJ P= U$ }1 d> E+ x$ G+ I+ h% l& l& L. n= (# `) N# N# /% y+ ^% 5< r> l$ ]/ IJ L^ L^ ]* #* {, m} L  T@ T@ [' w~ D# JJ KJ w& d$ LJ ^u  2 .6 h$ 6+ t3 -' +c ;9 d; T@ d; T@ T@ T@ ;9 T@ V* 4= ;9 @7 3= X@ ~* T@ >e '# o> T* Wd na I) B( Z+ f@ G~ Y  /; !# !# !# I  I  m_ )# J0 =' .3 2G k$ `@ ~! MJ z' E. y> y> Vp Dq 1, ]! ,{ Ie !5 e& 12 NJ @$ OJ PJ QJ RJ SJ ZF TJ UJ VJ WJ }) XJ SD F& 9% M8 |2 xz 1- Yw g* :2 ^* ~' ~' 99 C@ i} b) n+ e, Z+ C$ s' $@ !4 o7 x+ ;, 5; ~= }@ D~ K' }@ e> V: x9 3{ `% -| z1 YJ ZJ `J l] D;  K Bu .K +K @K #K $K %K &K *K er Ew [b xz A+ Z@ ', Dc D. G{ K# O> L# n^ L> X- L> f> f{ d. s| f/ B8 =K -K ;K >K ,K 'K )K !K KH ~K {K ]K ^K /K ",
"*' *' k} *' *' #* *' #* L^ $* .# .# .# ;{ (K ;{ %^ _K Q^ M% M% :K $' j[ <K &] ~: -] -< [K }K J] |K 1K 2K ~; -s iJ E. 3K 4K 5K 6K 7K 8K 9K 0K aK bK cK dK eK fK Px 3d >! 9y o$ gK O~ hK iK jK kK lK mK nK oK pK qK rK sK #= @< c} L% O% &6 'b G  g_ c} t% t' v~ O  {, D  #& Lb Lb 9& f) o> i} o+ X_ <& C@ g{ R= h{ }@ U$ 0, 9; <} j* R* 99 b. m( q> ): `- B% 5< m! x, x, wc 3{ Yb 3; +@ P# +& n= L. L. L. N# i* R= R= 7@ y+ Y  k$ o{ +c r7 G  G  p} U@ ~b p} U@ L  T@ T@ }e tK [4 e{ ++ =$ n' uK J3 )* 9& |] 8& @7 T9 T@ T9 T@ T@ [| ;/ T@ [| vK T@ @7 V* 3= @7 /8 ;/ '# >/ }' B  sc 9J z~ wK @  U, s+ Y  a. /; !# !# _~ I  l$ 9@ W= =' @* 2G 2' ), n{ C/ 6* E. E. Um xK 6] |= 0~ [' :> T9 %[ .* m> 5s rH yK zK AK BK z& CK |) Nb $^ U= {, O  ^, F  D@ l$ _* ;4 a6 l! 35 '3 A3 'h =~ =~ 8@ Y, Y, #= p& |@ |@ B+ +  m7 ;, D+ U. U$ k{ *~ }@ )% e> y2  4 3{ {# I( 3$ =^ DK EK FK 0z GK HK IK JK KK jk LK t8 MK NK OK PK !, s+ A+ n% 8@ 5_ D. G{ '; O> L# p^  }    u& f> T$ d. >h f/ T% QK RK SK TK UK VK WK u| XK YK ZK `K  L .L ",
"*' #* *' *' #* $* #* L^ #* $4 0J 0J L^ 36 36 @| :B :B W^ N~ N~ L] s( ]: +L @L g_ V^ g_ #L $L %L &L *L >8 2* =L -L iJ ;L >L ,L 'L )L !L ~L {L ]L ^L /L MB 5l (L _L Rb Qh u1 o{ :L s/ }/ <L [L }L |L 1L 2L 3L 4L 5L 6L 7L h% ag dj A( Ef [0 a1 o_ +# A0 s- #* q> {, {, ^, t^ +: y@  > f) !* *7 z{  - @* .' P  g{ #= '= Z- 7! A> L- ec O= S# P= >  n$ ;' R> ;' _~ 5; ^] )b %- 7{ _^ Q< +@ P# W' P# n= j& n= H. s& O= X, U; h) [& &* U@ M^ G% 8L ;e p} L  4= [| [| r7 X@ ;9 ^; U  U  7F 4$ 0w 9L 0L -J 12 I0 f) T9 ;/ _- ,3 T9 d; ;/ ;/ T@ T@ vK vK T@ @7 V* T@ >9 aL =' ;/ o> T* +3 bL cL j) W< B( D) _~ Y  Y  a. (% )] )] K  n{ &* @* '# '# 9@ dL ), s+ C/ 6* E. E. Um eL :> R@ |= [' W= _- Ie ep fL gL hL (I iL jL kL lL 2@ v~ mL nL oL +> +>  ' V= n% m, 75 2s `6 Y- I1 X- 8| '3 A3 $~ =~ [@ )0 D~ <= != ~= +] 6  +  .  A- Z  )= )= '3 <= 0= e> {# 3{ F. {# r+ 0^ >v -^ pL /x qL rL sL tL uL vL wL xL yL ]i (@ zL AL BL m_ G~ X  99 }0 D. D- '; O> L# n^ i& 9, i; d> J^ {e CL v1 T% QK DL Xi EL FL GL HL UG IL %! JL KL LL ML ",
"*' *' *' 9@ *' #* #* L^ #* L^ Qb L^ L^ L^ vI :B W) :B N~ N~ N~ N~ O~ L] L] gJ NL _g G] s( p/ mL %D OL *3 PL iJ iJ jJ ;L QL RL SL TL UL VL WL XL YL ZL 2y `L  M .M Y{ P/ o# *' ^| +M -/ @M #M $M %M &M *M =M -M ;M >M ,M V& E} 'M C% {, jg E} {e ,% Ge D  D  ], H  O  H% D@ 7& C  c/ V* s7 )M 0F @' 9@ p$ h% O) A+ @@ h= B> n[ D- t- N) 'b r& ], u+ f. 4j P$ T. |@ ec w' )b 6! gc ;= l% =~ ^* v; W' n= l& R= 7@ m, O. @- m, [& s+ W= o{ 91 91 91 uI V@ >e T@ [| ]7 ~* F# T9 ,3 $7 ${ T= *C <E '_ <E !M ~M {M ]M I} W4 ^M >/ %[ _- _- _- vK ;/ T9 ;/ ;/ ;/ >/ _9 T9 %[ 4% s@ %. /M R& (M 2+ }5 Bc K+ S# Y  pb D_ a. a. !# `| n{ &* $# ~b @* 9@ l}  c K  He 5* E. y> Um xK (; Sb Wd %[ I5 05 ~e 'n hI _M :M <M [M }M %+ TA M& n% |M 1M oL 2M ,h Xd 8= N%  c Kc 3M (* e> p! 9, t& 8| X# 0= h* R= !: K{ ^* R# [= 5; *> +  2~ U. V2 <= *~ j- A3 A3 9, Xb y' h&  4 I+ :' ;v 4M !1 5M 4y 6M <z 7M 8M 9M 0M aM bM cM dM OA eM -; #* [& I/ 99 r; G{ S' ,; >) .: L#  } V$ u& f> [= _s I# >@ fM gM Pm hM o0 iM jM G8 kM lM mM nM oM pM qM ",
"*' *' *' 9@ *' #* #* L^ L^ L^ L^ $4 $4 $4 vI W) :B o/ N~ O~ N~ ]: ]: NL rM V^ g_ g_ sM U^ L] q( 2b )H tp 1q tM jJ jJ uM vM wM xM yM zM AM BM CM DM EM T= FM GM HM <s v< ,% %* IM p3 ^  JM KM LM MM NM OM PM QM RM SM TM UM p| VM Io |) /, 1& 7& N& O& t3 M  f. ;' H% +# -9 !5 e@ s@ O& }k WM A. N^ p> zf @- )! {* /; 6r Z- '; D- l! ag )~  6 ;' ;' Q) #< 4j P. O. V2 >- y$ w$ A- 8, b. ^* =~ @& W' l& R$ s& P  K  ), s+ _~ 3% m_ If If m} 61 uI >e /8 '6 @7 T@ +7 e) XM i$ 1G >3 g% ua l> [G dD YM ZM %0 `M  N ($ .N uK ]M {M {M $7 +N _- 4% T9 _- ;/ >/ +N S@ '! f, l+ .%  > -@ 2A Ui Y/ j( 6] J+ /; D_  ' !# (% S# )! #* {, ~b +c V* >9 2G }> ), ), bf 6* E. y> Um @N Y% :# f8 05 }e _- (; W[ zq #N $N %N &N *N t: -@ f@ g* =N A4 K| /: :_ -N :K N~ vI m} aL IJ V8 a6 u& #6 k{ '3 ka  ' 63 91 ]* #* K  *| 49 g= g= *> )= <= K' +[ j- A3 A3 9, Xb F. D. i{ ;N m~ >N ,N 'N )N !N ~N {N ]N ^N Mi /N fe |  (N St ^u {z J6 {* K  Z@ 99 C- z> S' z/ N> |4 .:  } u& ;- 9, [= -9 I# r. or >u _N hh :N <N [N }N |N 1N 2N 3N O+ 55 [o ",
"n% $* *' $* $* *' #* L^ L^ $4 L^ )# {* $4 $4 @| t' t' t' -{ O~ B[ B[ %| rM S^ A{ 59 4N z% 63 {* _# 5N 6N Po 7N iJ y> 8N 9N 0N aN bN cN dN eN fN gN hN :  kg iN jN kN *] A% Y  lN mN f& nN oN pN qN rN sN tN uN vN wN TM xN ]+ tc (m o  s@ 5  f) -' Qh /$ a% A[ M< F  yN F@ 9~ j$ m  zN AN `L *) G$ += C/ c~ $* ], r& S# *> *3 A> T$ u> 6( p# 4j /5 e. BN p# 'b  @ #@ i( *~ j- J| 7; l% [> n! l% v; ^* l% Q# c~ ;( F$ '5 ], |) o$ _- aL '6 *I [| [| /8 vK >9 T@ +7 e& a5 A# Aa Aa 6& l' }G ]} CN DN EN FN GN $u HN lF N4 ~M IN JN KN 7F _- dd %[ %[ %[ ^; %[ p| 3r LN +3 }= e, 5  [e 1+ 5  [2 k! p$ m# Y; a. )] (% ;~ #* ^, D@ i} G% ~* >9 i@ 2' C@ `@ Ti %> E. E. Um Ap 4' C  S| 6] U  I5 3' u7 !3 q_ A_ y_ Jb 4< ~4 B$ $@ Z- @[ ~G M# Xd -N Fa n/ V@ T@ d) p7 MN Kc +! u& )= #6 o& )0 n% Ge ,% Ge M| *' h{ (* q$ -- r$ 5; <= o, +[ j- U$ U$ 9, W$ F. D. j{ =@ q] NN ON PN IF QN RN SN TN UN VN WN XN YN ZN }F w: {D ~, -/ J  (% 99 .! D- n[ u} M> |4 |4  } V$ t& 8^ v$ ;' ej >@ Z]  A *u `N  O .O +O @O #O $O %O R. &O *O kh ",
"*' *' k} $* $* $* 9@ {* L^ X8 X8 X8 $4 .3 vI o/ t' uI :B GJ ]: uc p} p} =O Q/ -O P^ ;O Ig Q~ %^ %# ya >O q; ,O P4 -s 3K 'O )O !O ~O {O ]O ^O /O 3L (O y_ G% `- bJ F] Y@ o{ !! _O ,e )> :O <O [O }O |O 1O 2O 3O 4O 5O 6O 7O yz 8O #b i} o  v+ >9 r7 (- i. t  @# b} s- u$ 9O `b 8& V* -d 0O aO bO af cO dO 2' U@  - 7& i} K  Kc R~ n# TE <*  - ;' :@ eO N  g. s$ V; ~= <= }@ U$ 5) ;  l{ m# ^* l% [> ^* V, V, c~ m$ [2 j$ |) v+ J0 (, z# 2= Jc o} 81 81 fO vK >e l, |' F1 '! G1 Aa 8$ V0 C, gO O1 GE hO iO N} jO kO lO Tw d{ L} W| V| <' _- 7F dd 05 dd 05 %[ Sb N/ N/ (- T* f) 05 ]/ V  f_ N| t+ _# hc A+ n% U= v~ #* @* n$ F  +c M^ -' (, ]/ Xs ), K  mO 5* E. y> P4 Ap !p ${ .% '< nO }e W: oO pO cp qO qO 2{ w+ x> rO r; 14 sO tO ,e q3 @< 4N #^ D  ~b j, a~ If >' ~# U5 N. Wm r$ P% $^ <e  6 -9 i} )# `@ 09 <> 1- @! K' o! =~ A3 j- U$ A3 d> s* F. G{ u* =@ q] uO :q vO +5 wO xO yO zO AO BO CO DO >. EO FO }G Z| A, W  G~ )! A+ x$ D- '; A> X- $~ g9 9; ;- *~ j- p& 4j /$  > &$ #v v5 :I GO HO IO JO KO LO MO NO OO PO QO ",
"n( *' k} $* *' L^ #* L^ {* $4 X8 $4 $4 .3 W) o/ o/ -{ -{ ]: B[ S^ F  #^ S^ ]: G] RO g_ gJ P< Y  3t o$ j$ J+ s> D. h& 3( SO TO UO VO WO XO YO ZO `O  P {y .P Wt MJ 6r (; p+ ), *| <, `9 +P @P #P $P %P &P *P =P -P ;P >P 4> Lb tc L7 i} L< Z+ ,P 61 f; 9~ M  c} +> p( Z^ :i [0 t+ X  -{ 'P G^ )P !P '6 =' ~* ;' &4 t3 |] M^ E  ]* c} B% L  ]* W# =/ r& 1% n# .@ i% }@ <= 8; <= U$ 7; l% b. l% l{ l% m# [> hc m, '5 e, e@ {+ W  :> S@ ~5 B# 9$ D% e% H~ 7| >e .3 U@ j$ N& T* !5 -' 0~ 1= C! ~P C: {P ]P ^P /P Tq (P XB Uw _P _P {b W| {M 05 05 ^; ^; 05 J0 05 o> S@ n+ .2 :4 {+ 08 I( I( W  N| '5 f@ &* t+ A% M^ M^ +c ~* ~* l, l, f; 7| l, 2G ), K  G~ #- 6* E. E. P4 Ap 2, .% 2$ U  4' U  R| 69 C. p$ Ke U8 $@ `6 x> -> 14 .  U5 U5 U5 [> W# u$ H% m$ 2G e; a5 {7 3t U8 ]% 7_ :P W8 :P o{ f} 8& f_ F$ k$  # n{ k} S* K  W' o, =~ A3 ;- k{ A3 9, Xb F. G{ u* |+ :  <P [P }P |P 1P 2P 3P 4P 5P 6P 7P G8 8P 9P 0P Fs c& %8 W  ** l$ A+ `6 4^ K# 3{ 9, $~ g9 k{ ;- U$ V2 k% p# w   > 5% qE qE aP bP cP Ra dP eP fP gP hP iP )7 yN ",
"*' *' $* $* $* #* #* L^ L^ $4 $4 $4 $4 W) 61 o/ 91 B[ -{ B[ ]: ^G }] f9 NL M~ L% q( q( $' jP g; X8 Hf kP `b lP pn G{ G{ P4 mP nP oP pP qP rP sP tP uP vP wP 1o xP yP -| 1~ l} zP {% AP BP CP DP EP FP GP HP IP JP KP LP MP L7 NP M& e@ t] p> IJ ,P l, :# -9 W# _2  h Z2 +- ]; }$ g' ~% )! .> G] OP Ca @' {0 s7 N^ H~ d% G# f. B% E  f@ C@ `; 99 b. @- #= f{ [= }@ K5 ]= ~= }@ |@ J^ m# h{ @- @- m, n, ]; <, C@ L  T* 8& f_ K4 V4 {b XJ PP QP {  WJ +e I# ~* .3 ]* $# o{ H2 X8 U4 M| -_ 9L RP SP TP _H r- 4F UP L3 (P VP WP PK WB K} .e 05 ^; ^; K4 05 05 %[ .= 4% s@ e@ o> :> q+ D$ 9: 3' [2 o+ f_ /, ]  C  T* a~ S@ d) ${ e) e) a~ |' d) =' =I &* )! h- ^m E. #e Vm Ap xz .% F) .* ~e XP xz kr %# $# {, -~ sO YP Dc ZP `P ]% dO 69 So >' G4 Ge H% k}  Q .Q +Q od e) cO }> *I >9 aL 05 }' e) (, :> Y% 3' W= L  }] M^ U4 R* W' :2 A3  } k{ A3 9, Xb V- G{ >8 ]% ,# <P @Q O[ Gp #Q $Q %Q &Q sF *Q =Q -Q ;Q >Q ,Q 'Q I$ )Q @* ;( m_ Y  Z- g& j{ 1b 9, v} v} A3 t& <b '3 V, P) y  2& RB v4 qE !Q ~Q {Q ]Q ^Q /Q (Q ]z _Q :Q y% z0 ",
"n% *' k} $* $* #* L^ L^ L^ $4 U4 W) ]* W) W) GJ -{ 91 B[ O~ ]: E! ## E] NL .> Z^ $< R^ q( R^ wH )# >% .M <Q h= G{ G{ G{ 3( [Q }Q |Q 1Q YO 2Q 3Q 4Q 5Q 6Q 8o y> Vm -x u, Z/ 2, &= q] 7Q 8Q 9Q 0Q aQ bQ cQ dQ eQ fQ gQ hQ iQ &8 tc Bq >@ =1 B( H2 X8 %[ 2$ /, n( Wg (e s3 r< h- wo jQ kQ a> G( L% =e /z u  VJ u  /) *7 l4 7& g. 1& U@ f@ l( m{ ]; l% ;  ;  [= <= }@ 8; l3 ]= ;  }@ f{ @- m# l% m, h) `@ `@ <, .' o$ }' }' s@ dd =( ($ B8 TB lk 9% lQ 3r >h }] ]* t+ q> t+ l$ k$ 9@ ): na 9L mQ z: nQ YM h+ h2 *I oQ j, *{ H9 pQ qQ H0 rQ K4 =' J0 =' J0 v+ K4 .= 05 05 f_ |) ]/ zf q$ P] +u ], M^ ~* }' .% e) I0 :- S@ S@ ${ S@ F# d) g) -' o{ $* #* X  C$ ^m E. y> P4 sQ 1, 2$ -_ .* M/ tQ &3 7p W: r& s- f* >a z/ >8 1b +! M= == 8r pO P2 += u+ n$ 2' zH Z8 J$ Xn t  o> 05 e) T* !* f8 ,! m+ J3 ,# &3 !p ~b -' 7| -9 ]* H. =~ =~ |4 0, k{ A3 9, {# V- h& i{ ]% 6| r: j_ ~6 uQ vQ wQ xQ yQ zQ AQ BQ CQ DQ EQ FQ 0P GQ F| #* {! m_ !# a2 K# y' t*    L' 'h A3 t& A3 *~ p& A[ HQ W_ +v >d [# IQ JQ KQ LQ JK MQ NQ Pl Ne Kt |& y0 ",
"(% G4 l$ L^ L^ $* #* $4 U4 .3 $4 .3 W) W) W) 91 B[ B[ B[ ]: ]: -O @# 5( 4N M~ @> g[ (K -{ t' o/ J0 L9 OQ We bf pn D. D. 3( PQ QQ 3Q RQ SQ TQ UQ VQ WQ XQ YQ ZQ `Q  R /6 ~3 .R 4D +R @R #R $R %R FP &R *R QM =R -R ;R >R ,R /> 'R &8 -J {s 3+ X= ;/ 4% 4% T@ s- {| _F r3 m1 N= )R !R ~R {R *= 0J 5f ]R ^R /R (R V# P/ H5 ={ 9~ Lc _s )# ;( d, h@ o[ f{ ~= T$ T$ h} ~= ~= T$ n! 6; -= O. hc @@ hc _# H( _# ]% _R p> [' e@ o> 4% J3 ($ B8 :R lk <R [R qd e% @] '5 @* q> ]* t+ 9@ $4 ^, ]  :' z1 }R j9 ^D .6 f) >e |R 5= 6$ Ze t0 Oc {7 ,9 v+ @* J0 @* J0 =' v] R% 4% s@ o+ o> +* Af _* V~ ]% U4 j$ l, l, e@ I0 ${ :- {7 L/ :- S@ e) d) a~ j, V* {, D  v~ k% =| D. y> P4 bp &3 I0 F) 1R 2R 3R 4R 5R ;( ~b $^ N. FB K# y' ~; Z% M= ,< Dq 6R v! i@ u+ U@ ]/ If () +, 7R W7 C  o> S@ }= l+ l+ f, y@ l+ /D ~D 1~ o  d) e; L  3% i* =~ =~ A3 ;- k{ D~ 9, {# 1* D- PL 8R 6| '9 9R ,q 0R aR bR cR dR eR fR gR ut hR iR jR MG WB I2 p> ;( t+ f@ +! Nf >8 =4 9, o! v} Df '3 A3 k{ p& -a LN /> (' MG tt aP kR lR LQ mR MQ nR K/ |g H< +~ a} ",
"pb !# )! )# {* L^ 9@ $4 .3 .3 .3 m} W) m} .3 W) {, 91 W) 91 E  ;/ }' 8& ;/ $4 ;{ 36 ;{ W@ M  E1 -' D& v3 1& *> y/ z> g& 3* oR pR qR rR sR tR uR vR wR xR yR zR iD AR BR CR DR `y ER FR GR HR IR JR KR LR MR NR OR PR QR RR ,D SR )* &( @0 ~( T* '# W= 2G ]* (: Yg (F A4 4] `} TR UR VR WR U} 2' XR YR D] ZR ag :@ g.  - F  D  A% ], f@ x. J) g{ @& ~= ]= h} l3 l3 ~= ~= T$ -= ;  k% p$ H( %= %= x. q+ Ke _R T  Y% %[ ;/ 05 >/ V4 )* 3y 3r 3r B. s| I# {e F  ], U4 q> m$ t+ t+ )# {, '# 5$ :' ,_ wD c) f8 V* 91 B[ G  |] ~) q# a9 V4 :> o{ @* m} @* =' =' [e A~ -3 2$ .% .% t] i@ W: M= {! o$ o+ o+ [' w~ I0 w~ I0 I0 :- {7 S@ z# S@ d) a~ M^ D  B% r& J^ 4a 3( E- P4 sQ 1, F) F) `R  S o' F) ^; p> 9@ %* 1c 0* .u ;, P] C/ {! [4 2; 1; W: <& M^ M^ L  +c ^) H# .S ,] U@ k! w] U, U, 08 ~* !* T* K4 ]! *# [e V* >e *' !! P# S$ o, D~ 0, G. G. p! Xb 6{ D- Fb Jn V[ #q +S @} @S #S $S %S &S *S =S -S ;S >S ,S 'S )S ]3 4G (8 [~ S] }, 8* z> z> H- -, )% o! 0= t& k{ k{ v$ 5( 1g ]+ t| uy dM _; !S ~S LQ {S ]S W+ ^S O$ H< b} #, ",
"K% I[ g; ]* ]* 91 {, o{ @* '# '# *I *I *I m} .3 9@ .3 m} o{ v+ :> X% E# 7] #* L^ vI F% /S (S N$ -; 0$ Ea M^ U8 Ai Ai -> _S :S <S [S }S |S 1S 2S 3S 4S 5S 6S 7S 8S 9S 0S aS bS hv  = cS dS eS fS gS hS iS jS kS lS mS nS oS X/ pS  > c/ vH qS 8& L^ `; H( A+ >, rS lh sS +2 a' tS uS vS wS xS ~% yS O% S# ;~ /; _~ Y( Q$ ]; @- @- h% @@ 7: 7, f{ ~= ]= ]= l3 ~= ]= ]= T$ T$ ~= [= O. s+ 08 n{ += H2 ;/ J0 W= H2 dd V4 T9 05 K4 q' ed =1 .% S| :# #& Av r& ]* W# s- ]* {* #* U4 U4 U4 U4 K4 -( dd 9d o> ;/ ;/ 91 V@ 91 [| f_ V* T9 _- '# ~b o{ J0 m} m} J0 05 .= 9d -3 2$ X= 2$ c/ o> >/ 4% [' }' f) I0 w~ I0 I0 h2 {7 :- :- h, :- z# p7 g) j$ }] |: c} [>  4 4* ~m @m zS 1~ I0 r. %3 n' UJ VJ lc o> k} !! !! Y  7= I  $4 @* V* d; T@ J0 V* Y@ 71 ia ,] E] E] ic G  {, n% l% -- s' (} }; S* o  n$ t) m{ l( f@ k} 9@ ;~ ,, c: r< M. D~ &, G. '3 p! 7! x' S' i{ zv ~D AS BS SE m; CS *B ;g DS ES FS GS HS IS JS KS LS MS NS OS %p Kn oz 3G E. E. E. gg *~ o! 0= i- >- +[ != PS Eq ~5 Vd PB QS !  RS SS {S TS US VS 3d WS H< 4N |: ",
"Za !! !! $* o{ ^, V@ 91 *I ~b >e >e >e *I o/ IJ l} IJ U4 F$ 05 L= 1R XS YS I5 H2 U4 4= N^ ZS `e Gt qd I# @7 `S 9, O* d>  T .T +T @T #T $T %T &T *T =T -T ;T >T ,T 'T )T !T ~T M@ @, {T ]T ^T /T (T _T :T <T [T }T |T 1T 2T 3T 4T 0y k3 h/ y4 U= .@ +@ U< b. P# ,( @2 5T 3] 6T 7T 8T 9T 0T aT |- e* -D O=  @ C( C( q& .{ $= [= 7; -= -= 7, ;  n! [@ m3 -) 6: ]= ]= )% ]= ;  )0 v$ m# l$ +* i@ 48 T9 k, a~ a~ -' f8 ${ F# X= 4% 7F /D A~ c/ %. 1& l: m$ X  *' =/ v~ q> {* {* {* {* U4 U4 U4 W= U4 U4 @* o/ 91 -{ -{ ]* )# k} 9@ +* o$ ;/ ~b J0 J0 @* J0 v+ .= -( -( A~ 9d I) c/ c/ .% ]  .% ]  e@ (, f) >6 h2 h2 {7 {7 :- e) e) :- a~ f8 :# N& f. bT x0 @& z4 4^ 4* X$ |q K6 S| F) cT Y= nA /- N/ /, `@ *| Za  ' U= r& H% F  f} ~* ~* U@ +c Z' l4 me =] ,] 81 @* )! y. )] #@ F+ _^ !% ;  ga *6 v~ h@ h% Y, P= G~ 2' [& ^% u; M. /# /= &, G. '3 p! 7! 6{ zi u* vA [4 +p M0 ,v '  TB dT eT fT gT hT iT jT kT lT mT nT r2 hu oT pT u7 q; B' E. E. E. >8 t& v} != i- V2 <= |@ ^f .~ 8y z& .a (Q qT rT [3 sT tT uT Es i. vT I@ u$ M| ",
"Y  7= =I $* U4 L  V@ >e ;/ >e >e [| >e U@ *I IJ =I k} m} '# >/ U| :' -J I} w~ w~ {7 i, U* wT qd C& D! (, )# Z# u& 8^ A- xT yT zT AT BT CT DT ET FT GT HT IT JT KT LT MT NT kg OT PT QT RT ST TT UT VT WT XT YT ZT `T lK  U .U +U @U b_ q& 7~ m% g{ i) U< Z# =~ ,(  : #U f~ $U %U &U *U =U -U x( d* ;U !: h) h% C( C( A@ f{ ;  ;  #. j% 7, 7, n! #~ m3 [@ ]= ]= ]= <= l3 ;  J^ p& y+ X  k}  c 3t '# 7| |' n} |' A# y@ A# ,! R@ 9& ;_ y# M, xa /$ }= K4 2G t+ m$ ], ]* U4 U4 U4 $4 W) U4 W) .3 W) W) o/ -{ B[ -{ -{ $4 Qb &* l} k} >e U@ 4= '# J0 F$ J0 K4 7F -( .= -( R% R% -3 9d [' [' e@ [' }' e@ w~ (, h2 I0 L/ {7 :- ${ z# d) d) p7 g) N& e_ >U *j O= _^ j{ ~m ,U qO 6| S| F) %7 k+ 'U P@ 8$ ~* ), `S *| h) G~ S# #* {* ~b ], {* k} U4 -9 -a )U I* 4b E1 ;9 2G m_ T. 6, x> t- '= X, =/ z( U= D_ y+ !: Y  ;~ G~ Y  ^% +& o, f~ D~  } G. G. p! {# 6{ '; u* 9: U  !U ~U :& {U ]U ^U /U (U _U :U <U [U }U |U 1U 2U ~1 3U %q Xp |, oO =d E. E. E. ^m ;- )0 0= i- V2 +] Zo E] /z wD qw m@ 4U 5U 6U 7U 8U 9U 0U }# aU /$ J@ B% u+ ",
"$^ $^ k} 2' 51 m} *I >e o{ ;/ >e >e >e ~b *I IJ &* 9@ o{ o{ K4 U| -# ;_ `w M, a{ x~ s. b; Sb '* 3+ bU /D l$ ;  0,    Y- cU dU eU fU gU hU iU jU kU lU mU nU oU pU qU rU sU tU uU vU ^+ wU xU yU zU AU BU CU DU XT *M EU =A FU GU HU 6) ^= K) d~ r< 7; 8, j% y9 IU JU KU K( LU MU NU OU PU QU *9 =D p( O. +@ (  O| =9 $. ;  ;  -= -= ;  f{ ;  -= #~ m3 -) m3 8; ]= 7; ]= ;  #= @@ Y, /; ;~ `; C@ o{ |] 9~ `b +' ~5 C& aU 0+ O/ Jq  x -* b$ fM /- b; j@ .% 1& +| F$ F$ =' X8 U4 U4 U4 ]* W) W) o/ {, E  B[ B[ B[ t' #* k} f@ &* .7 m} 4= f} U@ =' H2 2G I5 Y5 A~ R% I) 9d [e g] -3 i} f_ e@ e@ i} ~* ~* (, f) f) I0 ${ ${ F# S@ e) p7 !* :# o+ N| dj y0 X, z4 4^ ~m 5o =- K6 .% -_ .= }' e% EB ~, f_ f@ 8@ Z# l% @- H( `; C@ l$ S* C@  c k} D@ Q) G$ v< z{ I2 C  I5 D) ^  *> t> |* i( %, a. n#  ' Y; Z; s& m% [& S# A+ R= ~2 r< 6) .: i& G. G. f> 8{ 1* '; u* w. 1> k_ RU 9s SU TU UU VU WU XU YU ZU `U  V .V +V @V #V C! (E |, q+ :5 Md E. E. E. K# e> != <b i- t& #@ B$ N  Hf iB $V ^C xs %V &V *V 0U =V -V ^E ;V t: B  [2 s@ ",
"u' #' U4 k$ }> W= *I ;/ >9 ;/ ;/ vK >e [| *I If H2 @* U@ L  ;/ V* }' 6+ +: 8O B# >V Z| C# %I B, @+ ,V v1 o  l% u& f> h' 'V )V !V ~V {V ]V ^V /V (V _V :V <V [V }V |V 1V 2V 3V 4V 5V 6V 7V 8V TT 9V 0V aV bV cV dV *M eV fV e  gV #~ (= t; .k hV (= x, Yb 5) r3 iV jV kV lV mV nV oV 0T pV qV }: M# _4 O. H+ =9 gi rV H+ j% -= ;  f{ -= f{ 7, l3 m3 m3 ]= ]= 8; ]= ;  T$ ;  $= $= @- h) <, `@ s+ m$ M^ l, -' :# ~5 ($ T, ^> 5F WD BA @{ @: t| +v %u n' sV L& X= :> v+ v+ W= U4 U4 U4 U4 @* {, o/ 91 ^, D  uc D  {, *' K  Ke H( ;~ ~b G% }] +c '# IJ }> (; 6| 4' 4' g} v] K4 K4 |) m  ~* o+ ~* o+ l, f) f) F# {7 F# ${ z# ${ :- e) l+ e& d) @* f@ c. r] +] !b j{ z' 5o qO (; .% F) t] f_ _s {e _s f_ '5 {, I  H4 l{ _# J) `; >  /;  c  c m_ f. P/ '~ gf gf x  0~ o> D) J) z$ j' a! ;= ]= R$ s& b_ U~ +k U~ D_ Y  ;~ A+ R= S$ f~ M. /= 9; D~ G. f> {# 5{ '; &@ n) tV *^ uV A& Pq vV wV xV yV zV AV BV CV DV EV FV hr vv A, Re W: i@ ]% 3_ E. E. E. D- 9, <b <b i- '= H3 `} :# -! GV HV IV XE Qq JV KV LV MV NV OV PV QV 2& K4 i} ",
"*4  - ;/ Qb IJ @* '# *I ;/ >e >e >e ;/ ;/ >e ;/ U@ +c +c 4N F  u' Ge r7 D@ p  N/ WF M, RV SV TV UV VV ]o /[ h% Z7 &> p! WV XV YV ZV `V  W .W +W @W #W $W %W &W *W =W -W ;W >W ,W 'W ~) )W !W ~W &T fS {W ]W {W @T ^W /W (W J| Ee  ] X5 0l _W -k cl 4^ /m :W (e <W [W }W |W +8 38 1W 2W 3W 4W R= 5W 6W f{ $= fa 7W rV =9 fa J^ ~= T$ T$ ~= ;  6) [@ m3 ]= ]= }@ ~= 8; ~= +] J^ J^ @@ p& ,e ^* Y, y+ Y  `@ &* Y5 1= 3y T, {z I7 kv BA dG dG @{ 8W 8v o; 9W 3y U| I5 v+ =' U4 W= X8 U4 U4 W) W) 91 B[ V@ ^, ^, E  {, ;~ 1y Zw Zw <, ^, -9 <e f} U@ k$ Xs ;( r+ Wt qO w. i  p> &* m_ L  o+ i} ~* l, ~* e@ I0 f) F# F# ${ :- :- z# :- d) g) }' S* h% .{ U; .  v* 2* !m ,U qO {% e, s@ +| O  A% jg D  O  H% 1: v~ hc 3; [, m, P  ]; <, <, <, #* N  (R M@ pd 2e +e D% :# +* m{ A$ }+ M6 ]] }@ n! +& s& X; 9= U~ m% n, A+ n, o[ f~ 6) 6) E_ 9; 0= D~ p! s* 3{ K# `a vA -J 0W @S aW bW cW dW eW fW gW hW iW jW kW lW mW -* 9  a% Re -| D) %= v- E. E. E. D- p! A3 A3 i- '= 8- n: `y QN nW oW pW qW rW sW tW uW vW wW xW yW zW AW :> L  ",
"ia D] L  J0 =' *I ~b ;/ >e ;/ ;/ U@ T@ [| [| 4= H% M^ u$ u$ u' v' u' [| m} Y+ 8y $x BW fL ,V CW DW EW FW GW q& &> &> h' HW IW JW KW LW eU !V MW NW OW PW QW RW SW TW UW VW WW XW YW -9 ZW `W  X .X +X @X #X $X %X vM &X 7L 9- qx Y_ y2 *X  ] xc D- D. 5* a!  3 T6 =X -X ;X >X 2K [6 ,X c' $= 'X )X !X [> $. H+ H+ H+ +@ $= #= T$ T$ 7; /* +] ~= 6) l3 )% ~= [@ ~= +] p& [> O. [, 1- C$ K' A3 9C <= K' C$ if p> :# ~5 <- #  6F 5F kv ls ls va /' Vw ~X iv RV 5| -( @* J0 W= W= X8 U4 U4 U4 W) E  D  Q/ p} ^, D  E  ;~ U8 73 {X p$ H% ,%  - -9 L  $* 2' n{ p$ Zw ]X V~ _# .' _# c~ m$ o+ l, ~* l, e@ f) f) f) F# e) :- :- z# f8 S@ f8 d) w~ += l% i% i% J| N* 5* ~m C8 Mr f] Y+ o+ /, H  H  A( s- U= H% M< H  K^ C$ [, h% `+ ]; <0 K  [& *' Ge ^) >% ^X (R Nc 6+ I0 i@ p$ >= {] 2~ 5) <= v; 7) X; i* X; N# Y; 99 7_ h{ ~' S$ M. k/ )% G. [@ 0= p!  . 7{ '; u* 9: 12 &( /X (X _X :X s0 <X [X 0A }X |X 1X 2X 3X t9 S, &) BL ,< Re ]! }$ v- E. E. E. z> A- != A3 i- 3~ hi 4X 5X 6X 7X 8X 9X 0X aX bX cX dX eX fX gX hX iX D: 5| F  ",
"H% p} =' =' @* '# o{ >e ;/ ;/ ;/ T@ T@ L  [| /, L  H% A0 ;a A{ Ld ;; t] jX kX lX Zm mX nX oX pX qX NB rX sX j/ &> oc h' HW tX uX vX wX xX yX zX AX BX TT CX DX EX FX GX HX -O IX JX v+ KX LX MX NX NX OX PX QX &T RX SX TX UX 7> VX 5q WX J| Z- W$ Fb v* XX YX ZX `X  Y .Y +Y @Y B+ h- cf 9C #Y 92 V, 3, (  rV R< R< (  fa $= J^ k% :5 D$ :5 V, 6) [@ <= K5 ;= |@ 09 _~ n$ '5 J+ %= 7, K' A3 #6 X# )= J^ )] u+ 0~ +3 f% Q@ 'U nA ;s k> 2t Ew $Y %Y &Y ^' *Y Z& R% U4 W= X8 H2 H2 X8 X8 W) $4 t' n/ ^, uc ^, E  {, k$ c~ (* P] @- ~b F  #' f} U@ 9@ =I n{ ), @@ =Y *> /* 09 49 cf m_ N| ~* V* (, ~* f) f) F# I0 ${ ${ z# ${ z# z# e) F# T9 x. r$ #@ +] $@ x9 j{ 5* &@ r! p> _s j$ D@ 0} s- n# (% ;~ s- N| $# $. 6  N= H+ `+ [& Y  !# J  [& #*  6 z{ @^ v3 g) %[ H2 Af A/ !% {] 5) G+ U$ T$ S$ ~2 l& R= H. Y; n,  c 82 Q# f~ 6) 6) E_ /= $~ $~     . 7{ '; u* x* e{ {s ^s -Y ;Y >Y [F ]t ,Y 'Y )Y |X !Y ~Y {Y vV Y] 0  gf Fm |, J+ ;< v- E. E. E. h& h' != != V2 3~ hi B} ]Y ^Y /Y [h (Y _Y :Y <Y [Y }Y |Y (n 1Y 2Y 3Y 4Y =1 M| ",
"#* )# W= =' '# >e >e [| ;/ T@ T@ ;9 [| 4= +c i} L  L  A0 u$ @L A{ #& ;| 5Y 6Y 7Y 8Y 9Y 0Y aY bY cY dY Dz eY fY &> Z7 a! gY hY iY jY kY lY mY nY oY ^O pY qY rY sY tY uY vY wY V^ _g dd xY yY zY NX AY BY CY DY JR EY FY GY HY IY JY ({ -6 :~ l% {] 9} [+ Q< o! :2 W' KY LY Rp MY pz pz NY oz Cp OY )9 PY V& O| QY /  9/ K^ %= 1- J( 3' 2G (; s+ i% <= #- 6, B+ *> p$ d. aF (R /, q+ [, @& =~ o, g9 g9 ^* X) t^ 7| C  S@ .% C  S| j! bu e! RY 4v SY TY UY i! u) 9d =' .3 Qb X8 H2 .3 W) .3 W) W) U= {, D  ^, ~b E  @* IJ 89 VY !0 ]* H% ic +c U@ U4 Qb Qb $* A+ 6r /* Wm 01 EC 82 E  M^ f) (, #7 (, f) }' ${ {7 :- S@ p7 :- h, h2 h2 h, d; ]% x+ j' w$ *- /m 4* ~m %> Cc <> s+ S* n# h; (% [& J  ** w; /5 1& k! l( }$ C_ J  I/  ' I/ [& :P =I 8& ~) (R }4 C  =' 7] M= WY !% ea H3 #@ 5, 7; o, ~' /% S~ p% $^ ]* @* I  R* n! f~ o, E_ /= [@ k/ X- wc A> '; y' x* e{ 9L U/ P, Nj XY YY ZY `Y  Z zV .Z +Z @Z #Z $Z >r 1z @e == gI C@ T  v- E. E. E. h& f> }@ 0= B+ 5) %Z &Z *Z =Z -Z ;Z >Z ,Z 'Z )Z !Z ~Z {Z t9 ]Z ^Z /Z (Z [[ M| ",
")! #* U4 *I J0 >e ;/ U@ U@ T@ U@ L  L  4= L  /, f_ +c g_ @~ c6 0} _Z :Z <Z [Z }Z |Z 1Z 2Z 3Z 4Z 5Z 6Z 7Z 8Z b, rk Z7 o) HW 9Z 0Z aZ 5K bZ cZ dZ eZ fZ gZ hZ VL iZ jZ kZ lZ  L O< O< {+ mZ nZ oZ pZ qZ rZ sZ tZ uZ vZ uM wZ _1 nf Le xZ /_ #( Hh T; e} v( yZ @/ +1 zZ AZ BZ CZ DZ EZ FZ GZ HZ IZ JZ KZ LZ 8[ FU MZ /  %_ `+ ]% _R F$ }4 %8 e% o+ h% B+ -- #- s' q$ _# d. l# u  :4 -| 1- l% S; n= +. .: 6) i~ 63 o{ w] i@ {! n{ ;( q' A~ hI `y t~ NZ nQ H_ OZ PZ -( v+ m} X8 If .3 Jf @* m} {, Nb `| `| #* {, ], V* o$ @* n{ Ke c~ G4 D  p} ^, V@ @* @* ^, B[ h; !: :2 QZ 9C RZ 63 W@ @7 >6 >6 #7 SF f) I0 {7 ${ S@ E% z# f8 T* (, (, F# 4% '0 x> gc x$ v* :n E. y> y> Vm Qp yp 0p Z  j- g{ Q$ v: -/ {e SZ DB vi 9y ,0 ** S# Q$ r% a. <0 `@ G~ L  M  Q) f; %[ K4 o> Mb J  8, G+ 3) H3 ;= +] R# /% }& N% 63 ic 6= 7| ^, D_ ~2 S$ 5] E_ 4~ r| +. &~ W- u} ,; F. 8: F) C) TZ VV XY ^o UZ VZ WZ XZ [N YZ ZZ `Z  ` .` rr ]$ 4@ 1) |, i  g- +` E. E. E. h& f> ~= != V2 U$ [j J1 @` #` $` %` &` *` =` -` ;` >` ,` '` )` !` ~` }} `& n/ ",
"$4 o{ '# vK ;/ [| vK [| [| 4= L  L  L  4= 4= ~* T@ +c Q/ c6 Fa L  {` ]` ^` mU -R /` (` _` :` <` [` }` |` P& S; oc i' gc WV 1` 2` 3` <T 4` 5` 6` 7` qY 8` 9` 0` a` b` c` d` e` f` g` {, h` i` j` k` l` m` n` o` p` q` uM wZ r` s` Le t` |< #( X} -h $/ 4, u` v` w` x` y` z` A` B` C` D` E` F` G` H` I` J` K` j/ i/  @ d, ** c~ GB j$ 0F L` %{  6 m, d6 d6 #- _* r' )' W  9~ G# p> g- D$ P= T~ }& +& k/ [@ H. h; X  &* dL K  K  `| k} dd cT np M` N` ]} &x m> #{ @3 +| >e .3 Jf :b m} m} *I 91 %^ UE `S wf {* ~b 8& 8& 8& T@ H2 Xs Qb m} L  L  X@ [| +c j$ ag q( p( K{ O` f* V= F  Y@ 3= (, h2 P` Q` {7 c; i2 e) p7 z# l+ >3 g) f) e@ C  T@ D$ `6 A- |1 -> g& E. ck y> Vm 1o Vo R` L* s; y+ r& *' l$ o# @^ =) S` T` w; 08 #* n( +> !! Z@ t' 91 f} Z'  6 f} =' =' o+ t^ m$ %= [; G+ H3 G+ /* ~' q3 m% D_ Ef #' F2 t3 A0 h; n= +& j* +. G. [@ +. L> M- L- u} V- :5 -J 0W U` V` Q; W` X` Y` Z` `` yV   .. .+ .@ .# .Es dc $ .~D [~ S= }$ 4q E. E. E. 4^ 8^ T$ )0 V2 K5 [j g- %0 % .& .* .= .- .; .> ., .' .) .! .1Y ~ .{ .] ./D ]* ",
"], L  ;/ T@ T@ U@ V@ U@ U@ 91 $*  # Y  )! U@ ~* m  m  G@ A0 D  8h ^ ./ .( ._ .: .< .[ .} .| .1 .2 .3 .4 .5 .h} h>  & r; ZI 6 .7 .8 .rR 9 .0 .a .b .c .d .e .f .g .h .i .j .Le k .l .m .n .o .p .q .r .s .t .u .rZ q` ;L v .w .W} Le Ch x .[^ y] {= l3 y .z .A .B .C .D .E .F .G .H .I .J .K .L .M .N .O .P .]4 fY P= c. r] h{ Q .Ge }k dJ gf N| l{ '= #- C$ >= Z% P] x. <& <& ~% !e A@ I3 7j T~ '% 5] +. ~2 R$ a. _~ )# #* %^ Z@ %^ 05 ed 4D ;v z: V_ eA e! &( 5| v+ o{ =' If .3 *I m} m} o/ .7 V, cf 89 &* U4 a~ F1 {0 M& !* e@ [' [' -' j$ M^ /, +c -9 Ge Q^ h* o, f* 1c ,, o/ fO (, h2 >6 {7 {7 {7 Q` i2 :- z# l+ 6+ a5 e) W= +* v] k} bf $@ B+ B+ 79 5* E. y> E. E. E- %> P4 g& 3{ [= J  Z# 09 t) B% ;; y4 s] [& g@ 2% P< R .K% Q/ Y' ~: /0 S .O< uc %^ ;~ {, n$ E) +@ G+ G+ G+ *> J^ H. U~ H. !: 8= d} 6= 81 63 U~ '% n= /e 5] /= )% +.  }  7 ]# 7{ u} cf c/ /s T .#B Dw U .V .W .X .Y .(U Z .` . ..Fd ...Ao 'v <o h] +..S= }$ Qp E. E. E. 5* m! o! }@ >- *~ #/ K^ e6 ]3 @..#..$..%..&..*..=..-..;..>+ >..,..'..)...* i@ ",
"M| i} V* V* T@ T@ L  4= V@ )! )H !..~..B/ )# N& .2 }= H  r& F$ {..]..^../..(.._..:..<..[..}..|..1..2..l: 3..}@ 0! !b ); 4..5..6..7..8..9..0..a..b..c..d..e..f..g..h..i..j..k..l..m..n..o..p..q..r..2Q s..t..u..v..w..8N x..y..z..A..9> a/ s& o[ %, i% B..C..D..E..F..G..H..I..J..K..L..M..N..O..P..Q..R..S..e] >, )] r> o% J% T..GJ U..V..g8 {, [> #- k% K^ k% (* W.._# J+ += l( i  E) X..ph o% N# j& U[ '% d~ Y; I/ L  M^ p} @| o/ ;/ h~ 4D (D Y..oE Z..l; 3y f8 o$ *I Jf Jf Jf *I m} m} 61 .7 Yw cf !0 k} '# ;3 `.. +.qQ Je (> ~0 b7 |% F1 g) @7 T9 f_ ^, L% 2b N. ^* R~ `S IJ r7 F# {7 h2 {7 {7 .+.:- :- :- f8 l+ ,! :# 08 u! +a f= 09 .  8^ '= i- B- &@ E. E. y> #e E. E- E. D. D. 6! >> 14 14 C$ m{ h) J^ +] J^ a. A( 0f ++.@+.#+.Ht F| -] -d /0 V^ g[ n, !! ;~ J  $= v( 5, #- 5; n! H. p( K{ ~' p% '] k, $+.%^ H. '% `) `) e~ <} r| 6) 9; Te t7 B> bl p& e@ rt T .%+.mw &d &+.*+.=+.-+.;+.>+.,+.yy '+.+A 8# e7 s, dA &s 2, <~ pc E. E. E. /m 3~ n! 0= '3 k{ h( A@ !* C0 )+.!+.~+.{+.]+.^+./+.(+._+.fE ME :+.<+.[+.M/ ]! ",
"L  L  @7 V* L  4= L  H% b} n% b6 G- F- }+.Nb G# M[ e, K4 k} ,- |+.1+.2+.3+.4+.5+.6+.7+.8+.9+.0+.a+.b+.ga M) 9; 7! W$ x9 c+.[L d+.e+.f+.g+.BX jZ h+.i+.j+.k+.l+.m+.n+.o+.p+.q+.Wj r+.9! s+.t+.u+.v+.lU w+.x+.y+.z+.A+.8N B+.C+.D+.E+.F+.8, P# ~2 #~ X, G+.H+.I+.J+.K+.L+.M+.N+.O+.P+.Q+.R+.S+.T+.U+.V+.W+.X+.Y+.,/ r% =/  ' J% f* !! ]* 91 {* !# l% C$ #= m, ]% <> *> -- '= U5 6  0/ Y( &9 5< Q= fj <w s) Qe o! m& !# B% `- Ge 91 ~b _- rQ Z+.`+.'a  @.Gw A& SD _> ~b .3 .3 ^; =' m} m} J0 W) ;~ @! 09 !0 9@ l, J6 Je .@.WP +@.@@.WB a+ a+ f% a9 T@ .e :> @* _~ <, 1- 09 >' #@.]/ l, F# {7 {7 {7 h2 :- {7 i2 F# e) -' :# _s q+ r' a8 P] a= s; Ai -, s; t* 3( E. E. E. E. E. E. E. E. E. j{ r; 1b s* A3 R= Q# A3 t& k{ +- I< .> K% .> B0 ;] <* $@.*] ~: T^ +> Q# m# 89 `+ U< v( 3) [; 6, -= @& ~' n! @& )] Ge 81 r7 I/ o[ e~ '% j& L) Qj E_ +. G. x, h> h> Y_ 1- 5$ %@.&@.D: VC *@.=@.-@.;@.>@.,@.'@.)@.!@.~@.{@.]@.&K o] 2> t_ 1, }, *@ E. E. E. /m ,= o, g9  } .: z, [> f; '! ^@./@.(@._@.:@.<@.[@.}@.|@.1@.2@.3@.4@.5@.~e ]! ",
"+c M^ X@ ~* V* X@ +c Ge +# c} 6r Z6 FB 6@.B[ $> &8  > Y5 g] 3| 7@.8@.9@.0@.a@.b@.c@.d@.e@.f@.g@.h@.i@.j; ,/ L# Ai W$ ~; 3o j@.k@.l@.m@.n@.o@.p@.q@.r@.s@.t@.u@.v@.w@.x@.y@.z@.A@.B@.C@.D@.E@.F@.G@.H@.I@.J@.K@.L@.q` ;L jJ jJ iJ iJ M@.,= (e (e l1 P# oa N@.O@.#W P@.Q@.R@.S@.T@.U@.V@.W@.X@.Y@.Z@.`@. #..#.+#.i~ /% <0 h{ m# N. 1c m# b* 1c 8@ A@ #= J^ O. l{ l{ '= w, 4^ `a x9 Y7 h( ;  #/ ^= -) fg T[ T[ |4 /* J  G@ o# +# V@ ~* w~ %7 32 @#.##.$#.;* Wn -* y@ '# .3 Jf aL Jf aL Jf aL m} k} wf `@ k} U@ N& () 2e %#.&{ Je a+ mA &#.}z f% >3 >6 *#.rQ >/ =' i@ ), 1' =#.-#.05 C  z# :- {7 :- :- :- h2 ${ z# i, e) t3 |] p> bf s' s' ;#.1b y' '; y' h& E. E. E. E. E. E. E. E. E. E. j{ {# ,7 Xb <b >, 9= =~ v} v} H. n% %* .7 D  g8 G2 F2 {) ^f ^f u$  ' Q# Z# h) m{ !^ U< @/ 4, 4, f{ m& ^* ~2 Y, a. G@  6 -9 n( !: e~ 7) n= e~ Qj ^= 6) .: C+ I| Y_ ); |+ :' iA &@.>#.,#.'#.)#.!#.<U ~#.{#.]#.^#./#.(#._#.:#.Gi zr 2> A_ 1) }, xp 3( E. E. /m j- o! Ab <#.[#._= m& C  '! M4 }#.|#.1#.2#.3#.4#.5#.6#.7#.8#.9#.)C qC D# 6] ",
"n$ M^ V* V* ~* l, -9 }] `- ,% W# Yw 6@.0#.<e W7 }- $x a#.p_ D1 b#.c#.d#.e#.f#.g#.h#.i#.j#.k#.l#.m#.3e '> K{ 6b M- 1* 3{ 2o n#.o#.p#.q#.r#.s#.t#.u#.v#.w#.x#.y#.z#.A#.B#.C#.D#.E#.F#.G#.H#.I#.J#.K#.~V L#.M#.t..N#.5K O#.3K P#.-s iJ 8o U. Q#.lh 7^ j* T; R#.S#.T#.U#.V#.W#.X#.Y#.Z#.`#. $..$.+$.@$.#$.$$.Uj %$.X; Z# Yw Wm :2 ,e K{ f~ o, ka W' #. 7; +] l{ 99 .@ 7, .! h& z> 1* F+ Y7 Ee Ee /] l= _= r) z, ;) G. R# !# v~ v~ ]* l, f8 {7 [[ &$.*$.=$._y -$.x~ w~ F$ .3 .3 ^; #> #> Jf aL m} m} U4 E  F  -9 -9 7| ~, q# v3 J6 U* g% b& B# ja 1G I} ^M ]M %7 7F Y5 +N c; h2 F# C  d) :- e) +7 e) e) d) d) d) -' f; f; |] M  {, h- >> Z% -> D- D- G{ G{ D. E. E. E. E. #e 7* 5_ 3_ V: %- )b E+ '; D- Te M. N# Z2 K{ o! ^* A+ .7 {* M< 8  g8 #^ uc Fa z% o( D_ ~' H. 5< [^ kf 4, 8- f  e} T$ o! ~2 '% R$ H. W# F  B% n( R= m= +& u; /# /= <} r| |4 `[  4 n3 u* MA W< ;$.>$.,$.'$.)$.!$.Dg ~$.{$.]$.^$./$.($._$.:$.<$.[$.}$.|$.Iv B_ W& Y$ 3( E. E. 4^ p! Ab E{ 1$.J! 0: K' %. +3 j! 2$.3$.4$.5$.6$.7$.8$.9$.0$.a$.LH Hw 9+ 7F 1R ",
"|) /, T@ (, V* }' ;' f; Ge F  ;~ /* 0* C/ l, fd }- w& )4 )4 rB }- b$.c$.d$.e$.f$.g$.h$.i$.j$.k$.l$.m$.n$.Mr F+ 7! 5{ u- .4 o$.TI p$.r#.q$.gU r$.s$.r@.t$.u$.v$.w$.x$.y$.z$.A$.B$.C$.D$.E$.F$.G$.9 .H$.I$.b` J$.K$.5K L$.M$.N$.O$.jJ P$.l! Q#.Q#.#U j* -= Q$.R$.S$.T$.U$.V$.W$.X$.Y$.Z$.`$. %..%.+%.@%.#%.il hd !: @! *| ,e _4 J% $%.l& l& W' ,) m& U$ .9 Y, I/ U= .@ e8 }0 s; +! '= ,= i( /] a; &, t; t; _= _= &, *~ [> Y, 99 I  }] |' p7 {7 L/ dn %%.#{ j@ R% 05 F$ aL :b Jf aL aL aL '# m} ~b U@ +# ld O< D  W) <& ]  @] O& |' G1 g% Z| g, (P &%.*%.*%.o' $8 I} EH ;3 ;3 ;3 m+ a~ T* :# f; f; }] 7| G# |] |] M  M  {) 5( H% [> g= Z% d8 z> G{ D. D. E. D. E. E. E. B' a8 6, != != i& B+ o) K# D. n[ N- M. i* l& o, ,e `| $4 F  U..>% )U A0 I/ U~ S~ s1 S~ s1 u% Mk ]| 7  fa H3 fa #. n! f~ +& fj `) l& n, /; y. q% P* `) `) 8j U[ r| r| 5] [@  ] V- 3( h& w$ m{ Y~ V& =1 2^ =%.@F -%.;%.>%.,%.'%.)%.yO !%.~%.{%.]%.eB ^%./%.nr (%._%.3( E. E. 4^ Y- K> X# :%.<%.[%.J^ f/ |2 .6 }%.|%.1%.2%.6$.3%.4%.5%.6%.7%.8%.yb 76 %7 9%.",
"<& Mb :> %[ T@ l, N| j$ N| $# ]% {X g6 _* v+ ,! /M ]+ &8 8y s. Bq e` 0%.a%.b%.c%.d%.e%.f%.g%.h%.i%.j%.k%.l%.m%.n%.o%.p%.do q%.r%.s%.q` t%.u%.v%.w%.x%.y%.z%.A%.B%.C%.D%.E%.F%.G%.>L >L H%.I%.J%.t%.K%.L%.M%.N%.O%.P%.Q%.R%.S%.3K iJ P$.~# T%.U%.@2 7^ ]= V%.W%.X%.Y%.Z%.`%. &..&.+&.@&.#&.$&.%&.&&.*&.=&.-&.,/ 99 _# :* !# 8= %' t( p( L. d~ i* n! B+ '= ~' N) (: m% [> K' l% g{ b. [= D~ 4~ l= l= _= r) d] t; 4~ v} o[ g{ g{ !# P$  6 -' e) S| -3 XP ~e Y% (; g] m$ =' =' Jf ^; >/ '# '# o{ 91 D  A0 yN J9 I< m% y+ a. g@ *6 t^ J4 Xw ,! x3 .6 65 Y| M9 y# S| r. )* _> (- +' 7& N& a1 `- P$ M< M< :@ M< :@ :@ :@ ;&.P> P$ z( f{ Z  Z% tp 4a K# n[ F. 4^ D. E. E. E. 7* ~# m& o! 0= G. O* h> h& E. D. K* N6 y9 j* [@ p& <, {, D@ z. !~ ]F :i U~ L. K( O# m^ >&.,&.R9 3i '&.I^  [ -= h} K) e~ e~ j& j& >; o[ b. R* b,  ! )&.e] 6^ U[ 5a ~j +. _] &> 4^ E. E. W$ j- {; g> l3 [& +/ nF !&.&@.~&.{&.]&.^&./&.(&._&.:&.<&.aR [&.}&.|&.1&.2&.y> E. E. 3( 8! @c %~ :%.<%.}c [= 2A k' '* 84 3&.4&.5&.6&.7&.8&.9&.0&.a&.b&.c&.s= m~ K0 ",
"t) t+ q' %[ ]  7& @] 7& t^ Mb }; yp *@ ;> u! kr ;< R| W: -| v. p[ d&.=s e&.f&.g&.h&.i&.j&.k&.l&.m&.n&.o&.p&.q&.r&.s&.2o do t&.u&.v&.w&.x&.8 .y&.z&.A&.B&.C&.D&.E&.F&.G&.H&.I&.J&.K&.BU BU }S q$.L&.`V M&.O%.N&.q$.J%.O&.O#.P&.O$.iJ co X~ Q&.T%.R&. h ;  S&.T&.U&.V&.W&.X&.W&.Y&.Z&.`&. *..*.x .Gh +*.mV +k Y; `@ K  7= $^ rM G] p/ Vg c: 1] X; o[ p& )0 o[ R= R* ^* 8@ h; 0f X  O) m& )% N6 /= l* 1j l~ l* F_ $~ (# I3 ga .@ (% |: Z' #' l, }' o> J0 cO ]/ Qb =' F$ =' ^; aL ^; >9 '# >9 ~b 91 {, 63 s- A( v% 9= n= !: !: D_ b} ;d ~) g) d) ;3 @*.*{ 1v X* >3 e6 l+ I# @' M  N| X  g@ ga r% N) r% Q$ a. a. A+ O) .@ n, ]; g{ J^ != n! J  p& ;- V$ 0, )b i{ E. E. E. =| '= Q# ~2 5] 4~ 9; x, A> V- x' r* $~ =~ o! >- r$ :* $* {, Ge P> *4 J< q3 N# K( G! gl Nk #*.$*.%*.&*.h} **.h} P# S$ m= `) j& `) (# 8) X, Y, @& b, <w I. =*.Ec 6< J{  ] Z[ Bk 5* E. 3( 3* x$ F+ `% oc k{ V2 $@ +  X< m: J1 -*.;*.rd p: FH >*.,*.3q '*.=s 1q -p Al -s P4 P4 4* &- U' )*.!*.1$.O6 )0 e{ Wz x3 WD ~*.{*.]*.^*./*.(*._*.:*.<*.[*.}*.|*. S 2R ",
"@. Y, [& ~b f. K@ %] 1*.!< ): 6, Q4 2*.L* =d Sq Vo 2&.B' z' P4 y> E. E. z> 3*.OG 4*.5*.6*.7*.8*.9*.0*.a*.b*.c*.d*.P#.e*.=L jJ y> y> y> 8N vZ f*.g*.FT h*.i*.j*.k*.l*.m*.n*.o*.p*.q*.r*.s*.t*.u*.v*.w*.#T q#.x*.y*.z*.A*.B*.C*.O$.iJ ao X~ D*.U%.E*.$~ hi F*.G*.H*.I*.J*.K*.L*.l*.M*.N*.O*.P*.Q*.W; 0) z] Z; 99 K  s+ ]* n/ @L M] !E K( $~ <} M. /% U~ R= @. *~ l! Z  ~' X) 0} s] J  i% r| 1j E_ X7 l* pk l* l* E_ e~ X;  ! +& i* t% d_ O~ Zd Ef n( Z@  # ;~ 9@ U4 F$ '# K4 05 >/ >/ %[ '# o{ E  (: Y  R= R= ~2 /# +. +. k* =~ S~ R*.M< o{ o{ t3 () S*.l# -; h6 d) :# 9~ ## R> U= ~= G. E_ a, D~ a, U$ U$ <= |@ <= K5 <= +( U$ 3~ != ^% T*.I< L. N# I. v} r; E. E. E. i{ J| n! S$ 5] _= &,    9, X- p^ qb Z[ oc i= w, B- >> W..d6 .9 [= R* >, K( 6^ )&.U*.V*.W*.X*.Y*.Z*.(# K5 a; #~ '% d~ /e I. `) I. >; h} #@ #@ }@ 6) e~ j& k& Z_ uh zi fc 7{ Ll d8 `*.=s Gb *> |$ Y} #@ P= d, R] V] [5 9g :[ 7/ E/  =.3: $_ d  h  9: B$ q< q< |&..=.+=.@=.Mt Q4 {# .1 #=.#=.@8 P6 |@ g/ ++ =* _) =. <. $=.%=.&=.*=.==.-=.;=.5G _u yA j@ ~e ",
",k .& }@ 1% y[ >=.I@ ,=.'=.M< /* L* L* v- 6* 6* ~m 4* 3( z> E. E. E. D. D- x' K# g& -s )=.!=.~=.{=.]=.^=./=.(=._=.jJ =L =L 7N E. E. E. C*.w..RL :=.<=.[=.}=.|=.1=.2=.3=.4=.5=.6=.7=.8=.9=.0=.a=.b=.c=.dV A+.I%.A+.z*.d=.e=.C*.O$.iJ 6o X~ f=.m1 'h [@ g=.h=.i=.j=.k=.l=.m=.n=.o=.p=.q=.r=.:< i~ P* fY 0/ J  `@ G~ X  D  b} 4N r( s( K( <} K> |4 /% I3 R= ~= i= 6! )b o[ |& B% v~ [& $= l3 5a r| /= N6 1j 1i m* _= l= 4~ a; ;) E_ '% '% j* M. =~ `2 ,e ,e 99 l$ ~b f_ T@ ;/ 4% V4 T9 _- ~b |) '5 n% R= T$ )% a; ;) Cf 5^ l= r| /# s& U; b. g{ %^ ], A0 D  8& |' 0~ 9~ -a 0. ^f 0f 4~ 0l :/ _W 0: 6< ;) 0, i& 9; U$ G. G. 0, 8^ j- }@ +- z0 v% y9 r3 K( 6) s; E- E. E. =| Z  m& @. e~ r| D~ G. $~ |4 r| X- M- n[ &@ 5* 4a `*.D0 &@ K# t* ;- E~ L) @2 Rk Rk s=.s=.Vk Pe Ec E_ &, /] T[ I. Xg )e l/ t=.Yg `) <= '= j- j- G. r| Ec u; `{ C> J> S' Bb h> k% _[ p[ Z~ #& ;@ u=.v=.w=.Im x=.y=.z=.A=.B=.C=.D=.E=.!C ]- c+ <Q $> #& [2 %[ |/ y_ &s e- 8R x+ %- F=.G=.H=.I=.H{ 6  {( y: J=.Cs >r K=.L=.M=.N=.O=.P=.Q=.EL R=.S=.T=.T9 (; ",
"U=.V=.|c P* <d W=.X=.$j >=.yN 6, =d Q4 =d 5* z' %> 6* E- E. E. y> E. E. h& x' y' 4* y> Y=.Z=.`=. -..-.+-.@-.#-.$-.jJ jJ -s iJ E. E. E. C*.vZ %-.:=.&-.*-.=-.--.;-.>-.,-.'-.)-.)-.!-.~-.{-.]-.^-.K*.DX /-.I%.(-.QL _-.3L uM :-.iJ -s 6o X~ YX  1 $~ ~= <-.[-.}-.u%.|-.1-.2-.3-.JR 4-.5-.6-.S2 G! 7-.>, C( .@ Y  )! n( O~ z% v' T^ 8-.N# <} Rj J* l1 y9 G. oc Xb x' xc +& &6 c} q> n, f{ #~ 5a k* N6 N6 ;j .b .b l* _= 4~ ;) ;) l* Z_ ~j <} !j <} [@ =~ ^* R* 3% M| /, ~* ~* e@ /, V* L  L  n$ O  X) 3j m= 5] Qj ;) &~ Z[ ;) 0d 5~ f~ a; k{ i& >- h' 15 `6 <, 4j -a e. e. !< J[ Mk ;) 0l 9-.0-.9-.j: Z[ V$ 9; D~ [@ -) )% i& 8^ <= ~2 (# u% Q* $~ @2 1] k{ }0 3( E. E. ^m d> K' K) /# E_ .: X7 +. @2 E~ n^ Ha D- 4^ z' B' z' ~m z> z> A> _= L)  : x6 ok x6 q| a-.k4 gj ~j ;) V$ &> 4~ J. m^ cj E[ l^ Yk I. 5; Z  >- V2 <= -) /# l1 5a  7 U- U- Bb Ee g@ g} N[ b-.$D c-.d-.8%.e-.f-.g-.h-.i-.j-.k-.l-.m-.n-.o-.p-.q-.r-.s-.l# t-.fd c  bs u-.{..1@ .  %- jf v-.w-.x-.p* [; Yx H_ v7 y-.lk z-.Q, >& A-.B-.;+.IK C-.D-.yK && >9 ]/ ",
"8i 9! &, U~ y% '7 n_ E-.y[ O  h- yp ;> s> 3* P4 ~m %> E. E. E. y> y> D. D- W$ >8 g& -s F-.G-.H-.I-.J-.K-.L-.M-.N-.L$.O#.C*.jJ E. E. E. R%.XT O-.P-.Q-.U#.R-.--.S-.T-.U-.'-.V-.)-.W-.X-.Y-.Z-.`-. ;..;.+;.J%._-.J%.z*.3L w&.S%.jJ iJ )n b6 lN 45 )0 3; |6 @;.#;.u%.$;.%;.&;.*;.=;.-;.;;.F3 >;.,;.';.q3 U~ h; p% 0f U= rM M] +< #L 8-.(F `{ 3] k* E_ k{ Y- 9! K* u} t7 W' kd $, O  _~ b. f~ 5a +. k* ~j .b 3] 1i ~j ~j 5a 5a Z_ `{ /# @2 @2 '( 7^ d~ s& y+ O) W# [0 t^ `- ;' ;' t^ D@ |: |: z% :i Mk Rh fj Jh Z_ N6 X- &~ 6< uk T[ u; $~ k{ u& 15 y' D- x' Z# 4j s7 x4 ]) !< Ff Gc E_ o* _d V( :/ }c qb qb a; := /= F_  } N>    i% U~ s& `, 9= >7 p* p* j= 1b E. E. E. ^m i= t& G. r| 5] /# E_ .: J* u< M> Xb z> z> P4 ck P4 x/ E- z> 7! /= l1 l1 7^  : Z_ E~ 7^ 7^ Z_ r| 9; V$ Z7 9; N# {| Fc 1s 'j `7 H. r$ '= 5; +[ != )% [@ +. ~j q* Ek Dk Dk a; E) g} +0 s[ ]D =! 9u );.pW !;.~;.{;.];.^;./;.(;._;.:;.<;.[;.};.GA |;.5@ L& A  `w hI sx b-.p+ g= 6! jf v-.1;.H=.N> !' *Y Qw x1 pj Qm 2;.cc /B 3;.4;.5;.6;.7;.8;.9;.0;.>/ +* ",
"a;.s* oc ~= y+  ' r% h; s& h) V, C$ k% a8 ~m 3( 4* E. y> y> E. y> y> 3( D- Nf y' K# 4* b;.c;.d;.e;.I-.f;.g;.h;.i;.j;.m+.|L -s E. E. E. k;.l;.m;.gZ P-.n;.o;.p;.T-.q;.U-.,-.r;.W-.s;.t;.u;.v;.w;.x;.y;.r#.P%.[T x*.z;.A;.w&.M$.O$.jJ B;.a= B+ -- Q  E3 C;.D;.E;.0V F;.G;.H;.I;.J;.K;.L;.M;.N;.r} p1 K. s& Vg %< +> `, &' P< Zg `g u( m1 E{ &, L# 9; ;- )b s; 6! E+ D+ m& n% 63 r& _~ 7: U$ 9; *~ i& j- 0, 0, L> i& ;) 9; ;) n^  } ;) (= [%.[i K> .: 6) o, @& n, t% c6 x0 x0 ;a J9 :i y% J< Gc 'j </ '% 5a ~j F_ (=  ] `[ `[ qb 1j '% o, ;- t- U: z> z> F. .9 @* 8&  - N  y[ [0 S~ n^ O;.sk V( sk _W t; t; Cf ]f mi zi D- D. F. *~ o[ W' U~ Q=    V- n[ h& E. E. E. E. 3( u* Dc 8! Z[ u; J. 6) 9, j= j= s* z> E. 3( E. y> y> #e y> h& 1* x, X- qb %~ qb qb L> X- X- p! V. F+ E+ 6! t- i- Df n! P# @& ^* r$ +! `6 `6 i= 15 Bk r*  7 D> Gk -i -i vh Y[ O= 3, R4 Q0 P;.Q;.R;.S;.T;.U;.V;.W;.X;.Y;.Z;.`;. >..>.+>.@>.#>.$>.,m ~, f/ /K .I pp %>._+ x. ~# B> *, F=.&>.v-.i6 _* ^s >C &( 3r *>.=>.au !& ->.FS ;>.>>.,>.'>.)>.o- K4 l$ ",
"S' F. F. V: x> A- $@ h= U5 [> y+ a. G~ b8 &@ E- E- 3( E. y> y> 3( 3( g& 4^ y' K# V- y' !>.~>.C*.{>.]>.^>./>.(>._>.:>.<>.[>.O$.E. E. y> }>.|>.1>.2>.3>.4>.5>.p;.6>.7>.,-.8>.9>.0>.a>.b>.c>.d>.e>.f>.g>.h>.i>.y*.y*.z*.A;.w&.j>.M$.k>.t&.l>.m>.n>.o>.p>.q>.r>.s>.t>.u>.v>.w>.x>.y>.z>.A>.n%.Bk 15 |0 )b B- i= l8 $- $- Y# Y# 6b 6b 9, Te B> `% C- r; -> r; r; d8 rO 79 >> *> 6, A/ _* yp J7 x9 L* Q4 Q4 =| ~; W$ x9 `  {# t* W$ 3{ W$ 3{ 6{ K* 7{ A> B> B> F+ 8^ <= 6) /# /# S$ f~ #~ m3 +. _] <} t; Nl k~ b] q* `[ `[ Z7  ] V$ E_ P* s& )= 6! D0 E- D. D. J7 Zw f= p$ h) R$ +& 0= Z[ ,k :/ B>.;j  b x6 2] 6< mi D. E. E. E. h& @k *~ )0 ^% s& h' h& E. E. E. E. E. E. E. E. h& j{ x, N# W* R$ j- C- 7{ 3( 3( E. E- y> E- E- E- E- 4* 4^ V- V- 6{ 1* 6{ 1* 1* 1* u* j{ g& 3( z> z> 4^ 5* ^m i{ gg gg gg &@ 5* 4* 4* 3( h& D. D. D. I> C>.Jk Ik a;.&> v; 5, a' w2 D>.E>.F>.G>.H>.I>.J>.K>.L>.M>.N>.O>.P>.Q>.)K E< R>.Qm `e 9& =1 c/ B( 6d lz `~ 1- e> og jf S>.Vh Vh 6_ x+ K0 /s  * 0@ h7 H* T>.a# U>.V>.W>.X>.Y>.Z>.{I s= vK Nb ",
"3( 3( E. y> P4 6* &@ Q4 .- a8 r$ k% p& 75 5* E- E. E- E. E. E. 3( 3( z> h& z> z> '; 6{ !; ^m 7N 8N `>. ,.H@..,.+,.@,.#,.$,.C*.E. E. y> 4K %,.&,.*,.=,.4>.-,.;,.>,.--.,,.0=.',.),.!,.!,.~,.{,.],.^,./,.h>.(,.(,.x*.QL _,.w&.R%.M$.;L R%.3K jJ O$.jJ jJ jJ k;.:,.<,.n;.[,.},.|,.1,.2,.3,.:n n[ y' `a &@ 5* 4* g& j{ j{ &@ u* >8 ^m i{ j{ 4^ 4^ 4* 4* 5* 5* &@ &@ 4a !>.4,.!>.=d R` ,O ~m 3( 3( P4 #e y> y> y> 3( 3( 3( E- 3( 3( 3( 3( h& h& h& z> z> g& 4^ n3 Th ec oc `[ q* .. B1 B1 :^ *X k= ]f vh $k a;.cl =, Bk h> )b oc &> *~ +- .] l! 1b E- E. D. E. 3( B' .- g6 ;> x+ w$ @k B1 ^i :k j~ 8l 3] Z_ r| &~ u} D. E. E. E. D. z4 a= U5 l% J^ C- E. E. E. E. E. E. E. E. E. E. h& Th =~ a. !: [= x$ u* E. E. E. E. E. y> y> #e y> 3( h& h& h& 4* h& h& 3( E- E- 3( 3( y> E. E. E. E. E. E. E. E. E. E. E. E. E. E. E. E. E. E. E. E. D. U- H> fc nm S$ 7; |$ 5,.6,.7,.8,.9,.0,.a,.b,.c,.d,.e,.f,.g,.h,.i,.:X j,.6. Z= k,.9& 1$ v] ]! p[ J1 =@ C$ Z- W- *, bl 6_ V- K# rO _< )- _< <Q l,.m,.n,.o,.p,.q,.r,.s,.t,.u,.v,.Dw n$ N% ",
"E. E- E. E. E. y> E. E. E. ~m Nn D0 7* 6* E- E- y> y> E. E. y> 3( 3( E- 3( E- z> g& K# y' g& P4 5*.w,.x,.y,.z,.A,.B,.C,.D,.L$.O$.iJ jJ E,.F,.G,.H,.I,.J,.K,.L,.M,.N,.O,.M,.P,.Q,.R,.S,.T,.U,.V,.W,.X,.Y,.A+.P%.Z,.I%.A;.L$.;L 8N k;.O#.j>.3K M$.C*.C*.O$.k;.`,. '..'.+'.@'.0N #'.$'.%'.h& S' y' `a  9 5* 5* %> g& g& g& g& `a 6* g& z> %> 3( 3( E- E- 3( E- 4* 5* 5* ]b 6* ~m ~m x/ Um P4 E- E- #e E- E. E. E. E- y> y> y> E- E. D. E- z> D. E- 4* %> z> 5* r; h' Z7 Z7 .. .. .. x, x, p) B1 j= 7! u} ,; K* 7{ Dc Dc C- s; => d> 0= )= &'.g& 3( E. D. E. D. 3( 5* &@ 4a i{ gg t* y2  & 9! &k I{ b] 0; Z[ x, A> n[ D- D- D- j{ gg -> B- A- D+ *'.E. E. E. E. E. E. E. E. E. E- h& 3{ Z- h= U. a= }0 g& E. E. E. y> E. 3( y> P4 y> 4* 4* 4* z> z> E- 4* E- E- 3( E- y> E. E. E. E. E. E. E. E. E. E. E. E. E. E. E. E. E. E. E. E. E. E. I> J> S' `[ +& l{ MA 2: ='.Rm -'.;'.FD >'.,'.''.)'.!'.~'.{'.]'.^'./'.('._'._) )) Sb 1$ X_ += Q% }2 W& :5 ,' !h Vh :'.K- Nf y' yp f1 ]' <'.['.ng )M #  }'.|'.1'.2'.3'.4'.5'.6'.Nt @* I% ",
"E. E. E. E. E. E. E. E. E. E. E. E. E. E. E. E. E. E. E. E. E. E. E. E. E. E. E. E. E. D. E. E. iJ 7'.8'.9'.XT 0'.a'.b'.c'.9N E,.d'.}>.>L a'.e'.f'.g'.h'.u%.i'.j'. W k'.l'.m'.n'.o'.p'.q'.r'.s'.t'.u'._-.v'.w'.w'.x'.y'.L$.k;.O#.uM O#.M$.3K C*.C*.C*.3K uM z'.r .A'.B'.C'.D'.E'.F'.G'.D. D. G{ H- j{ 4* E- E. D. E. E. D. 3( D. E. E. E. E. E. E. E. E. E. E. E. E. E. E. y> E. E. y> 3( E. E. E. E. E. E. E. E. E. E. E. E. E. E. E. E. E. E. E. y> E. 3( `  @k ec ^] x, )b i' i' h> gc gc Y_ 6{ I> G{ I> I> D- K# ^m >8 t* ~; t*  9 z> E. E. E. E. E. E. E. E. E. E. E. D. D. D- F{ n[ n[ F. ,; x' 5{ 3{ F. 1* j{ j{ 4^ D- E. D. 3( z> 3( E. E. E. E. E. E. E. E. E. E. E. D. h& K# j{ 4^ ^m z> E. E. E. E. E. E. E. y> y> 3( 3( 3( h& E. E. 3( E. E. E. E. E. E. E. E. E. E. E. E. E. E. E. E. E. E. E. E. E. E. E. E. E. E. E. E. E. D. h& p) 8) X, E3 H'.K+ I'.<n J'.K'.L'.M'.N'.O'.P'.Q'.R'.S'.T'.U'.V'.~F z  3d ]  -/ n  .' <> 8: @@ :5 `6 x' u} W'.6_ K- V- x$ q+ [4 == N  '=.Ht K@ ^S X'.3w Y'.Z'.9s %$ ,v j$ p( N! ",
"E. E. E. E. E. E. E. E. E. E. E. E. E. E. E. E. E. E. E. E. E. E. E. E. E. E. E. E. E. E. E. 3( y> S%.L$.y'.4L +;.`'. )..).+).@).#).$).K&.O%.%).k=.&).*).=).<T -).5K I%.;).;).;).x&.x&.I%.>).,).').QL d'.)).d'.E,.!).)).~).{).4K 4K O#.8N R%.R%.R%.R%.]).^)./).()._).:).<).4K O#.8N -s D. D. z> F- &@ 5* 4* E. E- D. Tm E. Tm D. E- E. E. E. E. E. E. E. E. E. E. E. #e E. E- E. E- E. E. E. E- E. #e E. E. E. E. y> y> E. E. E. E. E. y> y> E. E. #e E. y> 4a t> |* t- E+ r; r; *- J7 ); 2*.L* y' G{ D. G{ D. pn D. Tm D. E- 3( D. E. E. E. E. E. E. E. E. E. E. E. D. D. 3( D. h& h& h& h& z> z> D- 4^ `a u* i{ u* 4a 5* 5* E. E. E. E. E. E. E. E. E. E. E. E. E. E- D. 3( D. z> D. D. D. D. E. E. E. E. E. E. E. E. y> E- E- 4* E- 4* E- E- y> E- y> y> y> 3( E. E. E. E. E. E. E. E. E. E. E. E. E. E. E. E. E. E. E. E. E. E. E. E. D. h& @k U; C( F3 H'.,0 t` H: [).}).|).1).2).3).4).5).6).7).8).9).0).a).() D% V4 += l$ `@ 1y D$ l{ k% x$ y' $c !h @Y Ga @Y w' O. <~ x* q> z% A{ &6 z( v& /, X_ w; b% L: 3% n, 'h 'h ",
"E. E. E. E. E. E. E. E. E. E. E. E. E. E. E. E. E. E. E. E. E. E. E. E. E. E. E. E. E. E. E. E. E. y> O$.O#.b).t%.c).d).e).f).:).g).zY r'.hU h).i).j).|>.k).l).m).n).o).E,.)).)).%M }>._,.p).q).r)._,.uM s).w&.L$.w&.}>.t).^).L$.w&.;L 8N j>.M$.M$.j>.M$.L$.u).v).w).x).l).R%.O$.jJ y> D. E. E. E. %> E- D. E. E. E. E. E. E. E. E. E. E. E. E. E. E. E. E. E. E. E. E. E. E. E. E. E. E. E. E. E. y> E. E. E. E. E. E. E. E. E. E. E. E. E. E. E. E. E. E. P4 4,.N* V: ~; u- `*.`*.)n )n 5o z' 3( E. E. E. E. E. E. E. E. E. E. E. E. E. E. E. E. E. E. E. E. E. E. E. y> 3( 3( 3( E. E. y> y> y> y> P4 !m !m 5* ~m ~m P4 P4 E. E. E. E. E. E. E. E. E. E. E. E. E. E. E. E. E. E. E. E. E. E. E. E. E. E. E. E. E. E. E. y> E. y> y> y> y> #e E. E. E. y> E. E. E. E. E. E. E. E. E. E. E. E. E. E. E. E. E. E. E. E. E. E. E. E. E. E. E. h& i' @. C( S9 y).I'.z).A).B).C).D).E).F).G).H).I).J).K).L).M).N).O).N+ y@ P).z@ U, `; x* 8: %= k% B- z> D- B> ;- 35 f> !% x* |; Se ^  y. y. 7~ :~ :~ ^  0/ %_ /  J) (  @@ +[ 0= ",
"E. E. E. E. E. E. E. E. E. E. E. E. E. E. E. y> y> y> y> y> y> y> y> E. E. E. E. E. E. E. E. D. D. :n jJ k;.4L Q).R).S).T).U).V).W).2Q CT X).Y).Z).`). !..!.+!.@!.#!.$!.%!.&!.*!.=!.-!.;!.>!.,!.'!.)!.uM ;L O#.w&.w&.}>.4K }>.L$.w&.O#.8N j>.j>.j>.8N ;L %M !!.rP ~!.{!.]!.4K O#.R%.-s 3( E. D. E. P4 4* %> E- 3( E. E. E. #e #e Um y> E. E. E. E. E. E. E. E. #e P4 Um E. E. E. Um y> #e E. E. E. #e E. E. E. #e E. E- E. E- E. E. E. y> y> qn Um Um y> y> P$.^!./!..B (!._!.:!.<!.[!.}!.6Q |!.1!.y> E. E. y> qn qn 9o 9o 9o 9o 9o 9o 9o qn qn qn qn Um Um -s Um -s -s y> y> E. y> -s 7N 2!.3!.4!.3!.5!.6!.7!.8!.9!.0!.a!.b!.8o Um y> y> y> #e y> y> E. y> Um qn 7o 9o qn Um -s Um Um Um y> y> y> y> y> -s -s 1!.2!.3!.ZQ c!.d!.3!.3!.3!.iJ -s Um Um y> Um y> %> E. E. E. E. E. E. E. E. E. y> Al e!.8o 1!.qn 1!.qn qn y> y> E. E. E. E. E. h& i' @. 7@ R< x} f!.g!..U h!.i!.j!.k!.l!.y5 ge m!.n!.o!.p!.qT q!.;r t. {b `& la $( L+ Z$ =@ %= 1- 79 z> z> &- v} X, ;  g  e- +..[{ }5 Y/ c/ =# 8< %>.rt E/ pp r!.<P s!.q_ Jn }, ",
"5* z' 6* ]b z' 6* %> E- E. E. E. E. y> `*.l- |q t!.oz u!.u!.t!.t!.v, Xo 73 v!.w!.;> Qo :e q! Qo Xy x!.y!.z!.q` A!.h).B!.s#.C!.D!.E!.F!.G!.H!.I!.WT J!.K!.L!.M!.N!.O!.P!.Q!.R!.S!.T!.U!.V!.W!.X!.Y!.Z!.l+.`!. ~..~.+~.@~.#~.$~.%~.&~.*~.G%.>L >L 4L ^W E'.xX =~.-~.;~.>~.,~.'~.)~.!~.:&.0p 14 j8 8* q! w+ ;> Bf v- z' ~~.{~.]~.#q Q[  R ^~./~.wp )n y> E. 1o bp Jv n) zS |o y> Um  p (~.Qp =d C' z' E. E. E. E. E. E. y> E. E. E. bo _~._~.:~.<~.[~.}~.|~.1~.2~.3~.)..eH 4~.5~.6~.7~.8~.9~.0~.a~.b~.c~.d~.e~.f~.g~.h~.i~.j~.k~.l~.l~.m~.n~.o~.p~.q~.r~.s~.s~.#Q t~.^%.u~.v~.w~.x~.y~.z~.A~.B~.C~.C~.D~.E~.F~.G~.H~.I~.J~.K~.L~.M~.N~.O~.P~.Q~.R~.S~.T~.U~.N~.V~.W~.X~.Y~.Z~.`~. {..{.+{.@{.#{.${.${.%{.&{.*{.={.-{.;{.>{.,{.'{.){.!{.~{.{{.]{.^{./{.({.wp @m y> 4* 3( z> E. D. E. y> E. y> E. Al _{.+S @{.:{.q~.<{.[{.}{.|{.1{.2{.3{.4{.~m E. 3( _^ -= l% U< S[ ,[ }: K+ 5{.6{.7{.8{.9{.0{.a{.b{.c{.d{.e{.f{.g{.h{.]+ >! X= w] t+ f@ }$ x* ]% [> B- z> G{ Dc ~= !: +@ Y~ 2- i{./s -$.H& j{.k> gv -. cv k{.Bw l{.Hz m{.n{.z1 o{.",
"D+ w$ a2 Z% Z% A- `6 ->  9 `a g& 5* `*.S  S] /D 4$ =( :' =( =( :' c/ o> f_ 4% ;/ |) 9d %[ 5| 3- T} p{.q{.r{.s{.t{.pY u{.v{.w{.x{.y{.z{.A{.B{.C{.D{.E{.F{.G{.H{.I{.J{.K{.L{.M{.N{.O{.P{.Q{.R{.S{.T{.U{.V{.W{.X{.Y{.Z{.`{. ]..].+].@].#].$].%].&].*].=].-].;].>].,].'].)].!].~].{].]].^].E/ k! )! I% (% D_ A+ [> 95 Ap s_ }C /].(]._].:].<].4D ep .P [].}].Jv c/ f% N+ @3 |].1].}].Ro &# j} 9: W..s> E. E. E. E. E. E. E- E. y> Um 2].3].4].5].6].7].8].9].0].a].b].c].d].e].f].g].h].i].j].k].l].m].n].o].p].q].r].s].t].u].u].v].w].x].KS y].z].A].B].C].D].E].F].!N G].Kd H].I].ZD J].K].L].M].N].O].P].Q].R].S].T].E, U].V].W].X].Y].Z].`].Z]. ^..^.+^.@^.#^.$^.%^.&^.*^.=^.-^.;^.>^.,^.'^.)^.!^.~^.{^.]^.^^./^.(^._^.:^.<^.[^.}^.|^.6~.1^.2^.!q i_ Jv Sq y> 6* u* !; x9  9 4* B' z' bm qn _~.RU 3^.4^.5^.6^.7^.,J 8^.9^.0^.a^.7O xo Mt 3( 4* Y_ J^ f{ 8, /  Il Y( w; b^.c^.gM @t d^.e^.f^.g^.h^.i^.j^.~F L).Ho _> A, f; c} E! s- ]; @- h{ 1c l8 G{ G{ Xb v} Y; J  ], [J n- 8v =. zs k^.l^.XE m^.n^.o^.p^.q^.r^.s^.t^.u^.9u ",
"n^ k{ A3 Df Df v} <b 6@.i= *3 Nf >8 L* 6  t] c) {b {D `w {D ~5 ~5 (- (- ej ej I# M& M& I# y@ ~5 UV v^.*c w^.x^.y^.z^.A^.B^.C^.D^.E^.F^.G^.H^.4S I^.J^.K^.L^.M^.N^.O^.P^.Q^.R^.S^.T^.U^.V^.W^.X^.Y^.Z^.`^. /../.+/.@/.#/.$/.%/.&/.*/.=/.-/.;/.>/.,/.'/.)/.!/.~/.{/.]/.^/.//.(/._/.:/.</.[/.M< P> 59 Ce *< c_ 8@ r$ ;C &s H& }/.Ug |/.O, lE EH _- gI pO S  p+ u  JG ]5 }= u! 1/.|b .[ dL +* Xs Af To E. E. E. E. E. E. E. E. E. 9o *q 2/.3/.4/.5/.6/.7/.8/.9/.0/.a/.b/.c/.d/.e/.f/.g/.h/.i/.j/.k/.l/.m/.n/.o/. g p/.q/.r/.s/.t/.u/.v/.w/.x/.y/.z/.A/.B/.C/.D/..m E/.F/.G/.H/.I/.J/.K/.L/.M/.N/.O/.P/.Q/.R/.S/.T/.U/.V/.W/.X/.Y/.>n Z/.B].-^.`/. (..(.+(.@(.#(.$(.%(.&(.*(.=(.-(.;(.>(.,(.'(.)(.yO !(.~(.{(.](.^(./(.((._(.:(.<(.[(.}(.,c |(.1(.2(.3(.T/ h9 C' y> %> ^m i= => C-  9 =| C8 ,O qn 4(.5(.6(.7(.8(.9(.0(.a(.b(.c(.-^ xG }b m- Y$ P4 5* w, ;= e  U< .{ [/ P| ]e d(.e(.f(.g(.h(.i(.j(.k(.l(.m(.n(.o(.7. 0  Bq _> M+ b} <g c} S# J  8@ ~' l8 G{ D. x' g9 Y; /; C% K/ <  nb 4s p(.q(.r(.s(.t(.u(.v(.w(.x(.y(.z(.o0 r~ A(.",
")= +[ )= %6 %6 9C )= X~ &'.B(.y' y' !>.<6 2+ sa Wz <; Wz Wz Wz Wz >! f, R@ R@ a5 a5 0~ >3 x~ rB C(.D(.E(.F(.G(.H(.I(.J(.K(.L(.M(.N(.O(.h$.P(.Q(.R(.S(.T(.U(.V(.W(.X(.Y(.Z(.`(. _.._.+_.@_.#_.$_.%_.&_.*_.=_.-_.;_.>_.,_.'_.)_.!_.~_.{_.]_.^_./_.(_.__.:_.<_.[_.}_.|_.1_.2_.3_.4_.5_.6_.7_.8_.m  G@ x0 3i =/ c~ bf v, Vb 5F Y'.0v Vd X* B  Y+ o$ Af t! (} <& @^ 9_.x  :- %p J' eL 0_.2; q+ f= Dq |b E- E. E. E. E. E. y> Um Um a_.b_.c_.d_.e_.f_.g_.8/.h_.i_.j_.k_.l_.m_.n_.o_.p_.q_.r_.s_.t_.u_.v_.w_.x_.y_.z_.A_.B_.C_.D_.E_.F_.G_.H_.I_.J_.K_.L_.M_.N_.O_.P_..m Q_.R_.S_.T_.U_.V_.W_.X_.~$.Y_.Z_.`_. :..:.+:.@:.#:.$:.4H 0D #^.%:.&:.y].*:.=:.-:.;:.>:.,:.':.):._(.!:.~:.9I {:.]:.^:./:.(:._:.::.<:.[:.}:.|:.1:.2:.3:.,'.4:.5:.6:.7:.8:.9:.0:.a:.<q b:.wp 1o B' 4a x$ C+ t7  9 3* )n ju 7!.c:.d:.e:.f:.g:.h:.i:.j:.k:.EF 9^.l:.0W +.._%.z'  9 x$ +] 4, $. J) L: P. 1& m:.n:.o:.p:.q:.r:.s:.t:.u:.v:.j^.w:.x:.3@ R& p| T* c} P~ b} I/ [& h) m# '' D. D. >8 k{ y+ j; 7< $D y:.nE Pt z:.A:.B:.C:.D:.E:.F:.Fo G:.[N ub H:.rL I, ",
"H/ .' W: q+ ~% `; E$ <> Mr yp s> Bf I:.'^ ~( J:.[E k> jv jv Jq :, >V xa r# g% lc f, >! XB -$. C K:.^1 L:.M:.N:.O:.P:.Q:.R:.S:.T:.oP U:.V:.W:.X:.Y:.Z:.`:. <..<.+<.@<.#<.$<.%<.&<.*<.=<.-<.;<.><.~x ,<.'<.)<.!<.~<.{<.]<.^<./<.(<._<.:<.<<.[<.}<.|<.1<.2<.3<.4<.5<.6<.7<.8<.9<.0<.a<.b<.c<.rB aw ^z 8~ w} a/ <~ ;< Jn l_ $+ d<.$O e<.UB e_ G@ {, :* +] +] )] ;; #< Y+ 5| i_ fI '> ~D la 1) #! PG hH %> E. E. E. E. E. co f<.g<.h<.i<.j<.k<.l<.m<.n<.o<.p<.q<.r<.s<.t<.u<.v<.w<.x<.y<.z<.A<.B<.C<.D<.E<.F<.G<.H<.I<.J<.K<.L<.M<.N<.O<.P<.Q<.R<.S<.T<.U<.V<.W<.X<.Y<.Z<.`<. [.U_..[.+[.@[.#[.$[.%[.&[.*[.=[.-[.;[.P].1f >[.,[.'[.)[.^:.![.~[.]:.{[.][.^[./[.([.|%._[.:[.<[.[[.}[.|[.|[.1[.2[.3[.4[.5[.6[.7[.8[.9[.0[.a[.b[.c[.d[.e[.f[.g[.h[.i[.j[.k[.l[.m[./%.n[.Jv Y} B+ U. w' w, 4,.Jz yo o[.p[.q[.r[.s[.Eg t[.u[.lH v[.w[.x[.y[.pp f& *@ L* .! Yb Z  y$ -- 8, P  P= t+ ]) z[.Gt %$ `. QK A[.B[.C[.P; PP c& QP B# 9d {+ 9@ Y; S~ m% m& /* 5; U5 }0 3( E. j{ |* Q  z$ c' D[./X @} E[.(l 9# 7# !. >+ F[.G[.H[.I[.$% J[.Iw p8 K[.",
"L[.Z] 74 P, -* -* T, j. ++ @+ `R le 7/ 1/ (' _z G* Bw  , Z! v5 M[._, 8% N[.QB BH j{.x# j5 0# !& 8{.YN O[.P[.Q[.R[.S[.T[.U[.V[.W[.M,.X[.Y[.Z[.`[. }..}.+}.@}.#}.$}.{_.%}.&}.*}.=}.-}.;}.>}.<E a9 C  B) 7%.,}.'}.)}.!}.~}.{}.]}.^}./}.(}._}.:}.<}.[}.}}.|}.1}.2}.3}.4}.5}.6}.7}.8}.9}.0}.dF }M a}.KI aw ,< f= `~ Z/ pp b}.t# c}.]- +B y  Q) P$ #' p} n( Za Y  G~ I  @3 ++ k>  + St ~> d}.'H =*  > dL L* E. D. E. E. E. -C [P e}.f}.g}.h}.U_.i}.j}.k}.l}.m}.n}.o}.p}.9k ul q}.r}.s}.t}.u}.v}.w}.x}.y}.z}.A}.B}.C}.D}.E}.F}.G}.H}.I}.J}.K}.L}.M}.::.N}.O}.P}.Q}.R}.S}.T}.ZD U}.V}.W}.X}.Y}.Z}.{*.`}. |..|.+|.X<.{l $=.@|.#|.$|.%|.&|.*|.=|.-|.;|.):.>|.,|./(.'|.)|.!|.~|.{|.]|.^|./|./|.(|._|.:|.<|.[|.}|.||.1|.2|.3|.4[.4|.5|.6|.7|.8|.9|.0|.a|.b|.c|.l~.d|.e|.f|.^s 4' H( [= r$ >> q; g|.]} h|.i|.j|.k|.}#.l|.m|.n|.o|.p|.q|.YJ r|..R f& sQ rO a2 E+ ^m P4 ~m B' J7 w, q! bf hc 1y &# Fm [[ =* z; ,V 32 5R x. += %# :5 <> U5 V' I1 $- Ha Dc gg Md g& z> 3( 4^ 4a qt =s s|.N0 ]6 {6 U` t|.u|.v|.C) y1 w|.SE r= SE x|.8v i! h] y|.",
"bw ~v ~v dw dw `x =+ -0 ). Hz Ww z|.A|.[F aE aA /f /f B|.B:.H= H= C|.D|.E|.SB  , 19 (x F|.G|.}x H|.G, F|.Nz HL I|.J|.K|.L|.M|.N|.O|.P|.Q|.R|.S|.T|.U|.V|.W|.X|.Y|.Z|.`|. 1..1.+1.@1.#1.$1.q, IJ :* bs %1.&1.*1.=1.-1.;1.>1.u` ,1.YI '1.)1.!1.~1.{1.]1.^1./1.(1.(1._1.:1.<1.[1.}1.|1.11.21.31.41.BK @_ yo zo ^y 51.61.71.81.Ov 91.or ~+ Lc -9 t3 _% G@ D_ 89 hc zf f1 01.a1.Lg }u Gx b1.c1.dG +B .2 *g E. Tm E. D. E. ({.>z d1.e1.h}.f1.g1.h1.i1.,%.+(.j1.k1.l1.m1.n1.o1.p1.q1.r1.s1.t1.u1.v1.w1.x1.y1.z1.A1.B1.C1.D1.E1.F1.G1.H1.L}.L}.I1.J1.K1.L1.M1.P}.N1.!^.DF O1.P1.Q1.~y R1.S1.T1.U1.V1.W1._$.X1.Y1.9(.Z1.`1. 2..2.+2.@2.#2.$2.%2.&2.*2.=2.-2.;2.>2.!:.!|.,2.'2.f].)2.)2.!2.~2.{2.=|.]2.^2./2.(2._2.:2.<2.[2.}2.|2.12.22.32.42.52.62.72.82.92.02.a2.b2.c2.d2.K6 ]; =~ ka U. Se !> e2.FD f2.g2.KS h2.i2.*Q j2.Dg k2.q2 l2.dA :  }, x+ 79 ;4 =4 E. E. E. E. E. E. E. E- %> E- g& %> m2.D0 3_ C8 7* `a 1b ^b m8 B> n2.&>.o2.p2.q2.r2.$c S' g& D. G{ E. h& %@ ); r; |1 ({ <{ cu d- s2.g} 8/ ^  l$ Mb <2 [2 :4 ]  8h '< 1) S] ",
"t2. y .w Vv Vv !x !x /r .w 0# m{.u2.v2.xB *J w2.oe oe x2.y2.z2.z2.A2.B2.C2.D2.E2.(B F2.G2.~B H2.I2.,t >t {x J2.}# K2.L2.M2.N2.;,.O2.P2.Q2.R2.S2.T2.U2.V2.W2.X2.Y2.Z2.`2. 3..3.+3.@3.#3.$3.z~ V  2; 0W %3.&3.*3.=3.-3.;3.>3.,3.'3.IW )3.!3.~3.{3.]3.^3./3.(3._3.:3.<3.[3.}3.|3.13.23.33.43.53.63.73.a| 83.93.03.a3.b3.c3.d3.PC Jm :. e3.sn ]  Wd .2 <& h) m, @@ f3.(8 g3.h3.vq Kg i3.[z j3.h0 OK ^z 8* D. z> E. E- y> k3.V/ l3.m3.n3.o3.J/.p3.q3.r3.T<.s3.t3.u3.v3.w3.x3.y3.z3.A3.B3.C3.D3.E3.F3.G3.H3.I3.J3.K3.L3.w].M3.N3.K}.I1.O3.P3.*:.Q3.hG R3.S3.g:.2H T3.U3.V3.YJ W3.]6 as X3.Y3.wO ]Z Z3.,<.`3.i1.W_. 4.y=..4.+4.@4.#4.$4.l_.%4.&4.*4.=4.-4.;4.>4.,4.'4.)4.!4.~4.{4.{4.]4.^|.&[.^4./4.(4._4.:4.<4.[4.}4.|4.R}.14.N1.24.34.44.54.'c 64.74.84.94.04.a4.l:.b4.2, m, j*  h l! c4.,C d4.e4.f4.6P g4.h4.i4.j4.k4.l4.m4.n4.>^ g|.:  j} R  D+ .u ZP E. E. E. E. E. E. E. E. E. E. Tm E. Tm Tm z> E- z> pn y/ $c o4.p4.q4.r4.s4.s4.t4.u4.v4.y/ g& pn D. E. G{ W$ h' Z  5; h% 9/ I+ !( }^ 6@ E) n# Q~ yN 4i M< a1 o# w4.g] 4' |> ",
"|y  y  w TG mb cw cw  y ~v x4.y4.(D !> z4.LI 4A A4.xw 9{.B4.C4.D4.E4.F4.C4.Qz G4.H4.U_ I4.IV pu >t 1t uu mv vw w@ J4.K4.L4.M4.N4.O4.P4.O|.Q4.R4.S4.[O T4.U4.V4.W4.X4.Y4.Z4.`4. 5..5.+5.@5.7@.5- e' iA %d #5.$5.%5.&5.*5.3T =5.-5.;5.>5.,5.'5.)5.!5.~5.{5.]5.^5./5.(5._5.:5.4e <5.[5.8%.21.}5.|5.n. 15.:c 25.9#.35.45.55.65.75.85.95.05.b#./} k' 9& += @! m, Y, if H( 8y NQ a5.&J #t b5.c5.L[./- T* M* D. F- D. 3( P4 d5.e5.f5.g5.h5.i5.j5.k5.l5.m5.n5.o5.p5.q5.r5.s5.t5.u5.v5.w5.x5.y5.z5.A5.B5.C5.D5.E5._2.F5.G5.H5.Q3.24.I5.J5.K5.L5.M5.N5.O5.P5.Q5.A].R5.S5.T5.j<.YJ |H U5.V5.a^.|H W5.X5.Y5.Z5.`5. 6..6.+6.@6.#6.$6.%6.&6.*6.=6.-6.;6.>6.,6.'6.)6.!6.~6.{6.]6.^6./6.(6._6.:6.<6.[6.A].LS }6.|6.16.26.36.46.56.66.76.86.96.JH 06.a6.b6.c6.d6.e6.f6.g6.h6.i6.uO ,< 89 j* 'h A- >p j6.l!.k6.l6.m6.n6.a[.o6.p6.H1.q6.r6.s6.t6.|| N[  { 0p :e 75 5_ D. E. E. ~m  9 g& E- u6.v6.Md xh w6.x6.P2 y6._* V~ z6.6@.lP A6.Z- B6.C6.D6.E6.F=.W'.B(.j{ E- E. E. E. E. ~; Y7 ,= ;= h% +/ |{ F6.55 +| b% t+ 63 J9 yN bT :@ #< f. V* K4 s@ ",
"JC G6._t H6._t !x !x ,B EA CA I6.J6.p[ -( ++ SE r= qr er K6.L6.M6.N6.O6.P6.3f Q6.R6.S6.T6.U6.}t hy V6.W6.dF k{.X6.V[ Y6.Z6.`6. 7..7.+7.5>.@7.#7.$7.=R %7.&7.*7.=7.-7.;7.>7.,7.'7.)7.!7.~7.{7.7[ ]7.34 l:.^7./7.(7._7.:7.<7.[7.}7.|7.17.27.37.M,.47.57.67.77.87.97.07.a7.b7.c7.d7.e7.f7.*m g7.-B h7.~I i7.@>.j7.k7.l7.m7.n7.o7.p,.p7.Pt <  a$ b$ f% -#.P% <, _~ (% G( h~ TC dG ~- q7.'C r7.s7.s. %[ 8* F- H- D. z> ~m ~o t7.2/.[+.WC u7.v7.w7.x7.y7.z7.A7.B7.C7.D7.E7.F7.G7.H7.I7.J7.K7.L7.M7.N7.O7.P7.Q7.R7.S7.T7.U7.V7.={.W7.X7.U1.Y7.Z7.`7. 8..8.+8.@8.0(.xO #8.$8.%8.e5.e|.a^.._ D: S} &8.*8.=8.-8.;8.>8.,8.'8.)8.!8.[6.~8.{8.]8.^8./8.(8._8.:8.<8.[8.}8.|8.18.28.38.48.-{.58.68.78.F~.88.98.08.a8.b8.c8.d8.e8.f8.9%.g8.h8.i8.hH pq j8.k8.l8.m8.n8.o8.p8.q8.r8.R| J  !: Wm R  _{.s8.t8.u8.v8.w8.x8.P<.y8.z8.A8.B8.*+.C8.DK mp Bt ~z |&.;C Mr x+ L* 5o D8.q; x* E8.F8.G8.1R H8.Z+.m) I8.i5 Hs  t 2( 9$ 9$ R@ D& {+ J0 hJ J8.K8. 3 %6 hH Pp ao E. y> E. E. u- k7 J| G+ /  +/ '^ pf wY t] w] p+ y. 1% =/ s$ |: f. a1 j$ e@  > ",
"L8.M8.Pv ,B OD Zv Zv yw %y DH 6] h= )0 ,, )# %[ -3 12 N8.eD O8.P8.ZF Q8.Iz z! _x R8.3/ S8.T8.U8.V8.W8.&t fu ca bO C@ X8.Y8.Z8.4>.`8.O2.P2. ;.P2. 9..9.+9.@9.#9.$9.%9.&9.*9.=9.-9.;9.>9.,9.*h '9.)9.!9.~9.{9.]9.^9./9.(9._9.:9.<9.[9.}9.|9.19.29.39.49.JW 59.69.79.89.99.09.a9.b9.c9.d9.e9.f9.=t g9.h9.i9.j9.k9.l9.m9.n9.o9.p9.q9.r9.F=  + s9.TA WF == t9.89 I  r] [& -| Z/ {( u9.v9.w9.Vt rt 2- W  q! D- K# pn z> ~m x9.U}.wO y9.K'.z9.%d A9.B9.C9.D9.E9.F9.G9.H9.I9.J9.K9.L9.M9.N9.O9.P9.Q9.R9.S9.T9.U9.V9.W9.X9.Y9.{{.Z9.`9. 0..0.+0.@0.#0.$0.;{.%0.&0.*0.=0.-0.;0.>0.,0.,0.'0.F>.)0.!0.~0.{0.]0.^0./0.(0._0.:0.<0.[0.}0.=:.|0.t/.10.20.30.40.50.60.70.80.90.28.00.a0.b0.o[.c0.d0.e0.-q *q f0.Fp g0.2].h0./~.Mp V~ zP _R i8 i0.r2.5* j0.k0.l0.m0.n0.o0.p0.q0.A_ H( .@ y+ /* j4 ]y r0.s0.t0.u0.v0.x8.w0.x0.y0.z0.A0.B0.C0.je D0.E0.F0.G0.Bp Se Y} w+ 1q H0.}{ $( _  I0.^' J0.K0.J, Z0 Ua =V L0.M0._& 'r h4 $$ 0;.%! Wz #^ E0 N0.w% J  p[ {o 4!.E. E. E. E. O0.0C P0.}+ i) E$ D/ 3T %x !( Y( p, 0) 7@ P  /; b% 0y w4..2 -@ 2A ",
"Q0.7s `N 4A [x D2.%y R0.f# Cw =' 01 :2 *D o( p} G@ f} S0.UJ Z0 E5 T0.U0.V0.W0._x xr X0.Y0.Z0.V/.`0. a.Oz u= .a.+a.08 _&.%~.@a.#a.$a.%a.&a.*a.=a.O4.-a.;a.>a.,a.'a.)a.!a.~a.{a.]a.^a./a.(a.X  k! _a._a.Hb :7.(1 6t :a./L <a.[a.}a.|a.1a.e+.e+.2a.3a.)O 4a.5a.6a.7a.8a.9a.0a.0| =^ aa.QJ {n ba.dE ca.da.ea.fa.ga.ha.ia.ja.DC ka.la.ma.yb (' na.oa.O, 'n .P M= ;~ {* y. J+ 2, Z/ Ym !n Bt #+ *( :' 7F {X H- G- F- g& =d %s pa.qa.ra.sa.ta.ua.va.wa.xa.ya.za.Aa.Ba.Ca.Da.Ea.Fa.Ga.Ha.Ia.Ja.Ka.La.Ma.Na.Oa.Pa.Qa.Ra.Sa.~{.Ta.Ua.Va.Wa.cB Xa.Ya.Za.`a. b..b.+b.@b.#b.$b.%b.&b.*b.=b./v -b.;b.Ow >b.,b.'b.)b.!b.~b.{b.]b.^b.>^./b.(b._b.:b.<b.[b.}b.|b.1b.i].2b.3b.4b.5b.6b.7b.!&.8b.8b.Q1._E 9b.Vb NC (p 0b.ab.bb.cb.db.P2 cf e8 eb.fb.gb.`a S1.hb.ib.jb.kb.lb.mb.&q f& 89 D_ n, C$ xK v~.nb.#w ob.pb.qb.rb.sb.tb.ub.vb.^(.wb.xb.PC a| yb.Tp f<.^^ MA 2~ L6 _S 'p  { ,5 j> zb.Ab.Bb.Cb.Db.Eb.Fb.Gb.Hb.Ib.Jb.Kb.Lb.'r m; ;V g$ E  Mb.Nb.G! R$ =@ Ob.4!.E. y> E. E. !m (^ K< |1 K^ ~% |, Y& L< [e ,0 w] ^  .] A@ x. D) n$ e, C  S| )* ",
"Pb.cc @: Nd )$ Nd Q; aP Qb.ff IJ 9C Rb.L| P~ R) ;&.N< H~ c& M8 {u _) }) QT V_ Sb.Tb.Ub.Vb.Wb.Xb.fk fk Xv -& _& Yb.L^ Zb.`b.I{. c..c..c.+c.@c.#c.$c.%c.&c.*c.=c.-c.;c.>c.,c.'c.)c.!c.~c.F} s& b_ {c.]c.^c./c.(c._c.:c.<c.[c.}c.|c.g..1c.2c.2c.%T 3c.UO 4c.5c.6c.7c.8c.9c.0c.ac.bc.hA aE Pd FE 29 5# OD cc.43.h9.dc.uu =t Fj ec.fc.gc.Wn H& hc.ic.g+ 3E ~D K4 Mb $# y. X  D) S= h9 rc I6.ta 2+ .} t] Z% F- z> D. ]b jc.kc.o3.k5.lc.X5.mc.)$.nc.oc.pc.qc.rc.sc.tc.uc.k| <|.vc.wc.xc.yc.zc.Ac.Bc.Cc.9:.Dc.Ec.Ec.Fc.Gc.Hc.Ic.Jc.;{.Kc.Lc.Mc.Nc.Nc.Oc.Pc.Qc.Rc.Sc.B9.Tc.Uc.Vc.Wc.{{ Xc.Yc.=%.Zc.`c.MH Ab. d..d.+d.@d.)S #d.vG C].$d.%d.&d.*d.=d.-d.;d.>d.,d.'d.)d.!d.~d.D~.{d.9R (y (y ]d.j_ ~D ^d.^d.9b./d.(d._d.:d.<d.[d.69 j4 *g i8 }d.To Kq |d.1d.2d.3d.4d.^%.5d._# 1c /% R* tO 4_ 6d.mp 7d.;^.8d.9d.0d.ad.bd.sb.cd.dd.ed.fd.5[ =%.T/ gd..=.hd.d[ M6 |* id.3q 5! 5d jd.kd.ld.md.nd.od.pd.qd.rd.sd.td.ud.vd.wd.xd.@{ yd.zd.L: Mb.Ad.,( K' u3 Bd.Cd.y> y> E. 3( h& Dd.z2 Ed.C( c. J) .' w] w] p, 1@ d, v: :< G_ /b !( X/ ]  z~ F) ",
"Rm 3- .+ Fd.Gd.3^ cT F) Y+ T@ Hd.T8 _2 /: ;a R) P> cg 8  Id.6F Jd.pM Kd.Ld.Md.Nd.Od.Pd.Qd.Rd.Sd.<t Td.qy Ud.;0 Vd.uI Wd.Xd.Yd.Zd.`d. e..e.+e.@e.#e.$e.%e.&e.*e.=e.-e.;e.>e.,e.'e.)e.MZ fY 8)  ! HU ^_ !e.~e.{e.]e.^e./e.(e._e.:e.<e.[e.}e.|e.1e.2e.R2.3e.:).4e.5e.6e.7e.i6.'C 8e.ac.>* c= J0.9e.M` Y..CN LB 0e.`D B: bG k) )u SD wz X* +^ Dz zA Gw Fw :& _n Q@ l, !# A+ h) ]% So ae.=1 yz Sb l+ o+ k% be.`6 a2 Ie 2@ )$ ^x ce.de.~N ee.fe.ge.dd.he.ie.je.ke.Dg le.me.ne.nT oe.pe.qe.re.se.te.ue.ve.we.xe.ye.ze.Ae.Be.O5.Ce.De.Ee.l| Fe.Ee.v[.Q1 Ge.He.Ie.Je.k4.Ke.Le.X<.Me.Ab.*b.Ne.P1.Oe.Pe.Qe.Re.Rz Se.Te.Ue.ee.ee.Ve.We.U3.Xe.Ye.Ze.`e. f..f.+f.@f.#f.$f.%f.&f.*f.Vy !9 =f.!9 %s GH >< ^! 1, @p HH -f.;f.>f.,f.'f.#p |q )f.!f..[ ]% ]% ~4 ~f.{f.]f.24 u7 C$ [> `S 1c )= 02 E. y> ^f.J~./f.(f._f.;:.:f.<f.[f.}f.|f.1f.2f.3f.4f.5f.6f.'p zp n7 k7 x$ 7f.up p[ $e 8f.9f.0f.af.bf.cf.df.F8 ef.ff.gf.<v hf.if.jf.`1 kf.BW :@ lf.mf.<| ]% b:.nf.4(.3!.@m y> ~m 3( 3* X$ Lk 0) y4 >  .' k$ 08 w] +| +# BN of.yq 3| L= L= 2+ pf.j@ ",
"=@ '^ eo qf.(X cT rf.ya sf.K  ;U ^2 _4 {| x0 md tf.QO H@ uf.vf.wf.xf.yf.zf.Af.Bf.Cf.Df.Ef.Ff.T6.^x G/.Gf.Kw _& Yb.vc d5 Hf.If.#W Jf.Kf..e.Lf.Mf.Nf.Of.Pf.Qf.Rf.Sf.Tf.Uf.Vf.Wf.Xf.9E Yf.Z{ 0d m= Ih -6 Zf.`f. g..g.+g.@g.3e.#g..W $g.%g.&g.*g.=g.q;.-g. 9.;g.>g.,g.'g.)g.!g.~g.{g.]g.dA ^g./g.(g._g.:g.<g.Vy [g.^{ 6d p; _  .' C@ J0 N| ~) }g.|g.1g.2g.3g.4g.T% :4 09 5; |@ Y} *@ 5g.na b+ VJ b& 7& ~b Y  7= ^, 7R 6g.7g.8g.9g.0g.z=.ag.bg.cg.dg.eg.fg.^:.Ee.gg.hg.ig.jg.kg.lg.mg.ng.og.pg.qg.rg.sg.tg.ug.vg.wg.%Q xg.yg.zg.Ag.Bg.Cg.Dg.Eg.Fg.Gg.Hg.Ig.Jg.Kg.Lg.Mg.Ng.Og.Pg.)..vO b_.Qg.Rg.Sg.Tg.Ug.Vg.Wg.Xg.jg.Yg.Zg.66.`g. h._J S}.T3.Uc.h6..h.@0.;0.+h.q0.@h.#h.$h.%h. D 28 %h.&h.*h.nF 3! Cx oT =h.h^ -h.;h.>h.]P #q mz 8r NA f- m{ n! Bk ,; D- >8 $- %6 -- -- _* W..79 D. E. E. ,h.'h.)h.!h.~h.{h.]h.^h./h.(h._h.:h.<h.[h.}h.1A |h.+=.1h.w+ o) Yb id.>*.J1 X: 2h.3h.4h.5h.6h.7h.8h.o0 Gb.9h.0h.ah.bh.ch.dh.`* eh.)_ 0~ fh.gh.q> JJ hh.ih.jh.kh.M@.:n E- y> 4* h& 6! @& =/ r] P= {* D  |& Q) lh.mh.nh.G$ o{ +* {% Y% z@ 3t ",
"[, 8/ oh.ph.TB >6 qh.GB wf I[ rh.$%.Za L% dj ,9.sh.th.uh.vh.wh.xh.yh.zh.Ah.Bh.Ch.Dh.Eh.Fh.S8.Gh.C; U].w) Hh.,$ Ih.Jh.Kh.Lh.Mh.T(.Nh.Oh.Ph.Qh.Mf.Rh.Of.Sh.Th.Uh.tZ ~,.Vh.Wh.Xh.Yh.Zh._6 6~ T[ S$ T[ `h. i..i.+i.@i.#i.$i.%i.&i.-M 0 .*i.=i.-i.;i.>i.,i.'i.p*.)i.!i.~i.{i.]i.l6 R0 +0 M0 ^i./i.(i._i.:i.<i.[i.}i.2! Hb i  @! V8 /* G~ A0 }] `$ #V |i.1i.Pd 2i.OK ,3 )' {X >> |q Y$  ( e{ I8.'U u] }' m} Y, ;~ 63 v@ 3i.4i.5i.DE 6i.7i.8i.9i.0i.ai.{4.bi.ci.+8.di.R3 ei.l3.fi..8.gi.hi.kg.ii.ji.ki.li.mi.ni.oi.pi.qi.ri.si.ti.ui.iT vi.wi.xi.yi.zi.Ai.Bi.Ci.Di.Ei.v8.Fi.Gi.Bj Hi.a3.Ii.zb.Ji.Ki.Li.Mi.Ni.Oi.Pi.Qi.Ri.Si.Ti.Ui.Vi.Wi.hg.Xi.jg.Yi.03.#h.Vy Zi.`i.$h. j.%h.)9 .j.+j.@j.&h.#j.~z $j.%j.Gp >z Jw &j.@:.*j.TY Zp =j.}2 f& f- 8/ f{ C> -j.-j.U- Xb => ;j.v!.Ap 1&.D0 E. E. E. bm .p Kn >j.,j.'j.)j.!j.~j.{j.]j.^j./j.In (j.;z _j.:j.2{ j' h' ^] /^ <j.4< =# [j.}j.|j.1j.2j.3j.4j.:N 5j.6j.7j.8j.9j.0j.aj.B; +6.bj.Xc.$! /b r!.7b.cj.dj.ej.fj.P$.^l P4 E. z> 3( 1b +[ n, J  N) P> s7 x4 >% gj.hj.j0 f9 {* r& m$ W8 r' ;#.",
"J) t) #b Mj G& F# ij.Ws &* Z@ hJ K% Vg Z@ jj.kj.lj.mj.nj.oj.pj.qj.rj.sj.tj.uj.vj.wj.xj.A=.q~ yj.zj.qy h7.|  PB Aj.Bj.58 Cj.Dj.H` Ej.]W WL Fj.Gj.Hj.Ij.Jj.Kj.Lj.Kj.Mj.Nj.Oj.Pj.Qj.Rj.Sj.Tj.~j Z_ fg Uj.Vj.Wj.Xj.Yj.2>.Zj.`j. k.,).BU M%..k.+k.@k.#k.$k.%k.&k.*k.=k.-k.;k.>k.,k.{..Le 'k.)k.!k.~k.{k.]k.^k./k.(k.9[ sf 9^ 99 *| 6r S~ c} L  >/ y4.7# _k.:k.dT or %7 :5 x6.;4 :e pc q; c/ mA Q@ 3d {+ !0 $@ /* `@ <k.M7 [k.}k.|k.1k.2k.3k.4k.j4.5k.fg.zg.Gg.,^.6k.7k.8k.9k./j.0k..8.2U ak.bk.ck.dk.ek.fk.gk.hk.>{.ik.)(.jk.kk.lk.mk.nk._h.ok.pk.Z1.qk.rk.hk.sk.tk.uk.W1.vk.wk.xk.yk.zk.Ak.Bk.Ck.Dk.Ek.Fk.L].Gk.Hk.eB Ik.Pw Jk.Kk.ee.Lk.c3.Ti.^6 Mk.&e oq Y9 Nk.PY Nk.%h.Ok..j.@j.@j.Pk.hD Y9 Kd.Cx Qk.`( Rk.Sk.Gr Tk.Uk.W[ Vk.=@ `~ :+ 9/ )% Ik Wk.Wk.J> L- .u n7 q; >p @N j{ E. E. E. 4a hH bk Xk.Yk.^3 Zk.`k. l..l.+l.@l.#8.^v dA i_ #l.+=.$l.`3 ec x, !b %l.=@ tf &l.*l.=l.-l.;l.>l.,l.'l.)l.!l.~l.{l.3. M8.]l.^l./l.(l.nt _l.:l.pg <l.[l.}l.|l.1l.t&.iJ y> y> y> y> 3* ;j.l7 [; P= R> LN 2l.74 #  {  k' E% I) 3l.)2 +u T: 4* ",
"X  $# ~* e% +3 T9 48 Ye &* {E 4l.hJ a. p+ 5l.6l.7l.8l.9l.0l.al.bl.cl.dl.el.b- W< pa fl.0e.gl.hl.Gw il.Mz t^.jl.kl.ll.F1 ml.nl.ol.pl.p#.ql.rl.sl.tl.ul.vl.wl.wl.xl.wl.yl.zl.Al.Bl.Cl.Dl.El.Fl.|j Gl.Hl.Il.Jl.Kl.A^.Ll.Ml.Nl.2c.Ol.Pl.M%.Ql.Rl.Sl.Tl.Ul.Vl.e..Wl.Xl.D;.Yl.;$.`$ m  9^ 6| Zl.`l. m..m.+m.@m.#m.$m.v2 Mb ], n% 7= @> Zd p} #^ d; h+ du tw Bw J; ^> y@ M| -I a= tp g6 Jo w~ }z 6& 6& 9d >O 14 `P %m.R/ |[ &m.*m.*^.=m.-m.;m.>m.j4.,m.'m.)m.!m.~m.Bk.5(.6' 0^.{m.]m.^m./m.(m.8f._m.:m.<m.vO [h.[m.;0.}m.|m.1m.2m.3m.^:.4m.5m.6m.SN 7m.8m.9m.k5.0m.am.bm.kI ;^.:#.cm.dm.em.fm.gm.hm.im.X_.jm.*..km.lm.mm.nm.om.V/ pm.qm.Ui.5X rm.sm.*s tm.n: um.3! vm.Nk.%h.<7 wm.9' xm.ym.zm.Am.6- a> 0' 18 r: K0 q[ 2) <~ *> >> !' p[ '^ /  <= >[ Bm.Cm.el Dm.G4 v] `& N[ Em.s> E. E. E. gg B/ q7 ]l Fm.Gm.Hm.Im.Jm.Km./:.hi.D~.Lm.g|.i_ !o +=.5q j' ec -, x9 2*.'0 &9 e- Mm.Nm.Om.Pm.Qm.(N Rm.cX Sm.Tm.Um.Vm.L}.Wm.Xm.Ym.Zm.`m. n.={..n.+n.@n.#n.$n.%n.&n.*n.=n.`Q `Q -n.Ob.Jz t!.t!.ya q> UJ Hz C; wu /u ;n.5C V_ bL Kb >n.1/.1o ",
"r& d_ n/ U@ '# 2G Xs -#.dL ,n.'n.zI Y  /b )n.!n.~n.{n.]n.^n./n.(n._n.:n.<n.h% @< [n.}n.!_ %u -7 2v sr R0.|n.1n.2n.3n.4n.5n.6n.7n.8n.w..9n.0n.sl.an.bn.cn.7>.7>.cn.Ij.dn.en.fn.gn.hn.in.jn.kn.ln.mn.nn.on.pn.qn.rn.sn.tn.un.vn.wn.xn.yn.zn.An.Bn.Cn.q$.(,.Dn.En.Fn.Gn.Hn.B( t^ In.Jn.5d Kn.Ln.Mn.Nn.On.Pn.Qn.Rn.Sn.q> U= Ef :K :_ V) Q^ t' f_ 3$ y4.8v ^D Tn.3y Un.T# ], r' yh Bf 95 :4 BL Xw |2 o> 8: 2*.~; 4* D8.P[ YD +8.Vn.Wn.Xn.Yn.Zn.`n. o..o.+o.@o.Ut #o.#Q u~.$o.%f.%o.%o.0k.&o.*o.=o.-o.oS ;o.:m.>o.#{.$8.,o.'o.)o.!o.P3.~o.9I {o.W<.]o.^o.J]./o.(o._o.:o.<o.[o.}o.|o.1o.2o.3o.gm.4o.5o.6o.df.7o.Me.8o.9o.8' 0o.ao.bo.pg co.do.eo.fo.go.!>.ho.io.jo.67 ko.Ok.lo.wm.+j.mo.no.oo.po.qo.1! b2 }8 w+  T I| Y_ y2 %- `% |1 H'.ro.2: i( Hk so.s4.to.+> x  88 |g.uo.Yx qO D. E. E. gg z6.P] t! 6R vo.g5.wo.xo.yo.zo.2P &f.)y )- &s #l.Ao.Bo.Yb Z7 r* W$ Co.B$ Q$ E$ !&.Do.du &0 (' dc Eo.Fo.Go.Ho.Io.Jo.Ko.Lo.Mo.No.Oo.l0.3} Kc.ag.Po.Qo.Ro.So.To.Uo.Vo.Wo.j1.Xo.1H Yo.Ex Zo. ( Y} ea RV `o. p..p.+p.@p.#p.$p.%p.pM K0 pq &p.",
"63 c} 63 t' 9@ 51 *p.=p.1' =I -p.hJ S# lf ;p.>p.,p.'p.)p.!p.~p.{p.]p.^p./p.y+ G] E  !( v1 i+ .6 aU Hq (p._p.Oq :p.<p.[p.>m }p.|p.1p.2p.3p.4p.5p.6p.7p.ul.8p.8p.7>.cn.9p.0p.ap.bp.cp.dp.ep.fp.gp.hp.ip.jp.kp.lp.mp.np.op.pp.qp.rp.sp.tp.up.vp.wp.xp.yp.zp.Ap.Bp.iK Cp.}{ g] Ge ld 2i %h h` Dp.Ep.Fp.Gp.Hp.Ip.Jp.:[ $4 @| Zd :K t% Q^ %* Nb {* -( le 22 Kp.j! N, Px N2 b) bk Pp Lp.mr I0 6& aU lc [' }; J7  9 D. P4 Mp.ei.b(.Np.Op.Pp.Qp.Rp.wa.gG *{.Sp.Tp.Up.Vp.v~.v~.Wp.Xp.Yp.Zp.`p. q..q.+q.@q.0R #q.$q.%q.nf.&q.Ab.E].*q.=q.S3.-q.;q.>q.,q.'q. 4.)q.!q.~q.E].{q.]q.^q./q.SP (q._q.:q.<q.MS [q.}q.|q.1q.)q.2q.3q.4q.5q.U5.<m.6q.7q.8q./{ 8> 5* 4^ /m Bo.9q.vm.PY 0q./9 Hn.+j.xm.aq.bq.cq.dq.77 eq.jc.N* 8{ Ll Dk u} L- `% m7 e1 R4 f[ {] `j 'm fq.E+ t) /- (N gq.hq.NZ cu ]b 3( E- yh a8 73 w!.J' iq.jq.9m.kq.ik.mg.lq.F~.mq.Ct Cx )o +=.1h.Lk ^] r* 3{ `*.(} I/ x. Z( d! nq.lF *; oq.pq.qq.rq.sq.tq.uq.vq.wq.xq.yq.zq.Aq.Bq.T_.Cq.Dq.Eq.Fq.Gq.Hq.Iq.Jq.Kq.nd.Lq.Mq.DK ]d.rc Nq.(} tp h! X/.Oq.Pq.Qq.Rq.Sq.Tq.Uq.of @} Vq.Wq.",
"]* t' t' W) {* X8 Xq.Yq.Ws g; 7= I% y. =  Zq.`q. r..r.+r.@r.#r.$r.%r.&r.*r.Z; !E q> }/ Et p_ p| 6V =r.-r.3  ;r.>r.,r.'r.LT )r.!r.~r.{r.]r.^r.Rh.6p./r.#k.#k.8p.7>.cn.(r._r.:r.:r.<r.[r.}r.|r.1r.2r.3r.4r.5r.6r.7r.8r.9r.},.0r.ar.br.zU cr.dr.er.fr.gr.hr.ir.jr.kr.31 2: b% Ge P~ )j lr.mr.nr.or.pr.qr.rr.sr.tr.ur.3% 0f p/ :K :K Ef Ef s- r& _- 5| W4 I} |= fd ~T ef /M R| vr.,< |~ j+ Gq `w x~ t] )' om u* D. y> H0.wr.xr.yr.zr.M5.Qp.R3.Ar.Br.Cr.Dr.Er.Fr.Fr.=q Gr.Hr.Ir.gG Jr.Kr.Lr.(&.Mr._m.#j.t~.Nr.:m.^%.vO Or.Pr.Qr.ne.Rp.Rr.Sr.Tr.am.14.Ur.x=.Vr.Wr.Xr.D].Yr.Zr.`r. s..s.+s.~P @s.3~.fd.#s.km.$s.4@.%s.03.=f.1A ^{ V9 =f. j.PY =5.&s.*s.p%.=s.Xy <{ [7 -s.Ok.;s.wm.>s.,s.'s.kQ )s.U} !s.~s.2{ C1 YE {s.0! ]# E+ gc c[ b2 $1 ]s.:: ^s.&@ &@ *- 1, /s.(s._s.]b.:s.W9 +` 1o 5o *@ Xo zS <s.[s.Gp ;^ }s./m.|s.>{.1s.2s.Q1.51.j> 3s.Ao.4s. T ^]  7 1* &@ Mr T. ^  Xx _$ :& _B 5s.'  6s.fs 7s.8s.9s.0s.as.bs.cs.ds.es.fs.gs.hs.is.1P js.ks.Oo.ls.ms.ns.G7.os.ps.O5.qs.3> fI Wy n7 J7 j+ rs.ss.ts.us.vs.ws.xs.ys.zs.As.Bs.Cs.",
"W) W) 36 vI $4 wI Ds.a7 }> .7 @+.X^ 8= v~ Es.Fs.Gs.Hs.+r.Is.Js.Ks.LR Ls.kr.** o( 3% ,- Ui M[ yz }g.DH jh Ms.ud.r8 Ns.t0 Os.Ps.Qs.Rs.Ss.Ts.Us.Vs.6p./r.ul.8p.Ws.8p.Xs.Ys.1=.Zs.`s. t..t.+t.U(.@t.#t.$t.%t.&t.*t.=t.an.-t.O%.;t.>t.,t.'t.'t.9'.)t.!t.~t.{t.]t.^t.Jn [, :* 3% b} K9 v& /t.(t._t.:t.<t.[t.}t.|t.aq.1t.*_ A( -N O~ Q~ O~ -{ E  o{ vK d; f) 2= I# e% %8 |% b; -@ 9& ~5 C& sa Y| Y= p< v] Se  4 j{ D. y> 2t.>z 3t.q[.4t.5t.6t.7t.8t.9t.W~.Dq.)h.0t.,j.at.bt.ct.dt.7].et.ft.gt.ht.it.vo &q.ON &q.jt.hh.kt.lt.mt.nt.ot.pt.qt.;:.;:.rt.st.tt.ut.T_.vt.fd.wt.xt.yt.^q.gm.zt.At.!{ Bt.Ct.Dt.ei.Et.Ow (! Ft.Gt.Nq.n) 5d.5! nF [8 [! Ht.UX It.io.It.31 Jt.eo.PY Kt.;s.wm.>s.xm.Lt.kQ `9 ]g.vm./{ |{ <~ <+ 9- j' j' Z% Y} _[ !s.A} Mt.Nt.pt f8.Cp rc Ot.Pt.Qt.Rt.@6.76.y_ j4 ap St.Wp dp Zo.Tt.Ut.~q Vt.Wt.Xt.Yt.Zt.`t.V}. u.<P .u.+u..=.@=.5q ^] 8! u* z' 9} E) ** q[ SE @u.qr #u.<% $u.%u.&u.*u.=u.-u.;u.#[.Jm.>u.,u.'u.)u.!u.~u.;{.{u.]u.^u./u.(u._u.:u.<u.[u.}u.|u.YY {5 1u.0* ^b R@ 2u.3u.4u.5u.D:.6u.7u.8u.9u.0u.au.bu.",
"$4 $4 ;{ 36 cu.Qb 7] 7] Ye g; pb w% w% L| FU du.eu.a .fu.gu.hu.iu.ju.ku.TR 8/ 0f y. ~% g} lu.j  b1 P@ _n w@ Oj mu.nu.O@ _m ou.pu.qu.%M aZ ru.Mf.su./r.tu.#k.uu.vu.Ws.wu.xu.yu.zu.zu.9=.Au.Bu.&e.Cu.Du.Eu.Fu.Gu.Hu.Iu.Ju.rR Ku.Lu.Mu.Nu.Ou.Pu.Qu.Ru.Su.Tu.w( Ke :P n, `@ y. Ef gJ 1$ Uu.Vu.Wu.Xu.Yu.Zu.`u. v..v.+v.!9.|& :K -N J< -N o( 63 o/ *I >/ /, ~* -' ]  V* 05 >/ }^ _> N/ 6V >! '* F) 5$ {% 9} %@ D- D. E. 3q MP Yg./j.@v.#v.$g $v.8t.9t.Vt.%v.&v.&v.*v.=v.hu -v.;v.>v.,v.Q}.'v.)v.!v.sE `g.`g.~v.{v.`u ]v.e5.^v..{./v.d_.(v._v.:v.<v.[v.}v.|v.1v.2v.3v.4v.5v.6v.7v.h}.3(.8v.9v.0v.av.bv.cv.qO x+ dv. 9 K# '; r2.o4.xc O* A$ |$ A$ 8- f[ }6 }6 R4 G: eo.PY wm.!s.wm.HY ev.jQ ,R 9| {( fv.gv..} j( ^  M6 |* o) $@ +  +1 @1 hv.iv.jv.kv.Dt `+.NS lv.mv.nv.ov.|o.NS I+ '= h= 6  W: D# g|.jp pv.1F qv.b0.rv.*8.dB V}.sv.Ft.y_ k6 ^!.>*.4s. T ^] 7! j{ 3* }+ c% P= c- tv.s= [E $I As #D uv.1  vv..m wv.my |a xv.yv.zv.Av.Bv.ik.Cv.Dv.Ev.Fv.Gv.Hv.Iv.Jv.Kv.Lv.Mv.Nv.Ov.Pv.|. G% r' Wb Qv.Rv.Sv.Tv.Uv.Vv.Wv.Xv.Yv.Zv.`v. w..w.",
"$4 $4 $4 cu.cu.,P +w.YS  Q l} 7= ,h @w.#w.`2 $w.%w.&w.*w.=w.-w.;w.>w.,w.Cf.Kd.(% [& E$ u_ 1+ w; ): Qh O/ S% 'w.)w.!w.HQ ~w.{w.]w.3K k;.-).^w.Mf.an.Hj./r./w.(w._w.r;.8>.:w.<w.[w.}w.|w.1w.xl.2w.vl.cn.Ij.Ij.#e.3w.4w.5w.6w.7w.8w.9w.0w.8w.aw.bw.cw.dw.I( {E {E 1u.I  y. w] s- rM ew.fw.gw.hw.iw.jw.kw.lw.mw.nw.ow.pw.qw.s( q} O] G] W^ -{ '5 aL aL ;/ o{ ~b F$ p> ;( += i@ t] s@ S| -_ A~ 6| I5 i  !4 i{ D- D. 3( rw.oq i<.sw.tw.3@.uw.vw.24.ww.xw.yw.){ zw.Aw.Bw.Cw.Dw.Ew.Fw.Gw.B].Hw.W7.Y}.Iw.{{ Jw.:! l2.ao.e|. u.Kw.m[.Lw.Mw.tG Nw.Nw.Ow.Pw.Qw.Rw.Sw.Tw.Uw.Vw.Ww.Xw.Yw.h}.Zw.`w. x.pv..x.Vo D. G{ D. D. E. D. D. D. D. -j.+x.@c @c L> +( 2: @x.Ht.#1 #x.$x.%x.Hn.<7 A} &x.wm.Ok.*x.}b =x.W_ f/ `$ m  O) f> j= @k V. A- |$ -x.D3 :7 ;x.>x.,x.'x.)x.!x.~x.W0 W0 {x.<' o[ L5 ]x.R# ** V4 u~ T/ .q z_ as ^x.|{./x.(x._x.P[ oT rc !3 :j.+=.:x.C1 C+ %- K# /m !4 )] [& 2) <x.76 6v e$ [x.}x.|x.cz WC 1x.E, [r Gs ^B 2x.3x.=c 4x.5x.6x.7x.8x.9x.0x.ax.bx.cx.dx.ex.fx.gx.hx.ix.!. f_ Z% jx.kx.lx.mx.nx.ox.px.qx.rx.sx.tx.ux.vx.wx.",
")# $4 cu.cu.cu.,P +w.7]  Q k} 7= C4 (| xx.yx.9{ zx.Ax.Bx.Cx.Dx.Ex.Fx.Gx.Hx.Ix.(8 q+ %_ .| k( n  ], t@ 3r Jx.Id.DB Kx.Lx.~w.Mx.Nx.O$.k;.6w.#a.Nf.Ox.Rh.Hj.Sl.Px.Px.Qx.8>.Rx.9=.1w.v;.1w.Sx.xl.2w.Tx.cn.vl.ul.&g.Fu.#c.Ux.-).w&.N$.Vx.Wx.Xx.-L jJ -L Yx.]; G4 )! %* *' t+ ,0 f] ], Zx.`x. y.x)..y.+y.@y.#y.$y.%y.&y.*y.}5 Ef G] -N $' M~ o/ @* '# J0 @* >e ~b v+ @* t+ )# m_ p> Z+ [e $( *# d  }, $. |1 Fb 4^ D. 3( jc.$j.ao.=y.-y.3t.$g yO ;y.kq.xw.>y.,y.'y.,x.)y.x: !y.~y.{y.]y.[q.Lc.^y.*8./y.(y.Ti.Kk.Zg.{3 ,0._y.Dq.:y.<y.[y.}y.|y.1y.2y.3y.5b.4y.5y.Rw.6y.7y.8y.9y.0y.ay.J~.]q `p !6 Cp +` z> by.G{ G{ D. D. E. E. D. cy.dy.ey.fy.J{ i( gy.JY um.!s.hy.iy.jy.Kt.!s.R4 5> ky.<7 ly.%>.my.H) na na [2 .@ f> j= x, p! d> Q  c[ {9 %1 4X oq @Q ny.$r oy.m2 py.,1 qy.o$ 1] ry.sy..: l( A~ %@.Ct A_ Iv :7 Tp.ty.uy.:y.Dr.lu vy._8 o: +=.+=.eq.C1 Yb Xb D- 4^ y$ U~ ^% i  t. H& l'  C [E h# lm bv wy.xy.yy.2/ pj &. 9S #g cC zy.Ay.lD By.Cy.Dy.Ey.Fy.Gy.Hy.Iy.Jy.Ky.Ly.My.Ny.o] U  g6 6o D0.Oy.Py.Qy.Ry.Sy.Ty.Uy.Vy.Wy.Xy.Yy.Zy.",
"vI $4 cu.`y.cu.,P +w.Ie +* Qb 7= I% u( ';.ci %~  z..z.+z.@z.#z.ZV $z.3a.%z.&z.*f.V[ $_ I) X_ Mb D@ w  k,.b  Gt |z LN WJ *z.=z.-z.C*.4K ;z.ru.Z-.Hu.Vs.>z.,z.'z.)z.!z.~z.{z.}w.]z.W-.^z./z.(z._z._z.Xs.Of.Of.Of.&g.:z.=;.<z.[z.B+.N$.}z.cw.bw.jJ N$.|z.), {* #* $^ )# f] *_ -( .= 1z.2z.3z.4z.5z.6z.7z.8z.9z.0z.az.!r. j.x. I/ __ N~ o/ m} J0 >9 o{ *I m} *I ~b ~b o{ ~b v+ v+ v+ v+ p+ xz |+ D$ 3; A- %@ n3 h& 4* 0p W/ bz.cz.9^.)..Z1.dz.ez.fz.gz.hz.iz.=v.jz.kz.lz.mz.nz.oz.pz.qz.rz.sz.tz.uz.Yg.vz.wz.vz.~v.xz.yz.zz.$8.Az.Xt.Bz.Cz.|y.Dz.m}.Ez.Ez.4y.^m.Fz.Gz.Hz.Iz.Jz.Kz.Lz.'q Mz..q }q +` D. G{ G{ K# ^m wh  9 Nz.!G Oz.Pz.x-.Qz.Rz.>= 5d Sz.=z.a>  0 kQ Tz.&h.<7 A} [! wm.Ok./y  * 4$ 2$ s@ i} n$ n, e> p! 0, >- 5; 7; 3; f[ 0' X[ Vb Uz.ny.Vz.Wz.Xz.Yz.N8.X| ~b e~ Zz.sy.'3 M= 4| d2.Ct R[ 1< :7 w~.`z. A.l[..A.+A.e0.%s OY .B @A.3s.Qo rO Dc S' K# A- X; R= `; b; nA N, -$.x|.NK #A.;u uB CD $A.du y:.%A.&A.*A.=A.-A.;A.>A.,A.'A.)A.!A.~A.{A.]A.^A./A.(A._A.:A.<A.{t dn g6 ~>.+_ [A.}A.|A.1A.2A.3A.4A.5A.6A.7A.8A.9A.",
"X8 X8 wI wI cu.cu.Qb Ie t+ t+ N% Q* (2 xx.0A.aA.bA.cA.dA.eA.fA.gA.hA.iA.jA.kA.lA.q[ !7 sf $# m$ 8~ Q. O+ mA.n,.1g nA.x  oA.Le z#.3K w&.pA.qA.rA.`8.O4.$c.sA.tA.uA.Qx.}w.{z.vA.wA.]z.t;.]z.(z.1w.xA._z.xl.Of.yA.zA.AA.BA.jY CA.DA.EA.FA.GA.P&.HA.IA.Z} k8 .7 k$ Qb q' B( JA.`] %>.KA.LA.MA.`[.NA.OA.PA.QA.RA.SA.TA.>P UA.oO :* .> t' W) @* =' Jf o{ o{ W) m} ], $# $# $# m$ $# w] f@ J) K^ +  m7 ,= h' 4{ n3 VA.4* 2{ H} WA.XA.;^ YA.ZA.`A. B.Uc..B.+B.Gv SC kf.p- CN @B.#B.$B.%B.&B.*B.=B.og.`7.`7.-B.;B.>B.,B.,B.'B.)B.mi.kg.kg.!B.Oc.~B..8.4y.]m.5y.{B.]B.^B./B.5b.(B.MS _B.-q ~o d5 !3 Ap z' D. D. D- s; .[ &= {! 89 <b I=.T( :B.<B.[B.{; w_ W] }B.'k./6 |B.1B.2B.ko.57 Jt.3B.!s.P0 }~ Y5 R% v+ ], ]* R* )= D~ k/ o, K{ s& y+ m{ 4B.S] la UD tQ W| 5B.62 L4 E% S@ {* )/ 6B.7B.L> x* le C) 8B.Iv Gt.|h.9B.0B..0.Y}.aB.a0.vo bB.cB.dB.eB.fB.gB.i> x9 D- 4^ )b o, S$ l% [2 s7 hB.p| iB.4@ jB.B8 kB.lB.|g.IL mB.nB.oB.pB.qB.rB.sB.tB.uB.vB.wB.xB.yB.zB.AB.BB.CB.DB.EB.Py.FB.GB.|g.Bp HB.IB.JB.KB.LB.MB.NB.OB.PB.QB.RB.SB.TB.UB.",
"U4 X8 wI `y.cu.$4 X8 H2 F$ {, W# Q* B4 oL |4 bA.VB.WB.XB.YB.ZB.`B. C..C.+C.@C.#C.$C.w] o$ )# t+ jg t@ lA S. [J P/ vi w  +: x( %l.iJ j>.%C.&C.*C.=C.-C.&;.;C.>C.,C.'C.}w.)C.v;.wA.W-.]z.!C./z.~C.!C.!C.(z.(z.{C.]C.^C./C.(C._C.:C.<C.[C.}C.|C.b' 1C.}; 69 69 8r u, y|.34 w9.|F @5 2C.3C.4C.p&.5C.6C.7C.8C.&h.9C.0C.1B.,a dO I[ Nb o/ o/ o{ Jf #> J0 o{ o/ o/ @* o{ )# {* {, $# [& %= B$ n7 ); _^ {; V$ {# 4{ n3 X$ aC.f1 J4.^v bC.w[.wo.O5.j1.bI cC.dC.Er xv.eC.$A.fC.gC.@^.hC.iC.jC.|4.Ar.kC.lC.mC.nC.oC.pC.#` qC.rC.sC.tC.uC.vC.kg.8o.mi.Zt.wC.xC.Xt.yC.yC.0k.zC.AC.BC.CC.DC.EC.Op Mt _%.C8 g& D. G{ Nf d6 -( %u FC.x~ v~ k/ _/ GC.[B.<B.%~ /  Z~ y} 18 z} )R HC.IC.{w.!9.#5 28 N0 +..6| 7F %[ v+ $# #* /% R# +& (# i* i* <| }& V; %_ `: ob KN W| JC.KC.S0.&%.LC.S@ {* '( MC.NC.8| f3.;! ~3 '9 2< p: OC.'b.PC.Kc.Uc.~%.QC.8i.RC.SC.TC.UC.VC.WC.eq.N* D- g& i= ~= 6) -= )# 7| N& n+ (m q# I2 D% eo 4v XC.BA YC.ZC.`C. D..D.+D.@D.#D.$D.%D.&D.*D.=D.-D.;D.>D.,D.'D.)D.!D.~D.{D.]D.mz 4{.^D./D.(D._D.:D.<D.[D.}D.|D.1D.2D.3D.4D.",
"X8 .3 36 36 36 $^ U4 @* ], O  W# jd ,/ K( 5D.9w.6D.7D.8D.9D.0D.aD.bD.cD.dD.eD.fD.]i.Z+ v+ b% r] )] v~ b/ o  +| m  @] Lc m  |+ B' y> jJ L$.QL n@.gD.N&.<=.hD.iD.jD.!z.vA.kD.v;.lD.wA.wA.mD.Y-.wA.mD.Y-.nD.1w.oD.Sx.pD.qD.rD.sD.tD.v7 uD.V& 6  +@ FU um.vD.wD.xD.vy.Ex yD.zD.`9 a9.AD.BD.'G CD.DD.ED.=I Ef m} .e 22 P).Jf @| N~ :B @| @| o/ v+ Jf U4 W) W) ]* {* {* #* *' m$ q> ^  [, g= r; j{ 3{ &, E_ Te Bb F. /m zp c' FD.Kw.GD.HD.ID.Tc.JD.KD.LD.CD 5A H|.MD.E=.ND.`1.OD.PD.QD.RD.j4.SD.TD.UD.UD.VD.WD.XD.TD.YD.ZD.`D. E..E.+E.@E.#E._g.2h.$E.$E.a4..n.%E.&E.9t.Bz.xt.86.mq.*E.)n jx.4o P4 3( E. h& 3{ )' /D %u =E.ml.-E.-) [B.;E.>E.*k 0l !% [+ c[ g2  z.,E.'E.)E.!E.<n nf ~E.N0 T] .= o> 4% $# $# X  Y; W' n= X; H. R* Q* +k 7@ P  G_ d1 .% ${ E% :- f8 12 e{ I0 t+ 5a {E.7B.L> _[ 8_ `9 ]E.^E.:7 /E.(E.X7._E.:E.<E.[E.S5.}E.;8.|E.@E.a9.Am.1{ rx D- D- t7 k{ D~ 7; Q$ ;; H% B% #< <Q ]) v3 1E.T, ;* >H 2E.3E.4E.5E.6E.7E.8E.9E.0E.aE.bE.cE.dE.eE.fE.gE.hE.iE.jE.kE.lE.mE.:c :j.HB.@[.nE.oE.pE.qE.rE.sE.tE.uE.vE.wE.xE.yE.",
"U4 vI 36 @| 36 M~ t' '5 A% Q/ __ h; q3 X} zE.AE.BE.CE.DE.EE.FE.GE.HE.IE.JE.KE.LE.ME.v+ o$ q> c% .@ /; C@ p+ Z+ X_ 7< @] t] He z' y> O$.;L x'./-.r#.p#.NE.OE.PE.QE.RE.t;.vA.~-.SE.lD.W-.TE.TE.lD.wA.mD.mD.mD.~C.Sx.Mj.UE.VE.WE.MS XE.8&  # YE.Q8 X  .u.]0.ZE.`E. F.Q1.M1 .F.'0.)s.+F.@F.#F.$F.|0 %F.&F.N: *F.=F.#> -F.=F.;F.]: t' 26 26 o/ @* Jf If .3 W) W) Nb #* *' )# #* q> C@ $= (* s; '; x' n^ r< N> 7{ '; u* C1 `~ >x.vo.>F.,F.nT <v.k1.Br.'F.)F.!F.ZY ~F.{F.i1./b.]F.^F.g_.)d./F.(F._F._F.:F.<F.[F.:F.}F.|F.I}.b[.q6.1F.2F.3F.4F.5F.6F.X}.&8.{&.{&.7F.&E.9t.8F.6^.Q} 9F.0F.[&.aF.bF.cF.!m X$ d8 ;, f= gp +R dF.eF.fF.;= C> >[ q^ J{ oc j'  T 5q jc.gF.hF.iF.0c.jF.}B.V< 6d P0 V[ ,3 }' e@ |) v+ *' D_ R* H. R= s& /% }& i~ Z; J) ,> :4 |= x~ y# p' e6 I0 m) %I o$ '% kF.lF.E{ _[ 4> mF.u~.OC.rd UA.nF.oF.pF.qF.rF.sF.tF.uF.vF.m3.wF.xF.~3 /{  T n[ D- >a k{ G. #@ 7  u$ D  H  f. K@ I* L@ yF.aU s# zF.i9 AF.BF.CF.DF.EF.FF.GF.HF.IF.JF.KF.LF.MF.NF.OF.PF.QF.RF.SF.TF.VN UF.VF.WF.XF.YF.ZF.`F. G..G.+G.@G.#G.$G.%G.&G.*G.",
"U4 Nb M~ M~ M% :K Ef E  G@ [0 @< n% V; oa =G.-G.;G.>G.,G.'G.)G.!G.~G.{G.]G.^G./G.(G.v+ |) m_ g@ .@ 7  d, k! k( o  o= N| Mb )' XF 3( iJ j>.b)._G.:G.XT <G.A^.[G.QE.RE.^z.vA.~-.lD.t;.^z.mD.!C.mD.wA.]z.^z.^z.}G.|G.1G.2G.VE.3G.4G.5G.6G.R .1M L| r% zv 7G.8G.9G.#j.7O J4.0G.aG.X3 bG.cG.dG.eG.C+ fG.U) -N @| X8 H2 (; 0J gG.Ef t' 61 vI .3 U4 X8 X8 )# )# $4 #* #* *' )! #* m_ :* C$ C$ d> t* A> N> F_ Te x' n[ j{ ;j.W& s!.hG.o[.iG.jG.kG.lG.mG.nG.UF.LE oG.l!.l!.pG.qG.*:.l|.)d.rG.sG.os.tG.uG.vG.wG.xG.yG.zG.AG.yG.BG.CG.DG.(Z EG.FG.&h.GG.oF HG.(g.IG.JG.KG.bj.LG.'^.MG.9k.=y.-8.%8.Ne.oS *s <6 m( N) b% H} U9 t2 NG.OG.h( -i vh PG.p) QG.eq.F+.-5 )G RG.SG.TG. 0 ~h 3T  | |{  { 2, T@ 8& }' n$ m$ y. h; ^% >, i* H. >, Q* ,/ /% h) 7  [2 O& ~, f, l+ :- d; X= 12 o  Qe UG.VG.N' e[ Mk.WG.XG.R1.YG.ZG.`G..o. H..H.,u.+H.:E.@H.#H.$H.%H.&H.=v 77 i> h& D- E+ ;- t& B+ .] z( q> q> 8~ TE )~ Hc [o %( `+.@#.*H.=H.-H.;H.>H.,H.'H.)H.!H.~H.{H.]H.^H./H.(H._H.:H.<H.[H.}H.|H.1H.2H.OG cF.3H.4H.5H.6H.7H.8H.9H.0H.aH.bH.cH.dH.eH.",
"#* Nb (K &' X^ /: P< __ r& nh *6 1% P= f1 fH.gH.hH.iH.jH.kH.lH.mH.nH.oH.pH.qH.rH.R0 +| {+ b% _~ S# -/ w] Mb t] /, o+ j$ m$ =Y -4 z> =L ]).sH.tH.uH.vZ #z.vH.wH.xH.RE.yH.zH.t;.wA.t;.|G.AH.!C.mD.BH.CH.~C.]z.DH.EH.FH.GH.HH.IH.gm.JH.J~ KH.LH.MH.w% C/ NH.OH.PH.0q.Dx v|.QH.RH.9[ SH.no.TH.C3 Nq. c ]* E  W) 2G (; U  +w.36 ]* {, @* vI .3 W= .3 X8 U4 )# $4 W) {, {* {* {, #* 89 WY B$ a2 gg >8 A> bl V- K# j{ ]b Bf 4< (y !&.(x.8i.24.::.UH.pt.VH.WH.,J [$.XH.dI YH.ZH.`H. I.wa..I.+I.@I. f.+I.#I.$I.%I.&I.VD.*I.=I.-I.;I.kI )$.ME.6F.<g.W}.Yg.!b.~v.>I.,I.iG.'I.)I.8^.!I.MH Qm.~I.{I.]I.^I.c- n  W=./I.(I.0{ Xx _I.qa :I.<I.]] %5 7> [I.}I.|I.1I.2I.3I.4I.5I.ZC 28 4B.%_ %_ |{ [~ ,{ [| f} f} ~b #* !# a. U~ 9= H. Za /% U~ 9= 9= .@ g@ q> L  N| _s l, l, ~* f) S@ u+ k& 6I.7I.8I.e[ 9I.0I.aI.bI.Zh.ZG.cI.dI.eI.fI.gI.hI.iI.jI.kI.@E.lI.mI.nI.o: /^ D. 3( Y_ 9; 5; +[ h% b% -/ -/ |: $@.>] cg X( y|.Gz oI.pI.qI.rI.sI.tI.uI.vI.wI.xI.yI.zI.AI.t1.BI.CI.DI.EI.FI.GI.HI.II.JI.66.(~.jx.KI.LI.MI.NI.OI.PI.QI.RI.nC SI.TI.UI.VI.",
"`@ K  K% <| Vg _4 l& J% R* O) h@ V; /  V& WI.XI.YI.ZI.`I. J..J.+J.@J.#J.$J.%J.&J.z~ w; X_ w] S# /; m_ b% 1$ {+ /, o= t^ 3% b8 *'.3( =L bw.k;.*J.=J.4L 0'.-J.;J.>J.,J.BH.CH.TE.'J.)J.!J.~J.{J.]J.!J.^J./J.(J.]J._J.:J.<J.[J.}J.|J.i2 ]: jP 1J.2J.Z^ Q% 3J.4J.5J.Mk.=z.6J.NG.7J.9[ 8J.9J.0J.Tz.aJ.y|.[e <& U4 p> q' K6 ]/ $4 {, m$ W) W) W) .3 .3 X8 Qb X8 @* ~b 91 ~b D  O  s- :* q$ Bf gg 3( D. D. G{ D. 5* 3( ~m +` n) MP px .{.nG. I.rG.bJ.cJ.dJ.eJ.Z}.fJ.gJ.hJ.(J Om.%o.iJ.jJ.kJ.lJ.3[.12.fR mJ.nJ.oJ.pJ.qJ.rJ.sJ.0[.L}.P3.tJ.uJ.vJ.wJ.Vq.7F.wz.vz.~v.>I.%E.xJ.EF 'F.2v.Yr.B].yJ.zJ.AJ.BJ.,5 ]| CJ.DJ.)| 5< X9 EJ.X3 FJ.GJ.~9.HJ.IJ.JJ.KJ.LJ.MJ.NJ.OJ.PJ.QJ.RJ. D I+ U;  @ r+ H( ), $4 B[ E  n( ;~ 99 /% Y; >, /% /% 99 n, Y; D_ O) h@ d, 2' += W  X_ o+ i} 4% }' o  s) SJ.TJ.T' e1 UJ.VJ.WJ.aI.XJ.YJ.ZJ.`J. K..K.+K.@K.#K.$K.^&.%K.&K.pg =f.Z} u* D. h& F+ }@ n! V, :* 9@ S* y. [0 Y' d: X' a. Tt.*K.=K.-K.;K.>K.,K.'K.)K.!K.~K.{K.]K.^K./K.(K._K.:K.<K.[K.}K.|K.1K.2K.3K.Kw.Q4 `*.(q.4K.5K.6K.7K.8K.9K.0K.aK.bK.cK.dK.eK.",
"]% O. g{ s& U; m& )0 /* J^ #= #= i) fa $. fK.gK.hK.iK.jK.kK.lK.mK.nK.k; jj.oK.pM }^ Mb :> l$ S* )] 3% n  t] t] e@ e, t^ L^ b8 *'.z> !m P#.R%.pK.qK.!).rK.sK.tK.uK.vK.wK.xK.yK.zK.AK.BK.CK.AK.DK.BK.BK.EK..k..k.~J.FK.GK.HK.IK.JK.KK.Y5 )# Q^ $' t+ r8.(x.LK.b_.9v.Dx 6J.pw.MK.NK.po.OK.3F.PK.]i.`( ma 1+ W  I5 :  1> Ie o/ B[ E  *I o/ *I m} .3 cu.cu.W) V@ ~b G  H% f} H% G  `@ 0*  9 ck E. Ml E- z> Tm ~m y> ck QK.RK.pv.Kw.+{./m.oc.SK.TK.UK.wa.VK.kG.hG WK.uC.XF.8m.XK.YK.ZK.`K.#`  L.Bq.ID..L.+L.@L.#L.$L.%I.%L.&L.*L.!(.Ce.=L.-L.;L.}m.%E.IG.eG >L.{3 ,L.'L.qa.2v.)L.% .!L.~L.k:.{L.5- Gh ]L.^L./L.(L.K) _L.}6 X3 :L.<L.Mx.[L.}L.|L.1L.2L.3L.4L.5L.6L.7L.8L.67 m{ /% A+ `; `@ `@ zI I[ (% `| n, J% 99 Za Z; Z; n, <, <0 ,, D_ /; /; .' i  {! }> [e e, [' [' S@ f_ u; 9L.TJ.(4 (%.bB.0L.aL.bL.cL.dL.eL.fL.gL.hL.iL.jL.kL.lL.it.mL.nL.#h.oL.97 K# E. E. u* C+ g> V2 V, J  m, 99 n# ;a c6 t% h{ pL.vy.qL.*8.rL.sL.tL.uL.vL.wL.xL.yL.zL.AL.BL.CL.DL.EL.FL.GL.HL.IL.JL.KL.LL.!3 ^m 4a Dt D= Wi #O ML.NL.OL.JQ :k.FE PL.QL.RL.",
"@@ $= P  q& /  j% 5, |@ 3; ;   [ ;  e} h} SL.TL.UL.VL.WL.XL.YL.ZL.`L. M..M.+M.@M.#M.n  +* S* -/ 7  E) n  I) L< ]  m  Ge #* b8 I- z> e*.$M.3K j>.%M.O#.9N &M.a` *M.=M.o=.f).-M.j*.`6.;M.>M.,M.'M.)M.!M.~M.{M.]M.^M./M.(M._M.:M.<M.[M.IG.W/ .3 o$ /l }M.|M.,{.}m.%8.`( 1M.v2 ^c.a> 7J.2M.3M.!g.{3 || N[ Bc 3| Bc 8< jX 6| {, H% ^, 91 o/ '# J0 m} X8 .3 $4 o/ V@ F  F  Ge +# H% /; e8 7* #e E. E. E. z> E. E. #e E. )n .x.4M.5M.6M.7M.hG 8M.9M.0M.::.R_ aM.bM.cM.uC.uF.]1 |A rv.VJ.dM.eM.gs.fM.7M.;0.gM.pg hM.;{.>m.iM.jM.jM.l< kM.gs.lM.mM.1d.nM.oM.pM.qM.^{ e|.rM.sM.c_.tM./m.P5.uM.vM.ig.wM.xM.yM.zM.B] bi **.Z3 6> ^9.AM.BM.CM.DM.:O EM.4L.FM.GM.HM.IM.JM.KM.LM.MM.7~ U~ .@ n, `@ 7_ <0 n, <0 7_ 99 R* 99 8@ n, Z; n, <, `@ <0 A+ [& ** m{ .' `; .' p> Zk [2 e,  > o$ T$ NM.OM.T' Nq.jt.h6.PM.QM.RM.SM.TM.UM.VM.WM.XM.YM.ZM.`M.Z9.5J.~y cB.Wd.:x.D. E. E. E. j{ /m ); 5, O= j% f{ #= y+ n= +& +] .[ Mk.px bB.]{ T3  N..N.0e.+N.@N.#N.$N.%N.&N.*N.=N.-N.;N.>N.,N.'N.)N.!N.~N.w. ^m Vo 4D u^.{N.>i (c ]N.Ss ^N.#y my /N.(N._N.",
"l% +@ `+ S[ 9/ X< }; `} 3; e  7; 7, 4) e} R] :N.<N.RH.*9 }: 2g [N.|< [n._a.j( b/ P. -/ m_ b% #* y. k! Mb Y/ :4 j$ j$ _s ]* a* !G Tm 4* p%.}N.|N.1N.2N.3N.4N.5N.6N.7N.8N.9N.0N.aN.bN.cN.dN.eN.fN.gN.hN.iN.jN.kN.kN.lN.mN.nN.oN.pN.qN.bB ^v.JN <$ rN.sN.tN.uN.vN.mi.U` rm.+0 ,^ Vb U9 wN.NN xN.NN [P 1> Bc Bc ob l_ Ct e= >e ic 4N p} .3 ,9 XP -F.(7 }e }e J0 m} ~b V@ +c f} -' k} t9.yN.|o zN.zN.#e %> E- E. E. y> 5o AN./y vo.6M.BN.R3.CN.DN.EN.'m.FN.GN.HN.Cz.IN.JN.DK KN.LN.Mk.0o.Jk.n3._! Kk.b2.]{ f5 2/.ot.pt.MN.NN.ON.PN.i:.QN.Be.RN.SN.$E.#q.Jn yZ w( a> ;v jq.TN.tw.'I.P5.UN.-%.VN.)- 0/ WN.r% jd s1 h% g' /{ XN.YN.ZN.`N. O..O.+O.@O.#O.$O.%O.&O.*O.=O.-O.7- q& V; K  wf `@ n, <0 <0 Za n, n, 99 99 99 7_ 99 <0 <0 <0 <0 !! `| K  J  K  A+ G~ G4 {, E  HJ C% ]* v} h: ;O.M' u3 >O.,O.'O.)O.!O.~O.{O.]O.^O./O.XM.(O._O.PM.:O.^x.<8 Wd.Tp 1&.3( E. E. E. !m 3* w- N= J  m, O. f{ [> )0 v} )0 I( @Q yk.|| l6 6/ ^D J4 L& <O.34.[O.}O.|O.1O.2O.3O.4O.4k 5O.6O.7O.8O.9O.0O.aO.v6.bO.cO.Fr dO.eO.fO.gO.Mg -0 hO.iO.jO.kO.lO.",
"]= f  ({ `^ D/ [: e1 ~4 F3 Yf.H3 mO.Tj.e  y .A..nO.w2 oO.+h oO.4B.FU b! pO./b G_ ^  x. f@ P. q> y. n  ([ qM Kb /[ P) rb g_ ,E !G Tm D- 4^ p%.u- 4{ %@ qO.rO.sO.tO.uO.vO.wO.nN xO.yO..' A+ `; L+ zO.SH.AO.BO.CO.DO.EO.FO.GO.HO.IO.JO.KO.Ya.LO.s2 MO.NO.OO.PO.QO.RO.SO.TO.dq.(8 p; d' xN.RH.xN.wN.8B.W/ _+ |> Z/ K0 51.}~ o{ u$ z% ~b Y5 :9 PZ :H ~M =( dn j@ K4 F$ @* i} t^ _s +* 9: 6R )r ,p -x Sq P4 E. E. E. E. ~m UO.$p GH b_.]Y VO.7~.WO.IS >:.l< M}.aM.XO.;B.YO.ZO.`O.UO.Vk.B_ Z( r: vm.kv. P.Ik.wO .P.ww.+P.od.@P.'m.#P.n<.$P.%P.&P.)B.1P Ao.@k nm 0, A$ m- *P.=P.=y.BN.-P.;P.>P.W5.X: gi gV b_ N% n/ 1+ ma ra U& ,P.'P.>s.)P.!P.~P.{P.]P.]P.^P./P.(P._P.`h.C~ U; P  [& `@ n, <0 A+ Za A+ n, 99 99 y+ 99 99 J% 99 7_ ,, ,, K% K% Y; g{ ~' ~' Y; R* _4 Q# R= y+ h% E_ :P.<P.(4 vA vO %o.gG [P.#K.}P.|P.1P.2P.3P.4P.5P.6P.dj.Z9.5J.^E.Gt.Gt.1&.6* E- E- E. 3( y> om g= @@ [> @@ v$ /* |@ +[ }@ ^  le  _ 7P.!u b#.}- lA 8P.9P.0P.aP.bP.cP.dP.eP.fP.gP.hP.iP.jP.kP.lP.=@.mP..[ =| 2q nP.eC.oP.|'.pP.qP.B2.rP.xu sP.tP.uP.vP.",
"8; 4) @x.0' 0' 0' wP.wP.|! @/ :{ mO._{ _{ %Z xP.yP.]_ zP.zP.AP.|8 8- hi BP.rV E$ E$ p$ f@ O  {, 3% ], d. Qh M& M& vT 6( ;O CP.DP.pn z> `a t* &- t} t} @k EP.FP.X8.GP.HP.IP.JP.KP.8< &g LP.MP.NP.t( p%  ' t) Hb OP.PP.QP.RP.SP.TP.UP.VP.WP.XP.YP.ZP.`P. Q..Q.+Q.@Q.>^ *v d' ^! S/ q[ wN. _ wN.[P 5D K0 |/ Z/ ~D gp gp #Q.$* :_ L% |) h$ m> t~ MI #V $Q.%Q.RV -_ V4 4% C  O& Lc |) sf.8p }~ }~ gI R  7* E. Sm E. E. ~m qO rc GH Gr.]Y &Q.*Q.=Q.-Q.]F.FN.*L..I.;Q.>Q.7F.,Q.'Q.(~.I:.~4 f[ 0' ;x.x9.wN.)Q.!Q.~Q.ne.{Q.i:.]Q.^Q.^Q.A]./Q.(Q._Q.BN.:Q.=s Dk U( <Q.C- q< xo :q f}.'N [Q.D].o2 }Q.q, P  W, h@ U4 e@ *( np `( 6J.|Q.1Q.2Q.3Q.4Q.5Q.6Q.7Q.8Q.3I.9Q.:x.@[ ry.x6 +& y+ Y  K  !! A+ A+ A+ A+ n, 7_ 99 99 8@ 99 99 99 J% <0 Za K% I% S: o! i- 0, G. i( '3 0, t& j- 5; D~ N( P5 Dm.dp mp 2U 0Q.aQ.bQ.UD.cQ.dQ.eQ.dQ.fQ.gQ.hQ.iQ.jQ.kQ.Kq lQ.mQ.AN.;C n7 :e =d 4* 3( /m N* x+ w$ Z  5; v$ r$ )0 T$ Y  le nQ.9< a#.oQ.pQ.qQ.rQ.sQ.tQ.uQ.vQ.wQ.xQ.yQ.zQ.AQ.BQ.BQ.CQ.UH.DQ.U_.BW f= 3_ J' ,1 EQ.iI FQ.GQ.E4.rw HQ.IQ.JQ.KQ.LQ.MQ.",
"{; G3 )[ G: qM.qM.[! 9E <: NQ.OQ.Yf.PQ.QQ.BP.Yf.Yf.,3.RQ.ei ,3.SQ.Z3 L6 o3 {] h% m{ ]; I/ 63 s- n( {, d. (- e& N& A[ $@.T^ TQ.gb.D. D. g& V: E+ -i dl <B.:W UQ.VQ.WQ.XQ.'G YQ.ZQ.R0 __ `Q. R.p3 t( `, n# )] 7  g@ t` .R.+R.@R.#R.$R.%R.&R.*R.=R.-R.;R.>R.,R.'R.Jc.a^.@Q ~D -#.h_ 2) <P )R.g8.51.5D d- V[ 2, 2, 2|  q 2| K  !R.T5 n$ ~R. @.2x.{R.]R.^R.lB.e! v1 .% j$ G# `b /R.f_ &* 08 C  `$ W  A/ Q4 E. D. E. E- z' qO rc z_ qv.jg.(R._R.:R.!(.PN.<R.[R.}R.|R.1R.2R.Wa.3R.4R.5R.kv. P.6R.SC.dB PN 7R.ik.Z}.VO.=q.!o.8R.9R.:$.0R.aR.bR.cR. h.oI.4o 7{ >E.C> }0 r! _8 [P dR.eR.86.fR.gR.Qw I) %_ P  p+ !( -# *$.hR.bB.8q.ou._I.wm.iR.aq.jR.kR.lR.mR.nR.bA.E6.oR.pR.qR.5a .] [& !! !# A+ m% A+ ,, n, n, 8@ -~ 82 -~ !: 82 ', ', J% <| +> >, D~ r* -i .. &> a; ;) L# i& '3 /= rR.sR.<#.&# tR.uR.vR.wR.4[.WD.xR.yR.zR.AR.BR.CR.rF DR.(m.ER.as FR.GR.f8.d&.e1 Ro Po 4* E. z> h& 4^ 5* w, l! .9 5; ~= f~ g{ !p (y 3- HR.IR.vC JR.KR.LR.vP.MR.NR.OR..H.q2 z: PR.)0.QR.RR.SR.TR.OZ na h8 3_ w!.f) k@ UR.VR.WR.XC.#N R2 XR.Jk. B.YR.ZR.",
"f> H3 '[ hK =z.M0 7J.Z( |{ f[ 8- :{ BP.[j `R. S.G3 QQ.[j .S._{ +S.mO.QG.z4 {] 7  t+ *' ]* E  E  q> D  h. l  C  /, ,% @# U^ @S.i0.D. D. ]b K< m7 Y7 p! `[ rk YE Xy 'V #S.$S.6Q.%S.&S.r& R .*S.9=  ' Q$ _~ c. K+ 0{ lf =S.m$.-S.;S.>S.,S.'S.)S.!S.~S.{S.]S.^S./S.jQ.(S._S.*= :S.e9 I( <'.<S.8B.[S.[P 51.q[ q[ r:  q ;z <'.W: }S.X~ G@ %$ zr |S.~q.v7.WC ZN 1S.2- +| G@ ,% f. ;' $# >  ], f. D@ #* #- L* 3( D. E. E- `*. ( !9 oL.b_.2S.3S.4S.GN.l< 5S.6S.7S.8S.9S.0S.aS.bS.cS.48.dS.Sw.eS.fS.gS.nT kC.hS.#I.t[.N1.!L.iS.jS.+8.}q.c| $g He.kS.eS.@{.B;.z4 oc Y- B- 0p n[.~6 1A 6R.e5.e}./s 3- ,5 G_ 9^ 9d 3+ wD )_ _B.lS.mS.nS.*x.oS.pS.qS.jQ rS.sS.tS.d[ r* uS.vS.wS.oR.Tj b, !# !! !# !# K% ,, A+ n, 99 82 h{ 6r ', Q# 1c `S `S 1c S: Q8 <| A3 r* xS.-i  ] 5] `) Nh +& m& 0= N( sR.#[ 1; ZA 1H  b.yS.rG TD.zS.AS.BS.CS.DS.ES.FS.GS.qk.*8.HS.Lq 'h.gd.IS.n[.c4.l- `*.5* &@ D. D. E. Q4 s' +] |@ [= T$ m# ya @p .} JS.KS.LS.ye.MS.-Z NS.OS.PS.QS.UN.%r B  Lb a{ }R RS.SS.TS.T= u+ V, 4_ 6N {7 US.VS.LB WS.XS.;s YS.ZS.`S. T..T.+T.",
"@k Q< ^_ Sz.t[ ;$.;$.<$ pf 4g y).Z3 @T.#T.$T.BP.#T.#T.%T.#T.PQ.Fl.-  QG.&T.{] &1 6@ Mb n$ 6@ o$ '5 8~ Ph oh.}= |) F  ,% @< *T.=T.E. E. z' d[ g  _{ ]] ]g -T.^] w+ Bo.nR.;T.>T.,T.R0 r& KH.=D C4 r%  ' )] w} T. -/ !7 'T.)T.!T.~T.{T.]T.^T./T.(T._T.:T.<T.[T.}T.|T.1T.mr ~4 lP 2T.a8 Z$  q g8.7O uO 3T.kz f|.3T.nm.-v 2> &3 (* s' Zk 4T.5T.6T.7T.8T.9T.0T.aT.q[ Y~ ** y. T. S* m( C( 5< v~ m( l% 8^ t* G{ D. E. 3( 2&.c4.y_ %s qv.]%.bT.cT.aQ.iM.*L.dT.eT.fT.gT.9S.hT.iT.jT.kT.lT.lC.mT.>m.nT.oT.pT.qT.rT.&I.sT.tT.|J.uT.vT.wT.di.hJ.xT.xT.T}.M~.yT.&T.i' B- 7f.qt 1q gB.zT.AT.AT.*s 97 A$ @/ 7~ BT.f/ v1 3^ n{.CT.Kk.[h.<g.DT.ET.FT.HY hv.GT.C3 b' aC.6! HT.I> I> IT.d] R= [& I[ ;~ O) K% ,, /% 8@ :* <0 Y  a. pb n, :* 6r *A 8C <0 h; Y; +( Bk a;.=, .. e~ id cj id s& 0= JT.KT.[#.1- j_ =8.#0.xQ wg.LT.MT.NT.OT.CS.4P.PT.QT.RT.ST.Za.TT.UT.03.VT.WT.*h.9E pt pc 4a &@ D. E. E. Q4 >> '= B+ |@ }@ V, :5 u7 y} X.._a.rN.XT.YT.ZT.`T. U..U.+U.@U.h$ F@ #U.h. p< hB $U.|^ 2$ 6@ /* v- %U.+N :, &U.*U.=U.-U.jv W_ T& )z #H.;U.>U.",
"o) Q< *9 9g $e 8_ <$ /} Bq ,U.x} A$ @T.'U.$T.Tj.:{ Yf.@T.#T.%T.BP.@T.)U..v Yf.-/ o  l: N| u+ /, N| Lc >h >h @] o  n$ Q/ V) *T.=T.E. E. *'.!' !U.~U.C~ i( {U.:W X& }+ |z.el.]U.DT.3- H  &' %' U) v% P< Z^ v% c% )] v: W} ^U./U.(U._U.:U.<U.[U.cC }U.|U.1U.2U.3U.g6 j8 Mr 2{ -4 pn `a c4.&s MP j_ 9< AW RS.`D D0.4@.Ab.5@.cT @= T  X= [E 4U.7T.5U.6U.7U.VC ac.%j.=@ X< _# +@ l% 3; ;  $/ #. 5, .  C+ &- D- G{ D. :n 4q n: &s kv.8U.m3. B.9U.0U.aU.bU.cU.dU.eU.fU.fU.hT.gU.hU.iU.gG Jr.Ae.sG jU.kU.lU.mU.nU.22.oU.pU.qU.rU.bk.sU.tU.RR.:m uU.vU.Qg.wU.*5 qx Y_ u- !>.2&.xU.rx F+.yU.rw.N* `% gc b, zU.m+ a& C# A; uo.H].AU.[j.DT.2B.`C BU.CU.6T -x.io.~s.xU.u- 2* j{ ]# Z<  @ ;~ Y  (% !# !# m% n, 99 K  s- ;; P> O< #^ ^, $4 $* wH G4 N% }& 8; )b j= x, 5^ `) F~ DU.'j Vj ~= JT.V6 )( @! +p EU.FU.GU.HU.IU.JU.KU.LU.MU.NU.OU.PU.K1.cM.}M.QU.AR nX ]&.wQ RU.iQ cu xK 4,.4a 3( E. 3( Q4 x+ a2 14 +! +] Z# @! f= H+ 7@ Fh 6t SU.TU.UU.VU.WU.XU.YU.@5 f] I< k3 k3 k( 1M.8_ ob B( *6 k% wp e8.KN x|.ZU.lB.`U.eA 2^ rt q, /l  V..V.+V.",
"ec 9{ )^ @V.~^ X9 w_ j  Ph #V.x} 37 $V.'U.%V.Y< $T.%T.Y< %V.&V.*V.bA. v eG.5D.:~ n  +M.[2 j( j$ 1: /5 p  Lc Av tf =/ s- Q8 Dm.=V.D. E. ]b w. XN.-V.;V.QQ.%V.>V.}+ ,V.#4 'V.)V.ly.Y& A( S) Zg B{ !V./: w% mh N) 1% E) lf ~V.{V.]V.^V./V.(V.~O._V.`&.@!.:V.<V.[V.-> ^b k- }V.z' Tm %> |&..t Y9 lz 8B.qm C).|V.@d.fH 1V.06.ta w] J+ -3 3v 2V.7T.3V.4V.5V.6V.7V.d' 4B.a/ J5 a/ h% 6; Z< ;  +( O* J| Z7 %- D- h& D. !m 8V.S4 ,^ FD.9V.0V.ST.aV.bV.cV.dV.eV.fV.gV.fU.hV.iV.jV.iU.kV.lV.mV.xe.nV.@n.oV.pV.qV.rV.sV.1d.%s.tV.@q.OC.#j.nS.uV.vV.wV.xV.e|.yV.zV.0C rx 2*.ho.rw.0p %5 E3 -x.a- gc 7{ `% I^ AV.}^ #3 p< NJ A|.BV.>#.CV.<N.Ld.DV.EV.|6 FV.GV.7> nR.HV.YG.IV.JV.KV.gy.S[ /; I% )] a. a. A+ n, Y  W# u' 5( )~ }g Q) M  _% Z' W@ #^ H  5< [= 5) K5 := :] LV.Uj MV.NV.Ak m3 F_ OV.<#.h-  { 0q.PV.QV.%S.RV.SV.vG.NT.TV.UV.=Z VV.WV.;m.JR.XV.YV.ZV.`V. W..W.+W.[! eq.4,.5* E. D. 4* ~; ~; ^m %> V: U$ v; @@ l{ W' N# ]4 t` EG.@W.#W.$W.lD %W.&W.3T t1 Yk *W.N) w} qc .U Y& sf ]| J^ Vp =W.:  S& ml.-W.eh.;W.S0 $j.=6 .U >W.,W.jK.",
"]g O* h( #/ ea 8- p, h. We j3 y( $V.'U.h( %V.{] 'W.Y< 'U.%V.)W.!W.(^ ~W.{W.37 5, J) Y& s@ i} j$ #& 8~ Av s$ n# )] q% L% Vg ]W.i0.D. E. u6..( 6- ^W./W.(W. S.E3 a' _: .D _W.hv.&Z M= 99 mL Wg <| Wg 1M 2_ >, U~ N) [^ ^_ :W.<W.[W.}W.|W.1W.2W.3W.4W.5W.6W.7W.Of 0* sO ;, jc.4_ !; d8 nz Jn .t P0 s!.op 8W.yd.RS.$S IB.9W.A~ n{ h) D) j) 0W.aW.bW.cW.dW.eW.fW.wK ,5 [/ tf r> x] l% ~= l3 7; 3~ 5) U. B> D- z> 3( !m .=.gW.L0 yO.bB.O1.%P.hW.iW.jW.kW.lW.mW.nW.hV.oW.pW.jT.pW.qW.rW.sW.XO.aV.[P.tW.uW.h[.vW.wW.-0.`u xW.k3.3s.*s *h.yW.mI.{h zW.}P AW.hd.}+ ^^ aC.S  2{ n7 o7 |1 [+ F3 4; o) Yb e} 0{ X_ 1+ BW.CW.m{.DW.EW. V.Cj.FW.GW.(9.HW.1C.IW.JW./p.]U.KW.LW.MW.NW.$x. | s+ I/ I/ a. a. Y  A+ !# A( `- *] rb -a Q) l4 l4 ={ g8 ,] `- v~ .@ a. ga 3j 7)  ! oi l^ id R= G. p^ OW.;H 49 g- A} PW.QW.RW.SW.TW.UW.qT.VW.WW.XW.jG.qk.YW.3F.EG.ZW.`W.KP. X..W..X.N0 tS.2*.=| &@  9 V: ~; 3( E. E. 4a e> != U5 Y) Ab 4] Ec S2 ./ @5 +X.@X.#X.$X..U o% m^ %X.^k {|  ' -/ b! t+ v~ t% g* M* 2{ Y~ :  :[ 7[ |+.7J.j> x( 0g X( -E.5g ou.",
"}1 Ee a; {; m! M;.q& &X.zN dj C~ 9{ 'U.Y< M;.*X.O8 M;.%V.{U.P0.=X.-X.{W.P0.%5 11 Wy `: j( o= 8~ ]e s$ ga 3j >; fj +& R= l& Dm.i0.E. E. ]b Jo 4! ;X.>X.,X.'X.)X.#4 |6 |6 $1 !X.q: r! A- u& 6b >7 .: 'h g9 k/ S$ S; S; G| ~X.{X.]X.^X.JO./X.(X._V._X.:X.<X.[X.{[ B+ V5 +  c[ #- 5; 5) 3) Wy }X.[: xP.'^ B..|X.Q2 1X.2X.{( K^ >- p! e> [, Z( 4> wM.po.v|.3X.gH W9 2: C( 7  w} b_ i% 8; #. #. Q< 5) U. 6! D- z> 4* 4* 'p 9E 4X..X.X}.5X.Hg.6X.7X.8X.9X.0X.aX.bX.cX.kT.nC.oC.mC.dX.eX.eX.mg.aV.fX.gX.hX.iX.jX.kX.lX.mF.(9 mX.I:.zT.~s.[I.YG.Pc nX.[I.oX.:: 5D.ea 4; J| o) gc 7! W$ t> Q< W, << 4) (  x} pX.pX.qX.D>.kB.rX.sX.tX.&W.aq.uX.BU.vX.1C.wX.VX nR.xX.yX.zX.AX.[L.BX.<1 t) )] )] Y  A+ n, A+ Y  W# ld me z. ^) x4 4b l4 G2 G2 me CX.F  ,b Yd DX.M) fj >j EX.FX.GX.f~ L> p* @8 HX.d> 6  .D IX.JX.KX.LX.MX.NX.OX.PX.QX.RX.SX.TX.UX.|B.$x.oo.VX.WX.XX.YX.ZX.R4 eq.); r; |* o) A- &- E. E. E. g& Ha s; .! C- xc O> J{ L> 7; x} !U.V] `^ -6 gV Qe /e :j qi /e y9 @& i) Z; h; w% v} }0 o) m, ** w_ `X.*_ {^ ~^ I<  Y..Y.+Y.@Y.9^ ",
"O* /] D~ a, m! *~ 7@ #Y.$Y.%Y.U; {; &Y.Z< ]] 9{ 4; [1 %V.[1 9{ XX WX 'W.*X.}+ |7 A$ H/ +M.w4.@] )2 nh 5< +& 5a +. r| S$ W' K> z/ E. E. B' by %e ^9.Y3 *Y.ln.=Y.=5.Ht.0' J1 xo  ( g6 Dc YP bl @[ ;- .: .: 'h v} =~ %, @V.-Y.;Y.>Y.G(.,Y.'Y.)Y.!Y.~Y.{Y.]Y.^Y.#1 j% J^ 7: B@ g@ Q$ .] 4) v( v( S9 _{ 2: S9 /  <2 ~w./Y.5$ r$ O> M- .h U$ B@ 7- |{ }{ /{ W9 wP.(Y.C1 >V.8, $/ i%  [ Z< << e} ea 8, B+ E+ n[ h& 4^ 5* @=.9E UM _Y.|E.:Y.<Y.[Y.}Y.|Y.1Y.2Y.qi.3Y.4Y.5Y.gi.nT 6Y.6Y..8.l<.ST.7Y.ld.KR.8Y.9Y.0Y.aY.(g.UM 4X +u.I:.2{ $l.$l.bY.bY.xT bY.Ed.cY.{U.m! g> Y7 @k E+ s* 7{ Y_ #@ 7~ }: i/ a/ MZ j; MZ Fh dY.eY.fY.gY.hY.iY.jY.kY.lY.<7.mY.%5 9- 38 nY.yX.zX.oY.pY.qY.=6 -/ I/ !# A+ O) A+ Y  /; #* P$ )~ v< )U ^0 G$ ^) 4b G2 z. {) o_ yN y[ @l */ <w gd ^k rY.Nh =~ ;- @[ sY.v-.-, B+ `} c2 )V.NW.tY.uY.vY.wY.=B.xY.yY.zY.Pc wm.AY.BY.W3 CY.DY.EY.IC.FY.<{ c[ w$ f> V2 #@ U$ .! z> 3( E- 5* K# y' %> g& K# 1* F. i{ x+ f  y).=9 4) }j **.]= +. 5] fg e~ $~ 5, >= 7, .@ q% ka t7 Z- 1c U~ r> h/ P. m{ S; ~| GY.HY.IY.Mk o% ",
"{U.Z< :] -) := )% S2 x0 JY.KY.S; 9{ ]] [1 LY.4; 4; ea [1 ]] 'W.'W.MY.*X.O8 }+ 11 Yf.j; +| K: D} c8 NY.OY.xf pk m* PY.~j k/ %~ QY.D. E. 4a q< I+ 47 -6 RQ.+S.RY.T4 |8 SY.4< nr Ro ]X }0 TY.UY.@[ X# L5 .: $~ |4 0= T$ +h VY.WY.XY.YY.ZY.`Y. Z..Z.+Z.@Z.#Z.$Z.}6 #. #. .{ c. nK.F} *1  [ {] 5D.Yf._{ =9 .{ Hh s$ yF.yz [e +] u& V. f> n! &*.H| G_ ^  &_ y} I+ A$ k7 a! >= 4) e} #@ ;= fa B@ }X.3; {] _^ n[ h& 5* ~m @=.&Z ,R %Z.vJ.&Z.*Z.=Z.-Z.;Z.>Z.,Z.'Z.^h 7M.)Z.!Z.~Z.Nc.{Z.]Z.Mc.^Z./Z.(Z._Z.:Z.:Z.Jg.<Z.[Z.V} -*.mX.jc.5q VX C1 VX }Z.VX C1 VX |Z.1Z.)m h> j= h> -X.h> i' [w 7; y( :< i/ :< Fh pX.oO.MZ `X.2Z.3Z.4Z.0G.5Z.6Z.FT.7Z.:6 'W.O8 XX a- B} UX.8Z.9Z.0c.{w.1@ _~ )] D_ O) !# !# S# /; )! u+ {) )~ z. G2 H~ H~ @' 71 `5 _% g. a} B% 0} b_ 7)  ! zM.0Z.Oh n! 8^ -, 6_ J- t* $@ 3) #4 aZ.bZ.p{.cZ.*Z.dZ.tU.SO.{6 /!._%.}+ +S.eZ.W} fZ.gZ.hZ.bZ.[7 77 z$ M6 J| V2 U$ B+ C- 4* 4* 3( E- 3( E. E. y> D. 3( 3( P4 0p `^ :+ +1 8- _{ H3 7; <= ]= m3 [@ <= *> Y} h- h) b_ 7; E+ C+ R# S; w} #( 0{ /  c, iZ.~| 1s `7 Z) +k ",
"Zy 5~ 5~ K) #~ +& b, t1 ,j jZ.h} Ee m! {; XX 4; 4; h( Y< 6q kZ.:W )W.:W QG.X& ,V.}X.(  h@ )] lZ.mZ.Vj nZ.Qk }i ;j _W d] l* p* v4.D. D. `a `6 Q  4; Z< oZ.Z< h( #/ #@ :5 69 pZ.!f.=Y Y) }S.qZ.8| p^ rZ.L5 r< 6) T$ %, sZ.tZ.uZ.vZ.wZ.xZ.yZ.zZ.AZ.BZ.CO.CZ.DZ.{_ 0) g{ X} r> c8 ]8 b, Y< ]] O8 2~ ea 7; 6~ @. i* X  Z+ ~% p& != 5; B+ J^ y+ J)  @  @ ^  8/ (  O8 E+ ]# j= ^] Y7 a! O8 :~ 9^ H/ :~ 8, )b 4^ 4* /m 3* @=.&Z EZ.DT._g.FZ.GZ.9o.:g.HZ.IZ.JZ.KZ.co.3M.{3 {3 {3 LZ.lI.@E.|d.MZ.vJ.NZ.<Z.OZ.PZ.QZ.RZ.D3 _: eq.xp ;j.j' 5q `3 5q `3 YE =X.YE =X.SZ.=X.i' @k ec g> g> M;.ea S9 C~ ~7 C~ c, ~7 TZ.G| UZ.VZ.WZ.XZ.W} YZ.w .$U _W.ZZ.:{ #T.;= i( h( 3) 77 0' `Z.c> L+ a/ n, _4 R= g{ Z; Z; n, 8@ n, ]*  6 x4 x4 Q) &4 71 71 t3 7| 7| M+ w4.D@ *6 V; 9) >; fj Qe ^= Z  r;  9 Tm D. 5* j' G+ |! Z} R4 FY.bq._Y.[Z.^{ ly.s|.5* 3( W$ {; ~7  `.:7.jy..`.!X.k6 <: Y} Y7 Y7 }1 8^ h' !b 4* 4* P4 E- E. E. y> E. E. z> 3( ^l S  w( ;N 8: 6  4, Yf.B$ #- +] K5 }@ +] 6  )' WY C$ $= 2~ rO >> V, l% 7@ 7@ m( @/ }+ ;= ~= }@ J^ J^ b. ",
"Zy := -) Z{ #~ fj h} 9; 0, i( ec B1 B1 &> g> #/ 4)  [ [w z4 {2 +`.o%.%@ %@ (^ |7 z$ ;= }@ )% -) ~j 2] .b @`.}i n* sh ]f O> M- D- E. E. 4* ^m 3{ lj #k Fk 7i Gk  7 8! s; 8* ]X V~ LD O% K| s3  } V' M! >7 S$ ~2 o[ %, z] #`.Yh.$`.%`.TR &`.Ok.0' *`.=`.,X <1 }: r] R= .] *1 */ s& K5 q) ]g ec A- gc 3{ Bb 6{ '; =4 s; A- d> e> f> h' h' U. J| 5; |@ ;  7, 2~ W$ E. E. E. E. 3( 4* Gb x} wY Jg k( #. x$ 4^ h& 2* .4 gB.OY ly.ly.jv.~y -`.^E._j.e2 ;`.!o !o e2 >`.,`.31 ,`.WC.:8 :8 Pc Zh.Zh.Zh.VC.*h.^t.C2 '`.!b w, N* w- M* t> rx w* ); !b `  W$ s* y2  & B1 Z[ &~ ]g qb &, D~ 8; h} $/ %, w0 $/ h} i% fa -  hi <+ ({ 47 )`.!`.ro.F3 ea  [ **.)% r| E_ +( U$ #- D$ $= Y, R= R= o[ l& ~' !: !: R* ~' 8@ *' M< {) ~: g8 g8 _% _% 6= |] N& t^ D@ C% *6 V; 5~ 5~ r| j~ |d i{ E- E. E. E. D. x> J| !% ~`.{] 3) by {`.Vk.c[ d[ L* E. E. ,;  ] 8; U< :+ !s.#l.]`.d[ m7 M6 a! Y7 w' 8^ D+ ~; 3( 3( 3( E. E. E. E. E. E. E. D. E- v- v!.n7 Z% q! q! Lk q! rO t- Yb D+ `6 :e yp tp .! C- t* `% i( =~ R# K' }@ <= D+ x9 `% 6! 6! B- t- Z% ",
"|c Ee 5^ a, K) Q= w0 ec 8! E+ `% }0 ]# Z- i( O= V; o[ a! F. h& h& h& e*.VA.^`.bA.Q  ;= ]= r| ~j N6 1i .b }i 2] ;j PG.6{ 3{ u* E- E- 3( 5* D. G{ G{ fc Sh /`.(`.'m ,; `a 6* _`.:`.(0 <`.[`.}`.)h wc Ai k{ P* q% q% O= /  @1 |`.VB.1`.UX Vk.MA [; B$ 8, R< J5 Q*.b_ O= R= y] 7@ ]= m! ec V$ g> 8^ E+ D- D. I> G{ n[ 1b C- -, Y- C+ h' w' U. V2 <= }@ n! e} B+ ~; E. E. E. E. E. E. _S ~% %. #3 b/ l% h' K# z> {2 `*.;C _8 oq 2`.;*.q: 3`.tS.g2 97 g2 d[ 4`.d[ d[ 9} a- c[ 97 tm.;`.B3 B3 B3 ;`.d2 c2 <: zp ^`.`  v* /^ *- d8 *- i> w- L* om i{ ~; 3{ %- W5 j~ }c (= &, n^ F_ /= [@ ~2 @. 8) @& 8) @. X, i) +@ 7, j% H+ +/ +/ +/ 2: N= 8; ]= ]= +. E_ )% A3 <= != /* m& !: R= s& /% >, s& Z; Z; Y; p( Y; 0f E-.P! d: *] ,] E] E] D] _% g.  - P$ ;; c6 q3 T[ 5] N6 W5 n[ z> E. E. E. E. D. %- 15 h' ^] U. 5; G+ '= g= !% >> V: D. D. K* M> 0= 7, 3, 5d.|q ap ;> |1 s' Z  '= >- )= d> gg D. E- y> D. E. E. E. E. E. Tm Tm E- E- ~m ~m &@ &@ 5* 4* %> z> 4^ 4* 4* %> ~m %> %> E- z> z> `% }@ l& o, v} k{ )= |* 3{ ~; x9 =| Q4 Q4 3_ ",
"5t ]g }1 9; ~= O= -= w$ V: 5_ x9 i{ >8 F+ 5) Z; [& #= w$ j{ D. 2* 4* X$ X$ id. T Y} |@ [= 0= )% E_ ~j J* !j l~ Cf 5`.h& 3( 3( E. P4 E. E- 3( D. D. H> wi Kl ]f vh 7{  9 Nn 0o Oo b* R: 6`.r} M! '; Xb G. G} ga Q$ P  $. a' -5 >*.4s.m7 Y} 2~ [; B$ 4, G| @  t) t) [& /; 7@ y+ }@ U. }1 J| U. Z  B- g& D. z> D- `a ^m 3_ U: i= D+ A- e> B+ |@ K' R# #= @@ B+ x9 E. E. E. E. E. E. `*.h  ,- ]! m{ +] h' A> x' K# u- 7`.3< 8`.h9 u3 d&.`/ 97 d[ 5g.97 c[ c[ c[ c[ Y} c[ (} 5g.tm.tm.tm.;`.;`.Of >`.%1 {`.Bo.z2 om N* id.4q .- Po Po Qp Wo +` 4,.Wb v* r; @k 9, )3 6b ;- t& 9; A3 ~= #. i% X, i% i% i% +@ 7: @@ [, 7: [, |+ x* [, N= 8, +( 8; )% )% D~ |4 D~ A3 +[ v$ [= V, #= Q# P# o[ o[ !: !: s& R* m% 0f O! Q> M{ RF *] @# E] D]  6 o_ `- |: yN z0 P* E_ z, z, j= 4^ E. E. E. E. E. E. h& s* Dc {# )b 5) 7; 5, #- -- g= -> D. E. s* G. n! @@ K^ [: |q Fq q! Z% !% ~# *> 5; 5; A-  9 E. E. E. 3( E. E. E. E. E. E. E. 3( E- y> E- %> 4* 3( #e E- E- 3( E- 4* E- #e #e E- z> D. D. x9 U$ v; o, o, <= )= D+ 3{ 4* E- E. y> 3( E. ",
"B1 C+ h' U. U$ f{ 2~ M* ^m y' g& H- y' `% C+ v$ f{ |@ .! `a 3( ~m P4 !m 5* B' 2*.g6 x+ $@ A- d> f>    Z[ &~ &~ `[ i{ 3( :n Vm y> E- #e P4 E. D. G{ U- i: sh ^i D> 8! U: 3G 9`._`.0`.Wg K| n1 a`.V- {# 0, @& o[ Q# [= .9 k7 *@ 4q w- Bf :e n7 !4 |$ `} 3, x( ~% q+ l( J) +@ C$ .  j' x$ w$ D+ ;4 w, 4* E. D. E- %> E- E- 4* &@ u- w, x> D+ A- ~# i- U5 U5 $@ gg E. E. E. E. E. E. B' 0p C. 6  h- '= j- N> ^e Ai w, 2{ ~4 u3 ~4 Ro nz 2{ :x.I:.zp zp zp zp zp zp zp Bo.=3 @=.:j.@=.I:.1h.1h.I:.:x.;C :x.Po R` =| 2&.jx.Sq Sq =d Sq Sq Vo Vo B' B' `*.4,.N* x> .! 14 79 q! q! ;, M6 g= g= '= g= '= Q  g= 9} <5 <5 q$ So q; ~p (} =- Z% A- Z  8^ U. 0, u& u& 8^ d> +! +! $@ $@ d> d> 9, 8^ e> U. i- >- != ^* D_ N% V) V) Q^ %^ $* G4 G4 Z@ I  (% p% q% S$ &~  ]    8! 4* y> y> #e E. E. E. D. D. z> j{ L* w$ Z  r! >> Z% Z% M* j{ K# E+ '3 [= h- C$ [; R  Fq j8 q! 75 x+ a2 x+ q! 4_ 6* 3( E- E. E- D. E. E. E. E. E- E. #e E- nn E- nn E- ck E- #e E. E- E- y> E- ck Um E- E- E- D. y' => ;- ;- i- d> => ~; z> E. E. E. y> E. E. ",
"h& u* u*  4 ~; x9 4a z> E. E. E. E. D. D- u* 2s 14 -> `a 3( E. E. y> E. E. P4 E- Nn C8 gg gg x9 ~; t* A> 7! 7! W$ z> E. y> P4 y> E. E. E. E. D. D. F{ (j Sh Ek Dk 7{ i{ ]b z' E- on x' #c x' '; zi V- 7{ !b {# x9 ~; ~; j{ 5* %> 5* 5* u* Fb gg ~; J7 xU.xp *@ g6 Cc s> 2*.=d 5* 4* 4* &@ &@ &@ %> E. E. E. E. E. E. E. E. E. E. E- %> &@ `a  9 1b ZP !; wh D- E. E. D. E. E. E. D. ^m U: C- Z-    |4 k* $[ L> E+ z4 w* w- d8 Q4 7* z' &@ z' &@ X$ X$ X$ X$ 5o X$ &@ z' @m do 1o z' 3* z' X$ `*.`*.C8 6* 4* 4* 4* P4 Um Um P4 Um ck #e #e y> E- 3( 4* ~m 5* %> ~m ~m ~m ~m 5o 5o C8 C8 =| 7*  9  9 D0 C8 3G C8 3G C8 C8 A' B' z' 6* 5* u* i{ ~; 3{ ~;  9 i{ `a 5* %> 4* z> z> z> z> z> z> z> g& g& u* 1b r; .! `6 => ^5 ^5 75 75 75 75 a2 w$ f> a! j= K* 6{ s* 1* 3( Um E. E. E. E. E. E. E. E. E. 3( 5* B' z' B' B' C8 &@ 4^ z> Fb L* J7 L* 3_ Wb 3G ]b 7* ]b ]b &@ &@ 5* %> #e E. E. E- y> E. 3( E. E. E. E. E. y> E. E. E. y> E. y> #e #e y> y> y> y> E- #e #e #e E- E. D. E. E. z> j{ j{ j{ h& D. E. E. E. E. E. E. E. E. ",
"E. E. E. E. E. E. E. E. E. E. E. E. E. E. D. Ml E- Ml E. E- E. E. E. y> E. E. E. #e #e E- E- E- E- E- D. E- D. E- 3( E- y> E. E. E. E. E. E. 3( 3( D- S' S' G{ G{ D. E. E. E. E. E. E. E. E. D. G{ G{ E. E. E. E. E. E. E. E. E. E. E. E. E. E. D. 3( 3( E- y> #e y> y> E. E. E. E. E. E. E. E. E. E. E. E- E- #e E. E. E. E. E. E. E. E. E. E. E. D. E. E. E. E. E. E. E. E. E. D. E- on `a Ha 0; '( u5 0A.J! t} z> E- E. E. E. E. E. E. E. E. E. E. E. E. E. E. E. E. E. E. E. E. E. E. E. E. E. E. E. E. E. E. E. E. E. E. E. E. E. E. E. #e E. E- E- E- E. E. E. y> y> y> y> y> E. E. E. E. E. E. E. y> E. E. E. E. E. E. E. E. E. E. E. E. E. E. E. E. E. E. E. E. E. E. E. E. E. E. E. E. E. E. E. E. D. E- E- z> E- ck ck %> z> %> %> g& 4^ D- D. D. D. D. E. E. E. E. E. E. E. E. E. E. E. E. E. E. E. E. E. y> E. E- 3( 3( E. E- 3( E- y> #e E. E. E. E. E. E. E. E. E. y> E- P4 E- E- D. E- #e E- y> E- E- #e E- ck #e E- E- ck E- P4 E- E- E- P4 E- E- Um ck #e E- D. E. E. E. E. E. E. E. E. E. E. E. E. E. E. E. ",
"E. E. E. E. E. E. E. E. E. E. E. E. E. E. E. E. E. E. E. E. E. E. E. E. E. E. E. E. E. E. E. E. E. E. E. E. E. E. E. E. E. E. E. E. E. E. E. E. E. E. E. D. E. E. E. E. E. E. E. E. E. E. E. E. E. E. E. E. E. E. E. E. E. E. E. E. E. E. E. E. E. E. E. E- #e Um #e y> E. E. E. E. E. E. E. y> E. E. E. E. E. E. E. E. E. E. E. E. E. E. E. E. E. E. E. E. E. E. E. E. E. E. E. y> E- ck 6* `% N> <} +2 a] @c wc D. E. E. E. E. E. E. E. E. E. E. E. E. E. E. E. E. E. E. E. E. E. E. E. E. E. E. E. E. E. E. E. E. E. E. E. E. E. E. E. E. E. E. E. E. E. E. E. E. E. E. E. E. E. E. E. E. E. E. E. E. E. E. E. E. E. E. E. E. E. E. E. E. E. E. E. E. E. E. E. E. E. E. E. E. E. E. E. E. E. E. E. E. E. E. E. E. E. E. E. E. E. E. E. E. E. E. E. E. E. E. E. E. E. E. E. E. E. E. E. E. E. E. E. E. E. E. E. E. y> E. 3( 3( E- D. Ml %> %> E- %> E- E- E- #e E. #e #e #e E. y> E. y> y> E- D. E- #e y> #e #e E. E- E. #e E- E- E- E- P4 E- E- E- E- E- E- Um #e #e E- 3( E. D. D. 3( 3( z> E. E. E. E. E. E. E. E. E. E. ",
"y> y> E. #e #e Um y> E. E. E. E. E. E. E. E. E. E. #e #e Vm 0o b`.b`.c`.c`.c`.b`.b`.b`.c`.b`.b`.ao ao 0o 0o 0o ao ao ao 9o qn qn Um Um Um P4 Vm ^l ~m ~m @m 3* 3* z' 6o 0o Al Um y> E. E. E. 3( 3( E- D. E. E. E. E. D. E. E. E. E. E. D. E. E. E- %> ~m |o d`.e`.d`.ao y> E. E. E. E. E. E. E. E. #e ~m x/ Um f`.g`.g`.ao 0o 9o 9o Al ao 1o bm 9`.h`.~~.i`.j`.k`.k`.8E [].Rp J' <s.pz )r !f.D$ @- [& V; s& m& >> N* B' %> z> E- E- E- z> %> 5* 3* z' 6o do Al Um E. E. E. E. E. y> y> y> y> y> y> y> y> P4 Um Um Um Um Um #e y> y> E. E. E. y> #e P4 Um P4 Um Um Um Um Um qn 7o Vm ck Vm P4 E- E- P4 Vm zN.Vm x/ ck Vm #e #e y> E. E. E- E- %> %> ~m Vm ck P4 #e #e y> E. E. E. E. E. E. E. y> #e Vm Vm 1o 1o b`.b`.b`.1o 1o 1o 1o 1o Nn bm B' bm bm bm 5o 6o bo ao l`.l`.9o 7o 7o Um Um #e P4 P4 Vm 1o 6o bm |o )n |o 1o P4 3( g& E- E- E. z> E- E- E. %> 3( E. E. E. E. y> y> y> y> #e E. 4* z> E- E. E- E- #e #e ck P4 E- E- %> E- %> E- %> %> %> E- E- E- ck P4 P4 E- E- 3( z> z> g& z> D. D. E. E. E. E. E. E. E. E. D. ",
"pc m`.@N Mn %p n`.o`.p`.q`.r`.s`.s`.s`.cp )r cb.t`.Fm.u`.ED.v`.w`.x`.x`.y`.(p v`.v`.]~.]~.ED.z`.Tt.Tt.Tt.A`.(E q_ #p #p B`.B`.C`.C`.n`.n`.lr lr u7 h9 O0 +..p; 2, '- 5' D`.E`.(S.F`..x.eL yp 0p 0p v!.|b g6 4_ Wb 4a %> 4a w6.14 w6.Q4 C8 &@ =d To Yo lr G`.G`.H`.I`.J`.wp y> 3( E. E. E. E. E. E. ~m 2&.|o K`.L`.M`.N`.O`.P`.Q`.At._q.R`.`M S`.[9 ,1 ,1 )y.&$.52 Kp.4F o' g$ _y T`.'H qs <; aU N, Q@ L& L& Xw `$ }5 4' %#  c I( I4 &= ;( ]! Z/ Z/ jp [P =v zb.U`.V`.W`.X`.Y`.Z`.f8.Cp !3 RK.RK.f8.f8.``.%p Sp o`.  +. ++ +@ +# +$ +Y`.% +% +& +Mn * +mQ.= +- +. +. +. +. +; +> +, +Tt.Kn n) &p xK zo #o.' +X3.) +o`.Ln ! +.q fI fI W[ (8 2, 4' 4' ~D !6 !6 ~ ++q Yk.Ut.{ +d5 }q ] +f8.``.RK.h9 A_ <'.2| hp ip '{ fp ^ +/ +( +_ +UD #Q.}~ #Q.}~ YA '{ fp hp <S.nQ.: +< +Lz.Lz.em./q [ +%q } +s_ 2< Sp b:.Iv 1< 1< mr ae.eL C8 3( 4* E- E. E. E. E. %> z' 7* =d s> Fq `o Y$ bp St.sQ Cc Uo %> z> 3( E- E. #e y> E- y> E- E- #e E. D. D. D. E. z> z> z> E- E- #e #e Um E- E. 3( D. z> h& z> g& j{ Q4 4q +` +` `*.B' &@  9 i{ ~; ",
"]% {! K6 '* jv I& l) Wq Yz | +lO 1 +jv jv 2 +e/ V0 Tw Uw O, 3 +4 +4 +&r 5 +6 +@6 `8 @*.ua U0 Z| C& Z| *$ 0+ T, &$ &$ -* -* -* RB -* 4 +9+ O/ X* xa X* O/ +C )u B& c$ 7 +8 +9 +0 +a +d{ [[ b +D# ,# XP ~e ^! j} 0_.6N 1].pO =' f} &* W..yP pc dy U  Z| $I c +d +e +]B @6 7C _S N* !>.P4 E. E. E. E. B' Cc 8E f +0 +g +E4.h +h +i +j +k +l +x! m +jl.n +o +p +q +r +Iq s +6% =u t +sz &+ 1. *u uy h# u +.$ v +~  Hq +B vv )) mm ]~ PP 9% PK 7( DH {- {r &K y= {} w +x +y +z +:H %I ++ Wz ua hv U0 <; FC.A +l' [E 2C mu B +o| Xz l> jO *C i! n' h+ %u FC.j9 k. C +D +E +F +G +H +I +}G 7v WF J +e{ W/ K +L +'B.M +N +m6 C, FO jz ]- @: @: TA xA i5 <o xA /d f+ s, Gw Y0 6v O +r= ($ 3& -$.3&  = XJ _n Iq d+ [# K; K; d+ ^B N[.P +Q +D8 _, _, m4 t5 R +qE L; sr sr E= D= i^ S +T +L6.u^.XC.oE &Y %Q.U +%+.0E U +0E t, Y= `$ i  xp 4* 5* E- #e E. E. E. z' {m Fq :e .[ i  V  K6 @3 @3 6] r+ s' Q4 `a h& P4 #e #e E. P4 E- E- E. z> g& V- 6{ W$ >8 `a z> z> P4 P4 #e rn #e P4 4* g& D- j{ g& 4^ 4* J7 B$ <~ w( W& B$ Z% B- s; t- C+ ",
"@@ J  !( EB Qm ;$ @v M; Z! G* G*  A pE V +y* ~u Mj Mj a  >r TB R +R +~u 1D $  0  >0 4l Jx '4 b  W +3@ X +Y +Z +` + ;  .+ ;  ; FA ..++.+@.+X'.kA <R R. #.+@.+$.+%.+&.+!$ p@ xs Y* T% 2l.'* =( =* i+ s. 12 Tq 7F ~e Yo xP *.+d% =.+X@ zf r' g6 Wp  > u^ )E ky -.+~x *& :R !( VX ^] gc j{ E. E. E. E. 7* `o [].;.+<# >.+,.+=K '.+).+).+!.+~.+{.+].+gf.^.+/.+Pq q!.(.+c@ _.+:.+<.+[.+r(.4g.(& 'u gc.#>.3. sz }.+2. 4s |.+1.+u^ 2.+HA T+ QS 3w zt }/.av vw gy 3.+4.+X5.5.+6.+Z4 z; M, [- SD &. Jx 7.+fM Y] OK K= LO `N Aw Qz 1. 8s V +7( H& -* /- )u As ^- @: Hw 8.+9.+u7.0.+pA [z Cv (G a.+Qx b.+lA c.+d.+e.+f.+g.+h.+i.+8W IQ (@ zL j.+]U k.+]U IA fP zL l.+:; Y'.>I @v oa.TB Ds Mj Qm 2;.Qm ]$ m.+n.+:X o.+p.+q.+r.+s.+t.+u.+v.+w.+x.+y.+y.+sI z.+A.+B.+:.+C.+C.+D.+-K w2.w2.E.+he aA .J F.+|.+G.+e<.H.+I.+J.+I.+]> K& Jd.n  tp %> %> E. E. E. E. E. 6* rO 14 x+ p$ $# s@ Y/ S| e, m  t) *> 5_ >8 F. 3( E. y> y> #e E- #e Tm ,7 r* %~ 6< (=  ] YP D- D. P4 P4 #e #e E. %> W$ %- s* 6{ h& h& D. _^ P  r& X_ Z+ 0/ ;= Y- .h O> 0; ",
"i- g* K  /5 k# K.+d+ qE e+ tt e+ !Q TB Mj L.+&  {  {  _) 3@ M8 {u G& 9% 8F QP 4@ XJ }) 'U Q@ X* 6V X* #  Ft j# '  '  ,r h4 '  1D Qm M8 Cs Gt >E O@ M.+N.+Ft O.+bA P.+~$ Q.+R.+S.+w9 hv %I 22 -J T.+s. u. 0^ 3$ 5$ f& /~.dp Aa 0$ V* T  q< eL n) l+ Iq MG M6.U.+.A M; 'r <2 x2 g> h' i{ E. E. E. E. =d :e ap ,a >r !S V.+(p.W.+X.+n9 Y.+gw KC Z.+Yt JV `.+ ++|D fo 1z e{.zs .++f# e# sz =u G* [r KI @v 'v +++Z'.@++cc )u I7 X+ JG fw ,r Fs T+ #++LO <x /r $++%++~m.hz.>y.`+.SV =* >! B# O/ &++&++d/ 5% As Ds R +l0 |. bz )E .$ R +j{.-8 C0 Gq Q@ ^> -* +v va /. em *++=++Jm -++ + wA &++z  !w.g. 3a ;++>++,++'++Ti.+R c<.*; dc )++r@ 2.+!++zB ~++xq  $ Cw p{ Es _; 1.+8F _) BB 0F N$ S*.%{ 9_.{++]++x:.^++MC mk p!./++(++_++n(.:++KC :X <++[++;Y }++MC mk Nj 3w gz 2  '.+Lg 3g.|++).+#>.1++2++[- y; 3++NP sV ~+ sV tc 'M `+ 4_ g& 6* E. E. E. E. E. ]b `6 a2 14 cf .' d, `: 6| $( ,- K^ ;, ~; t* W$ E- E. #e y> P4 E. z> Dc L> ry.4++S( 5++!j r* D- h& 4* ck Um #e E. `a }0 V' Te M- S' G{ G{ Yb r] HJ n$ P. O) 6) >) C> N- 0; ",
"C> 6++Rz.n! P$ P/ X* nA TF -* RB -* 'U fd 7++M+ j$ T* O& Qh a% fd y; N/ Xw f, 1= e{ 9d -( ,- 1~ 2, ]! g] Fz M& s| UB N/ i. s| +3 L7 `$ 2$ R% -( g] X_ o  m  1& 9O vT l# H* GQ v3 X= U  A~ g/ 1= -@ r. 5$ ]+ WF -8 R% db.Fm A, u] S@ 4' m- .u.m- 0^ H& AA *0 |g.Fw Os.c+ 0{ 8++Y[ }1 ~; E. E. E. E. 4,.w+ s> *.+B# 7( ~r k^ 9++.^ +^ !) 0++=) a++WM b++c++h7 `b +c I# JG t5 dM @v Hq IG j{.+C Z] i0 ,v 2N d++X] Nx CK t. +3 EB () +e [R _) b  >0 t| z& .y 73.XD e++|$.f++9b.^! 2, ,- Z+ <& +* q' (; R%  > '! r#  = Ev gv ;s +C ($ =* D# ~e '< 5$ v1 s. g++i] h++$B i++iH j++Qw @0 =# t) n# E) J% [; k++l++m++n++o++jv.;z i$ p++N2 k# l# ,  vT ]) -a v3 -; ef mm WJ y@ +N k} .# g[ jP q++r++vI }] s7 '~ u  x  u  (R ~) I2 q# s++Z= kP +D t++m,.ng u++v++w++DB DB Bx x++$  Dv d+ Vd Dv MO <4 ,> m{ h%  @ Hh [/ 0g Q| &1 a/ Z  G- F- on E. E. E. E. E. 6* `6 => }0 h= O. _# <~ R| z@ ** 4, s; 3{ B> 7{ 3( E. y> y> #e E. D- V'  : y++z++A++B++|i -i S' G{ 4* P4 #e #e E. 4^ 8! O> q* N- a;.u} Bb Z7 J. I< L: E) b, k* b] ;[ P- C++",
"T- D++E++qh !: 6@ ]  1= RV {b <; J +_> j  jg 3% S# S* t+ M| m  _s C  e, s@ 05 V  Re zv .( q< E8.Mr (} 8u E$ *# {% {% 6] g} |> u_ _  .[ v! q< 95 l7 Zo )' [; 6, C$ k% @- J) .' }; 6R db.{+ A   ^ (> EH %I <- F++G++@*.tQ LC.*r H++k@ 2v A +b{ %u j. o- ,H Z..t# %+.W_ /M x} )W./] M;.*- 3( E. E. y> w* R  rO Qo Re  * `R ed /D @3 6] l$ E) y. O  8  l# 1g O& !0 U5 G~ s  Oj $  As MO k' B  Bq Bq /K p| I++b= /K /> ~( 0& n+ `b `b (- v3 y  d& lQ au FW Pn b1.J++yw.5f.+p W[ _  T  1y WY #- (* P2 )' ]% z@ -( 9d u. |^ x1 bu bu -J }~ v. #! f& !] 3: gv.Q2 Q2 d2.t|.0| ac.`S.u-.f' [: Y} '= |@ o& rO K++L++M++yZ.N++vD.b:.w~ O++P++Q++Hf p  ;; ^, H  N| 7& Qh v3 |= 3' LY R++&'.S++T++U++V++W++`@ ], f_ %[ |) v+ W  += h_ }> ]  0~ /R.CX.md ;&.y[ *j u' |: |: B% ;; {e Lb p| t. {b `w Y/ 6  gc _^ 8! x, q) 6~ W, O= $/ Q< )b {# -4 `a E. E. E. E. E. g& m8 |0 B> U5 ]; J  l( `: ,- w] _# A- 15 I1 t7 z> E. #e #e y> E. J- 0; jl X++6I.Y++Z++N' jf I> G{ z> #e #e rn E. g& Xb r* I{ (= +2 0A.3] |4 c: >, 7@ 7@ 8) 4] -j `++ @+.@+",
"jj C> U- W- ^* m$ 2+ a& 3^ 8v <x.$+ 8O +@+([ P. y. X  3% w; o  o= o  {+ [e }/ S= }, !' Se q< l7 Y} q< A/ }$ r+ i  x( u_ Y~ |- g' #! .( E8.Mr (} Y} _* _* -- 2~ -- 3~ G+ +  Se Ap m`.d&.8h c& Cw SD Z| u. R; d+ #2 k@ @@+Y0 #@+D|.{g $@+bz .y a# ,y Cv c1.c1.2t 0E %@+qM T< WX &@+Z< YE 4* E. E. 4* Lk Q  o) k7 |; O0 S] S] u_ V] &_ a/ 0) P  g@ e_ *@+V# 1: h- w, h- zN =@+7.+lQ y; hB./5 G# #b (m /[ hB.of./[ ]+ 2y aw 2@ t-.L& B. LN [R O2 &. TA -@+;@+P8.>@+9< )> <'.V[ z@ r+ $. [; g= -- h- k% J) S* 5  -@ &8 !D g~ g~ *  T= -(  / }, Y~ Bc Y/ sn ,@+a#.,k.>| _Z Y: fv.7@.,5 !^ B$ A$ `} !4 <j.'@+)@+!@+~@+{@+]@+)> p| n,.y-.k,.B. ej D@ n$ v+ /, }= M& e% b) += zS 3_ T: FB ^@+L2 /@+b8 ;~ o  ]  f_ o  o$ v+ 08 += p> Y+ Lb t@ 0. (@+xD R*.n_ n_ N] @l :i [0 |: [o b) L7 R& >! 8h Y} !b w, {# s* Bk m3 5< &*.W, #@ j' r; !; Nn E. E. E. E. E. 3( D0 t* ,7 )= E) f] ,- <$ -_ #3 ]! C$ }@ =~ e> %> E. y> E. #e E. K# j6 4] _@+:@+<@+[@+}c wc G{ D. 3( P4 y> y> #e z> 3{ xc L! +2 }@+|@+l/ K. d~ ~' b. O= o[ 6^ 1@+2@+S( 3@+",
"s* W$ 6{ gc P= t^ |= *$  = 64 +v )u Nt sV 4@+#& [2 ): [2 1& @] {e @] }= :4 ]  .= *# !e .[ C$ C$ 6, C$ K^ .' s+ S* t) p+ V  ]! {! ~% <~ 9: )' A/ A/ 6  #- #- #- 5, 5, N= 8: v. Fm ]! K6 -# s| Vs 5@+6@+T= <; j{.&& I& 7@+8@+9@+0@+a@+b@+c@+[x &D `* `* DA 'v Q, }- Kb d@+e@+f@+Z{ 9) M;.v* /m &@ z2 ~`.>= 3~ ;= l( K6 A~ Jg %x ew.x_ ,> >  /; 3% p  g@+h@+:@ U8 5_ ~# u' ng ,m |z fd `b 4j N  ha dj HJ ]e )2 8~ .2 qM l  q# w  L& y  HQ 1g Bx Z= 3N i@+Cz -@+o; Ct '9 <P '- Z/ $_ y} 8R 8: 7: m{ C@ m_ o$ 7& $> u  B. 'U LN B. yz :4 ]! ~% ;( o$ {e ['.vi /$ ^z [/.rp /K /M c! w4.c. X< yZ yZ MA ^!.j@+k@+l@+m@+n@+$q.v|.<- PP Jx 0  S% Qh j$ |) v+ s@ }= B  C& k0 6] !f.`o 8* `6 ;4 9* a8 `S E  -9 7& 1& 1& o+ i} +| o$ o= M& w  O$ Gf >=.o@+fh.p@+q@+p@+r@+{8 :g md s@+J4 q# Qh a% ]  _* x9 V:  4 Bb 8! #~ t@+u@+b_ #@ gc L* D0 Nn y> E. E. E. E. E. 6* 6* -4 |@ P. f_ dd F) T.+f/ @3 @= c~ 99 h= Nn E. y> y> ck #e g& 5_ Y# J* +2 !j %~ Bk y' D. 3( y> Um y> #e E. P4 x9 15 Z[ 0A.g1 F~ t=.s% &9 P. b% Z+ E) Mk v@+w@+<@+_} ",
"K* U- U- F+  @ N| n+ i. X* WJ >E P@ HQ Ph i3 M| z( *6 O  u+ m  E} D} 1& :4 Jg 4' h9 5g.m7 x$ x$ -> B- Z  |@ 6, /* 09 l{ 7: ]% 1- 1- 6, g= a8 a2 a2 A- w$ w$ D+ w$ w' Z  e8 I( i} Lc 1& }= f; Rb 1g Lc f@ dL J0 F# '* FO cM x@+y@+z@+A@+;0 #$ B@+C@+$  4l 0  >E /[ ]e bT D@+E@+LV.F@+Q< Lk .v Gb rx m7 !% ,= h( i  3a Jg %x G@+~_ 4: ,> J5 b_ =/ md Gf I@ P$ *| ,' l8 `2 r% I< r& n/ 0f K] /: /: L. |4 9; <= +[ v$ 3; @- !! Q$ S# S# /; _~ *' O  Av d. Lb Bq Jg  / w( B_ '^ '> V& /{ wP.C} `} [, k% [> h{ I  |& ld f. M  p# e. t^ q> ]; @- h) n% n/ ag r^ bg 0} W# N% {, z( s$ c. h% +  ^^ ^^ zp 4q H@+I@+J@+K@+L@+d5.g8.n> `w N+ xa p< 9d 2' k8 89  c 2' I5 W= H2 +u %m.yh yh -> m8 m8 ,' U5 <0 n% t' 63 H% D  uc O  E  ^, ## A[ *e M@+N@+O@+1_ 0] P@+0] |s cd De Q~ u$ B% ~* '5 /, ;( `6 F. F. S' F{ K* a, t1 Pj @& ;- %- K# 6* %> E. E. E. E. E. E. E. E- '; t& f@ q' .* P).L= 5| xz zf U8 V8 .u x/ E. y> y> #e E- 4* g&  9 t* B> 7! t* `a E- E. E- y> y> #e #e E. %> Q4 x$ f> +. H. p( S2 y0 Q@+#  WF Gq /M >U @l O# +2 4] ",
"I> U- cy.x' C+ .9 @@ x. ~% += U, s+ ]; +@ <= i- 9, U. U. 3~ >= 8, @/ x* _[ {9 R@+8!.|N.5* D. D. D. h& 1* ~; i{ gg x9 V: V: V: L* J7 Q4 `a z> z> z> 4^ z> z> z> D- D- y' gg bf k$ @* *' 7= Za V= a. o! og Xb }0 S@+bf >/ 6& T@+U@+V@+7$ G1 !* f} E! z% nh H  >  $= i( T$ m3 W@+Ih gV 8, #- 2~ l7 !4 >> |* o) x2 U< Ib ./ &_ ^_ *9 &_ pX.[N.w} a. R$ m& 0= t& )b Ai !h !h Xb C- => )= k/ '/ rS r3 )h 2j cl -i ]# YP Dc t7 o& 'h 0= != )= )= +[ R~ K' m& l% b. @@ ;  5, Se {`.%1 e2 e2 AT.38 g2 d[ |1 d> Y# +[ m& !: 8@ <0 A+ Y  m, V, Y) +[ +[ g* g* ~' /% W' Y# Ai %- t7 E+ x> N* om 4* P4 3( E- E. y> iJ 7N iJ =L 2o Y$ X@+E8.Se Dq oz m`.T: ZP Nz.ZP Y@+U: 4_ <j gg `a z> Ml z> z> pn F- =T.YP .h -H /4 V, !: 8@ Q# h{ g{ Y  !#  ' r1 p1 ,( Z@+^4 |5 hV l1 M. M. v} R# 6, Zw a8 R  Bf j{ z> K# D- S' ,; .. D~ )% 9, j= >8 D- Ml E- E. #e E. E. E. E. E. Ml H- >a e8 Ro t!.& +Z`.{~.m`.Bf 4_ d9 *'.E- y> Um y> E- P4 P4 3( D. D. 4* z> E- y> #e #e E- y> #e #e y> E. ]b =| r; B- 7;  ' V= /; g. `@+`z pr  #+vv c& Hc q3 /= E*.",
"I> S' G{ G{ 4^ u* i{ L* N* w, z4 w, x9  4 1* A> u} x' 6{ W$ `  ); Gb 9- 97 eq.'*.WF.c+.u- D- K# h& 4^ z> 4^ 4* 4* z> 4^ D- 4^ z> z> D. E. E. E. E. E. E. E. E. E. E. D. D. Dc a8 a= ;4 => Ai -, Ai 6_ D. D. D. pn D- x> e8 P% 1y hc QZ .#+t& <#.+#+Rj }c %~ V' =, jj r*  7 @#+##+#/ 5, D$ N= 8: Se !4 B- x> Yb hi Ib ]^ b- {_ oa ^_ $#+%#+&#+X} ,= !; `a >8 1* `% t7 ,' |0 ,' -H Ab  h *#+=#+D*.)*.mi T- vh W- &- 7{ &- -H .: Ab -#+35 n& X# ,E #6 Ab >7 g9 A3 k{ B+ l7 {`.;#+>#+lo.hv.,#+@1 Ht.A$ #- Y) 45  3 K{ `2 !R.:2 ^* != >- e> 35 '3 35 i; 8| X# @8 o4.pn G{ D- h& z> 3( 3( E. E. E. E. E. E. E. E. E. E. E. E. E. E- P4 P4 #e y> E. E. E. E. E. E. E. E. E. D. D. D. E. E. E. E. E. D. D. D- F- => 5; )= e> e> l! 5; +[ A3 .: .: F_ T' 8l T' M' <} F_ n^  } V2 A- Q4 &@ ]b 5* z> G{ D. D. I> G{ zi s* %- x' V- D- z> E. E- E- E- E- E- D. nn E. D. Tm z> 6* ~m ^l ^l Um Um y> E. E. E. E. E. E. y> E. y> E. E. E. E. E. E. E. y> y> y> y> E. E. #e E. #e E. %> `a K# >8 3~ n# 1% 7  d. Qm u +*& ;. mn >m vT U~ G. k* ",
"3( 4* g& y' j{ ^m ]b 7* ^m i{ i{ i{ ^m 3{ 3{ 1b 1* 1* 3{ %- V: (^ rx X& MA Mr _%.jx.7N 4* E. D. D. E. E. E. E. E. E. E. E. E. E. E. E. E. E. E. E. E. E. E. E. E. E. E. E. %> %> on E- %> z> D- z> D. E. E. E. D. E. 3( E- 6* g& x' x' #c a;.'#+)#+!#+~#+{#+]#+mi jj i6 8! ]# ^] 5; He Af .[ _R 9: )' ;, x+ M6 H+ $( g} ~] `: {4 w_ /_ =  Q| v: 6  w6.Vo Vo C8 w6.tp +! => sO w' i- 35 rZ.K>  I og Uh S' zi S' y' D- >8 %- V' V' @[ j6 j6 j6 Y# -H I1 @[ O6 H{ l! h= l7 Mr Z} 'V. D [7 b> 57 '^ <+ :5 [= 45 o! m& R# g* g* N. 9C U5 i- U5 Y) Y) i; )3 !*.^#+z/ Tm E- z> P4 4* 3( 4* y> E- E. E. E. E. E. E. E. E. E. E. E. E. #e #e y> y> E. E. E. E. E. y> y> #e y> y> y> y> E. E. E. E. E. D. E. D. D. x+ h- *> Z% ;, ;, r' g= r$ *~ +[ != )0 )0 v} != o! T$ R# +[ )0 r'  9 %> %> E- E- 3( z> 3( z> D- U- G{ S' h& 4* E- #e E. E. E. E. E. E. E. E. E. E. E. y> E. E. E. E. E. E. E. E. E. E. E. E. E. E. E. y> E. E. E. E. E. E. #e #e y> #e y> y> y> Um #e #e y> %> P4 E- 4* .   ' N% 7  #& mm 'r oa.|/.., pj Hc h; A3 v} ",
"5o ,O ,U ,O ,U 2&.=s (~.Po pc w- Po 7f.pc w* w* M* x> w, V: Y_ gc |* C1 C1 ;j.qt ^l E. E. D. D. D. h& D. h& D. z> D. E- D. D. D. E- E. y> E. E. E. E. E. E. E. E. E. Vm Vm b`.Vm Vm P4 ^l ^l ~m 4* P4 3( y> y> y> y> y> -s Vm 3* Co.V: x> E+ i6 /#+C++-k P6 qh 7{ |d 15 h> (#+!W.g= l7 C. C/ .[ w. 8u +  +  >= O| $e qc =6  | *9 ^_ P| 9^ _#+~] '> A_ Zp +q o`.:#+u7 j} T  >O f3._R @! *| V, p& h' D- E. E. E. D. i{ q! w$ V5 U. V5 Z  ~# >> d6 A/ cf .9 B+ l! |@ b. p& x> Fb *5 #4 EJ.<#+9> 18 f[ X< K^ .'  @ s+ d, y. Q$ )! [& n, <, K  [& ;~ /% /% 99 2b WY V~ S  pz ]`.[#+tM 7N do do P4 ~m ck ~m ~m B' 7* v6.=d ~m ~m Cc }#+r_ ^< 'h.* +RK.Jv ``.|#+``.] +1#+gd.2#+g<..B 2q 3#+do P4 E. 3( E. 3( z' x* !( g} f- `~ 4< p[ 4< ;N }$ |, w( _  w( E$ C_ y+ O= C( b. O. )' j8 Wo ap ap :e q! +! h' )b 7! K* Bb V- >8 =| C8 1].f`.ao 0o 4#+4#+5#+6#+7#+4#+8#+co ,h.8o 8o 9o 9o qn Um Um P4 P4 ck P4 y> y> y> y> y> E. E. E. E. E. E. E. y> -s y> y> y> E. y> y> y> y> y> E. E. 3( o) !: y+ b. X  9~ 8O 3y >V ]+ Xw eO O) *~ }@ ",
"gp K0 y|.fp r: y|.d- h] h] }~ M/ 1~ 1~ |> 1~ U  ,- U, ]% >> x> }0 Xb 6! r; K< 2*.=s .4 /m `  Y_ I| j' Q  h- k% U8 *> d6 >> q$ l7 69 Jv |#+}#+]f.Jz *p 4{.-s y> ,U =p IS.9#+vo.*q Ip Ip ;q !&.(y g8.k_ (y ;z FD.@q ]< )h.Gr.-q xW.Nt.4< +..B_ 89 L. O# I. Vg =~ f> V2 != Lk (^ .v x+ D' 0#+Xo a#+NY 5R 3' J+ ~% &h Z: ew.$e '[ 7- R] G| %_ +/ |{ >x.y1 (N b# b#+c#+d#+#+ J=.ss ss ts Y8 a9 Sb N& J  x9 E. E. E. D. Lk U, |) i} :4 .% 2$ I} =( n> s# |G UJ ;_ {+ /, 4j n( YP E. 4^ t> z$ <-.6> Z( bs 3$ T= {b C& aU [J lA e#+W7 z{ ~) ^) t  Hf Hf ['.]) J4 EB `w _y GF ]3 f#+g#+h#+7N P$.5#+i#+t!.w. `~  / H} 3a L= M/ db.Rp &s :$ q7.P3 j#+eW.k#+fn fn l#+&U.m#+V` q7.n#+o#+om.5q.p#+x9.g<.%l.+` 4q %l.tm./K 2;.fM Nx iv 3^ x1 q#+TV n> t, TC iv CK CK t. b) Mb k! _~ $# {% !p 1, %7 *%.c) n+ M  *j __  h M! M! l! B+ x* Z$ R[ r#+s#+e0.hh.t#+cB ;0.u#+v#+w#+x#+y#+ck.0B.z#+A#+B#+C#+D#+Tt.vr.1; .( St.%l.4q Wb v- Q4 Wb =d =d =d C' 4,.2&.=s E#+2&.R` P4 #e #e ck B' C8 &@ ]b C8 w$ +[ )0 5; l% g; +* (; Ie 08 m_ a. o, V2 v} ",
"fn )C SY l#+t# 7v x|.r= $+ _' j. ($ ($ 2v -8 >V 0+ 8O 1$ )' r; t* K# S' h& y' v* pc pc ^^ 37 }X.8- SY.3| /M M&  - $# 08 i@ v+ 7& >! :E 9e.F#+G#+H#+4- Sp 4{.do -C b:.+s.I#+J#+Fv s~ 5C )& |i.K#+73.yu L#+yu ~t !t g9.F/.M#+N#+I].HF O#+/. lM 5% !~ P#+Q#+R#+S#+Y;  ' pb -, Bb n3 `a F- on %> %> Uo n{ b) T* o  #3 T#+U#+9g 5d b- '^ g  4, G3 5g.V#+;b.W#+X#+aK.Y#+Z#+K[.1 +`#+`#+ $+vz .$+8F =>.w4.r; E. E. E. E. a! 4@+4@ Dz B8 A& 2/ +$+@$+-0 #$+0K.,d $$+Dv W +%$+N| YP E. G{ '; V- n3 qt Z( b{ &$+*$+Q6.a# d7 }) Un.Ft 1D 43 &) Px xq Oj b  {  QP L.+Vs t| +$+8w =$+-$+4q.;$+y> y> @m l- 2; M^ s7 /z 0F >$+~++A  dL 8u 2- H.+7D rv lv Wa SG ,$+tv Qt ;@+5y RG '$+)$+!$+~$+hA {$+Vt FD.q: *s .x.q: +..&  ]$+g# 'v JI =C ^$+ C _G O8.b# cw /r dw !v lL Nt Y/ U, s+ |) C  e{ %I l; /$+VF !  p{ ($+Hc +> E*.E*.l& v: L< BJ.N +e++sM._$+:$+me.<$+[$+}$+9U.Ae.|$+1$+2$+3$+4$+5$+wC.g}.6$+d{ >! CL }^ W& =- !4 !4 s' !% s' !4 9} 9} Y} Y} 21 (} (} (} o7 =| E. E. =d R  B$ *> #- 3~ Z  15 -, Bk => V. +! ;4 ;4 => V. N> M! V' '3 ",
"7$+8$+7$+7$+ll eA k) 9$+9$+[E k) ns k) 9$+2 +O, 4 +1v 9d E8.Bf .! $6 G{ D. D- 5_ x+ !4 }2 77 [: .D /{ >@ 0$+}g.0~ K4 3' Y% e@ J6 nA  @.a$+/3 a$+*i p8 Cx VF. p Jz k_ b$+c$+d$+RE RE !I da.da.e$+f$+g$+h$+i$+j$+V/.k$+l$+m$+n$+ig.o$+p$+q$+EE r$+B7 s$+1V t$+.~ t% Fa V) i6 I> G{ E. E. E. E. E. E- G~ x  xa _> CL u$+v$+u$+w$+th.x$+NK.g' <: q: y$+iH z$+A$+E.+B +B$+fL j{.tt C$+D$+dM E$+F$+G$+QO d8 E. E. E. E. j' #b &. IQ oa.MG _z  , bz H$+I$+J$+K$+VU a1.L$+:R }] ^b y/ Nf S' D. E. P4 M$+Dw h7.N$+O$+P$+Ar `+.I0.2A +B B8 B8 L.+1D O.+X+ Q$+y-.$>.#.+Dz d$  z Hw R$+%s P4 E. E. 5* w6. # S$+T$+U$+V$+HM W$+X$+Z@ Y$+i} W +I; u| `v Pt 9v Z$+gL ;@+;@+P8.9z ^o c1.`$+eh.c<.i.+fW.Ym (%.Vk.{9 c4.y_ Z] q-.h# z& (' z4.-! !- Sw 9z  %+.%++%+@%+#%+$%+JI v1 2) `; W= s@ j@ %%+P, ln NV zw G* 0  K@ q% 4] (e >, T. 8_.9_ &%+rM.Ct.HD.@G *%+=%+-%+;%+>%+nT.,%+HU.'%+)%+X9.JD.ot.!%+C! '! q# SZ E} g' 5g.(} Y} '= J| -- >= 5, 5, 8, 8, 4, 8- <+ '0 Q  Q4 3( 3( J7 h- J  J  h@ g{ U$ 02 &- s* YP L- Xb 1b A> A> L- q2.*, .1 n^ ",
"7$+3^.uo.)C u2.A|.nb g+ k) k) k#+k) A; A; r= 2 +2( iv le t!.hH 8@ +[ J- E. D. Dc ~# +  5d./{ 2`.nF a> ~%+{%+n- %I y|.u, &3 2$ r# y:.7w ]%+^%+o2 :s.'C Mk./%+4{.pq || (%+fE _%+:%+[t :%+<%+<%+[%+}%+|%+1%+1%+2%+2%+k7.3%+4%+5%+:Y.6%+7%+8%+9%+0%+a%+}  b%+Vs WF K+ s$ _~ {# E. E. E. E. E. E. E. E. 8r X* &++c%+3D d%+e%+f%+g%+h%+i%+Qw !> u) 4- j%+'D k%+s(.l%+l> A1 F) 6& m%+n%+rr ]$ ,2 o%+P++p%+@m y> tM tM 1!.h#+5- x& ]- hz Bo Bo )$ 3# q%+r%+s%+t%+u%+v%+DA w%+o> g6 w$ d> x' E. E. ~m <$ 9z x%+y%+z%+A%+{h. A.ju B%+n- /- %$ Un.H6 C%+Jx.Pl D%+uH E%+F%++{ Sw R$+G%+oS y> E. E. P4 `*.%= g_ H%+I%+J%+K%+U# #b c~ U5 tf a$ R, {. !. 3c 'v }E #$ -@+L%+[F Kz J& M%+;V ;W.j%+0_ Vt +0 S4 C} {`.d&.N%+h++ey O%+gv 'H w1 *Y hI P%+Q%+!K R%+S%+T%+U%+B|.V%+,D @  {! +* t] '< W%+pC X%+7a cz x4.5n.d. /% 4]  : _2 R* D) Sz.e5 nm.eG Ri.Y%+Z%+`%+ &+.&++&++&+@&+#&+$&+%&+&&+mG.Nc.Ve.q#+0~ $> t@ s@ 4< g2 21 [+ |1 k7 Z  '= 5) 5) G+ ea Yf.G3 3) 6  M6 i{ 4^ 3( ); [= n, O= g{ l% i- Ai %- W$ %- Xb =4 Xb Xb #c wc W- .1 Rz.Ab ",
"*&+8$+)C  @.Rk.A|.g+ 4v 9$+9$+g+ g+ }G }G A; /s.Uw T`.=&+* +3t CX.V) -&+D. D. |0 v$ .[ S] f' [c pp !u d! [E FC.#+ fp W%+2R =* 3& {B ke ;&+4^.>&+f1.44 Wd.[&.3{.v~.In ,&+H2.[t '&+)&+!&+Bu k7.~&++w 2%+{&+,f ]&+]&+^&+/&+(&+[Q.#H._&+:&+<&+[&+}&+|&+1&+rL `U.2&+!n F) !] PL E. E. E. E. E. E. E. E. 3&+h! CK CK -$  + +$ z.+4&+5&+Pv 7# 6&+!C sv 7&+&K t= B:.Z1 pC @3 t] O& 8&+f% 3d (R H# 9&++: /E.0&+a&+(o.b&+2R.c&+d&+QR.e&+/' f+ y& j5 :x M=.f&+g&+h&+i&+{- j&+4T.%7 G8.08 ;~ =H D. E. R` y1 k&+l&+m&+n&+o&+p&+ra.q&+r&+e! k) Vw k> 5& Z] [- s&+mA.<R wA U +^' fW.y1 5X Az.t&+u&+jh.v&+w&+zb.dn P$ [k x&+Q. y&+I) T  WY b% /M o; +_  @.4&  + au H& &$ 2a +{ +{ z&+A&+-! y4.q#+x1 4G @0 B&+4$ :  A1 5- _G >d }E 8W T`.]s *Y  F 3& D= C&+D&+E&+F&++%+G&+L; b; -3 o$ s@ w~ %7 H&+I&+J&+K&+sw [E r# e, g{ M. l1 r3 K{ h) ./ %>.L&+$C.$C.zW.M&+N&+O&+P&+Q&+R&+23.OZ.S&+oJ.XO.ez.q[.T&+,V S@ T* :# [e J1 d2 <6 c[ m7 |1 Z  B+ 8, H3 8, 3) 8- F3 @/ 8, a= =| g& 2* x> ;  Z; U; b. n! }@ V2 V2 '= Y) 9C ka R~ R~ ka R# 45 `2 o, ~' ",
"u2.ll ll eA A|.}G k) g+ [E gv g+ g+ g+ }G $Q.$u U&+V&+4D z`.W  ^) O~ W&+D. D. l8 g* +u 68 jX Q2 {( T`.A +3v p8 n8 X&+<d.*Y c{ o; SY HI ~N Y&+Z&+`&+vo.~y *h. *+oI..*++*+@*+ou Td.#*+oy $*+%*+&*+**+=*+]&+-*+;*+@w >*+,*+wr.44 '*+)*+1F.!*+~*+{*+]*+^*+C0./*+P1 L1 c.+f' !m E. E. E. E. E. E. #e ^f.(*+_*+!0.Ia Sw :*+2/ <*+[*+s0 B= }*+8s.|*+1*+2*+~n 7D tw U% C# }/ m$ @] #b 9~ j, +* 3% l: ]d.3*+4*+5*+6*+7*+8*+9*+0*+V_.a*+aw 2l.Jq qr e$ (B b*+kW G8 -0 St c*+$+ j! 2A +: d. Wm D- E. 4o m6 ~H d*+e*+f*+g*+h*+i*+j*+Q_.k*+l*+m*+n*+o*+p*+eh.g++K/ q*+v$+;$.2`.}! cu r*+iS.s*+t*+u*+v*+w*+x*+3^.o= DU.y*+z*+/K sf f@ .@ ga X( -_ hI  F 0& Lb SR J/ #b R& c  yz +3 '! e6 I} V4 `$ L7 6V x; 3y 3y -$ 1E #v C.+A*+d+ :, a& ,_ T= B*+Gw C; C*+}t C*+D*+|a 4 +l+ j$ #& _s .% 5+ M/ Kp.qr +$+ns b{ /} w; l% E_ r< /e d~ m% [N.3: %@.,| X: %>.E*+F*+G*+H*+<N.gZ.I*+EG.+X.J*+|m.K*+L*+}$.yb..= +* K4 |/ lo.M*+![ b2 a- M6 +  5, H3 4) 4) PQ.:{ g=.Yf.Q< $@ ~; 4^ 4^ w, R# Q$ n# =/ n# 2% q> ], ], L  -9 o_  6 kc D] _% `- Ge D  D  ",
"eA v2.A|.eA g+ g+ 9$+[E gv Vw gv e$ {B .x Gu l> dD N*+`M W%+XP <e ++.O*+D. Tm P*+d* k8 *= P0 gH $! g$ >C yb.jr t~ eA &0 o| Q*+YM A|.{} l*+R*+S*+T*+U*+x9.*d ;v V*+W*+X*+Y*+ca.Z*+`*+#*+&*+ =+.=++=+W1 @=+#=+$=+%=+uu 5T.d2.W[ 31 &=+hJ.*=+==+-=+;=+>=+,=+'=+)=+zW.KD 6| /m E. D. E. E. E. E. qv.!=+~=+{=+]=+D0.z|.Sw L, TC A&+^=+5C my /=+(=+db )I ]D.n; _=+[x.65 v] _- T* ~, 5b F# tK W..q< :=+<=+[=+}=+|=+1=+2=+3=+4=+5=++s.!p Y% 12 Jq RB Z0 Zx 6=+Zv 7=+;* Kz 0;. t Nt Wn +e m% V- D. go.jr 8=+9=+0=+a=+b=+c=+d=+e=+f=+g=+h=+i=+j=+k=+l=+m=+n=+D1 iB.%@+2`.3`.o=+8!.p=+q=+r=+s=+t=+u=+v=+w=+`0.na Nh x=+H% e@ +| +# Fa z( n( J0 L= 5+ X= N& j3 Lc n+ M+ ;/ ), %= _R 9: gI p> G# Xe ;% Oj 0  Cs s +y=+z=+A=+u9 }# x# d= XB ;_ $x >* B=+Er F; '& 5C 9$+Y= [' C  #& j$ %[ +N U  M/ /! yv {( h+ s. o$ [> 0= o! ~' /% W* k3 8h m~ 3- C=+=_ uD.D=+E=+F=+ 0 qY.G=+H=+`S.mc.[$.I=+J=+K=+>v 9%.S= (; d- Qk.e2 B} b2 _: L=+3) N= 7, e  e  hi SQ.8- @/ 8, !% x9 4^ 4^ d8 f{ 1% O  [0 G@ t^ T* m+ e& B  T| 3d %8 u  () () v3 a5 T* |] ",
"k#+eA A|.g+ g+ [E [E gv [E Vw Vw qr g+ g+ >* M=+k. U&+TV hp &3 ), B/ F- E. Tm ;H ;U x. S] $p B`.jX N=+zd.BS ~q ,C &! OC 7# I +'1 O=+P=+Q=+Ik.R=+^l 3* n[.*Y sJ P} 3[ S=+T=+U=+V=+j] <t DO W=+X=+Y=+Z=+V1 `=+ -+.-+oA ^=+g/ l( Lk +-+@-+#-+$-+%-+&-+*-+=-+T/.--+;-+c  @  {2 E. E. E. E. E. y> >-+,-+'-+)-+gg.!-+rX.~-+-# =1 o{.{-+=$+]-+^-+/-+(-+}u _-+c*+74 $+ s. -3 s@ ;@ B  C& &8 -| C' Vm :-+<-+[-+}-+|-+1-+2-+3-+4-+5-+mq.Wo q! I5 [R OK OA uy &; Iw ,H $N Bo Ao e7 6-+xA b+ h; 6{ E. 2o MP H].7-+8-+~o.9-+0-+a-+b-+c-+d-+e-+f-+g-+h-+i-+2$.j-++j.k-+pa -s.HS.l-+m-+n-+o-+p-+q-+r-+s-+t-+u-+v-+|< ~j j& Vg _~ c. B% De M% $< m$ 9d 5$ X= T* Lc t@ Qh E@ f@ Bf ~m z' 2&.v! |- #& t$ 9. zx w-+At (@ v.+;r.3w C$+/d b$ [- -8 s. j! e! oE ,z %A.>y g+ ++ w~ Mb f_ +| v+ += -#.S= &= 7C <'.3: bu ~%+3| N= Mr =- He b. N) zh <2 5| 3- ~_ Rm <n x-+y-+QH.z-+z-+$x.A-+B-+h.+C-+i|.4*+J].om.y|.,< 2) 7J.D-+E-+M*+C3 97 a- z$ 4, f  4, H3 Tj.SQ.g=.8- @/ Z  x9 4^ 4^ `% [= T. 2% qw.X( [2 e@ E% 12 i+ C0 u] -8 xa r# b& (- l+ e@ f8 ",
"e$ 4v e$ gv k> ;s ;s 6v gv FO FO FO Vw 6v [E Xz $Q.dD @C ~U Yp 5p {m D. E. F- }S.++.n{ ma ;! 9%.ta z4.O#+F-+G-+H-+I-+~v J-+Ri K-+fn ]D.Jm L-+8!.E- X$ 1{ M-+B) gm.5@.N-+O-+b#+P-+'. l%+Q-+R-+S-+`=+T-+T-+U-+V-+W-+3C X-+R& )# m7 Y-+Nw Z-+`-+ ;+.;++;+@;+#;+$;+(v y@ W  1* D. E. E. E. E. qn ,^.%;+&;+*;+=;+pd.-;+d! I5 3' -J #N il.e$+;;+>;+,;+bF /. _G _' B*+1= S|  > 2& ja N+ g~ <P bo y> ';+l9.);+!;+~;+{;+];+^;+/;+ -+(;+Vm Cc 05 ;% (.+_;+>2 :;+dr g+ /' <;+[;+-. A& B8 6$ pb Xb D. ,U Tt.};+gz.bI |;+1;+2;+3;+4;+5;+6;+7;+8;+9;+0;+a;+:0.b;+:7 '>  =.c;+d;+_J e;+f;+g;+h;+i;+j;+k;+l;+m;+n;+}< +2 e~ j* ~' 6; n, Q* w% X^ D  -3 J3 h2 :# b) J4 <Q +: 1, bm y> Um )n ae.*# 8& s@+o;+p;+t0 $& q;+e4 -` =r 88 s= <o fM XJ Y|  N XB Ew c= Zz r;+k@ ja C  [2 ~* o$ :> ,{ dL ,{ U  ,{ [4 |~ 2A (M g|.oT z~.nf.Gp v. /% )] X_ j@ c.+W] lu.s;+t;+Zx.u;+(g.v;+Hu w;+ou.HF x;+c| y;+4^.=^  q ^! 1~ e' z;+A;+YG./p.pt It.8- B@ kf B@ 7, hi y .SQ.yZ H3 >> !; g& j{ 5_ 3; s] A% Av v& ]  EH k+ =* m' e/ _B k@ k@ nA ;7 *$ k+ ;6 i$ ",
"9$+gv [E |G <  Jq Jq ^> ;s -* &$ 4 +^> nA UJ r= Lr %Q.B;+C;+g|.fp .p u6.E. g& ~G ^| Hd.XP Y= =7 }[ 9$+D;+OZ QG Z4 Xz Tk.|g.^3 H#+o; 2a d}.i_ Vp xp g  <[ E;+F;+g5 G;+H;+G; ow I;+$@+B:.J;+K;+L;+M;+T-+N;+@;+O;+P;+!& A; `w <2 7> Q;+R;+S;+T;+U;+V;+W;+WN $=+Hm.6' j) U, j{ E. E. CI X;+l[.og.Y;+Z;+`;+ >+.>++>+;n.v1 V8 @>+Xs {b @x ;& -B 9G HL P8.c*+B*+!D s. h$ -@ )* f/ r. 9d 4| #>+$>+%>+`t.&>+*>+=>+->+;>+>>+,>+'>+)>+!>+(q.M9 y; ~>+ll.{>+VS ^B l' x|.l' or ]>+H& Jq Q@ t3 _4 A> D. y' yP E8.] +^>+/>+%|.(>+_>+:>+<>+[>+}>+|>+1>+2>+3>+{f 4>+go.n7 g  4q.#v.5>+6>+7>+8>+9>+0>+a>+b>+c>+d>+iy T. `_ '% := .  j' 2~ h{ r% o% ^, t] F) C  #b of.Lc }^ :  oT _~.e>+:~.f>+Tp 5! f@ S^ *e {) kc T* wA !Q r +TF .C [x.Q, @{ -* Z| =7 z3 3 +k@ g>+h>+VJ c5  - M^ +c T@ W= i  ,> :> J0 q' += <~ @= V& Dq.i>+ie j>+jH `+.C$ g{ f] 2+ -# sp wY s;+6J.M1 k>+m< l>+KF m>+n>+IX.o>+p>+q>+)..f5 '9 f- 2, gH )R r>+s>+rd -*.<6 3, ** K+ H/ H+ _{ y .SQ._{ 8, M6 x9 K# 4^ x9 f{ 'b !< BN Lc B  >V >V lE t>+u>+v>+p +w>+us M[.Iq wz Y| VJ ",
"-! Lr ^D Wz m' 4F :' m) e{ v1 u. u. -J =( 5+ %7 A~ PZ x>+y: H.+(X s| ij.y>+i7 ;D z>+A>+-#.0+ 1v <; Wz 0E /E x7 bG _H TY }F a*+o{.4$ ob 2| q: u7 Qh B>+,y gO Bk.C>+|o.D>+Dr LJ E>+F>+G>+H>+I>+J>+~&+-h.K>+L>+T8.:t ar %Q.M>+N>+O>+O0.P>+Q>+R>+S>+T>+U>+V>+W>+X>+Y>+r&+X[ !m E. y> 0I.Z>+`>+ ,+.,++,+@,+#,+$,+%,+&,+f- ^m y' l7 F) k. gR._D i>+*,+1a x& 1/ v1 2A e6  > h$ F) Fm m`.up =,+-,+~C +w ;,+>,+,,+',+),+!,+~,+{,+],+^,+/,+(,+_,+`E :,+%4 &{ xA l) j. Uw r= B*+x~ h$ Y+ {, T8 =4 D- z> g& 3( E- 3( 6o <,+[,+},+|,+1,+2,+3,+4,+5,+6,+B=.>q @m 3( 4^ %@ CI Mw.s<.7,+8,+9,+0,+a,+b,+c,+d,+e,+8$+Jn.EX.U~ !% w* K< 9} b. 3% r& [' 5+ -J h$ e% *7 /, zv xK S1.D~.f,+(&+g,+Ne.+u.zp X& '0 !' l7 q$ 1) .I TF k^ ;r {u PP @@.nA C0 ;_ }[ }[ x3 2= :- T* l, D@ f} 7& ={ 6= W= -( -3 X= %[ p> G+ rO h,+WG.75.i,+j,+k,+l,+_* P# q> 4% u. g/ yq Jg M0 !b.xb.m,+n,+o,+-0.cF.OG z~.VN.`J p,+eG O[ vr.S] lz )R 9Q.FG.^9 Kd.c' `~ r+ ~% C_ U< S9 q,+SQ.v( H3 y$ V: K# 4^ x9 [> M< %j r,+/$ -; I7 I8.Uw s,+RD t,+u,+C7 e4 rT Y.+33 v,+&) ",
"G) 2^ G) 2& `& <'.$p ,a Z$ Z$ #! Jn }2 mr Dq vA w. 2< T/ 9s w,+!.+dc 8O H2 zP if x,+y,+w`.+C >m z,+$3 p] w|.}F t# A,+l. B,+c<.c.+f1 d[ @N C,+*( -u D,+_u 5x E,+uV N` F,+G,+s= Uw l> fr 9# H,+qy H|.tu Uz ~H gy 9z <  3D ^S F} Yy D. 3( I,+J,+nT K,+L,+M,+N,+O,+UT.!z wo P4 E. E. P,+Q,+R,+S,+e=+T,+U,+V,+W,+X,+Y,+aC.E. D. V~ 5+ c{ Z,+`,+Lm.YM  '+*z.a#.3+ -_ e{ >@ .I rt FR.y> y> .'++'+@'+#'+W>+$'+&(.%'+&'+*'+='+-'+;'+>'+,'+''+k&+)'+%> !'+m+ kv Vw [E l' A +j+ c/ [e U@ h; #6 >8 3( 3( E. E. E. E. E. ~'+{'+]'+^'+/'+('+_'+<v.fG qm.UT.VF.3( E. D. D. y> 3$+m1.:'+<'+['+}'+|'+1'+2'+3'+9m 4'+5'+6'+b, >> om t> p& A+ n# v~ ~* ,3 L/  > *7 8  ], sQ Vm 7'+YH.8'+9'+0'+fi.8o ^l @m a'+b'+%l.X$ c'+OY C# >0 Gs u^ 8F xa U0 ua J +Gq {b L/ h2 T9 V* L  f} f} g8 yB Hf T9 ,# 05 v] R% t) .  `a P4 d'+j7.e'+f'+g'+h'+Z  l1 Ef |) .% lu.w4.X/ d' |d.i'+j'+k'+l'+m'+n'+co :-+{{ Tb.+B. u.o'+Cp 3< 0q.PW.p'+xX.!g.>L.=f.xo mr 8R Wy v( Tj.(W._{ 3) ;= y$ V: 4^ 4* i{ f{ dj w> %j q'+z  zb qQ ;8 0m o +r'+s'+t'+u'+v'+]$+AL q= 3@ ",
"bu ++ s. s. -_ Z/ .u.Jn vA zv }; }; }; }; He }; Zo ae.4$ w'+x'+*y OK 1E M[ c/ R/ a#+y'+`p z'+^B P, j9 f! tv.Gu ZU.z|.I +YM A'+@+ 2, xK 4>+B'+C'+D'+E'+F'+F~.T~.G`.<I By :x G'+., vv WD LJ H; `0 '. cw =+ >x cv _, H'+t-.r,+]8 E+ D. h& *H kR.5X.I'+Y/.@=+J'+K'+8U.V5. *+-s E. E. L'+N,+M'+N'+O'+P'+Q'+R'+S'+F&+Fx Vp E. 4* %= >! r= g! <I T'+Ev ]>+-8 12 3+ >@ m) 4$ Z& U'+V'+1!.kh.5Y.W'+X'+Y'+Z'+`'+ )+.)++)+@)+#)+$)+%)+&)+*)+=)+[t 8U.-)+;)+i+ RB St 5& O, 78 J3 %[ W  o{ >)+,)+^m D. 3( E. E. D. E. E. ')+))+!)+~)+{)+])+^)+Sw./)+jv.#l.(~.3( 3( 3( z> qn ()+_)+:)+<)+[)+})+|)+1)+2)+Q>.'& 3)+4)+5)+n= 79 /^ L6 h{ I/ *' $4 f; f8 e6 (, M  #U.v] 2t.Um h#+ZH.^$.6)+Z'+7)+2!.8o CI dB.xD.T*+E#+wP 8)+%3 'U $& y-.{z z3 aU TF &$ l' 3& '* z# f) 8& f} N& N& P) u  w  T@ U  '< 1+ V4 i@ ~# y' 4* ~y QL.9)+0)++)+WG s' =#+-N U@ r. na D@ t] <P sU.a)+b)+c)+d)+e)+f)+g)+h)+i)+j)+|H Kw.) +] +k)+iv.0I.l)+EY.m)+3M. u.Ex r: H} |- W& 8- T4 SQ.v( 5, .  V: y' g& x9 V, P$ n)+h@+vT Q$+x@ o)+O, mn n9 u9 p)+q)+-r.zs r)+s)+WJ qd ",
":  5+ j+ L7 R& .= B_ #! W& |+ :5 D$ 8: x* |+ [, B$ e1 Rm t)+!+ u)+5n.z&+v)+7q $! A`.r_ np  + E>+j. n> {( w)+6/ _y x1 <E ]s  S YA ;N +u.V'+~B.x)+y)+z)+A)+B)+y> ,h.C)+)R.Yq D)+G& =>.~T _) H& >m y-.7.+X +h4 E)+;E F)++~ +~ Y, Dc h& {2 G)+H)+DT.mI.{f I)+J)+K)+;o.x9.[{.L)+jQ.M)+N)+O)+P)+Q)+R)+*(.-(.#6.]R.v| z: f8.S)+!f.Y+ H6 T)+U)+Y0  t (' wA ~5 e{ g/ j+ 12 1R oq LN.V)+%f.`p.r6.W)+X)+Y)+Z)+`)+ !+.!++!+`U @!+#!+$!+%!+&!+*!+=!+n< -!+Z..@u M9 c) {D z3 ;!+%[ +* I  ;~ b* P*+6* E. E. E. E. E. E. >!+xJ.,!+'!+)!+!!+~!+{!+'q d&.c4.zp J7 5* g& 4^ 4^ P4 DD.]!+^!+/!+(!+_!+:!+,t =t P8.FW <!+[!+R9 U~ !% 2{ IW.I+ ** l$ m$ 9& &8 e{ 2G )! k! Z/ &Z tV.`t.}!+Q,+|!+1!+2!+dS.hh.4F.#E.3!+4!+c'+=p <j.n[.f- ,- }/ 3| =1 Ez MO ~R.g~ n> 4| D# I5 U@ f_ i} s@ ]  }= 1& 3| 6| q' g] .= C@ A- K# E- 5!+6!+7!+8!+9!+0!+r' lh 8-.V@ ${ 7< #& +| r: ]&.a!+b!+c!+d!+e!+f!+}#.*R.g!+_{.jv.]E.z_ !3 h!+ *+gM.i!+j!+lI.P1.k!+GF 2^ C# -3 z@ <+ l!+%Z j% U$ U. `% F. D.  4 5; D  M< M< R> DB x@ c7 1v :& xs .++m!+n!+Z* }/.}/.t5 r# b) ",
"Nq.o!+-3 k0 M& v] zv q< Se !' A/ Zo A/ 1- x* N= _* Vk.|> ^S wA 6@+t: 2a _. FC p!+H#+:q.9e.e! jO 3+ 1> e- Z( '> W[ >< P0 wo N%+ae.Yo q!+r!+s!+t!+9H u!+v!+T1.y> P4 |o 1#+n' 8F w!+Lf u@ Q$+z  l# g@+x!+#l y!+z!+W=.7; a! |1 D+ N* V: `  o=+*s.A!+B;.B!+-8.Vt.m[.1{.C!+a2.D!+E!+oG F!+G!+H!+I!+J!+K!+L!+M!+e8.Mv FD.k' &7 8&+N!+O!+P!+7 +V0.M; Q!+/- {b *%./} {D H1 '{ R!+f>+q|.S!+T!+U!+V!+W!+[( X!+*Z Y!+/>+Z!+`!+ ~+.~++~+@~+#~+$~+%~+#'+&~+*~+p. @p NY ;.+># 6+ +7 :b <0 99 !X =~+*'.E. y> %> E- z> 1o -~+;~+>~+,~+'~+^%.Gz C)+*@ q! a8 :e q! rO 8* rO .! =| )~+!~+}&.:j.:x.n7 x* J) W  1$ ui ~~+{~+]~+~~+L: p+ y} 2, R| 1~ 4% ~0 z3 S0.sf.(* Wt t_ SY yK ^~+/~+(~+_~+:~+<~+[~+}~+|~+1~+2~+3~+.B 4~+%l.=p Vp Mt .=.5~+B_ l  c+ Gq :' h] h9 n) f= ), .' f@ += V  ,- :> @3 R% V4 d; v] l$ e> y' P4 aR 6~+7~+8~+@)+9~+B/ T2 0~+b} }' #3 _s s@ <P hM.a~+b~+c~+d~+e~+f~+g~+HN.h~+Um i~+$p Vb AS ~6 ,q Yi.j~+k~+lm.T&+SC |C #u 78 P` &= Wy }X.SQ.$. +] Z  x9 -4 D. u* `3 /; v~ t+ 6@ |g g3 +@.@@.9++l~+m~+n!+Z* v>+v>+n~+V+ |2 :# ",
"j4 |; t] d@+d@+sf c[ pc jc.!4 d[ q< +  <+ x* G+ |1 n7 `} Y~ '[ |{ .0 o~+p~+q~+r~+:c s~+j5.(v 0w ma @  0/ :+ =@ ;< 1{ u3 5~+mz mz t~+u~+6o.v~+w~+x~+y~+z~+A~+Um Nn ,O ``.m' 9  _@ B~+C~+ng D~+E~+F~+J%+G~+H~+I~+|s    !>.v* 79 `3 `3 {s.{2 3( E. E. J~+[g.83.#o.6#+2!.K~+L~+M~+N~+O~+P~+Q~+R~+S~+Qc.!v.T~+E- y> d&.Z= U~+<% V~+W~+N[.pE ,u #>.NK P@ Bq Wd ]+ 3y C& y|.bo e>+~N X~+5I Y~+Z~+4h `~+ {+)y X3.nf..{++{+@{+#{+${+%{+&{+*{+={+-{+;{+>{+4U.3{.P4 ,{+U  b) #& .3 <0 -~ 6W  I -4 E. E. y> E. E- 6o M~.'{+){+!{+uQ @m bm 3* u- u- v* 7f.;j.C1 m7 |1 k7 *- Fb 4* z> h& S' U- _j Ek I{ f> @- 3..K[ ~{+p++Ox N+ H) `R 1, |> =1 t. Gq '* M= Bf Vp Qk.<. {{+]{+^{+/{+({+_{+:{+<{+[{+}{+p8.|{+1{+2{+>*.=s go.2o R` 3{+3q _6 4{+5{+y~ E/ q[ H'.Mr B$ E$ p$ x. r+ z@ z@ 3' .| 8h 55 Y+ s@ m$ '= j{ y> 6{+7{+8{+9{+0{+a{+s' b{+=[ -O o+ na ;' [2 g8.c{+d{+e{+k].f{+g{+h{+!c 3[.i{+-s 4>+pT A_ Cx fp uO b2.j{+vJ.k{+l{+eh.m{+os [b dd W: @/ 8- F3 f  >= A- i{ 5* E. 3( Gb a/ P. k! $# e#+`! 3@ XJ k^ n{+l~+.a .a =u WE Y. TB +3 C  ",
"r' |+ [2 <Q d@+b% m7 v- w- o7 ^^ by by }2 <+ He '= >= [+ 2{ qt HB.o{+p{+q{+r{+s{+65.t{+C=.##.zq <& #* Y, }@ #- k% #! n) Mv Iv *d e}.u{+v{+w{+x{+y{+z{+zg.A{+Um B' +` )'+B, mm B{+C{+D{+D{+oj E{+F{+G{+H{+I{+J{+u/ o& w, t> g= v( yZ ~`.u- E. E. E. X$ (%.k_ R~.K{+6Q L{+M{+N{+O{+P{+Q{+R{+S{+5=+MH x +^!.5* 3( Jo L$ 2z T{+V~+U{+V{+f7 p@ W{+X{+') R@ l+ y@ yz y3 &v.Y{+Z{+`{+ ]+.]++]+@]+#]+$]+TP ~q o`.oL.Ft.hR.xV.%]+&]+*]+=]+-]+;]+>]+,]+']+{I.%>+wP _p ,3 7| -' 8L )]+4l.!]+~]+!; y> y> 7o 8#+{]+]]+^]+/]+(]+-t Yk.=| >8 Bb 3{ ~; r; K< aC.c[ _: z$ e[ S  .- i{ 1b 7{ u} ,; cl ^e >- #@ m( qw.BN <Q r  k  8O _]+a#.`& `& 5+ R@ M, %u 2| |#+Gt.-v F; :]+<]+[]+}]+|]+1]+2]+3]+4]+R_ zv.Qo.5]+b;.!~+R` 2&.2*.w- _S Bo.{9 /_ 6]+(M 7/ wK 8: =- q< p$ m, `; ~% J+ *# |> '< 2- e, n+ na X_ 7, !>.Um 7]+8]+9]+0]+a]+b]+_* c]+d]+P~ e, yq ;' /, ]' ]Y TN e]+f]+g]+h]+i]+j]+k]+l]+m]+' +n]+F`.&# ~e )- o]+>0.IG. 5 4E p]+jO W% Tq e= 4t g  =@ yZ X< B$ Z% Wb B' E. P4 ho.E$ f] -/ {* P/ ef +^ [- *; p6 P +tt tt e+ tt t5 &. |= _s ",
"'= 7, v: 6@ *6 Y, ;, ); d8  T aC.{9 %1 vA <+ A@ O= ^% h} h' `*..4 VQ.q]+r]+s]+t]+u]+v]+D=.mp Zo.l% W' X- Ck V- Dc q! @=.w]+j9 oe x]+6i.y]+z]+A]+B]+C]+}0.4(.#e ]b Q4 Yo :> G2 y6 D]+E]+gj.F{+F]+P( G]+H]+I]+J]+oL o& 14 A- p& a/ a/ U< 11 ^`.=| z> 3( j{ Po K]+L]+(v.M]+N]+O]+u=+P]+Q]+jk.R]+S]+T]+av.AT.xp v- Z$ BL U]+V]+m%+*r W]+X]+w! w@ )) @' e; *I m$ i@ Y]+C>+Z]+Me.1@.`]+ ^+.^++^+IQ.)C ^I.{f.Ro 4< -*.n: 6> cz.Q_.@^+#^+$^+%^+&^+*^+=^+-^+I)+5# ;^+[[ >^+*a Q/ %| R^ nL ,^+!; E. y> '^+)^+Z]+!^+~^+@^.{^+]^+J6.YP *, I{ X- ;- 5; 8, $. h% j; a/ l( h  Mr :e 8* 8{ 3{ Xb >- 7_ S# _~ m$ P. Zk <2 C% 1& /R.4 .7d f/ c/ ,- n{ ;( %%+^^+*0 /^+Tv (^+_^+:^+<^+[^+}^+|^+1^+2^+3^+pW 4^+5^+2(.]w.}N.X$ N* M6 2~ 4; 4; 4; rV pX.{4 y} 8/ Q  V: k- 4) J  f@ >  Z+ Z+ }/ 6] g] /, H% S* r+ e1 .x.6^+7^+8^+9^+0^+a^+b^+q$ b{+c^+sM Av m  t^ ): q[ Ui.d^+e^+f^+g^+h^+i^+j^+k^+l^+ge.=0.m^+e8.^^ +u ]^ ]d.n^+9V.W3./X *Y &( P).jp S/ S] x} 5d ]^ g' `} MA 0p *@ P4 y> 3( xp 9} s' 3; D  _s 8& e@ >! O, TF O, jv d/ 1v Q@ ~5 4% n$ ",
"i( 5) G+ 6, ;= '= a! D+ x> *- w* [+ ~4 1; g- .@ T~ u% i* V2 r; xU.4X E;+o^+p^+q^+r^+s^+t^+hz.T*+79 => u} D. E. D. 2* )~+X`._x u^+v^+w^+x^+y^+z^+A^+B^+C^+6^+P4 7* yh ~p #! ~! N% -O ## D^+hj.E^+F^+1_ s3 .8 [#.Dm.Y# e8 09 ;~ ^, N| <2 9^ {4 q+ e8 g& E. E. c:.G^+H^+I^+J^+K^+L^+M^+N^+Mc.&h.k3.6o i#+;`.>< ,< 5+ UJ O^+.@..@.P^+z'+5v Q^+x3 ,3 Z+ ]/ M= <5 |o R^+dF S^+T^+U^+V^+]j.5t.4M u-.%>.8`.:x.5q ^^ :x.(^ /m R=+W^+X^+Y^+Z^+`^+ /+./++/+@/+#/+$/+%/+&/+x/ %m.-{ */+V) =/+-/+3_ E. y> A#+;/+>/+`'+,/+'/+C~.>q )/+Nf F=.E*.q3 =/ O  qw.jg jg N| C% M| $( '^ +...q 1< GR.~f.4' :' 9d D) ]/ 08 {% G_ b% t^ 'M k0 M&  % :4 8R J7 ~m lQ.#I !/+~/+{/+]/+^/+//+1)+(/+_/+:/+</+[/+}/+|/+1/+2/+zC.3/+}N.j{ r; #@ $= 7, 4) [1 #/  [ f  }X.z$ Y_ 4^ 1b |@ S# -/ f] |) X_ t] g] [e L  3% He |b :x.;v >8.4/+5/+6/+7/+8/+9/+.p T2 =[ 0/+n$ e@ t^ v& '- +5 a/+b/+c/+d/+e/+f/+g/+h/+i/+j/+k/+l/+3R.gF.q! o7 gW.UJ.z-+nI.[S.8B.8B.i_ fI m- $_ m/+H) Ui {' 8: '0 !' S  z' E- E. E- E- ~; 8^ h; )! n{ ), e@ R@ B  B  y@ L7 Bq hB.j$ F$ w; ",
"k{ k{ '3 *~ ,= ,= y$ a! o3 w- 4q ;C `} }$ r+ y+ >, S: P# )= a2 n7 [{ ^} n/+o/+p/+q/+r/+s/+t/+u/+4,.!; n[ D. E. E. 4* e!./{.m. v/+w/+x/+y/+z/+A/+B/+C/+S_ D/+Um &@ 8* E8.Ro W..cf ]; +c 0F E/+F/+G/+O~ i; @Y Ga Z6 p! r$ h) O  t^ 7& #& -@ g/ Y/ O. g& E. E. H/+I/+J/+K/+L/+M/+N/+O/+(N.P/+Q/+X$ E. do ][ 8< 3$ a{ 0+ R/+S/+$ .+@.*r &$ lE <' 3t B@ l( 8: 85 y> }{.T/+U/+V/+W/+X/+Y/+:Y.$h.5! j> b2 aC.o7  T w- v* 4^ -)+fW.:c V .Z/+`/+*(. (+.(++(+@(+#(+$(+%(+Al dy ]* c} &' nL &(+Y@+E. E. *(+=(+-(+;(+C9.DR.ii.0s z' z> Xb  3 2% ): a) 8_.a) o  #& 1& m  1) F0.ac.,*+>(+,(+'(+]I.._ Aq %p pT D/ |- %_ #( /5 BN [o Fz lu.Me }2 5o y> u~.8( )(+!(+~(+{(+](+^(+,,+/(+((+_(+:(+<(+[(+}(+|(+1(+LS 2(+:n z> z4 |@ -= ;  7; i( [1 D( ;= 4; x2 1* z> F. B+  @ T. <& X_ j( o  sf k( b% Y( Mr 5o >!+VN.3(+4(+5(+6(+7(+8(+9(+,p yx.0(+U^ ^, M| u+ ], `: a(+nb.tC.GN.b(+c(+d(+e(+f(+g(+h(+i(+tF.j(+/!.%> 5* pt Nk.4X.V9 V9 lz t_ rc rc [{ $( w4.I++~< !] 8: g  N= n7 !m E. E. E. E. 1* 9; c_ U= %* l$  6 P/ q# /$ /$ J4 K@ 8  p# P$ ;; ",
"k{ A3 k{ +[ 5; G+ {] z$ [+ ^^ :x.dy Vk.+/ `; 7_ ,) h* m& Wm 01 9: p; @C k(+c&./t l(+m(+I2.: +n(+Cc 8* t* z> E. E. 4* e!.vQ o(+p(+q(+r(+s(+t(+t(+z7.U^+u(+v(+Um =d pO kr vr.7p <> !0 8& w(+x(+y(+z(+ - 3M j8 ;#.0* U5 if C@ f}  6 ;; +| Jg ur.g} !' z' Vm A(+B(+C(+D(+E(+F(+G(+H(+I(+J(+ot HB.=d ~m =s #! c/ Sb xa E& K(+R/+ +.L(+M(+9+ @*.N(+O(+_# I( 7r J' P(+Lz.Q(+#K R(+S(+T(+U(+tU.gW.|; vr.wP.w. Mr >> k- rO V: w+ c- E0.Yo.)F.V(+W(+X(+Y(+Z(+//+`(+ _+(B.H~.`+.U| W) (K ._+TQ.+_+E. E. <~.@_+#_+$_+%_+&Q.&_+O[ 85 4* w, =~ L: *_+j( W< =# L< }^ [o ([ OY =_+-_+;_+>_+,_+'_+)_+!_+~_+{_+]_+jv..t <~ }< md 8  F@ D@ Mb g} Jn Mp ^_+iz./_+(_+__+:_+<_+[_+}_+|_+1_+2_+3_+4_+5_+6_+7_+8_+9_+0_+a_+y> 3( om ,= w0 7; 7; K5 8; )% )% m! Y7 `% %- E+ }@ J  n  <2 o  s@ 7< 1$ v] b% I5 =j.B;.7'+b_+c_+d_+e_+f_+g_+h_+i_+``. 3 N9 j_+F  |) L  @* D) |/ C) /y.>Q.k_+l_+g-.m_+n_+o_+p_+q_+;q.{q.r_+#e E- q: +0 a(+gH gH )> t_ [8 z_ [{ p, C% Kb H) !] g  3, X< c[ X$ E. E. E. E. F. M> Y2 R .Za A+ Ge g8 {) p# g8 @# {) ^f r^ ag u' ",
"k{ U$ )= U$ 5; ea >= A$ |! <6 <: 5g. ( g- J) 82 1c -~ Q# m# @@ !e V& le !> p] sJ .N.s_+t_+u_+cb.!f.He ~# gg E. E. E. ^l /{.zr v_+w_+x_+y_+z_+A_+B_+C_+D_+E_+#e B' )' @3 :' F_+,# ^M G_+v4 H_+o +I_+@@.]M sf.:5 6, +] 89 l$ M| M< 1: sf /b jo.}2 AN.@p %3 J_+K_+L_+M_+N_+O_+P_+Q_+R_+S_+T_+CI Pp HB.'V ro.q, C# d/ a$ R/+2D @@.E& &#.(> C& j$ ;( )' _* pT U_++5 V_+W_+X_+Y_+Z_+7P `_+rM.Nt.[+ ~4 }X.}X.@/ 5, Q  g= Y7 o) }8 :x.'Q.6w  :+.:++:+@:+#:+$:+%:+&:+*:+=:+YN T'+h_ ++.-:+rZ.`a E. E. ;:+>:+,:+':+):+!:+~u.sx cp ]b t> V; )2 J: na q, F6.%x qS ^z E} 4X 3!.V7.~:+{:+]:+^:+/:+(:+_:+::+<:+bB.#l.+  b_ :d W=.In.*6 :~ r+ .[ E8.cv.[:+}:+|:+1:+2:+3:+4:+1!+5:+6:+7:+8:+[,+9:+0:+EN.a:+b:+o2 c:+P4 %> J7 M;.8; #@ #@ 8; l3 m3 6) v} ~= D~ [@ K) }& 3% tf y4 }^ L< L< @  08 Y( `] EU.Z9.d:+e:+f:+g:+h:+i:+j:+k:+l:+7C ^2 /L.#L uc w; D  3% I/ :~ H( E8.@q.^y.V<.m:+n:+o:+p:+q:+r:+s:+!o.<{.@m e!.Nt.^c.f' Z( a> $j.'9 oq ~z 9E R] 9^ _a.t[ c> [: ({ X< Vk.7f.,U 4* y> E. D. U- &>.@Y .h i= V8 *| ,e f{ g* p& `2 `2 `2 K' Wm ",
"k{ k{ )= )= 5; G+ A$ e[ e1 Ht.H'.<: .p |+ H( 89 2b `| K  .7 H2 q' z@ ,< p; I0.C`.9#+'h.t:+Dp F' gI %# U8 `6 E- E. 3( y> 1o hp u:+v:+w:+x:+y:+z:+A:+B:+C:+D:+Cd./~.Jn I} `w Uw ps E:+5v G= F:+G:+H:+I:+J:+}z _- G( UE `@ .3 81 ,% `- P. 1~ d5 K:++ +,* s~ L:+M:+N:+O:+P:+Q:+R:+S:+T:+U:+V:+W:+1[ ^v X:+4X Z/ |^ l' @@.Y:+Z:+mA ;3 D& 1G g, l+ ]! 0p 8E s_ `:+ <+.<++<+@<+6o.je @d.JE #<+Of <6 3, G| p, J5 J5 s+ I  R= f{ A- A' bm (%.$<+/y.X7.C/.%<+&<+*<+=<+-<+;<+><+,<+-| K% '<+)<+Ml E. E. vP !<+~<+{<+]<+^<+/<+:$ !f.gg ;, W# `b &8 s. 3$ j) %. ^z We ej oq 5!.(<+_<+:<+<<+[<+}<+|<+1<+2<+3<+DK 8!.x9 n! ;k l[ X) .@ +] _* yp yh 7* c:++6.4<+5<+6<+6<+7<+8<+R{+9<+0<+a<+b<+c<+b_+d<+e<+Fr.$q Jn [, m# !: X, -= ;  f{ ~= S$ S$ y9 W' P# (# i~ p% Fa A% #& yq .2 }^ I5 =@ !' N= BS f<+g<+h<+i<+j<+k<+l<+m<+n<+o<+p<+aO.&(+q<+0/+^G ], o{ L^ %* T$ *, pn 3( 7G.tM.kG.CN.r<+s<+t<+u<+v<+w<+x<+y<+z<+l:.lo.Vk.C} c' Ym l_ 8B.>x.&Z 9E Jb vm.%s [8 1{ 3, W& !' 9} 21 S  Wb E. E. E. E. E. D. K# U: -> 5_ =|  9 ^m i{ >8 ^m ^m  9 ",
"U$ )= >- B+ 2~ z$ z$ {9 D3 %1 6> NQ.Ro 8: c~ :* 8@ K  9@ o+ n+ Y+ 4' }, !e |, f= #! Dq mr u7 gI M= x. [, D+ z> E. E. E. E. z' z_ A<+vT.B<+C<+D<+E<+F<+G<+H<+lS.I<+yo @p  * [E `0 P6.C4.J<+K<+L<+M<+N<+O<+}x.b; {! p$ {! f@ ~b _~ y+ 4, ;x.%q.m]+3!+P<+Q<+R<+S<+Vn.}#.]6.T<+U<+V<+W<+X<+Y<+Z<+`<+ [+jt.[#+%1 =z.~X kv .[+H6 u] I} XP j@ =* -# L+ |C.Al XG.L#++[+@[+#[+$[+%[+&[+1q *[+=[+c2 &_ sf k( <2 k: -[+E} ;[+>[+6@ f  :e =d _S Y$ )n e>+,[+'[+)[+![+~[+{[+][+^[+aT.G| 9= ~E  I z> E. E. /[+([+_[+:[+<[+0R.[[+OZ 95 1b A- v~ t@ ]+ c  u. g/ <4 j3 l  /[ %e e>+}[+|[+1[+2[+3[+4[+b,+5[+6[+7[+l3.@m D- <} hl G0  ! a, ^] w, 5* g& E. Al &b.8[+9[+0[+a[+.l.~$.b[+c[+d[+e[+f[+g[+Sw.Al E. E. ]b H4 ;&.X=.P~ O) i) ;  T$ ~= 6) m3 S$ S$ l& (# i~ W* y0 1: d. D} Io h[+8_ >`._S !~+o[.[0.i[+j[+k[+l[+m[+yG.n[+o[+p[+9V.`o Y6 q[+w/ B[ $# o$ 3% 1% f~ D- E. E. -s ki.r[+s[+fU.t[+u[+v[+w[+x[+y[+z[+A[+x| B[+~>.[#+0' JA./l w9.C[+D[+E[+E[+F[+j-+G[+#1 f[ ({ 3) A$ h  `} K< D. E. E. E. E. D. K# 3_ 5_ 3_ D0 7* 7* 7* 4a ]b 6* x/ ",
")= U5 '= -- Y} 21 |z.tm.Of d2 ][ C} by #! H(  c :P 2' =' d. /$ *7 W= dO %= Ke Ke +u zf aO.7p 2; 2; p$ h- ;4 z> E. E. E. E. y> Mt H[+I[+)8.|k.J[+K[+L[+o,+M[+P].N[+O[+P[+Q[+R[+S[+T[+U[+V[+W[+X[+Y[+Z[+`[+w@ V4 %= $= h_ |- |, M6 t* Vm vQ  }+UF.EF V_.@V .}+|v.e;++}+@}+#}+$}+%}+&}+8^+$!+*}+=}+V(+-}+cF.[V.>x.V` ;}+N[.+@.ja X% S/ 1> &( %( _+ s|.8o >}+,}+'}+)}+!}+~}+{}+E. E. E. _S =  VM UB h. 1& w4.]}+~c.S` k  l  b/ ;< S  yp Nn E. Um ^}+/}+(}+_}+:}+<}+[}+,}+4E L+ K% *S.B6.D. E. E. }}+|}+1}+2}+.g R5.>8.yb.5r $6 a= O  /$ N+ 8y /} 2& .2 [o k0 n+ 4' /%.3}+4}+5}+6}+7}+8}+9}+0}+a}+b}+TN.~m U- E{ c}+d}+u; }1 {s./^ 5o P4 E. Um e}+f}+g}+h}+i}+6H =]+*(.j}+k}+l}+m}+n}+o}+1o E. E. z> :2 md H@ d_ Z; #. #. +@ i% ]= +( )% l3 n= b, }& c% *6 Av w4.yq  % %@+pm ;x.l>.yT.)v.n}+p}+q}+r}+s}+t}+L1.u}+'L.v}+w}+!; x}+D[ O: 91 =' |) o{ H  b. K# E. E. y> dB.y}+z}+A}+B}+C}+D}+E}+F}+G}+H}+I}+]Z J}+K}+L}+oq 7[ Q2 34 C[+M}+N}+O}+P}+1I.D[+~[ )[ g  e[ Y} Wy 5D.*- E. E. E. E. E. E. E- D0 D0 D0 ]b ]b ]b 4a B' B' 6* z' ",
")= #- >= -- c[ |z.[I.Q}+R}+'V._W.cu _[ }$ 89 <, :P n{ 2G ~* `b 9~ U4 S}+zf H4 82 h{ Yw P% zf Af p$ l{ A- Dc E- y> Al T}+bo U}+c'+1#+/)+V}+W}+''.X}+Y}+Bg.Z}+`}+ |+.|++|+K]+@|+#|+<) $|+%|+&|+*|+=|+-|+;|+G$ m, [= +@ s+ J+ <~ x> D. E. dk.>|+o9.,|+'|+7(.)|+xt.cC.!|+~|+{|+^6.]|+^|+/|+(|+_|+:|+<|+Uc.[|+03.K +}|+6Z (' nA L/ 1) f- |/ <[ ,k.V< eq.^l yT.YA.||+1|+2|+3|+4|+7N qn Al 5|+6|+s9.5F >h m  n$ K: 7++J@ P/ )~ qw.$. qO ^~.7|+Cd.6Q 9t.8|+9|+0|+a|+b|+c|+Jr {s H( Vg >D B6.D. E. E. }}+d|+Fk.e|+Dg 6t.f|+0W yP J- V. r& s| 3y -8 <; `w Kb Sb M+ _s p> w( 8_ gm.LG.g|+h|+i|+j|+k|+l|+_C m|+3( D- F_ t=.B] /# |* Gb Nq.OS n|+0s o|+p|+q|+r|+_#.Z3.s|+t|+6<+u|+u|+v|+w|+x|+`&+,U E. E. >8 L. :d y[ X) R$ i% R$ ^% b, U$ h' }1 j- }@ W' s& Q= c% >  9^ 1+ d1 }5 jX #h.#o.+L.y|+z|+A|+B|+I^+C|+]<+D|+##.T'+E|+3< Y@+F|+Xg @L 91 W  dd {+ v& [& s; J- x' z2 {o G|+.L.|y.H|+I|+J|+K|+L|+M|+N|+O|+A]..0.bB. P.S0 'k._+ (y hG.F[+P|+Q|+R|+S|+Yl.B} <{ ({ G3 O8 5D.|$ t> z> h& D. E. E. E. E. E- nn E- E. E. E. E- E- E- E. E. ",
"J^ $= 7: N= 31 f2 T|+U|+W3 V|+V} a> u_ {!  c wf n{ += 2' 2G J0 '5 &* Ke c~ 89 h{ h{ 6r Af _R Af C$ .  &- 4* y> W|+X|+G +*i Y|+Z|+`|+Ko  1+}%..1+3%++1+@1+#1+$1+~(+%1+&1+*1+`u b +X8 g) 43 )++=1+-1+;1+>1+Db 99 g{ q> n$ F$ I( 14 G{ E. 0R ,1+'1+)1+!1+Vb.~1+{1+]1+^1+^o./1+(1+_1+;I.ke.R{+:1+<1+[1+}1+|1+11+_0.21+E0.6/ T= L= == _  g} =1 Et g} m7 4* -s 31+3S.mk.41+51+61+71+81+91+8k.!- <; C& Y+ X_ q> ): #< P& ]) yN Q# ;4 Op Gr.01+a1+b1+c1+d1+e1+f1+g1+V ./o.!- 3< j' ^* h1+i1+D. E. E. j1+X*+k1+l1+U<.m1+!^+tR.n1+H- ,' m$ f% 1v _B :, >V ~5 x~ Wd l+ %[ .' @/ m`.P(+o1+p1+q1+r1+s1+t1+u1+v1+E- D- n^ Ok F~ j* j' q: OZ w1+x1+>^.y1+z1+A1+B1+C1+#6.D1+E1+F1+G1+H1+I1+Hn J1+q: Bo.`o `P Wm @< ## g. n/ Y  7@ a. n( D_ U$ 6! ]# )b .  *~ T$ b. 7@ m( ~% ;N #! u3 ]6 IE I/.K1+L1+M1+N1+O1+P1+2:.Q1+2S.ep R1+S1+f= T1+)X U1+rM *I W= 9d 9d e@ W  V, *T.A3 |1 pc 4o x~.V1+W1+X1+Y1+Z1+`1+ 2+.2++2+@2+#2+$2+%2+&2+>x.pT *2+]E.Pk.=2+-2+;2+>2+,2+/9 )[ |8 hi G3 3) _: m7 Lk L6 o) -> g& E. E. E. E. E. E. E. E. E. E. E. E. E. ",
"R= P= ^  ;N b2 [I.zZ ys.'2+)2+!2+~2+Y& 08 ;~ g;  # s+ 2' n{ n{ n{ .' :* m, :* h{ ', m# Af <> *A r$ x> z> 3( y> {2+]2+U-+S'+j>+^2+7o Vm /2+~z *$.vC DD -S (2+_2+:2+<2+(2+[2+g!+,O `6 z( }2+|2+12+22+32+V# H  O= h@ a1 l  b) m{ V: h& E. mL.S%+42+52+62+'S 72+`J 82+Hr.|J.2$.92+02+a2+A/.b2+c2+Q'+d2+e2+f2+g2+h2+i2+j2+ q wK |> d  -| ./ ob :  Y~ w+ 3( E. co k2+{l  :.l2+m2+n2+o2+p2+~I./v *v 3R $( 9^ s] G@ a} 'M T` v& q$ ~m q2+T5.r2+ee s2+t2+u2+v2+Q1 MH $X.+j.[8 mz  v R# K{ l8 3( E. E. vP d|+w2+x2+y2+z2+Ur.U/ 8E E- ^b k$ T| 1v A2+l' 0+ |2 f, e& 6+ 5  )] L> z> E. Al B2+C2+D2+E2+F2+0=+G2+y> D- qb </ h1 r< j' -*.ll 2I ui.H2+I2+J2+K2+L2+{%.p[+@4.M2+u|+N2+O2+D1+Z!+ao B' Mr l$ H  -9  - 4j a1 r& /; m( T. X  a. V2 >8 F. `  x$ $@ U$ 7; $/ rV xP.{9 mX.4>+v(+Wi.P2+Q2+R2+S2+T2+U2+V2+zg.(Z )R X$  9 W~ V5 !X p3 W2+X2+cu.I5 I) 2+ c/ <& V; S$ l3 Y7 5* E. P4 Y2+{&.Z2+`2+ 3+.3++3+@3+#3+$3+i[+%3+6!+YD WT.g<.;x.~E.xm.&3+*3+=3+S|+xX./9 3B.}6 ro.[6 b2 D3 %1 {9 e1 F3 !4 D0 E. E. E. E. E. E. E. E. E. E. E. E. E. ",
"}& n# d, 9/ @1 -3+uX.;3+>3+,3+ur.4: 6] t+ )! l} =I &* 2' 2' C@ n{ .' K  `@ `@ <, n, 8@ J( _# c~ R~ s; z> g& y> '3+)3+!3+~3+,<.{3+]3+wP wP Vo Lp WC.aW.^3+/3+(3+_3+:3+<3+[3+2f.0!.eL G@ lg }3+|3+13+23+Hc 3..a/ sf 33+S% 3d &* t* D. E. 43+53+63+73+83+93+03+5o.a3+b3+c3+X` d3+e3+f3+d{+g3+h3+i3+`^+j3+k3+l3+m3+n3+o3+oL.y} q+ _# I( ]^ Z/ f1 D/ K< `a E- 6o #Q p3++:.q3+r3+s3+t3+u3+v3+w[.Ve.w3+q[ Z+ 6@ t^ t^ 9~ [o 5  J6.x3+y3+D|+z3+A3+B3+C3+D3+E3+F3+Cj 5f.Pp 2{ &# A/ h{ f* ,' E- E. E. T1.yv.G3+H3+#[.c| ,^.I3+j`.E. J3+}> 0$ nA K3+ 2 _P g% g% ;3 ,! e, W# *T.y/ Tm Vm L3+M3+N3+O3+P3+w|+Q3+3( D- qb g1 B]  3 A- xo oE R3+|k.S3+T3+U3+V3+W3+~{.(Q.X3+m}+Y3+Z3+`3+E3+ 4+ao 5* m7 L< of.*7 `b #< w4.v& k! c. ,0 P. E) 5, i{ g& !>.79 Z  6, +] f{ j% f[ *s 2{..4++4+Mq.`k.@4+#4+$4+%4+S>+&4+*4+=4+Nq.3( D. K# o& '<+%L -4+;4+X8 6| cT :' w~ !( m( f~ h} |1 5* D. ~m :j.&q.Uc.>4+,4+'4+)4+!4+~4+{4+]4+^4+/4+'F.(4+_4+rc &s Y9 rE [i.:4+09.F[+^t.B} @1 ~[ 6> ;#+Q}+Q}+e2 c2 %1 d[ =d E. E. Sm E. E. E. E. E. E. E. E. E. E. ",
"Z) g@ b! {^ ]s.H)+kY.<4+;3+mf )e.1@ m_ k$ 7= I  g; g; ;~ f@ s+ f@ G~ 2' K  .' /; /; <, I( q+ ;~ !: e> V- z> -s [4+}4+|4+14++|.24+34+%8.[ +/2+4o '*.3T.44+54+64+_'+74+84+94+04+a4+(< =# v3 b4+K%+c4+=) kh `k p, .M.d4+2++H'+i@ t* D. E. g#+e4+f4+g4+h4+i4+j4+k4+l4+mt.iA W} le L&+{{ m4+wv.L].n4+o4+_{+p4+q4+r4+s4+t4+QV `^ 6, v$ ]% 1@ =# ~2+_  Gb z> E. 3( 2t.u4+v4+w4+Tz x4+y4+z4+A4+B4+o9.dE C4+6] *6 t^ ;; j$ ui cL %( 3o..G D4+j}+E4+F4+G4+H4+m4+0e.kf.I4+4{.c[ 08 `;  @ ^* i= E. E. E. o1+J4+K4+v3+pk.L4+M4+N4+h0.i`.Lp ,{ D& ~0 2 +e/ O4+|2 r# D% Bq ]  U= g9 D- E. qn .*+P4+Q4+R4+S4+T4+'b.3( D- qb K. >;.5] Lk p: A: Qi U4+V4+W4+X4+V2+Y4+=;+Z4+`4+ 5+.5++5+Pm.Yt./x./{.=- #! wY +@+vi vi k  1E.b1 Lc [o @5+d. ([ h) +! 79 m7 3; X, Z; g{ m# 8, _: *s #o.3!+W7.#5+$5+%5+&5+*5+=5+r|+ND.s~ /+ }2 5* `a ZP 'h L| -5+;5+N~ X8 .* 22 i{.>@ !( X, a, := X& .- !; z4 ~W.w. ,q >5+Rp.,5+'5+)5+!5+~5+{5+]5+5>+^5+f}.]< e1 Wt db.n: hD /5+j-+(5+!X.-*.c2 -*.c2 {[ Q}+_5+_5+aZ.5|+4`.Wb E- E- Ml E- E- E- #e #e E- E- ck ck %> ",
"R= h@ {4 '[ 5> `C :5+<5+W3 b> 18 l( C@ &* I[ .7 k$ G4 k$ k} k} m_ 9@ 9@ k$ i@ f@ y. S* Y% 08 o{ n# )0 =4 D- Um [5+AC ZU }5+&|.|5+15+zJ.~m.25+35+ku OS %Y 45+55+65+75+85+95+05+u1+a5+b5+e{ c5+d5+u++U# V# $>  % e5+f5+&. c+ w] ~; D. E. 03.g5+h5+i5+j5+k5+l5+m5+n5+S +g|.!m E- E- do o5+I, }*.p5+b|+q5+r5+s5+t5+u5+v5+w5+q_ w$ h= l{ i} x; *$ 5| d[ 6* %> %> 4* {m 1&.x5+)+.y5+z5+2'+A5+B5+C5+D5+E5+/D z( M< 1: ~* L< bu R$+|( +:.F5+G5+H5+I5+J5+K5+{d.t_ <P b:.Bp H+ K+ U, -/ 2b '' E. E. E. L5+M5+dI _o.L5.N5+`1.{I.O5+P5+Q5+R5+S5+T5+#0 Tn.U5+Z5 7$ 9$ A, :# Q/ 6W Nf D. Vm kp V5+W5+X5+Y5+Z5+V'+y> z> 0, Vg g1 v} F+ -)+<q `5+ 6+.6++6+@6+#6+$6+%6+&6+*6+=6+-6+8F.;6+>6+,6+`+.2& 1/ CK r# Q@ 3r Jx.'6+N.+)6+Jx.!6+w++K@ B% `| m# 89 (% 1% s- 1% a. D$ 5g.~6+5@.{6+]6+^6+/6+%|.(6+_6+:6+TR.<6+q#+{s [$ +] K2 2b (: [6+}6+|6+Jh.aL ,# P).16+m) g] @@ ;- V2 |$ ~4 !e J^ wc z> ~m ^>+26+36+46+56+66+76+86+96+06+a6+b6+} +85 3_ r! ({ z} c6+(5+;*.Nt.-*.![ -*.-*.B} >#+(9 d6+{[ ![ {9 g6 4_ d8 yh U: d8 .- d8 d8 d8 d8 yh yh x> ",
"-= +/ {^ B..HY e6+f6+g6+[! Ht.e1 He H4 `| !! wH )! G4 $* 9@ t+ m$ $# ], m$ S* s+ y. b% +* k$ o/ 0f m1 bl S' P4 h6+/N.z[+#,+i6+~o.{|+,(.<=+!h.X`.3{+j6+1{ %8.Z1.n&+C_+|_+k6+l6+m6+n6+B: s2.([ I@ o6+t++p6+t++Pl K/ 01.>m 5n.l$ i{ E. E. 1F q6+r6+FS s6+t6+u6+b|+Y=+,B 2| y> E. E. 3( H'._) C= v6+w6+x6+y6+z6+A6+B6+C6+D6+y_ Bk 9, U; O& [R /- pM |$ g& 3( E- D. z> D. qn D:+,=+n,+E6+F6+G6+H6+I6+[. B( 3% $, M< n$ `: #Q.`y 5# J6+K6+ >+!|.L6+8[+xz..B  p Qo c4.i  X( M| 3% q> 8@ '' E. E. E. M6+pm.mc.k>+N6+O6+P6+D_+Q6+R6+S6+T6+U6+V6+'{ y# ;8 qd Oc t  I2 e& |: h* G- E. Vm 3}+W6+X6+}5+Y6+.m Z6+y> z> i& >, K( a, {# ,O )h.QC $6.<6.`6+'2. 7+.7++7+@7+#7+$7+%7+]B.4!.8o 3F O#+&7+*7+=7+w& }g.Id.D%+-7+&O 32+;7+^$ w++2c (@+@< L% a. I/ 1% &9 >7+ga j% :j.$q.`5.(]+,7+W)+'7+)7+!7+)3+~7+TO.&e `~ |- j; qw.A0 N   6 Ca D] -d G% _- ;! u~ 9L :' '< '0 Y7 O* a- SY. | W, jj E. E. ~m #Q 0!+Xe.15+i:.{7+]7+^7+/7+[$.M1 ^>+Vo ^m Z  (  W9 9E ^t.4X -*.S4 B} -*.Nt.B} D-+D-+{[ Nt.![ by s' Z  Z  s' Z  Z  Z  Z  Z  l! l! V5 i- t& ",
"3; 7: :+ 57 &x.(7+H)+>#+~[ wP.21 _* U8 <0 wH G4 G4 L^ U4 m$ U4 o{ '5 M| '5 2G 2' X  n  :> 2G uc q/ T%.UY.'; P4 _7+:7+<7+[7+}7+|7+17+,!+zJ.27+#q |q 5* 5* R=+37+e( 47+57+67+77+87+97+ :+07+[e /5 .~ _L a7+b7+c7+n,.q*+b  c& y. >8 E. E. t_ d7+e7+f7+g7+h7+i7+j7+k7+1( 6p E. D. D. D. e8 l7+#x rL m7+n7+o7+p7+q7+r7+s7+t7+_< t- X# /% Q) lQ +C ;@ `} u- ~m ~m E. E- E. Um x5+u7+v7+w7+x7+y7+z7+:_+gl.1~ I  u$ 1& v& L+ A`.= +1| A7+B7+,|.0<+C7+D7+3o.j4 &@ w, h- B% F@ }] 63 O  ,, `6 E. E. E. P(+9R TS.E7+ }+F7+G7+H7+_C I7+{&+J7+K7+L7+Yp p' ;7 3r b+ Oc M7+o+ r& i% =d y> N7+O7+P7+Q7+R7+S7+9m s~.3( 4^ V2 ,/ K. A3 5_ C' t_ CN O[.T7+)[.)|.U7+0)+V7+W7+X7+Y7+Z7+vR.`7+ 8+yk.}F J:.CK d! _m $D O++gP Q++.8+@, g@+S` jc I@ <@ z% Ef n% .>  ' N% n# w} I+ Jz o|++8+@8+#8+$8+Y;+%8+&8+*8+=8+d- hi 7, O. Z; O  H% _% g. @' 4b 4b k, w~ PZ (D jr 16+1R _[ y$ XX a- 77 Ib C( Dk E. E. 3( ]y Hr.&E.`].Q5.-8+;8+=^.>8+>&+r&+t~+!>.U: B+ B@ [{ k6 Nt.4X 4X S4 4X gW.4X ^t.^t.^t.Nt.-*.6> MA 9} g= g= '= g= .  .  .  j- j- j- t& t& n^ ",
"3) `} 77 um.$1 >#+nX.!s.0' m: *.+Bs MJ :P .7 51 k} H2 W  m$ W  F$ Mb o$ Mb +* += `: `: 9%.h~ L  :_ YX ,8+`a Vm '8+)8+}@.!8+~8+{8+]8+^8+E3+BN.ZA Wy 3( E. `*.rt /B /8+5,+(8+_8+:8+<8+Oi.Ab.M0 S@ t@ Q$+[8+Q++x; 5{+MO -Y H'+S# y' E. E. 8`.}8+|8+18+28+38+o<+$[.48+58+Bf D- K# G{ G{ #c 68+ld G) 78+88+98+08+a8+b8+c8+d8+e8+MA .  g{ /5 O++2E .} =@ ^^ 0p Qo 4_ 6* E- Vm [&.f8+g8+h8+i8+j8+k8+`]+HE Jn m, s- m  }^ *_ p[ l8+m8+f~.n8+&6.AO 3&.,8.C)  ( .! a= ^% &j zN +# 63 A( m% '' E. E. E. 4* ;, T  g' Jb /y.q[.o8+p8+e1+)8+q8+r8+s8+t8+W4 i, t3 q# () `5 .' 5; L6 }&.u8+v8+w8+x8+y8+z8+A8+B8+Ut :n j{ i( ^% /% +] a2 q! x* V[ fp S*+C8+V1.D8+E8+F8+G8+H8+I8+J8+^6+K8+[q.L8+&%+r[ 4$ M8+N8+5{+[J [J Ph We 8  BN 0. 0. eO cg O! v' A{ uc W# h; y+ h% 6] x1 O8+P8+Q8+R8+S8+T8+}( U8+V8+g$ %_ ;  %, R$ U; )] n( M^ t3 .c d% @' `5 {7 22 yv W8+9L  * |+ y$ O* }+ %1 [6 'U.K* E. D. Xy yO.X8+Y8+a{+Z8+w7.B1+hm.xk.`8+~ +dy 4,.~W.5) H+ .t k)+R}+-*.4X ^t.^t.9E ^t.Nt.as  *+d6+][ D3 tm.=- d[ !4 d[ ^^ ^^ X& M6 M6 ~`.~`.!% Z  y$ ",
"x* |; 6> -*.{[ 4X A} 2! 4! S] |, ya sf.=I k} 2G 2G H2 +* W  g] W  +* XP .= {+ 6| ,< u, QG o' 0~ Ef  9+TY.u* Al .9++9+@9+#9+$9+@6+Q{+%9+Im.[+.:D f& %> E. 3( Mt @q %b.&9+*9+=9+-9+74+vi.;9+>9+6x u: Io [D pS ~< ,9+z4.9s }g.<, J- E. E. p: '9+)9+!9+~9+{9+]9+^9+/9+(9+>8 7{ Dc >8 V- D. Nf 02 .x.wr._9+:9+<9+[9+d/.}9+|9+cm %>.(8 ,# 9y Ez M, 12 Bc $( 4' 2, 7r 19+,7  9 !m ,h.4!.29+n<+|'+39+49+59+=- K' y. j$ T* F6.-| pO 69+79+&Q.89+g2.99+j<.^{  { h% X  o# 1*.!< D@ ]* s- A+ ,' D. E. E. E. D. z> 3( !m jv.QN 09+a9+b9+c9+d9+`~+I4.e9+f9+!f.3M S* E@ e& A/ g& &@  q DN p2 g9+h9+i_+i9+(&+@s.j9+!m 1* K5 O) A+ l% U8 bf >> 4a %> ~m B%+k9+l9+m9+n9+o9+p9+q9+D8+r9+s9+t9+u9+/f.!y v|.v9+w9+&8 Sb Kb Kb j  /5 /5 o# g. R> ~: M{ =] *] x9+uc  ' v; A/ 9& mW y9+z9+A9+&5+B9+C9+)=+D9+I#+4F C_ -= +& /% P  J  Xs Jf T@ |] `5 E9+`5 C  cT yv 4- Z4 A~ <~ Q  XX O8 Z} }8 [w K* z> g6 Yx fm F9+g,+G9+H9+I9+K)+eG +S C`.`/ Mt i> 5q A$ f[ 41 Nt.d6+Nt.^t.lo./9 Mt.!X. *+~y #q.iv.!X.c2 B} gW.!s.41 41 @1 @1 @1 S4 Ht.#1 @x.+1 H'.~4 ",
"d  }2 C} n: gW./{ c' a> {' V[ 4' 08 k} D2 51 k} p> p> +* +* {% 6] (; q' @3 9d B( Re Em.9L <; I2 $' J9+,8+H- Al K9+0'+L9+M9+N9+O9+P9+Q9+Qd.U_.y1 I( E- E. E. E. Vm :!.IN.R9+S9+T9+U9+V9+W9+X9+=8+u) .| !( wY 7,.y~ Y9+k> p| /* z> E. E. i#+Z9+`9+ 0+.0++0+@0+#0+$0+%0+D- AD &- >8 4^ D. D. z> 2&.#h.&0+*0+=0+-0+;0+>0+9<+,0+'0+^u A2+y~ )0+T= 2A Rm %. #3 8h S= h= s* x9 4^ D. E. !0+~0+{0+]0+^0+In xp V2 )] j$ Y+ L< |- 2{ /0+/x.i|.B0.(0+gt.d0.8`.m_ a} K[ %j O$ e_ H  X  1% 99 `6 E. E. E. E. E. E. E. E. [I._0+@H.h2.:0+<0+[0+}0+|0+l$+*P.~m 6* d6 o= u1 Wt E. P4 !> 10+:!+20+5^.wT.VG u;+`&+{o 3* u* ;= P= [& A@ m, '0 {X z> D. 4* p[ +_ 30+N#+40+50+60+v[.h}+70+80+(}+90+)^.2~.00+a0+b0+4| j@ %. )0+@] 8~ 8~ B% $, ld P! c0+d0+H< ^f uc D_ 0= s' l+ e0+f0+g0+h0+i0+;8+^o.yG 0e.'a ed f  J^ ~= -= h  W& _[ f& la j@ 12 c) m+ w~ %3 *( *$.*Y B&+d  .  :W L=+4`.0C om h& 2* jd.j0+#|.k0+l0+Z<.Q3 &q.3F 3`.jx.Wb 4a =| ^`.L6 5D..D c2 (9 (9 4X B} ~[ $1 !X.;x.pM. P.iQ jv.<8 Nt./{ b> 0> b> .0 U|+U|+8[ m0+67 U|+n0+n0+57 g' ",
"./ B_ 4< 4< j> e' q[ '- 2, K6 ,- W  H2 wI IJ IJ k} p> 9@ +* +* I5 W  }e K4 [' -3 .* tQ q. o0+p0+q0+r0+s0+on b`.t0+u0+v0+w0+x0+y0+z0+#2.A0+86.z1 -| XF D. D. E. E- D8.-^ :C B0+C0+D0+E0+F0+G0+H0+jz.V  $# }= p_ CK I0+D;+cT yN.E. E. E. e!.J0+K0+L0+M0+N0+O0+m/.P0+Q0+y/ 7{ &- 1b 5* z> za 14 nz {6 R0+S0+<8.T0+c!+U0+,4.V0+>h.W0+X0+mE e{ S| 0^ -@ j+ -@ ;@ t] :5 Y_ *- u* g& E. Y0+Z0+`0+ a+=5+.a+bp '= S# #& M+ -_ W: ;> E#+[4+f}++a+@a+#a+$a+q_ o$ <@ %a+Ne Rb 4j r& _~ Z@ 8@ 9* E. E. E. E. E. E. E. E. !o (y.&a+*a+JS =a+A4+-a+:|+;a+>O.Vm B' ;> _~ s@ .x.y> qn mp >a+I4.,a+'a+_B.)a+[8 A`.:x.t> _^ ;  7@ h@ 0/ C@ K^ q$ 6* E- !; 2; C! gO !a+~a+{a+K_+C].]a+^a+/a+(a+_a+:a++4.<a+[a+*P.(E  *  % /M O& f} F  M| Q/ 59 }a+|a+1a+M{ ha V@ -p.R# h= 2$ J&+2a+3a+4a+5a+6a+7a+8a+xV.9a+T/ 5! _[ <: C} e2 Wd.y$+8U.)y E|+yb.6x qy.J} %3 {s TV  F r. z@ g= >V.L=+a- 0a+.4 !m aa+ba+ca+*^.;^.&1+R].`D r&+Cp *@ 4* z> D- 1b `% Y7 _: .D d2 c2 !X.4X B} ~[ ;#+R}+[8 -'.da+~3 F0.<8 Nt.c' ^c.XN.BY.0> SL.2! U|+U|+F: SL.~9.w2 b- w( ",
"&h $_ S] u_ f' $e _+ Z/ !] ]! ]! ]/ 9@ 9@ 51 k$ 08 2G p> p> +* f] 6] F$ +* %[ .%  > =* qs K(+ea+U^ fa+D0 1o a_.ga+ha+ia+ja+ka+la+ma+na+oa+hz.Ln pL.5_ ZP pa+Tm E- ^l qa+ra+sa+ta+ua+ >+va+GD wa+^s H/ t% a1  % .L xa+J_+t7.ya+za+Aa+P(+Ba+Ca+Da+Ea+Fa+Ga+Ha+Ia+Ja+P4 G{ zi 3{  9 3_ ~; sO |@ [, iv.Ka+La+Ma+Na+Oa+Pa+Qa+0d.)7+G0+43.gr Et #3 sn sn sn )0+[/.7< k% _^ ); v* 4,.^l Ra+dT.Sa+$3+an eG 'p Z  m( #& b) (M -| k- @m 6{+Q1 Ta+v{+Ua+Va+34 5  Wa+Xa+WS ;d !2 ], a. G~ h{ 79 E. E. E. E. D. H- y' z4 Ya+d6+]U.Za+Ee.`a+ b+.b+m,++b+56.^%.*2+UO.<6 4M.y$+&Z ;o.^1+@b+#b+'$.$b+`(  ( w- =- A$ j%  [ y+ g{ P  :~ j; :~ :5 yh ^m d8 B$ 8: C$ rV _+ v9.`c.Wi.ra./<+p&+%b+&b+*b+=b+Z}+O6+x#+)y n8 b{ IR.b) M^ n/ U= B[ @L -b+;b+>b+r( V@ $4 n( R$ 2~ B( A4.,b+'b+)b+!b+~b+{b+Ck.V .U_.6[ ]b+^i.^b+!b.HG.mm.DK P1 /b+BV.GF @C i! r. `& Et |^ T= .% H/ 2~ x2 O8 ,V.+4 P4 7N (b+_b+yi.2!+!o.^D.=x ER jp c4.=3 4^ z> D- 3{ !b {W.1C.#4 M*+R}+nX.>#+R}+;#+D3 :b+b- D>.<b+>$.&Z ^y 9E c' <1 ^c._I.[b+G: EJ.EJ.8[ A..<#+Y3 B..Ib :+ ",
"t] 2+ -( ma ma 4| s2.s2.Z/ 1~ [4 }> l} 51 51 ]/ ]/ H2 2G Qb 2G W  08 ]! ,{ I5 S| C& .N }b+|b+od M^ aO.1b+2b+3b+4b+5b+6b+'4.7b+O9+8b+@<+9b+e}+'Q.cp h- -~ [> sO i8 Vo &q 0b+,q.ab+bb+cb+db+eb+*8+(D q+ V) A( >  B_ A} /y.fb+gb+hb+ib+jb+kb+lb+mb+nb+ob+pb+qb+rb+n-+E- by.F. d8 To sb+49 Y) #8 tp 'Q.6y.tb+ub+vb+wb+xb+yb+zb+j}+:C Ab+Rk.<D j+ C# C# C# R& ]+  > C_ Lk t> K< m`.;p Bb+Cb+Db+Eb+Fb+b6+1&.s' J  _s B  f/ ~% rO %> *E.Gb+J2+Hb+Ib+Jb+Kb+k> !* p# v< O$ 0. ~b S# !! 82 j8 E. E. E. 4* w, a= +[ ~= |* 4* y> xD.fk.Lb+7m.Mb+Nb+Ob+[0.Pb+w) 59+|{.03.hO %m Qb+Rb+`r.Sb+D: Y..~ +yh g& gc V, O) 3j )] @- O. @- U, d, K^ a8 9* a2 79 E- E. E. 3( 5o Tb+Ub+;8.Vb+Wb+~$.Xb+Yb+Zb+`b+ c+14..c++c+I#+*Y v+ {* #* I/ %* Ef gJ $L I] wH {E W) Ge __ h- .* }  @c+#c+$c+%c+&c+*c+=c++!+-c+;c+2).$*+:7+>c+D1+,c+'c+'B )c+]3 /X 9L 3| [e B( =1 2- v1 #3 U, 5; Y7 [+ 97 C+.6^+!c+~c+ok.{c+]c+U<.^c+M` `Z.``.*@ xp N* N* V: x> ~W.9- g2 NG M*+n>+e2 IX.Q}+e2 |z.NG `h.V] ~E.jd.Nk.U9 7J.gH ,^ Nr .0 vm.qM.Y9 28 >s.EJ.8[ 57 57 /{ p[ ",
"7< Y/ -3 2+ q, 3- pf.q] d- !] *# &= -I zP &* k} k} 9@ 9@ 9@ l$ i@ += {! 4t &3 V4 R@ ua Uw @@./c+f8 4D (c+_c+:c+<c+[c+}c+A}.|c+1c+2c+&{+3c+b0.69+S  K  Fa 63 8@ )= w, k3.`u Xt.4c+5c+6c+<U 7c+8c+4w M= D_ N) Q< ,U P4 9c+0c+ac+bc+cc+*0+dc+ec+fc+gc+hc+ic+jc+kc+lc+E. D. 4^ x+ C/ ** C_ Y) -4 E- _!.s6.mc+nc+oc+pc+qc+rc+sc+tc+a|+uc+5T.-! 8y g~ *  M, /> 7d `$ C_ |* M* L* sQ + +% .=]+vc+wc+#=+f#+.=.k7  @ }= Lb ~< %_ V: E. T}+Hw.xc+yc+zc+]/+Ac+Bc+|2 4j WS #l TE $# S# Y  h{ 14 E. E. E. j{ Z- )0 ^* v; F+ E. E. 3( 16 DT.Cc+Dc+Ec+Fc+Gc+Hc+Ic+Jc+Kc++5 Lc+W/.h$+^t Mc+Nc+(y r!.%p .- 3{ ^] o, Y; 3j q% U; N= 8, m, `+ k% w$ x$ |1 `6 D. E. E. E. E. '`.28 t|.Oc+Pc+Qc+Rc+x~+Zb+Sc+Tc+Uc+Vc+Wc+{} 1A }; h{ Y  m% V= P< Xc+%' ^| LD h{ U= ld z0 h- <'.>. Yc+Zc+`c+ d+.d++d+@d+9<+9<+#d+$d+1)+%d+&d+*d+=d+!j.Z>+T}.u~+iv.8`.j> H/ pX.g} Y& V4 j( g@ U$ h' a! zp -d+~v.;d+>d+,d+'d+)d+!d+~d+T] qt z' B' q! Z% Z% YE n7 5q C1 F+.;5 {d+ f  z./p. z.16 ]d+^d+/d+It.<B %c cq.`S.(d+`9 aJ.%x. j.-s. D b+.8C.wm.&x.AY.AY./{ 0' 4< ",
"]  2$ 2- B&+pf.i{.a_ op l_ W/ f1 ,< +m J( &* U4 W  +* m_ W  :> +* i@ 3' &3 _d+:d+EH M9 <d+[d+^R /, @Q }d+|d+1d+2d+3d+4d+5d+6d+7d+8d+P>.8c+oI.^_+m7 7= P~ u' I/ Z# e> 95 1< V}.9d+0d+ad+bd+cd+Qi dd+gI K% Y  a= D. E. ed+fd+gd+hd+id+[9+*4.jd+kd+ld+md+nd+od+pd+X;+E. D- z4 |$ {! |) ^  mO qd+b`.!o (0.rd+sd+td+pc+ud+vd+wd+xd+yd+zd+EQ.I& O, -8 IR.<; p| sc `$ g- N* !>.Sq Ad+Bd+Cd+Dd+Ed+Fd+Gd+B! Y$ ;4 q& @] Qh  % p$ $6 E. Al (f.Hd+Id+Jd+Kd+Ld+Md+WF P) .~ Nd+Od+E  !# Y  h{ '' E. E. D. u* x$ ,8 )= A3 Ai G{ D. h& !b |&.XG.R*+Tz Pd+Qd+Rd+Cm Sd+Td+{I.Ud+Vd+Wd+M=.VS.dd+gd.5g.|q r! $@ |@ #. Z; Z; q% +@ B$ |$ N= <+ D$ g= g= 5, V5 z> E. E. E. E. L* .t &( Xd+4%+%5+Yd+:8+Zd+`d+ e+.e++e+@e+#e+R[ So m& D_ V= Q^ K] S) %' d* Yw H4 %* z% Q~ @@ 9b.1g.$e+%e+&e+*e+=e+$_+-e+;e+pW S3+I2+7:+>e+>e+a/.,e+'e+3(+)e+!e+~e+~0.8U._< WZ.&h {% 05 f_ k! +] f> Z- s> ]@+{e+@<+]e+^e+/e+{2.(e+30 &= u* 3(  9 h= [> @@ X& n7 C1 5q $l.eq.7`.38 ~s.-5 7`.}8 :: _e+wX.bY.:e+%c 34 <e+[e+o]+6q.93.}e+<C.|e+Pk.&h.`i. D MM.MM.2`.[{ V& ",
"t] ,3 .= ma `R pf.i{.bs K0 y|.m- 1; 7r H4 I  v+ F$ ,- I5 S| |= R& j+ 0^ 3+ =( *( J} M4 N4 6 +d% T  1e+2e+3e+4e+5e+qc+6e+7e+8e+9e+mH Ek.0e+Fp  p n7 [& E! 0} a. ~' }@ l% N= o'+Wa.;%.ae+be+ce+de+$<+gI ,, _4 #8 D. E. m8+ee+fe+ge+he+ie+je+ke+le+me+ne+oe+qF.pe+H0.D. '; x2 hi V  L< L+ 5N qe+^^ re+[S.se+te+ue+ve+we+3e+xe+ye+ze+C: &Y ms l' lE /} )* j+ ~( 3$ W[ 6f.r_+> +Ae+0y.Be+Ce+De+Ee+Fe+bU xh Ha @& t^ $>  % l{ y' E. Al Ge+He+Ie+Je+ e+Ke+fu )4 4j Le+j0 TE t' 99 8@ ^* 14 D. E. E. u* V: 14 B- V. x, -, xc .h s*  4 -)+T .l*+Me+Ne+Oe+Pe+&^.Qe+Re+Se+Te+Ue+Ve+)_ i_ 'p Po m7 C$ ;  O. U; P= 7  T. m{ 3, g  |- l( i  m{ l( H/ $. !; E. E. E. z> z4 9- `~ We+Z5.Xe+Ye+Ze+-9+`e+ f+TN .f++f+A'+p; He ', q3 V) M% K] B{ %' p( p& U8 m, (% q% #= |{ l6 @f+#f+$f+R0+Gw.%f+ (.Ee.S3.&f+*f+=f+-f+-Q.;f+>f+,f+'f+)f+!f+~f+#(.{f+{P 5- $e 1$ }^ D@ t+ +] C+ x$ )~+wD.;P.T3+]f+^f+/f+(f+&+.{( ^  x> Q4 B- o[ x] $= M6 K< rx  T  T $l.Xy zp 9- aC.C1 x2 9{ %V.>V.0- 0a+[I.i_ L&+/g._f+:f+8f.&K.%Z.ek.!g.0c.aG.eo. D 5> &s X: F6.",
"{% '< K6 '- h] rt ,k.}b r!.'> .u.Z$ 7r _# 3% /, f_ t] c/ x; K& &  &$ |G j. f$ C! !M @r .r o' ,{ s> a_.<f+[f+}f+|f+1f+2f+3f+zb+=Q.Ua+#8.`u C)+Cc So i  H% 0} !# Y  A+ Z@ 3; xp 4f+U3.M].5f+6f+7f+8f+R1+++._4 8z D. E. 4(.9f+0f+r}+af+bf+cf+df+ef+x8.ff+gf+hf+*E.6* D- wc #@ %_ :> s@ i  1y He k% k7 if+jf+#` kf+lf+mf+nf+of+pf+qf+% +1R ($ T`.ta =1 j@ =1 ta q#+r- B +rf+sf+tf+uf+vf+wf+x1+xf+I +G8.^m $6 .9 X( h. }= ]% H- E. Al  b.yf+zf+Af+Bf+;@.Cf+1/ N| cg )~ *4 ;~ V, 09 v$ .! 3( E. E. `a ^m gg 1b F+ i& o[ i* ka Ai K# ~m !o In #8.#a+Df+Ef+.^+Ff+T4+Gf+Hf+U`., +%q pT Mt pc _* m, V; ga z+ ]8 jg #, a) l: 5  Fz M+ u1 X_ v] K+ m{ ;, i{ =| M* m7 ;, 7* J7 Of If+Jf+Kf+Lf+Mf+Nf+%_+Of+Pf+Qf+/y _[ 1- J% p% -N :K K| ~E  h #6 Z  >> -- [> R* b, A$ ^!.Rf+Sf+/[+f>+Tf+1{.V`.u8+Uf+Vf+Wf+P[+}}+Xf+Tc.Yf+Zf+`f+ g+.g++g+@g+#g+J'+2[ E/ %. +' /R.o  k% )b .! 5o CI $g+%g+&g+*g+=g+-g+Y}.0' 7@ ;  )' C$ E) n  b. x+ M* w* C1 5q C1 5q w+ |* x$ gc |* ^] kZ.=X.~W.A2 g2 b:.%j.^6 oF >0.%s.;g+AR >g+,g+00+8W.3X.z} [! ur.9J 2y ",
"V[ {' 1) r: q[ E/ c.+pp V9 [8 N%+nr vA }$ -/ [2 C  .% sn 6@+Dz Q, /' Fw nb w: @|+,V E0.'g+3E Dq z' 3!.)g+!g+~g+{g+]g+^g+/g+(g+_g+:g+6^+<g+Mt sQ nz |- t+ $# 7  /; ga =/ i& 4^ WF.qm.t8.[g+}g+|g+$<+[~ wf -~ 9* E. E. 1g+2g+3g+4g+5g+6g+7g+8g+E!+9g+rL.0g+~m E- E- D- B> #T.i  B( {+ 8/ 1- $. V, FB E. Kv ag+q3.a(.2P bg+cg+|o P4 x/ Kn j! n> 0w :  4| ma [[ 4- dg+=B eg+fg+gg+hg+ig+*q.jg+kg+i{.w. ^m y' D+ ,> Fz 55 [, K# E. qn lg+mg+ng+og+pg+qg+rg+7@.K+ D  ,% |& c~ h= P] ~# 4_ E. E. E. %> `a j{ K# s* k{ T~ Pj j* W- D. z> pc mQ.sg+@L.3v.tg+ug+vg+wg+xg+yg+8!.Op Y$ 2t.=s 7f.[+ `+ Q$ 0} *j H@ 'M zg+9O Ag+hB.l  b1 Lc b/ $( ^  @@ {X x+ >> B$ [, e> z> E. X$ /y }$.C:+Bg+Cg+Dg+iG Az.L7+}].2t.aC.5, g{ W* 8} x[ 2_ '3 -, Ai w, t> B- B+ K) eg g> 4a E- P4 P4 @m @m 3* 3* 3* 5* ~m 4* 4* E. ^l 9^.Eg+Fg+Gg+Hg+Ig+Jg+Kg+Lg+Mg+S} E/  > I# We a) 09 C- x9 4* P$.Ng+Og+Pg+Qg+Rg+Sg+Tg+}8 h* R$ K^ `+ Y( >  k% x$ w, *- ;j.k- rx k- t> C- C- w, `% `% h> {s.~W.Ug+38 !o ^E.@o.pg LZ.vz.mX _! Vg+Wg+Xg+Yg+6J.[! [! Xm sc CL ",
" / (8 S] V[ K0 rt BJ.Gm ly.B%+~z 2`.D/ B_ i  5  55 na f/ 6@+_n :& Zg+FO d}.j9 m> <E z1 `g+.R ae.,U  h+.h++h+@h+#h+$h+%h+&h+1F.~v.o'+Kp t!.So *h+w. *# L< s@ +| Av 6@ A( )= J- 4{.ON U].=h+V6.-h+;h+,{ I/ A+ a2 3( E. A{+fd+>h+,h+'h+)h+!h+~h+{h+[t 1o.}].g& z> `a t* Z% _{ `: =_ -_ V  x. /; J  w' D. &@ Dx ]h+s8.`,+^h+1].k`./h+~~.:#+o{.y4.!M 0w &( 0w Et :H (h+#b+_h+:h+<h+[h+}h+|h+,C !u A~ T  8* ~; w$ V  M+ -@ }$ ^m E. 6o kI.%_+1h+2h+3h+4h+mb j) >  v~ G@ qw.m# a= +! {X 5_ E. E. E. 6* ]b ^m y' wc L# s1 W* P# bl D- j{ .- dy Up U`.h'+5h+6h+7h+8h+9h+-q Pp 85 5o  p =s }V.Se p$ 7  A% a} o# a1 ;&.8~ 8~ o= D} a1 Av D) +/ (  @@ 5; B+ #- $= h% |@ K# D. ~; 4< 0h+ah+bh+u9+ch+'J Ne.1/.D0 .-  T 5) ^% dh+mK.H^ N# ;) Bk }0 `% Y_ Yb V2 ^= ^= )b =| &@ &@ &@ 4a `*.u- ~; om u- 4a j{ `a Tm bm 3o.eh+fh+gh+hh+ih+jh+kh+lh+mh+N +<$ 1& k0 p# E  .#+W~ gg %> 8o nh+oh+ph+qh+rh+sh+DD.O8 _4 i* <<  @ k! d, 7, o) t> 79 ;j.w* t> *- x> Z- w' F+ Y_ 6! t- -X.9- 4`.c2 R}+-`.th+n^+;g+Zg.uh+vh+wh+SS.xh+yh+1M.[! [! G/ c! +: ",
";N |, d  (8 H} :[ :[ 7J.`i.[8 MK.~2+$_ '^ :+ 2, $_ |> L= eo 4T.>H *N %! U +3^ 4G 4G q#+Yx u~ Z$ St.a_+PC.}v.zh+Ah+Bh+Ch+d;+e}.B%+.p zS qO 9: E$ _  B( )0+Dh+Eh+Fh+@5+H  >- V- 2o ^{ 5/ Gh+&$+Hh+#Q.3' n( N) [= rO @m Ih+(&+Jh+Kh+Lh+B7+Mh+Nh+Oh+[G ;)+z' z> 5* x> s' @@ ~^ p, =  %x [5 t) qw.s$ f{ D- D. ;j..( Ph+ap |o A' .P G' Qh+%%+qs $u j9 'H pC e! TC }R g! #V S +Rh+Sh+Th+Uh+GF 7/ x_ Z+ K^ ;, B- +  Z+ Fz w4.%= &@ E. @m 8U.'^.0*+Rr Um.Vh+h0 9d /; t% oh jg m, >> a8 >> J7 E. E. y> 5* &@ D0 y' jj Z[ `) +k R# C- 5_ J7 w- Co.Wh+Xh+,q 2&+Yh+Zh+`h+cy  i+go.`*.3* Qp 3q 2{ 37 f  P  7  7  7  5< r] b_ h@ v: n  b/ [/ .' C_ +@ +@ J^ -= ;  j% h% 3; C- %- qx z$ K0 iB Ow .i+LS.c2._8 w+ ;4 |1 X& 7; b, ]L.,j s% n= G. y, t- F+ @k +i+/] 5^ ^# oc a! Y7 >> M6 g= A$ 5, |@ G+ |$ [+  T 4_ `a v* e- @i+@s.#i+Ew.$i+%i+&i+*i+=i+[P ./ J5 $# *' k8 P] 14 u* E- -s .9+-i+;i+>i+UK..h.<n.,i+>; X; O=  @ J5 m( j% Q  Q  O8 Q  s' g= Z  j- }@ }@ A- t> Yb y$ XX L=+_L.7- 41 AT.'i+cB.)i+_y.!i+T .H=+Ix e` uD. | Ht.@1 NK.%x ([ ",
"|1 !% !4 }; g' ,5 3T e- rc Xx U#+~i+%x p, g  .[ _[ }, {' 9J 6@+,v M>+B*+wD n> j! 0& |^ w1 dn V  ~% w( /{.~'+=n.fj.{i+Y{+h,+4q Q4 gg ]b `o += [' I0 Lb ^S ]i+q*+Jx.d& t@ 8@ r* |d _: V[ YA 2`.n) w. T. z% A{ X) 3j |@ 4~+{y yg+)b.^i+;6+9B.Y2+g<.-C QK.%> >8 -> l{ v& ;' o= }^ e, c1 }^ N|  6 p  q% 6_ D. z> 4* 4* E- E- 6* ,{ /i+(i+_i+lO hr | +Vw Ew hr 2t ns D;+:i+GN ,V ^' GN 'g+|~ K+ E) y. @- #- A/ E$ N| t@ g. <, YP D- j{ 4~+1g+')+<i+[i+)- #3 }i+=/ A0 R> P$ y. cf d6 U5 w6.E- E. P4 5* =| -> Dc Xb oc /# s& R* m& #= k% <5 Fb 4* ^l [V.h!+Up /{.Mp.A(+Vo 4* z' =s Ro mr #! '0 @- A@ h% A@ +@ #. X, b. h) a/ ,> k! k! J+ `; m{ J  h) y+ Y, h) ]; m( ~' /% f{ ;> @=.({.[&.R@+1q (~.7f.-- ,e m# $= b. R= mh |i+mh R$ v} n^ ;- f> U. V$ D~ J* p^ |4 G} r> r& O  G@ a} e_ z[ 'M 1: [2 j; 1- V2 i( }8 Rp 1i+2i+`z.3i+4i+5i+6i+7i+wo 8: H3 @! @! <> R  2s ^m z> E. p=+8i+9i+0i+'{.'b.-5 9{ ]4 I/ ;~ h@ n# P= h{ '0 7, ;  Y, y+ Z; J  O) G} s& Z  x$ J| Q< 4) =9 =9 y} ;N d[ eq.5~+ai+d5.!X.,^ U] ra NK.Xx 7- 8- <: p[ |- l( ",
"s* {# 0! Z  3; C( @V.H+ h  pX.#M.ui l: w} e} He [; g- G_ Fz 33+L& x; J/ /M Sb Fz Fz c1 ;@ o  X_ BT.T. .- y> y> y> y> y> 3( 4^ D- 4^ E- .- m_ O& bi+VB sV ci+ci+O+ nu.vT U~ `[ $k rk U$ h( >V.w$ V2 t1 HY.Q: gh.di+Nh u& {# 2*./^ ho.X$ 5* z> 5* 6* !; Dc ^b +! _~ 8  SZ 33+CL ^z ^z Io Lc z[ z[ I3 Xb D. D. E. D. D. E. P4 ]! g% U0 V0 &u qr Y0 st FO 2t Vw y:._' bu .* }, |, 8R _  P  P* +- /% v; [= @@ g@ ;[+Ol *4 Y; >a '; 6_ ~; 3( 3( E. E- K< P= t@+NY.@l ei+fi+A( b. h- |@ .! E- 3( E- P4 Q4 x> F+ -, x, 4~ n= N) o% 2% 7  5; `a D. 5* N* ;j.qt P4 6o ^l bm 4* P4 =s 8: w( g' $. h% A@ h% A@ O. #= #= l%  @ m( d, ** C@ m{ m{ J) ];  @ Z; y+ /% R= O) D_ `, ~= ~; 3( ^l :n e*.D. E- &@ V2 X; b_ fY .] S; Ak gi+S2 ~2 5] )% D~ V$ }1 O* )% l1 7^ k& hi+5 .y[ ii+fi+ji+ki+li+mi+ni+Ue oi+r] ~2 T$ |* z> z> &@ (~. R pi+qi+8v.B`.Zo .  )= V, Q# k% 75 *'.E- E- E. ri+si+Xt.Xt.ti+S1.!~+)U.WN.&9 E) Hh a. .@ g{ -= 7, i% O) r% &9 ,b ]8 lZ.o[ e> C+ 5) fa $/ A] @V.y( U< [+ C1 =3 Vp =s eq.R] /b ~] b- R] :+ SY.|8 ;N ;N g- ",
"Ck u} M- i& n! U; i% #= n! .] ga z( 1% 3j ~= U5 '= [= m( B% 0. ui+p  eO o# 1: B% #, HJ 'b z( 2% 3i U~  9 3( 4* 4* z> g& K# '; '; y' E- s> 9@ G# u1  % M[ yz l  k  Ph E} V; 9; >) (= $~ f~ K5 k{ L' nc vi+wi+xi+yi+zi+JT.Qz.fl N- .h -4 G- D- =T.pa+sO b8 49 d6 89 ^, p  Ai+t@ hB.j  1& f. bT &j }& }0 D. D. E. E. E. E. 6* Xs =7 D! sa O, mE _B |G  x T, jv ua -$.h$ q' O. H4 H4 h) .@ T~ ,/ (2 l& ~' m% d_ @l yN =/ Q# i= #c q2.&>.$6 ,7 by.Bb n^ F~ mK.Ub Bi+r@+X=.|& !: V, /* `6 z> E- 4* %> ]b w, )b Z7 oc 8| M. m% N) I< )] v$ =4 y' 7{ {# W$ 1b n[ u* B' !>.4* E- 5o 0p MA B$ 5; J^ K' p& +] +] 5; +[ v} m& #= c~ b. O. k% @@ f{ [> V, #= f{ f{ R# ^* =~ l& i- G- D. `a g& K# S' y' V: '3 P# S2 X, 8) %, 9) I^ n! [@ 5] +. L# Z7 h> i' +( Jh Pe Ec Vj c% ga w} zh ZL.Ci+DX.Di+Ei+Fi+*1 X, E_ D~ Bk y' V- W$ 5_ ;> Jz Gi+``.Yo i7 d> i; <b +[ V5 R++Hi+E. g& E. qn Ii+@{.b_.u~.Ji+ho.Yb O= ,b Q| ** [& [& P= O= @- O. y+ a. z+ Pj jZ.O) [> U5 #@ ;  i% fa .{ /  :~ i) 8, !% :e D0 `*.Qo <~ ;( H/ /  +/ I+ +/ +/ E$ <~ K^ ",
"]m ]m 7{ V' t& U$ t& '3 '3 )% A3 0= V2 p! B> ,7 ^m `% .  h{ D_ S~ }& Q* +- H. (# N# j& L. >( j& `) k{ -4 3{ ~; gg x' >8 >8 A> %- =4 -4 q! ^  F$ f] 1+ 1+ 8h wY yq }D <2 P  -) p^ J* <} k/ )% 0= r< )e m^ yc Ki+s< Li+Mi++x.dl a;.$c D- z> D. D. G- 0* Z# b. k% @!  c r& f!.Av y4 +| r& A( ,b 2% ~' E+ F. u* `a ^m 4a D0 Bf x. ,# b +'< .%  > h$ j+ /} `$ 0^ w~ e@ s@ U, l{ O. g{ n, y+ >, K. R* ^* ~' U~ 1% ^% }@ p! i= s* K* =i t} #c x' U- D> `_ )e </ mh cj Gc u% s& A3 *~ )= .! z> 3( g& %> 3( `a {# 8! r* oc V' 0, 9; [@ }@ V2 &>    Z[ x, jj zi U- zi 8{ V: `  x9 u- 2*.id.N* {# t- oc 15 -, >a .h i6 i6 #8 V. d> d> a2 x$ D+ C+ w' V. p! p! d> V. p! -H Y# C- D. E. D. 4^ 1* wc j= p) Ee .: E_ a, a; &, Zy Y[    &> qb &~ >) u} S' Bb p) 5^ r) .b u; fj 7@ Ni+S2 xM.Oi+v_ '&.HU '&.|j 3~ Y7 Y[ h> F. '; 1b j{ 3( y> y> ck 4a ~; `% Dc U: w, gg ck E. E. E- E- P4 co 69+h,+4{.@m ^s.qx j% J5 m( O. h% g@ L: L: c% g{ U; X, R$ S; R$ f{ O. h% O= 4) ea h( ;  -= $= ;= J| x$ U: %> z> d8 bf hc h- Q  s' .  2~ g= -- g= '= ",
"D- n[ n[ ~; `% E+ }0 F+ E+ x> w, V: 1* K# E. E. E. z> B- |@ 45 45 )0 0= k{ '3 n^ n^ t& .: E_ 6) [@ t& => t- t- i= t7 02 og O> X- o& o& /* .' S* -/ n  f] <2 ~s Zk w; sf g@ +k (# ~2 L# ;-    i& M. 9= g1 G! =*.aj 8l >) L- L- V- D- Tm g& E- E- XF B/ wf I  `@ .' S# $# P. w; k! 0{ y. T. }& ^% o, 8^ Y- Y- #8 w' $@ 5; #= C@ q+ I( r+ f@ {% F$ <& Mb [e L< v] f_ M| l$ @- l% l% g{ g{ (# n= !: ^* l% O= O) f{ w$ A> >8 n[ ,; z/ x' V- x' =i >) 5] W' 6) f~ f~ %, 6) t& 15 )b Z- w, g& E- 5* 5* E- 4* z> 1* 7{ 8{ W$ {# {# 8! ^] U$ ]= K) D~ d> =, Dk a;. . Ai Y- V. 8^ Lk Q4 3( 4^ j{ A> x' V- D- S' D- y/ '; Nf Nf Nf V- y' J- F. 1* x' K* K* V- 1b 1b A> ,7 =4 ^m z> D. z> D- A> -i J{ Z[ &, (= 6< 5t rk ]f PG.&k ]# W- 9! =, L- S' D. F{ y2 k= `[ Cf E~ S2 }& Q*.V; U; Pi+F( S2 b, b, 6; !% A- 8^ F+ %@ u* 1b K# E. E. E. E. D. n[ n3 4^ g& P4 #e y> y> #e E- E- %> y> y> E. E. y> ^s.o) 5, [, @@ +] A@ v~ tf.z[ dj E) h% 7; #@ *~ != 7, h@ #( 5< 7; XX O8 6; h} 7; a! _^ 3{ ^m E- %> L* a8 {X .! u* j{ j{ u* &@ ^m ^m ~; ",
"D. z> 3( %> ^m !; J7 M* -> -> J7 D0 4* 3( E. E. E. %> `6 +] V, [> V, p& r$ .9 U5 U5 >- A3 0= o! K' <b l! d> Y- => 15 |0 |0 )3 Ab L' `2 !: Y  k} 3% $# w; +| '5 +| 6@ w; E) 7  C( 7, Z  A- C+ i- ^* Q8 /: nc s1 d~ )3 .h J- D- F{ D- D. E- 3( E. z> S@+2b G~ `@ S# y. ]* n  t+ -/ -/ a. Y  y+ ~' v} V2 V$ u& Y# o& '3 R# 99 ;~ C@ C@ .' )! m$ ~b '5 M| f_ o= i} +# Ge n( h{ !: R= Z; Z; m% 9= m% /% Z; /% A+ #= +! t* ^m D- S' F{ y' j{ 1b %- u& =~ P# v; o[ @& b. T$ B+ ;4 14 14 !; z> E- E- E- 3( E. D. z> j{ i{ ~; x9 1b %- 15 *~ )% $~ 9; V. ]# =, W- M- Ai Y- Y- p! )b i{ E. D. h& h& G{ y/ pn D- pn D. D. D. D- F- D- g& F- K# K# y' K# J- F- D- G{ h& D. Tm D. 3( E. E. D. x' =, W5 V' M> M> L> &> 15 B> 7! 8{ {# A> 3{ 6{ D- D. D. h& 3{ Ai oc Z7 D~ l% m, h% .{ 3; 5) <^ h( i( 3~ >V.o7 B- B- V: u* j{ 4^ z> E. E. E. E. G{ F. j{ j{ 5* 4* %> E. #e E. E. E. E. E. E. E. E. E. /m L6 6  6  D$ h- @- L: (@+!< &j z+ i% ,= Z  h' e> 7; r] #( .@ 5; o) XX ;  fa 7; ;, J7 X$ z' E. y> Sq ap g6 Wb P4 E- E- P4 E- 4* 4* 4* ",
"E- P4 P4 %> 6* C8 =d v- v- )/+3_ Uo x/ E- E. E. E. E- Md tp {X 0* ~# ~# +! a2 ;4 75 a2 +! +! ~# e> .u 14 -> U: FB Dc &- B> |0 $- i; i; Y) v$ p& @! H4 c~ H( x. `; J  ]; h{ l% r$ ~# x$ B- .! ,' e> Df 'h 'h 8| Y- Xb y' y/ K# D- D- E- z> D. Tm z> ^b Qi+T5 r$ /* C$ Z# l{ Z# l{ l{ f{ p& )0 +[ ;- p! Y- Y- Y- V. p! i- r$ N. [> H4 H4 :* `| ;~ I  *' *' {* ]* E  t' D_ =~ R# R# m& o, o,  h 45 9C .9 h= 6@.'' t* 4^ h& D. z> D. g& 5* ^m >8 r; a2 e> y$ '= '= B+ s' w$ -> !; D0 `a 4* E- E. E- E. D. 3( 4* z> j{ ^m  9 1b V: F+ f> u& u& V. F+ y2 7! s* y2 {# `% 7! `% 3{ z> D. D. z> ^m g& on Sm Sm E. E. E. E. E. D. E. E. E. E. E. D. D. D. D. Ml g& 5* D. D. E- %> 4* %> 4* u* W$ Ai Bk oc O> x, Y_ !; i{ ~; ~; x9  9 !; 4a `a z> j{ 4^ u* i{ !b z4 |* k7 =- ^^ !4 L6 o3 gc |* ~W.rx i> 7f.Q4 v* Fb &@ 4* 4^ E. E. E. E. E. G{ G{ 4^ 4^ g& z> E- E. #e E. E. E. E. E. E. E. D. E. &@ *- !4 Y} +a #- @@ A+ Q~ c6 y% ^% }@ f> w$ x$ w$ V2 b. y+ l% .  D+ Y7 |@ 7; #- x+ d8 !>.bm y> Um ku Mp 85 Sq P4 P4 P4 %> %> 5* %> %> ",
"y> y> E. #e E. #e ck x/ Nn ]b x/ ck y> E. E. E. E. E. E- ]b  9 D0 D0 gg  9 m2.*'.7* 7* =|  9 D0  9 4a Hi+%> ck %> P4 %> %> `a y' ^m ^m m2.gg !; L* J7 4_ yh s> M* M* M* 4_ L* C8 &@ %> 5* 5* 6* 5* &@ j{ `a 4^ z> D. E. D. D. E. E. E. D. E. D. E. Ml *'. 9 ^m =| D0 !; Q4 L* L* w, J7 J7 V: V: t* ~; 3{ 1b >8 1b 1b t* Dc U: U: w6.M* 14 14 ;4 x+ a8 a8 r! >> V5 r' ^5 U: U: J7 J7 v- V: x9 !;  9 4a 5* %> 3( D. E. E. E. E. E. E. E. 3( 3( z> %> j{ j{ u* &@ 4a `a `a %> %> E- E- E. E. E. E. E. E. E. E. E. 3( z> 4* j{ >8 3{ Dc `% `% W$  4 1* u* F. &@ 5* j{ K# K# h& D. D. h& 3( z> z> Ri+Si+Ti+Ui+Vi+Wi+Xi+Sm #e Sm Yi+Sm Sm Sm nn D. D. E. E. E. D. E. E. E. E. E. z> D. z> D- F. '; >8 J- F. D- E- D. h& h& z> F- `a u* D0 E- D. D. 3( D. h& 4^ /m Fb `*.)~+om Fb Fb j{ j{ /m 3* !m ~m 4* 4* 3( 3( E. E. E. E. E. E. E. D. D. E. E. D. E. E. E. E. E. E. E. E. E. E. E. E. E. E- 3* 4,.7f.8* -> x$ A- Y) D~ +[ 8^ -, `% V: w, }0 Ai ;4 a! w$ r; w, w, k- k- k- J7 L* B' Vm E. E. @m 1].Vo P4 E. E. E. E. E. y> E. 3( ",
"#e rn #e #e #e #e #e #e y> E. E. E. E. y> E- Tm E. E. E. E. E. 3( 3( #e E- E- E- Sm E- E- y> E- y> y> E. E. E. E. y> y> E. E. D. y> E. #e y> y> y> y> E. y> E. y> y> y> E. E. E. E. E. y> E. E. E. E. E. E. E. E. y> 3( y> E. E. E. E. y> E. E- E. E. E. E. E. E. E. E. E. E. E. E. E. E. D. D. D. 3( D. D. D. D. D. 3( 3( E- E- E- E- 4* P4 %> P4 ck ck %> ~m x/ ~m ~m E- P4 P4 P4 Um P4 E- E- E- E- E. E. E. E. E. E. E. E. E. E. y> E- E. E. E. 3( y> 3( 3( E- E- E- E- E- E. E. E. E. E. E. E. E- E. E. E- Ml E- %> g& `a j{ j{ 4^ 4^ 5* &@ j{ `a 5* %> %> g& z> z> z> z> z> `a 4* ~m x/ Zi+`i+ j+.j++j+@j+#j+$j+%j+&j+*j+=j+-j+;j+>j+,j+'j+)j+zN.E. z> Tm Ml E. Sm E. E- E- nn Tm F- z> !j+Tm pn E. E. E. E. E. Sm Sm Ml ~j+{j+Yi+Tm D. z> D. z> 3( 4^ 4* ~m !m ~m 4* 4^ h& z> E- P4 :n E- E. E. D. E. E. E. E. E. E. E. E. E. D. D. E. E. E- E- E. E. E. E. E. E. E. E- Sm E- z> 4* 3( ~m 4* 5* %> g& `a i{ i{ 1b V- y' y' 1b >8 1* K# y' j{ y' K# 4^ z> 4* 4* ~m P4 P4 y> #e y> Um Vm bm zN.P4 E. E- y> 3( E. y> E- ck ",
"#e Um #e #e #e rn rn rn #e rn #e ck ck E- E. E. E. E. E. Tm Tm E- E- E- E- E- E- nn E- E- %> %> E- z> E- E- E- E- E- #e E- E- E- E- E- P4 E- E- E- E- #e E- E- E- #e #e E. y> y> E. E. E. E. E. E. E. E. E. E. E. E. E. E. E. E. E. E. E. E. E. E. E- #e E- E- 4* E- E- E. E- E. E. 3( 3( 3( 3( D. E- 3( E- E- z> E- 4* 4* %> %> %> %> 5* 5* 6* ~m x/ %> x/ %> x/ P4 ck Um P4 Um Um Um P4 #e #e y> P4 #e y> E. E. E. E. E. E. E. E. E. E. y> #e #e E- E- E- E- 4* P4 ck P4 %> E- E- E- E- E- E- E. E- E- E- E. E. 3( E- D. E- z> 4* z> g& g& 4* 4* 4* E- P4 E- E- z> z> z> z> z> z> 4^ 6* rn ]j+^j+/j+(j+_j+:j+<j+[j+}j+|j+1j+2j+3j+4j+5j+6j+7j+8j+9j+-s -s E. -s y> #e Sm Yi+#e Yi+Sm #e Sm Sm Sm Sm E. E. E. Sm Sm 0j+0j+aj+bj+cj+dj+ej+E. E. E. E. E. D. E. E. y> y> D. D. E. E. E. E. E. E. E. E. E. E. E. E. E. E. E. E. E. E. E. E. E. E. E. E. E. E. E. E. E. E. E. E. E. %> z> g& 5* z' 5* 6* g& 6* 4* g& 4^ K# K# y' K# 4^ D- J- H- K# g& j{ g& j{ g& %> 4* %> %> ck E- E- E. E. E. #e E. E. E. E. E. E. E. E. E. E. ",
"E. E. E. y> E. y> y> y> y> #e #e Um ck Nn ~m %> ck ck #e E. E. E. y> #e #e #e #e #e E- E- E- E- E- E- #e y> E. E. E. E. E. E. E. E. E. E. E. E. E. E. E. E. E. E. E. E. E. E. E. E. E. E. E. E. E. E. E. E. E. E. E. E. E. E. E. E. E. E. E. E. E. E. E. y> E. #e E. E. E. 3( E. E. E. E. E. E. E. E. E. y> E. y> E. E. E. E. E. y> E. E- 3( E- E. y> E. y> y> #e y> Um y> y> y> y> y> y> y> y> E. y> E. E. E. E. E. E. E. E. E. E. E. E. E. E. E. E. E. E. E. y> y> #e #e #e y> y> E. #e #e #e y> y> y> #e #e y> y> y> y> y> E. E. E. E. y> y> y> #e #e y> y> y> y> #e P4 P4 ck ck 1o fj+gj+hj+ij+jj+kj+lj+mj+nj+oj+pj+qj+rj+sj+tj+uj+vj+wj+xj+yj+zj+Aj+Bj+Cj+Dj+Ej+Fj+Gj+Hj+Ij+Jj+Kj+Lj+Mj+Nj+Oj+Pj+Qj+Rj+Sj+Tj+Uj+Vj+Wj+Xj+Yj+Zj+`j+ k+.k+E. E. y> 3( :n y> y> y> y> y> E. E. E. E. E. E. E. E. E. E. E. E. E. E. E. E. E. E. E. E. E. y> y> y> #e #e Um Um Um Um 7o 7o 7o 7o 1o ~m 5* !m ~m %> P4 E- E- E- E- 4* 4* z> z> z> z> z> z> E- E- 3( 3( y> #e y> #e #e Um y> -s y> Um y> P4 Vm 1o P4 #e E. E- E. E- #e Um y> Um ",
"+k+@k++k+#k++k++k+%0+%0+7#+Cd.a_.4!.ao bo )n b`.1o b`.bm |o )n )n )n b`.6o 0o 0o 0o Al Al Al Al Al Al 0o 1o 1o 6o 6o 6o 6o 6o b`.bo bo 4#+4#+4#+4#+4#+d`.bo ao b`.ao bo ao ao 4!.4!.ao ao Al 0o 0o ao ao ao b`.bo bo T}+bo 4#+co bo bo h`.,h.~~.h`.j`.bO.Np 8E C' 5o bm Um y> P4 y> E. y> E. E. E. ~m bm bm Nn }o x/ Vm ck ck P4 Um y> y> y> ck Um ao f`.%0+$k+%k+&k+*k+=k+N7+-k+;k+;k+>k+,k+7#+Al qn Um Um Um Vm Vm 7o Um Um 9o 7#+'k+)k+'k+!k+e`.8#+h`.,h.4#+4#+,h.8#+~k+i`.i`.{k+{k+vp ]k+]k+Mo n(+^k+/k+/k+(k+X`.X`._k+/2+/~./~.y'+up y'+/~.:k+_k+_k+w]+X`.Y`.r`.@ +D#+<k+[k+}k+|k+1k+2k+3k+4k+5k+6k+7k+8k+9k+0k+ak+bk+ck+dk+ek+fk+gk+hk+ik+jk+kk+lk+mk+nk+ok+pk+qk+rk+sk+tk+uk+vk+wk+xk+yk+zk+Ak+Bk+Ck+Dk+Ek+Fk+Gk+Hk+Ik+Jk+Kk+Lk+Mk+Nk+Ok+q`.D#+Gt.Gt.FR.h8.Pk+C)+@N f<.i~+up (~.wp ^_+{k+Qk+35+Np -x Rk+3G #e E. E. E. E. Vm 7|+f>+Sk+^f.|{.T~.Tk+Uk+{2+Vk+Wk+C#+*K.Xk+Yk+Zk+'Q..B R@+/2+/~./k+^k+Lp Y`.& +oz oz Z`.pz % +<s.J' J' 2t.y'+]k+n(+`k+w]+ l+.l+V`.f>+Uf+4(.yV.b!.P(+W|+R!+Ko Rp up ,O )n e!.2q 'Q.u8+x~.iu ",
"1o.L-+44 =b.1o.1o.1o.=v.hR.%v.{q vo.+l+= +o: RK.}q Cp d5 b:.$p 4M.AS ~6 ]< GH yo GH GH Ft.GH GH B`.]< ~6 (<  x..q !U j_ !U !U Ex U5.(q _q @l+@l+9v.(q 9v.#l+$l+Hv 2o.>N hR.1o.[:+t/+%l+:q *P.q&+,y.%v.W3.>y.hR.(j.&l+e}.ZA *^ U'+){ $<+^g.(D R`.;h+*l+Tq EH X= 2; Mr 73 {m Vm 4* ~m E- ck E. E. A' eL ae.Kn pL.pL.]l .P &p &p cp 6R )p }].)n [].=l+Fp -l+;l+Sb+>l+,l+K'+@v.'l+'l+`p.^B.T5.66.I<+)l+Np }].No .p u, Vb I0.!l+, +)q ~l+{l+]l+^l+/l+(l+_l+f8+zt.:l+:l+<l+[l+:l+[l+##.v4+v4+O} }l+c#+v4+v4+v4+SP K-+|l+O3 l. l. *x gO ]P 1l+9W.^P UY UY K-+Cw.O} 2l+3l+4l+5l+6l+7l+8l+9l+0l+al+bl+cl+dl+el+fl+gl+hl+il+jl+kl+ll+ml+nl+ol+pl+ql+rl+sl+tl+ul+vl+wl+xl+yl+zl+Al+Bl+Cl+Dl+El+Fl+Gl+Hl+Il+Jl+Kl+Ll+Ml+Nl+Ol+Pl+Ql+Rl+Sl+Tl+Ul+Vl+Wl+Xl+Yl+Zl+H;+fm *&+9b `l+gR.5x .N.sJ aT.l6 X&+E0.;v ^g.d#+%3  m+=* 1R t`./h+Sm E. E. E. c:+7k.)F.:0.'8.7(..m+|}+5o.([++m+@m+#m+$m+%m+&m+*m+2s.&q.GD.9F.9F.=m+-m+;m+EN HQ.V_ V_ >m+,m+EN 5x O8+eI Bt.'m+)m+!m+~m+Td+{m+]m+^m+6^.'I./m+nM.h6+9I.~U *$.q#+tV fp = +Up.(m+g#+-8.xz._m+nM.",
":m+'D <m+7$+u2.u2.)C <m+ll [m+N1 w7 b4.{< q] `R .R /s ]s o{.t, 3v d}.d}.k. a*+6D q7.[a+[a+BV.iH q7.kf.eh.t# V_  @.eA ^=+v2.mu v2.}m+=x |m+=x 1m+b$+oE .x nE K, 2t Hz tr A= Jr 2m+F; [} xr =U.F,+EQ.3m+5# ~. _x ~. 5# 5# 5C o] 4m+zr u# {. Hz Iw 2/ `1 p6 Fs Px }' !e %= r! ~m !m z' y> y> y> y> 4q 7r ~D X%  * P).3R ;! D# ;! .* ~D lr 5m+2t.Mn 2F K[. @.xv.-t hy py 6m+7m+jk.8m+9m+0m+am+bm+cm+#{ f8.dm+6N Ye D% M>+^D *C :q.em+x) fm+gm+Ab+Y0.hm+im+!&+jm+HK &t ]t vu l] Lw =B `0.m(+j$+VK C*+<t ~H B; vu km+c$+Oz ~I ~I ~I lm+Oz ,x ~H ]t Wv oA zj.j] Hr Fr mm+nm+om+pm+qm+rm+sm+tm+um+vm+wm+xm+ym+zm+Am+Bm+Cm+Dm+Em+Fm+Gm+Hm+Im+Jm+Km+Lm+Mm+Nm+Om+Pm+Qm+Rm+Sm+Tm+Um+Vm+Wm+Xm+Ym+Zm+`m+ n+.n++n+@n+#n+$n+%n+&n+*n+=n+-n+;n+>n+,n+'n+)n+!n+~n+{n+]n+^n+P].`3./n+)f (n+%++_n+C=.hq.:n+<n+XD ]R.WR.ar EO $$ NJ u, 8E ck E. E. #e W3.D6+[n+}n+|n+1n+ =+&*+Sz W}+]&+2n+3n+4n+5n+6n+Bz.1H ^1 7n+Q} T&+cm.8n+U_ oA Xv my Xv ^t ^x 't 't MD.9n+0n+an+bn+}~+cn+dn+o,+}1+wb.kk.en+&0.As.*b.c2.k) AA A& or iv g|.n]+^%.Zg.J/.ED fn+;m.",
"gn+gn+`$+lB.J0.hn+'D U .:m+7w B: 5(.xG 0W %@.4$ i{.*Y o{.b{ d}.e$ ZU.e&+eA ll &U.R;.in+jn+kn+&d in+u2.ll mu J0.]^+,z 84 84 %A.-$+Fx A) I, o] EQ.cm+0;.FO l' x|.^u l0 ln+&D cz !x w= Jr z= Gr 9# B= D= FK ~& [z !& 1g.1g.4# mn+5M 5M e2.,& !& a# `s e+ V+ nn+on+N| ]% 89 *> =| &@ B' P4 P4 Um P4 85 Q% pn+D`.9%.22 #{ KN ed h~ 1R M/ Xp Ph+%U.Fm.~D %u fr E2.qn+d$+rn+sn+9b+tn+un+vn+wn+Tg.eF 3c p' 8p xn+x6.vI 0$ 0+ 3& ZM yn+zn+H2.An+Bn+Cn+Dn+En+DO dO.Fn+RE sL Lx uu qy uu W8.Gn+Hn+In+E&+Jn+T8.}t hy Wd+Kn+Ln+Mn+Nn++A On+.1+.1+rn+Sv ~H u= (H 3C a# Pn+Ay Qn+Rn+Sn+Tn+Un+Vn+Wn+Xn+Yn+Zn+`n+ o+.o++o+@o+#o+$o+%o+&o+*o+=o+-o+;o+>o+,o+'o+)o+!o+~o+{o+]o+^o+/o+(o+_o+:o+<o+[o+}o+|o+1o+ n+2o+3o+4o+5o+6o+7o+8o+9o+0o+ao+bo+co+do+eo+fo+go+ho+io+jo+K].t8.K].ko+lo+;~+mo+/&+T_ Ki.B=.B=.]b.ND.<n+GK [  'v O, 9b.up b`.zN.rn ao no+F&+oo+po+GD QL.sf+qo+ro+so+V/.to+uo+vo+wo+)8.xo+JE 71.PV yo+W5..i+O1 Dr !x cF gy Nz u= 'x -t Nz {x G, zo+R]+Ao+j4+;S Bo+Co+ :.t|++2.V1.&0.Do+f5 TV 5F a  <# (X ^> &$.Eo+_x. 5 .d.(o.Fo+3H.",
"J0.J0.Go+8$+7$+7$+-!+Ho+R;.P3 Io+,$.zW.L&+jX .R u~ d2.Yx y4.O#+&x &U.&U.eh.Jo+iH #} Ko+Lo+Mo+4Y No+`D SC gO 7w uo.uo.)C R;.7$+7$+7$+DW.K0.>@+54 b{ {b 0^ ,3 R% p| vv ~r d7 l{.Iw (N `U.WR.b$+Oo+ND <. :x _x 6&+6&+9w 9w Po+Fx wC fm Qo+6# G,+|*.Gw Ro+3@ {++So+]* /* Z# B+ i{ Fb !>.B' A' P4 Vm (~.Yo ,a Yp +I %%+:' 3+ 5| D# la *= 4< d&.|q Jv 7C F_+FC.0;.I; `F c&.z9.To+Uo+Vo+Wo+Xo+%2+3c xA R@ q+ (* 3M @* ~) 3y Yo+@C SP Zo+`o+ p+to+}t eh+Nz dF G6.@t uw /r qv =$+em *++y) ^d .p++p+@p+#p+$p+%p+qy &p+M=.D; c$+*p+-B =B ,x ~H Lw ;& >. n~ sr U% 0;.%B Br =p+Sd.-p+;p+>p+,p+'p+)p+!p+~p+{p+]p+^p+/p+(p+_p+:p+_p+<p+[p+}p+|p+1p+2p+3p+4p+5p+6p+7p+8p+9p+0p+ap+bp+cp+dp+ep+fp+gp+hp+ip+jp+kp+lp+mp+np+op+pp+qp+rp+sp+tp+up+vp+wp+xp+yp+zp+Ap+Bp+l:+,0+Cp+Dp+lo+Ep+*4+Fp+Q_._s.Nh+Gp+e:.L/.Hp+sa.-$+_=+<o Y| en Op Mo %U.]k+Sf+@s.Ip+Jp+Kp+Lp+Mp+Np+;B Op+k&+*p+9G [%+Du %]+^b.4@.Pp+Qp+Rp+0E p8 5x ,m+Sp+3C !x -0 cw `v w= ;& Uv Tp+Up+]2+0n+T_ u7+Vp+}:+Wp+Xp+l>+r|+C8.(J Yp+L1 q, i. s++9  f5+-! np ~q :f+Zp+`p+ q+.q+Mc.",
"Jo+[m+Nw [m++q+J++~$+VC /o.V}+J].}$.@q+#q+U'+~U Bt ;v $q+m6 ]3 q7.DN 7w gO Mc+No+~d+Y&+%q+&q+RR.`c.H].W5.CT.`D `l+UR.37+]} +q++q+in+uo.0h+x>+Zp $p mr So To |b vr.3$ Wz 8v kf.+_ #V Y..Cw.JH N` C +uo.LB 3^.3^.DW.ZN 5T.fm fm *q+2V.=q+(%+4m+(. &$+qs m+ ={ u+ l{ f> >- d> &- `% B- q! ;> Bf -q+%U.J6.d5 o`.+I q. &$ Nt V0 >_ [[ e= u, ;q+db.%p lr >q+.q /s TS.u2.eh.,q+rN.'q+)q+!q+~q+{q+UA ]D p| K4 {! ;( Sb d/ k) Gu gO `l+]q+{^+^q+)&+/q+ou rL WR.2t o- 8W 8W ^=+ll q7.(q+<n+*t _q+l$+:q+<q+!F.[q+}q+n< |q+Uh+1q+2q+c$+%t Qv 3q+,n C, ($ aU ~5 y@ T= @+ @C F>+1q+4q+5q+6q+7q+8q+9q+0q+aq+bq+cq+dq+eq+fq+gq+hq+iq+jq+kq+lq+mq+nq+oq+pq+qq+rq+sq+tq+uq+vq+wq+xq+yq+zq+Aq+Bq+Cq+Dq+Eq+Fq+Gq+Hq+Iq+Jq+Kq+Lq+Mq+Nq+Oq+Pq+Qq+Rq+Sq+Tq+Uq+Vq+Wq+Xq+Yq+Zq+K1+p5+K].`q+ r+K].de..r++r+@r+~} 'J ^b.#r+$r+0h+$3 C# /D J6.Mp Yo pn+y`.%r+|h+ia.&r+*r+Vg.py =r+-r+b#+Sp+Ay H/.;r+>r+jI UF.;8.y[. =.V< =_ %>.E|+`4 ,r+8$+5/ >y ]^+hn+Ov ZN o] A) <n+Wr.Te.KE 'r+Q].*4+jI Jf+)r+!r+~r+ig.;8.34 3| j$ 1& Sb |^ <E w7 j)+{r+RC.Qi.JR.]r+^r+",
"/r+81.(r+bW.Kd _r+~7+40+:r+<r+Pe.[r+ G }r+c2.E0.E0.M` m6 ]3 }Q.eh.0e.+q+0e.VR.mc.mc.Lo+|r+1r+}E.`c.H].2r+>9+`D ]!+>-+3r+3r+a| a| <c 4r+H_ 8B.d5 Ro ;, 5_ K# `a Wt 9d ;_ t, L, 4E :G GF y1 ,C ##.^P q7.DN V_ uo.)C =4+*&+2V.i5.*q+cW.=q+Qo+5r+vB st T= I5 m$ .@ j- Bk 15 Y- t7 ]# V$ r$ C$ A/ 69 n) Xp Tt.C`.5' +v (@ >$ ;r 4 +p' JN o!+Dp .x.!3 pT xo Tp _E n8 6r+7r+1X.Cj.cK 8r+9r+0r+ar+rB R; y; 9$ y@ r# Jx #$ C= 3# br+JD cr+iO.pu :%+d$+`x ZU.z; T= ~( ~( s. ~( bu zd.'C 7w 73.10+dr+Cf+er+gq.b| Vr.<n+fr+gr+(t %t jy t= /r 7=+$3 -_ [2 '5 3% n% [& `; 5| 64 oA $*+hr+ir+jr+kr+ [+C: ;m+lr+@r mr+nr+=&+&v.5f.or+gq+pr+qr+rr+sr+tr+ur+vr+wr+xr+yr+zr+Ar+Br+Cr+Dr+Er+Fr+Gr+Hr+Ir+Jr+Kr+Lr+Mr+Nr+Or+Pr+Qr+Rr+Sr+Tr+Ur+4D H8.K0 @Q Vr+Wr+t|.*&+Xr+H, Yr+R_.Zr+`q+`r+K]. s+Q]..s++s+}( D_+@s+zG VC ,C  * 6| @= hH w6.!e 2$ I} @#.Qo+#s+$s+%s+m9.}J N-+Cw.F#+EN &s+!-+X` *s+Ub.^1 <! 9' }6 G3 v( m: i_ r&+'C (v =s+w)+E;+AW )z -s++q+dW.;s+~a+>s+3V.,s+'s+!{+)s+U_.{r+!s+TZ y[.J4.dq.,0 n$ <2 L< q] ~s+{s+]s+^s+LD./s+M +(s+Hu ",
"Jo+4r+4r+=4+*&+_s+:s+)s+<s+[s+}s+|s+1s+cW.2s+:D GF :G 3s+kf.V_ .x ll 8$+J++J++'$.)S ~u.4s+5s+6s+ q+7s+76.)1 Jo+a| 4r+uo.4r+u2.uo.V_ SY $3 y|.ae.q$ a8 U: y' Md C. {+ C# Wz 8v L, ,* ,* $3 m> fD f! kf.V_ .x Rk.mu }m+ZN ZN wC 4U.VC 4U.Fx ~. sv /' j! +* %* Za ;- xc j= M> N> O> t& |@ @@ k% ;< }, &3 'n Vr+B, t5 Q.+_.+6y 9s %u 0w ep n`.)'+Sp b:.OS 8s+#q #+ z&+M%+RY /g.TT.wJ.9s+Wg+Qp+0s+l' b$ mn *; /d [r k{.[x =B &t Oz as+C*+bs+cs+ds+4A k> j+ Y+ .2 .2 n+ c1 j+ my.!M A; <r 6'.}y zu o. 5M es+*,+o(+zj.-& ~x fs+]C k&+hO.H; L, -_ [2 v~ (% I% Y; A+ (, j{.w= }:+gs+hs+is+js+ks+/s.d/ U)+s= c +Xq l> p] ls+ms+ns+os+ps+qs+rs+ss+ts+us+vs+ws+xs+ys+zs+As+Bs+Cs+Ds+Es+Fs+Gs+Hs+Is+Js+Ks+Ls+Ms+Ns+Os+Ps+Qs+Rs+Ss+Ts+Uk.x: y4.g$ h! q- SY Us+xv.Up+g9.*8+j>+{N K].Vs+Ws+K1+Xs+Ys+Ki.Q_.d3+}*.Zs+zd.V  S* h) Y) `P 89 e, 2A !M ]. e$+`s++p+,1+ t+HI .t+v4+N` HI ~7+ G ]s+S_.+t+If+~E.}X.9{ M;.Zo m- }| :$ h++.+ t: g~ s7.@t+t|.;'.Wv ]t #t+oy 6G $t+%t+&t+>& 0h+L&+[c [c %@.!n ~] k! ^, $# -( q] 0< ]R.*t+)s+.d.+t+i9 =t+i6.",
"#N A&+A&+^=+J0.4m+ta.-t+;t+>t+,t+'t+5V.&d iB >C ^} $3 w|.D;+@u 9$+}G Xz Rk.)C 37+=q+)t+x< !t+~f ~t+yG A: YM j9 d}.d}.d}. C d}.3v 3v A +j! {t+*.+l7 P] 79 5_ yp `; e, c) C# sa %u f$ T`.'H 'H f$ A +k) X-+2t ~> Ew Ww %C %B Oo+wC wC dW.5# 9u ). (' 2& W  s- h; k{ 25 V'  } &, Z[ 0, U$ R~ #- :5 8R 1, Vb _ +3$ (d ]t+r)+aP `A 74 NJ x1 4- i_ OS Kq mQ.^>+%q /s _$  C ^t+xN./t+7C.(t+_t+:t+6/ UA ls f+ hz Cv !v v%+@y <t+eE {C [t+RE }t+C2._I MG nA Lb 9~ Q) E@ t@ /[ 9& EH y# T, m4 Y'.sz <x r, 7=+@x :x tr |. }  9D |t+@t k&+$t '. _G 1/ Y+ w] K  a. Y  t) h$ Z0 't m&+1t+2t+3t+4t+5t+6t+7t+/r iy G|.8t+iI 9t+J++76.cm.!%+0t+at+bt+ct+dt+et+ft+gt+ht+it+ys+jt+kt+lt+mt+nt+ot+pt+qt+rt+st+tt+ut+vt+wt+xt+yt+zt+At+Bt+Ct+s# &x #B Dt+A&+4y 4/ Et+p~ Ft+G/.'s+j>+{N mo+9m Gt+ s+Ki.Ht+Ki.)J It+cr+qB a#.-/ (: pb Wm P*+Z# '5 /, r. m; $J Jt+Kt+Tq.Kw &s+yn+Lt+]P HQ.~$+fm Mt+6V.[a+@t+T] g  ]] 3~ >= d  1R 2A 9J #b I++b= ~< op U` 6t+{C D6+:q+Nt+>a+qW Ot+aK.D= p!+i{.:' 2- 2A =1 J+ U~ W* -/ ob [c {$+=q+Pt+cW.q7.DR %@.U9 kv.",
">@ 2A 2A 1^ hB Qw <c K'.Pe.Qt+Qt+Rt+St+Tt+n=+I6.le PZ bs *( dn I} &( 4F yb.>v 2s+ s.!1 Ut+Vt+JN.Wt+M` 9L [[ j@ 5$ 5+ 5+ =1 4+ =1 2+ 4+ 6| f= 95 q< q$ 75 :e !4 E$ ,- @3 :  `R `R `& 4+ 5$ 5$ 3+ 3$ T= j! n> W_ x1 hB g$ y4.p] Xt+&2+z: u2._. hz ~R.`R r+ D_ 9= k/  } n^ k* k* V$ rk i' => ); s> |q Re ep Vb :  6& u^ us us ;0 .$ s0 KI `A }R Aq 2#+2#+|T.V#+B%+<'.T] t_ iv.<&.Yt+u;+{h kz Q2 TC /d #$ L; >d P8.5y OC P8.u| Zt+sB .F tw `t+`z u^ r# n+ o_ D] ag ;; f_ T* Xw 7+ mm ') xa 0+ Jq mn -. >d S, UJ U0 Ew `F }t+Y1 Ls  u+ly 7# X-+CK B( ** S# S# -/ D1 Gw %++.u++u+@u+#u+$u+%u+&u+]-+T8.*u+=u+-u+K].N#+No+Pw ;u+!y >u+,u+'u+)u+!u+~u+{u+]u+^u+/u+(u+_u+:u+<u+[u+}u+|u+1u+2u+3u+4u+5u+6u+7u+8u+9u+0u+au+bu+cu+du+*Y b4.`9 ~3 DR -!+eu+fu+Qi $]+gu+<q+)3+hu+de.iu+ju+mo+Q].ku+R]+>s+v7.Jm k#+ob C_ >, !: Df )3 Df 8@ <, S= t, c}.5# ^R.Ar O1 FN lu+mu+07+d#+nu+^v 3> r|.T .S0 f' -| v( 5, 5; x* f= }$ 7: b. i% b. f  H'.[8 YK [u ou+pu+>|+n*+qu+ru+b$+YM 4G u. )* !* B  T*  # =~ _4 h) ob *Y eh.su+ s.xG hp ;< He So {`.",
"Mr g= g= Se .( Iv T .#} $} tu+uu+ua.0T.Zm (9 `/ Z`.Z`.`/ oz .p Wp !r ae.!3 Ut.5f.~g.vu+]h wu+a&+bz.q] z@ !e 1- P% D$ 9: :5 x* 9: .[ #! 69 R  tp q! x+ g6 yp w+ q< Se Ro {`.c4.c4.}q Jv w. }; 8: |; zv vA }2 u3 u3 u3 pT !3 ^y ;*.xW.)h.+R xu+i0 cL #! w$ t& v} M. k* yx.u5 <} p) |d n[ 4^ E. E. ,O ae.3< =j.!3 ed J +TB f%+yu+zu+Au+Bu+Cu+L[.g|.zo >p ai+]y {o f<.VF.-C /%+[V.OC.}e+mF.,^ f' 9J T%  J +$ m4 cc k> TC i] 1/ G) G) UA As kA mA.W7 8& U@ s- :K S~ 99 :* ;; w++Du+Ax 7& 2; ya == 2@ Eu+..+pj ~e t`.nr+Cv Mg Gj l%+W#+Js ). [F R; Bc i  S# [& -/ -_ /s.Fu+Im.(^.Gu+Hu+Iu+Ju+Ku+Lu+=!+Mu+Nu+'{+'8.vV.y[.eo.^y z2 rn Ou+Pu+Qu+Ru+Su+Tu+%> Uu+Kj+Vu+Wu+Xu+Yu+Zu+`u+ v+.v++v+@v+#v+$v+%v+&v+*v+=v+-v+;v+>v+,v+N(+'- 8`.q: }q ]E.f#+5V.'v+)v+!v+E, U].eu+*4+~v+{v+]v+8c+t8.p5+0n+^v+/v+(v+_v+d&.x> f> w' V. 15 9, '3 i- *> Bc W_ y4.b}.ls+RP R`.R`.Z4 tV Ut.NH.:v+<v+2i+zo `Z. | R] A$ y$ .  #- g= A- |* 15 Te Y- x, ;j.R}+YK [v+}v+|v+1v+2v+~7+Jk.(j.LO.%3 Y/ :# G# P) #< Y  p! -H -- ]! T& J0. @.XR.b:.Mt C8 ^m 4^ =| ",
"M* l8 i= ;4 q! 3v+(< 4v+r]+5v+6v+gq.7v+]b+8v+St.St.=3 =3 Qo j4 73 v, E8.~p .P Em.i{.'C vh+4M xG u~ ma !0 .#+,8 01 .9 49 e8 d6 e8 _* _* _* :e 8* s> yp w* n7 aC.Mr S  0p xp sQ St.Qo 0p n7 m7 !% !% Q  9} 9} 9} 9} 9} c[ d[ 5g.UO.!o Wd./l .+ X] [/.zv 14 @[ .: N! {/ :j 1] '( th ,; D. h& E. E. @m c4.2< t~+Z`.S/ p< OK 9v+iw B.+0v+av+[*+]- !u h!+Mv g<.2#+=W.U*+2q c'+/%+bv+R1.HS.tV.>x.^! h$ '  cv+dv+j.+7y y@ 8h Jg =# I) 8h iB.ev+2;.~T Nc X@ ~b {* W# y+ @! h) R> fv++, Xn |] 7r 5r E' '!  ; (@ zb R/ !'+gv+c$ hv+6=+aK. %+Yi Pv 3s %$ '< i  )! _~ m_ F) d= iv++r+jv+kv+lv+.~+mv+nv+ov+pv+qv+W6+rv+`{+{{ [S.A} c4.`*.rn sv+tv+uv+vv+wv+xv+H- yv+zv+Av+Bv+Cv+Dv+Ev+Fv+Gv+Hv+Vo Iv+Jv+Kv+Lv+Mv+Nv+Ov+Pv+Qv+Rv+Sv+Tv+[d..u.%1 d&.d5 tR.Dr ~I /q+Uv+m] Vv+Ay Wv+|g+Xv+Yv+Zv+<q+<q+ :+j#+`v+w|.%@+21 x9 Ai Ai -, j= &> i& ;- d6 p+ j+ RV 4G fL <d.Z4 *l+)y. w+Kh.Mo [].-)+/2+mz Z( 3| *# +  x+ x+ -- *> s' |* t- t7 C+ t- w+ ;*..w+[v++w+Hn+@w+rn+KB Xc.,y.Ct cT 2- f8 M+ s7 H~ (% l8 m8 a8 i  1/ $N Ew o{.Cp z' D. D. D. g& ",
"t- ^e #8 sO q! =3 rc /Y.#w+$w+%w+&w+EW 9_ |z.Qo 0p n7 n7 !4 9} -- +  )' 95 oO v. D# %@.H=+$C.!n 1~ C@ *w+=w+-w+i; g* *| [> zf <> 1- He _* w+ g6 xp R  R  Y} !' }; (} r! :e yp yp o7 o7 >> Z  j- ,= 5) U$ |@ 5) G+ G+ 6  3) Zo Jo n: `Z.7@.aw 6@+Kb 7: Z- i; 'h L. 6^ k1 1] <} -i F{ E. E. E. E. :n s|.{f.6f.3`.m- ~( w%+IA ;w+r.+p.+>w+l.+CA #_ N%+R!+{o pq Up.C)+R=+/{.R=+]@+,w+$q.'w+rc |- }= Qx _.+[*+h# 74 )* O  HJ 'b 8~ 1& lA _L )w+%{ Aa n} I# 0~ j$ l$ {! -/ BN ef &) x@ g% 5+ ed `R 2l.w'++.+h>+58 >O `$ oa.!w+~w+{w+B|.1i.6=+^U Q, D# d, 3% n( q> C  1v /. d4.]w+^w+/w+4h+(w+(o qI _w+:w+<w+[w+}w+bc..0 5d.RK.cv.|w+1w+2w+3w+4w+5w+6w+wh 7w+8w+9w+0w+aw+bw+cw+dw+ew+3&+4o Op fw+gw+hw+iw+jw+kw+lw+mw+nw+ow+pw+I0.q_ N0 8`.Iv =h.qw+rw+[y xw _z `s gr j#+Q<+sw+Z*+>t tw+}x 2m+E[.1S.w& Ag+H+ )b Z7 V' &> `[ |c /= G. 5; k! 9& x~ '* j! 0L 0L *l+*l+52 uw+%U.6R cp !r mr |> 2+ L= w( 8u _* A/ B$ _* |1 l! i- +] [= e[ gW.vw+|y ww+v,.xw+}*+Lk.cz.tR.4- w1 12 .% }= I# ~, p+ !% >> c[ Re -_ 1E 5F s. Z$ J3+z> =T.wh .! ",
"B> 02 @Y m8 -> 7f.UO.pp )r.00+yw+zw+Aw+Z( d[ [+ c[ Y} Q  2~ +  #- *> Se q< q< Jo 7r }2 4X ^E.t!.S  ^5 Bw+Cw+by.|0 V= +# f} t^ M^ i} W  |, Wt v! Q% <~ @= I( f= .[ +  r! 79 Bf q! R  Z% Z  8^ U. 9; D~ U$ <= |@ 6, 6, N= 6  ~4 Zo wP./{ 8< .} p_ j( ]% ,8 Df k/ u5 sy.J! b] jf S' G{ G{ z> E. 3( ~>.nz Cp ] +,`. / 3| y# [- rr Dz ]>+st ty c}. C t_ =l+=l+IS.F0.&q Dw+r*+)b.~0.Ew+r*+jd.+p x. '5 2@ :& E>+Fw+4E ta M| 0. me v< I* l# `! Gw+S/+Hw+r +Es !Q $ .Z| &8 /M X* O/ {z I7 tt uy k{.&D M7 Hs 5% LC.[d.5| d/ #v D4.-g Iw+Y1 k%+ww #>.As 5$ o$ B% H% N| |] qd Vw Kr Jw+D>+Kw+Lw 1  Lw+}x.Mw+,n Nw+Ow+|l+x>+{t+Q% ,a Pw+Qw+Rw+Sw+Tw+Uw+Vw+Ww+19+Xw+Yw+Zw+`w+ x+.x++x+@x+#x+$x+ p Qp %x+&x+*x+=x+-x+;x+>x+,x+'x+)x+!x+~x+AS oL./y 9I.44 {x+]x+^x+ry Ev $+ }R /x+(x+_x+:x+ou Td.^r 8.+.+ %@+p< E} m( ]= e~ Ec L) E_ X7 r| $~ }@ 3% b) ,! '* a& VD 0L 0L L} <x+[x+}x+!f.Wp Dq pL.~D 0& B. N/ D% .2 I5 T  1y Af `@ 3% A% w; U, +../s NZ Nw  d.|x+T&+N4+LS.1x+qC SE N4 %I c/ e& 9& 1R >< f- +..<'.2| W| e{ XP bk R++FB i- ~' _~ ",
"z> S' K# >8 >8 X$ 8V.S4 0q.#j.2x+3x+R1.4x+io.E3 a- E3 37 37 z$ A$ [+ w+ Bo.=3 l- *@ ho./0+A!+~>.!m 4^ G{ D. D. ZP Z@ x4 aF p= s++]z L7 2) u3  { {% Z+ i  l( He q< n7 ;j.t> 79 M* 79 w$ g> Ee /] /] := +( {; 3~ B$ +  MA {9 %1 d2 C} Nt.9E [! '^ D/ N= <= r< J* 2j S' G{ E. E. E. D. i{ .- v- Po xU.|&.=j.{f.97 g' Y~ p; :[ TC s7.8e.5x+4r+6x+7x+(y f<.Mp dy (< !b.-0.Ic.8x+9x+0x+;0.93.4M.B_ q[ y[.|J./m.~c+x;+6' v] BN w> .8+DB M.+lQ &{ -* }# ax+bx+cx+e# ]- dx+%O ]o MB L, +{ ex+fx+gx+hx+#J A|.`+.Zp y|.f/ 5F qE c# t2.cw il.c&.d-.&! R;  > o+ f. ;' f. N  Q) ~, 0~ S@ L/ =* C& x  C~+)U ]E %# ed VD 0w Z/ p$ A/ 69 Fm.ix+jx+kx+lx+mx+nx+ox+35 X~ px+qx+rx+sx+tx+ux+vx+wx+$x+jx.=d E- xx+yx+zx+Ax+Bx+Cx+Dx+Ex+Fx+Gx+z`.Zo.k6 o: k)+RH.@_ X-+0E u) !] Y& H} C) Hx+w1+Ix+vu ^t b#  x 1$ q& 7~ Hh S; >j 0Z.Jx+EX.8j ~j uk r| A3 =/ /R.L7 h$ =* m) VD J} J} <' R1+pZ.pZ._* v, w!.ae.#3 At Kx+Lx+r-.I# I( ]% 2' D  yN P$ M| l$ |, O0 ]< vo.tV.oI.ER.Nc+,q+<c SY [E x|.m) ma c/ 3+ T/ /6 `( Dx q[ .u..P Qo j8 m2.`a s; _4 c6 a1 ",
"D. h& D- K# u* !>.1q H'.z} sm.Mx+JV.4x+~s.-x._: E3 _: OQ.~9 |! 3) ^^ xU.ho.8V.,*.xU.qt 3o M@.@m 4* h& D. G{ D. Y@+ # H5 7+ `! 4@ ~T >! M/ vr.2, 9d 8h V  R| He Y} 79 w* v* v* L* d8 D+ i& := a, X7 ^= h( ea |$ C} c2 Nt.Q}+n>+IX.>#+Pc IX.Q}+-*..D h  n! +& K> Uh E. E. E. E. E. e*.7f.:e o7 n7 zp |q UO.5~+tm..t f& rc  q ^s U'+i<.dR.>-+:c Hm `( H0.if+/k+`w.Nx+Ox+Px+Qx+Rx+Sx+d&+/)+nr .u.bB.Tx+S7.wE Ux+dV.Vx+%3 We Wx+(s )6+9  4@ L(+WD l^.OL.Xx+0{.RK Ot CA  B >H UA '1 &$+Yx+Zx+`x+ y+Ot+]} 4f.|P $! $x H++^B uy zw &J 2g.ly H; BA >V 0~ _% R> N  #< N  N< Z' kc }] -9 f} Z' d: Yh Ce f=.,E W8 Y5 V4 {% 99 p& .y+LY +y+@y+#y+$y+%y+&y+*y+|K  9+=y+-y+;y+>y+,y+'y+)y+!y+~y+^_+xP E- xx+{y+]y+^y+/y+(y+_y+:y+<y+[y+! +C`.;x.IS.IS.d' o; FO b#.u_ 6  x* 3, l_ TS.}y+|y+]r u= r, -$ t) m3 /# ~2 7) j1 Y*.1y+2y+U*.3y+uk k* D~ 2% E@ B  i$ a& -J m) F_+Y4 4y+48 &| 5y+)f.n1+6y+<s.-( 7y+8y+9y+Kx+BL dL dL }] @# A% 3% y. s+ <~ 8R ae.]l AN.Pk+0y+b4.>m+hn+ll 4& l' B, 9%./D cT 9< 4q.6R.>$.ra >< I:.%> z> D. on s; h{ r& M| ",
"4^ F. V- x' 4^ 4* qt ~4 [{ nF R}+B3  z.16 -x.Z} a' _: OQ.5D.|! |! }8 xU._S rw.ay+ay+zV.,*.a'+=s /m 4^ D. G{ D.  9 `; 0~ T| E& xa B# `$ 2, vr.1~ B( '< ,< *# l( _# 2~ ;j.w- w- .- ;j.k7 {; a, Qj Qj 8; [1 _: ][ lo.<C.GG.by+4F.by+hD cy+sm.D-+A} <{ 3, $= ~2 6b D- E. E. E. E. E. :n _S Qo I:.2{ $l.]`.dy+zo ey+p: Qk.{6 hD UT.'o ht.fy+x< gy+Z9+Zp+]_+hy+iy+V}.we.jy+ky+ly+my+ny+oy+:m.oz }q py+qy+ry+sy+ty+uy+1(.vy+B  /) +e B. c+ WJ @@.64 +$ ih wy+Fb.Lj =r.LT K/ X] g~ <E zF.2i.xy+yy+zy+Ay+&K <c %+.8v <  *; ]u B@+:I By+mW gc.zA +v B# E1 N  ## *4 eO r^ ## B0 F2 _% _% Z' 5( =] H< Ig _4 Yw wf F$ o$ b% q% 1c Y$+Cy+Dy+Ey+Fy+Gy+Hy+Iy+++.q1 nL Jy+)X Ky+Ly+My+Ny+Oy+Py+Qy+Ry+~~.#e #e Sy+Ty+Uy+Vy+Wy+_y+Xy+Yy+Zy+`y+@q Wd.o'+x9.51..+ 74 &8 2, !' X< {^ Z&  z+3m+.z+jy !x bz }) E) S$ u; 7) s) <i +z++z+@z+'e .b #z+a, {; r> E@ B  s. =* 0w SV ~M F_+;# Ye 4t f& ;q+$z+) +@q {s As +.+%z+p{ B# 1R Y/ ^S t-.'5 x. ~% i  l( ,< v. dp %p V#+V5.`y &x ll SY k) j. 0L hp 5' {< 3> _y._y.8b.d' |{ =3 5* %> Md ]X Se -| @  :> ",
"D> qh W- 6_ by.D. `a !4 }; e1 UO.zT.4s.hd.-x.{9 a' ~9 _: <-.G3 8- _: }8 4`.|! E3 }8 Xy (Y.%1 e1 n7 U: D- H- K# .- h_ H1 ja Y| Y= A# S| ,- xz XP J+ &3 1, -3 o+ N| s+ C$ (} Wt 95 (* B+ U$ X7 _] 5:  [ Q< n: *h.DT.qa+I*+.W.&z+9C.6F.*z+&h.Ok.MM.!`.{^ A@ o[ t& y' E. E. E. E. E. iJ 3q :x.I:.I:.|C./E.=z+-z+;z+)b.>z+it.-K.,z+'z+)z+!z+~z+![.{z+]z+^z+fR.]%+/z+Vo.(z+_z+:z+<z+[z+}z+^>+6N Ph+|z+1z+2z+3z+4z+5z+6z+=y.-_ #& `$ `$ |= /M B  p| >E Ds p{ 7z+8z+NP Ag+j3 ^z c1 >@ y~ $$ 5J #y t= 9z+0z+Rs bv Iz f+ D)+mA aU 3& AA Ao @: x|.-$.'! @' *] 5( ## M  ## M  ## _% O& E1 ={ v< L@ Rb RF -{ L^ m} _- [' u+ *j H% 46 az+bz+cz+dz+ez+fz+gz+hz+Si iz+jz+kz+lz+mz+nz+oz+pz+qz+rz+sz+tz+x/ #e uz+vz+wz+xz+yz+zz+Az+Bz+Cz+Dz+Ez+mQ l6 $q+v7 s7.W_ s2.fI m- }5 -_ @C Fz+_x v= Gz+Hz+Iz+WD m$ @. n= Ak b, WN.Z, Mh <i fg r) kl <^ J| k( +: ]+ s. ,_ #+ /P `g+i! VD %%.4D tV :E &0 F>+Lz sy fr kv kA 9% {5 =* M, b  p= c/ -| *# V  2, M/ Vb S/ Jz+@q dA j9 ZU.ir Yo+'H t, hI ]' T/ ZA e5.7q.bB.mF.,^ Jn pc 6* v- zv q' .= 9d A~ ,3 ",
"<B.<B.Kz+by.E. E. D. s; s' n7 v- `*.@m '`.a- {9 E3 ~9 Z3 <-.<-.hi <-.37 Z3 ({ hi |7 0C E3 1@ f] d, U8 x> yh U: St.[4 1= x~ 0& e{ .% d1 V  L+ YS gI &# -| _s #< 4j 6@ p$ He _R ;< 1- |@ U$ := /= := h( H'.!X.#j.%Z.Lz+Lz+Mz+Nz+&z+Oz+Pz+hD D-+3B.9q.gy.(  o[ t& 1* E. E. E. y> E. -s a'+-)+>*.VF.=[+Qz+Rz+Sz+Tz+Uz+Vz+Wz+Xz+Yz+Zz+`z+ A+.A++A+@A+yg.#A+ t+tw+;(.$A+%A+&A+*A+=A+-A+|z+dy 14 Ap 'b.;A+>A+,A+'A+)A+!A+q0.wK X_ {+ v] :4 v& H  v& f. p# A[ 'M ii+}< &*.&*.&9 [/ ,0 }/ f/ s7./E }F !v ~A+{A+]A+^A+oa.As X* {D y# &$ H.+74 FC.`w B  s7 rb 5( {) p# ## #< _% _% 4j g8 x4 I* O$ >% <* B0 L  [| =' ,9 u+ /A+(A+_A+:A+<A+[A+}A+|A+1A+2A+3A+4A+5A+6A+7A+8A+=y+9A+0A+aA+bA+cA+dA+(k+%> E. Sm 0j+eA+aj+fA+gA+hA+iA+jA+kA+lA+9w 8.+mA+E[.nA+7P.1F gp B&+t: CK ^3 O1 -h+oA+pA+Gz+8@+T>.k! f~ r< >; @. h} 6~ qA+-) l= qk sh p* f> r> ej >! wD >C @|+N3 54 Yq q. Vz.rA+sA+1a =y >+ kL qB 30 tA+6V x; ~5 9& 8O Gt -; s@ q+ U, {% ]! 4' 1~ [4 == la Et ]D +v R; b; T= 0& :' K0 N[ dA &@.i<.bo.uA+%j.Nq.C8 E- Bf p+ _> t. s. v1 f/ ",
"aA.Qz.vA+I> E. E. E. FB ;4 w6.on E. E. `*.a- ~9 {9 ~9 Z3 }! g=.SQ.<-._e+:{ TZ.({ 11 0C |! !( Y+ ): <, x+ d8 2*.1&.1R *8 {b 65 2$ R% s+ S= 2) U  w`.wA+Y% 9~ ^) A[ $# ), c~ H( <~ 1y +] <= a, ^= a; Q< 1{ z;+gM.xA+k~+yA+KP.WX.zA+AA+BA+CA+Pc {[ b2 8- 8, 6) X- 3{ 3( 3( y> :n E. -s /0+-C =[+aa+xD.DA+EA+FA+GA+HA+IA+Yu JA+KA+LA+MA+NA+OA+PA+QA+RA+SA+,s+TA+UA+VA+WA+XA+YA+ZA+`A+mL.n7 `6 =3  B+.B++B+@B+#B+$B+%B+mL.V  6@ M| '5 u+ {, #* 3% A0 |: ag nh jZ.Ak gV F( HU r] Hh h@ Y& |/ l_ kz II &B+B[.*B+Lj -. o)+d/ 5 +5 +_n AA l; Uw V0 i. a% J@ H< me rb @# #< #< M  t3 @' P/ Lx.6E =B+<* N  /, =' Y% ,{ X_ -B+W$+;B+>B+,B+'B+)B+!B+~B+{B+]B+^B+/B+(B+_B+:B+<B+[B+}B+|B+bA+1B+2B+3B+u6.Tm Tm E. E. E. 4B+5B+6B+7B+8B+9B+0B+/r 8D aB+bB+cB+*P.dA G) dB+IG BA ar eB+fB+gB+bz n@ hB+T>.l$ o! r< +& +& m3 **.a; a; &~ ^i L! J{ V. 2% ['.>! Y= z; |[ U&+YM ;x iB+M4 `M @C du fv EA av _=+P%+a#.`$ e, :# e, d. p# O& P. f@ X  m$ p> +* {% +* .7 08 i} ,  Q$+t-.!* }' w~ R% Z/ `] 34 3M.SC.#<+EZ.t_ Nq.=d z> M* p> f% X* 3y a{ C# ",
"b] fl jB+G{ E. E. E. Nf 5_ G- E. E. E. 5* }8 {9 ~9 _6 Z3 }! g=._L.Z3 :: %T.kB+,3.*V.lB+F3 b/ yq 5  ^  !4 Qo *@ t!.wK y# ;_ h$ L< U, _# <~ @  .= b +e= wv T* `b 7& #* G~ )! S# hc U8 +] ]= E_ a, D( G3 41 |e+mB+nB+oB+pB+qB+0C.TX.-O.bZ.uX.Mt.77 .D Wy {] 9; @k n3 3( 4* y> y> E. iJ gF.6f.'i+rB+sB+tB+uB+vB+wB+xB+yB+zB+Vu AB+BB+4h.CB+DB+EB+FB+4} GB+_s.HB+<|.IB+JB+KB+LB+MB+NB+(5+2~ g= Mr ^x.OB+PB+QB+RB+SB+TB+Up.@@ ^% m% Y  =/ I/ !: R$ N) 'j 'j t1 T~ fj Qe ;h  ! P* ^% a. 3% >  S= Z/ ,v UB+VB+WB+-r 0+ `8 O/ 6F SD kv  t Vw ns jv WF f% V# WS H< me g8 @# _% M  9~ t@ /$ qd LN x  P/ {e #3 4+ 5' hp d1 Wx+XB+YB+ZB+`B+%y+ C+.C++C+@C+ e #C+$C+%C+&C+*C+=C+-C+Ny+;C+>C+,C+'C+)C+nn E. E. E. E. E. g& 9* b9 !C+~C+(7 (d kL Js OD uB `v+5x+{C+dY J.+ey I; W` Fx ]C+-r+/x '$ kE nA d, }@ f~ 7) @. ]= D( {U.m! q) th q^ >) Y- 2% ['.]+ RV <E p8 >m+,m+C +,m+.x iz c= %C :x 7D )$ ]>+LL `X.K+ P= ** h% Y, $= `+ @- m( _~ -/ W  [e 6] W  X  .> X) l[ n_ x0 z( )! d, *# p; _< 8B.[j.Yi.%Z.^C+oq Nq.Wb E- U: += e% Q@ M>+tA+Gq ",
"0, L> |0 $6 =T.G- H-  9 m2.~j+E. E. E. 5* 4`.NQ.~9 _6 _6 g=.g=.SQ.G3 37 Z3 /C+Fl.}7 37 Dh *_+55 ]  g] S] 1) W[ '{ 3+ *8 x~ h$ v] U, H( i  2$ i$ EH *%.4y+V4 [e J0 9@ o{ U@ IJ P% V8 [= f~ -) ^= [1 <6 N0 )i+7C.!v.(C+_C+:C+QZ.&K.DT.-s.ko.7- )`.!^ f  >= $@ M* u* 3( !m :n :n E. M@.*s _8 [i+u~+<C+[C+}C+|C+1C+2C+3C+4C+5C+6C+7C+8C+9C+0C+aC+bC+cC+'m.dC+eC+fC+gC+hC+iC+jC+kC+/x.B%+8R %= 4< /)+lC+mC+nC+oC+pC+qC+%l.w, B> =4 .! +@ 8@ p& K' R* }& i~ +- X; ~2 [< 0d f~ [@ R# !: .@ g{ l{ |+ 6] Sb M+ 9d K6 1R B# {u 'r rC+wa ;* dr gD 3c 7( `../) WS %] rb ## #< 9~ ~, ~, CL r# }) _) 6F <- M, ^} g! sJ ~s+y4.'U sC+tC+uC+vC+wC+xC+yC+zC+AC+BC+CC+DC+EC+FC+&L GC+HC+IC+JC+KC+LC+MC+NC+OC+Sm Sm E. E- E. g& PC+QC+Y$+mO Jf q +C2.RC+,B KH v2.a*+&N -. [# 'v l0 -0 A= Us+P-+SC+nw 8 +wz S* J^ @& .] R$ -= 5) m! ,= }1 ]f ]f `[ Y- v~ Ph >! 6/ B;+5x TC+UC+VC+U=+z! hh E|.br O1 >@+^=+o; <[ {_ 0/ (  G+ t> v* z2 ;j.2~ `+ s+ S* 08 :> %[ ~* H% Q~ id ,/ M# +- R$ Y, A@ E$ `~ +..kv.mF.Yi.3q.UJ.>x.k6 Po 5* `o 48 I2 1v Jq $+ ^> ",
"j% 7, [; *> s' <5 q! 4_ ]b E- E. E. E. 3* }8 31 NG _6 _6 }! <-.Tj. S._e+*X.mO.%Z .S.7W *h  % 9& h$ Y= 2& '* i+ h! j! z; 2& 0^ Jg <& w] 1$ `$ {D D! Y= F_+tQ 1, Y% F$ i} s$  # h8 9C [@ #~ 0d ^= [1 .D )9 %Z.WC+XC+YC+ZC+ X.`C+1B. j.[! 6> F3 U< U< 6  S  ap C8 !m y> !m :n -s E. co {f.]< /)+ D+.D++D+@D+#D+$D+%D+&D+*D+=D+f6.-D+;D+>D+,D+'D+)D+!D+~D+{D+aS.]D+^D+JA+/D+2$+vo Vy Cx B_ w( X[ kv.(D+_D+:D+<D+[D+}D++=.V: K# D. g& 7, a. h{ Y, I% =/ 0f ga r% b, 9) ]= <= i& *~ m& b. 7, k% 3; C_ r+ <~ x* .[ `: ^S Gs Y* LI Cv 7# 8.+Aw |D+|r [x.~5 L[ 1D+e% k0 B  L7 _> ]+ a{ ($ w9 XY KI 2D+/' U .yr XD i5.{-+'H {D _i+~x.3D+4D+5D+6D+7D+8D+O +|g R#+9D+j[ hJ 0D+XS aD+bD+cD+dD+eD+fD+gD+hD+Uu+E. E. E. z> sO `S ^* U8 '# Q; #y bE OD t2.%N iD+Zg+qE qE K= XY |# 5y qL Ro+~r Hs ^B VJ s+ #@ j% .{ W, 3; 5) J| J| }1 W5 W5 oc Y- v~ Qh a{ 6/ :D jD+$w @b+kD+lD+xC $%+4g.%N l:.bz.mD+We+|X.-6 @V.fa 4; !>.4* /m Y_ Y7 7: K^ &* n{ I5 }' E1 ## @l hl p1 (F N# U; /  !^ f- y_ t_ V5.bo.nD+_g.UJ.!9 k6 _%.,U 0p V  ;_ w& gv x& &$ ",
":+ `^ )[ m: wP.|; Mr =3 4,.Sq x/ P4 E- ho.c[ NQ._6 [6 |6 =5.ro.xP.y ._{ G3 U< i) C( 7~ X_ b; Y| *8 {D ++ _y h+ _y RV g$ T= 2& f/ @] 8~ {e '! Y| lE oD+m' 22 [4 ,- |) D@ n  89 V8 )0 v} M. 0d qA+#T.Ht. j.IZ.j~+:w pD+qD+rD+mB+<g.%x.S4 >*.go.s> M* Bf Wo Sq 0o Um -s ~m :n :n E. )n =j.o!+GH c6+sD+tD+uD+vD+wD+xD+yD+zD+AD+BD+CD+DD+ED+FD+GD+HD+ID+JD+KD+LD+MD+ND+FU.Yi.OD+NN Ym 8_ d-  q d' PD+do.$H.QD+}Y.@Q.ba+c2 m7 {# g& Md @- *' ;~ _~ H% N  @# :@ yN &9 )] U; #. }@ J^ y+ a. Z; `; [& X  _~ S* .' ;( v] 'U m4 ,$ <x )v 3# A(.k%+RD+SD+2/ U0 fd 3r Os.&$ 5s.k> _' Wz T`.3& xA TD+UD+'v rw '& F; VD+WD+4r+4G cT w3 XD+YD+ZD+`D+ E+.E++E+@E+S*.OT #E+$E+B0 b~ %E+&E+*E+=E+-E+;E+>E+,E+'E+)E+Hi+Yi+#e 7* r$ *' X  {! p7 !E+=& Uv ;+ ~E+{E+^t+.+ /- +C jA -* l; 2t ns A# x~ {D u] T* hc 8^ ,= ea Q< 4; 5) 5) 3~ f> X5 ]f Z7 C+ r& [J {D m> B) pL ]E+^E+^!+/E+|( SB I= ,H e|.{q Dx jX =6 G| kf O| 3) K< ); t> !% 4; ]% `+ s+ }> =' N& *7 rb Ig (E+_E+o1 M# U; |8 um.Jb [8 ~z ]6 !y UT.<g.#h.!9 u3 St.85  ( |~ i+ t, w: :E+_' ",
"EJ.67 5> ^t.B} c2 >`.I:.3q 3q xU.Po ho.rw.|$ NQ.b2 Ht.R4 Jt.`Z.3! b- b- :+ 9/ ^  ** i  g] s. }[ %u ^D 8v Yo+FC.FC.wD RV s. R& ;@ Fz ui Fz |2 >V {5 Uw [C -J ,# 6] +| O  f@ V, != L' $~ `{ r| -) #T.#1 UJ.li.<E+i2+pD+YC+aC [E+^C+eo.S4 +` 4* ^m ]b ]b Vm 7o E. E. y> P4 y> P4 E. z' Ro kr Zo.]E.|e+0C.}E+|E+1E+xO.2E+6M.3E+3$+4E+5E+6E+7E+8E+9E+u~+q0.0E+aE+bE+lu [8 l_ <$ 5| -3 c1 wD <J aT.cE+mP.W^+.[.)..dE+j)+la !e )' B/ mO K  )! K  l$ P$ ;d n)+I@ <@ 'b 2% b_  @ l{ m# D_ n( y. #* {* A0 r& $# m_ b% v] k' Iq 6% 9v (r :z H6.Ks aA eE+1a D;+[- %$ (' Zs e7 qB 4& e! b{ e! I& oa.#v yA @$+fr+o. fE+gE+RY <$ ^! NC L`.hE+iE+jE+kE+lE+mE+nE+I7 9F oE+pE+qE+}4 rE+sE+tE+uE+vE+wE+xE+yE+zE+AE+'j+ck ck L* #= c} H  k$ m+ BE+_x zr 8$+:E+v|.]E.j> 1~ !] !] ]! `] q[ I0.ae.Ro ae.&# Dq B- F.  4 CE+&T.Gb $V.Q< 5) }1 X5 N- V' C+ qw.[J Wz ^' 5@.DE+EE+FE+GE+8t+rL Hz J; }R *h.p: W9 [$ {^ fa w0  [ z$ Y} @/ e  O. j% K^ C@ l$ k$ m$ F  Pb HE+:| IE+JE+iV p1 i% Z} _7 Zh.'w+!X.KE+#j.>o.VT.jv.gW.*.+xp 4q UO.m- le }b l6 @t+`y ",
"LE+(1 b+.>#+n>+{[ d2 Bp zp :x.Bo.zp rw.Bo.c[ <: _6 6> @1 28 G: vm.67 vm.c' !] [e [e U  {M n' %r Uk.ME+qC $u $u .N q. n' i+ Sb na Zk ], yq fd @@.NE+kO OE+p' 4% X_ ~b v~ n, J^ 0= o! $~ +. -) qA+Yf.R4 UJ.Yi.oB+PE+XC+QE+aC &K.DT.V9 41 1q &@ wh -4 ~j+#e rn y> y> E. #e y> E- E. bm ~p dp 8`.8`.nF `i.&`.9C.1B.ly.j> A_ Kw.RE+SE+TE+UE+VE+WE+tS.I( 3: Z& $! Z/ 2, !] 2$ S| ,3 4% Ph  t |m+Jw+VS.oE 4m+XE+6h gO >C q' Xs wf 2' .7 )# .7 :P &* P$ n)+w++Y{ hg A0 1% .@ y+ m& N. h* S~ h; $^ |& A0 |& 1% n% s] $# L7 w9 +$ 7s M8.,B cE cE ~C /B G,+v2.Vw gv *0 `F fy {& er C, 8v e! @u gv 5& r;+@x YE+Wv )t 4#  C <$ I4 ZE+ZE+`E+ F+.F++F+@F+#F+$F+k^ v0 %F+&F+*F+`b =F+-F+;F+>F+,F+'F+)F+!F+~F+{F+]F+^F+A' g6 y+ B% 6@ k} i$ L=./F+`l+N1 (F+^9 {o pt }2 Wy }X.Wy 5d.wo !r *@ !>.qt 3q +` g& D. 3( D. :n z2 5D.e  5, 9, X5 I{ Z7 Z- O  [J t. g! z<+_F+:F+<F+[F+Vd+}F+3v -$./s WC.IS.77 `^ 2: 'W.[w qx |1 A$ c, /  m{ :* /; {* {, #* $* %* M% +M |F+1F+2F+r} p1 @@ 3s.3F+UA.FG.}i.:8 ~y @o.HS.KE+Nt.by =3 .- I:.}q (E kv.|| NN U'+",
"4F+5F+6F+Pc [I.Q}+|z.tm.b' aC.zp rx 7f.t> [+ [+ -x.-x.B3 7F+%x.L0 &l.,^ &s t[ -_ 5+ 1R ;! *l+8F+%0 9F+h! g$ g$ m' 0L 22 :  Bc L+ 9/ K^ Z+ CL Q@ O4 oD+[C e6 s@ {+ v~ *' !: J^ <= v} [@ k/ ^= K5 Yf.#1 ^C+IZ.j~+pF 0F+(C+aC &K.DT.eo.gW._%.7f.14 i8 6* E. E. E. E. E. E. E. E. E. 1o ~p dp Kn 3< _8 Jb .j.oS.nF |{ w( u, px aF+bF+cF+PB+dF+y#.[+ A+ s@ ;@ sn Y/ g] {% e, M+ %[ U  R& c}.wr G].R8.`:+Br zr IQ.n{.hI 3' n{ L^ U@ L  V@  # *A 89 63 5( %] %] E-.=/ 99 f{ T$ +[ )= #6 ,e n, 2% |& z0 8} z( r> jg C% vi kA v +eF+kL @y fF+Gx %2+gF+XD hF+<m+]} iF+`v .w [. ,n &x $Q.8v 8v 8v Uw RB ,y jF+(H .w W` d! 12 (, a~ !* H0 kF+lF+mF+nF+oF+pF+m; v0 &F+qF+rF+0. sF+tF+uF+vF+wF+xF+yF+zF+yE+AF+BF+xP C' I:.a/ a) rf ,{ 0^  t WR.CF+DF+mD+^{ Of tm._[ g  X< h  W& J1 Jn =- w- qt 2&.,U 5* h& 4* E. E. PL 4; 7; ;= 9, W5 I{ J{ )b v~ VM a{ ^' 1x+Vr.<w+EF+l&+c$+oE *Y :' 8_ nF cu W9 7- ({ 4`.rx .v C1 {] H+ B@ h) x. y. r& 63 %^ @+.K% FF+GF+HF+m .IF+r} M# x* JF+KF+0%.N++Zb.rd Zh.iv.:8 p: c2 Z} =3 s> xp UO.d5 9I.8U.#<+|P ",
"LF+eF.t2 *h.!o MF+D3 tm.4`.d[ 2{ rw.2*.o3 M6 ^^ $l.tS.5~+7F+4> `( wM.8B.!U 4| L/ I} D# nr+@r <].@r NF+#+  m+0L &( P).^! O0  { 5d.Zo [; %_ R% F) W| [9 F_+I} -3 t] 3% L% R= o, 0= v} [@ +. 8; #/ F3 Mt.^C+OF+-}+<E+WC+WC+7C.PF+^C+ZX.gW.:x.k7 s' tp qd+E. E. E. E. E. E. E. #e E. b`.)r zl Kn lr _8 }{ &e $h._8  { }, AS vo QF+zB+RF+SF+TF+<B 5) <0 {+ -@ p_ g/ !( 6] .2 k0 .% h~ '* mw xr 6M WR.Kr WS.Oo+5T.YM yb.^d.]/ G   6 g) j, k$ zf zf k$ t^ eO 4j Av .' k% 5; 6, h= V5 i7 WY h) c} +# ag d_ b} oh R> !< z  h4 *y UF+e# $y !H L#+g9.C=.v6+ G ]R.iv+w1+c&.3q+^x+Fw+yl hr 7v pC FC.2( l; 3c dw fy <x E= 5F H'+GQ VF+VF+WF+XF+YF+ZF+`F+ G+.G+F>+Mf T$++G+@G+<* #G+$G+%G+&G+*G+=G+-G+;G+>G+,G+Ry+^k+y'+|&.&_ 4{+X/ }~ o'  t %A.I#+Y..v7 d' Nt.C} #! |+ g- x* ;< `~ B_ Zo Bo.4q 1q 2&.4* E. E. E. 3( ^s.,= +] +[ -H .1 <B.M! 15 W# +: C# g$ ]3 Q3 J)+'G+)G+=q+ls+YA |~ 3a H} Xx NK.'[ X9 F3 [+ [+ |! 8- I+ r+ d, s+ m_ q> t' %* @+.K% mL GF+!G+IF+D[ S: J  _8 9Q.~G+4I.{G+]G+^G+PW.Zh.(9 d6+o: 21 R  yp S   ( Tp Ft. u.bB.7b.",
"eF.e` ]g.gW.*s ;`.|z.|z.io.}8 JW. T Gb QG.QG.K< _S _%.mX.B} ~E.L0 ,^ MP q_ #Q.[[ {M UD  w+/G+V&+(G+kz.i! i! VD B, u) la  { W& wP.<6 @/ X< V& W[ Vb D`._G+j@ [e Z+ g@ a. n= o! 0= )% )% [@  [ #T.|! B} [g.:G+Yi.-}+<G+<G+2E+&K.|e+[G+^t.g2 }+ 2~ 75 ]b E. E. E. E. E. y> E. E. E. 0o s`.pL.n) zv Jn h9 <7 Ok.nF |{ `~ V5.}G+|G+1G+2G+3G+4G+5G+{] J% P. yq 9y +M.w_ $( u1 -; B. 2@  = ]^+H;+3^. @.=8+,n Kr  @.YM C! 22 7F j$ 0~ a5 |] F$ sf.J( )# O& ]) *7 M+ v] p+ i  {! I( H( &| zP E) *j (@+6G+z0 z0 @l JY.7G+8G+9G+8y+4  0G+aG+G6.FQ.~F.bG+oG.jH CD }%.zr %A.`U.mu hr Fw WD Jq %u sa d/ 8F e+ `* ln+DA =. >0 cG+xd.dG+eG+fG+gG+hG+iG+jG+kG+lG+mG+0F nG+oG+pG+)U qG+rG+sG+tG+uG+vG+wG+xG+yG+zG+C!+T*+=W.5~+V] AG+pf |/ 16+7v BG+R;.c<.fW.c- k6 NQ.}; 6  N= N= g  [{ `~ ~4 hd.}V..=.CG+)~+.4 3* !m p%.o=+:W B+ t& ^e .1 +x.U' i6 N% #b 0& !_ yd.DG+2S.-{.KG.$E./)+d2 m: ./ |X.NK. | '[ Ib X< ({ _{ f[ +1 g  8/ Y& 9^ 08 S* )! .7 I  !# pb KH.<| <| Y  [& S] hG.EG+FG+GG+HG+]G+E[+E[+^G+(9 ][ NQ.q< q$ V~ q$  ( _8 FD. _ 7q.n^+",
"{w.PD+Nr 2`.4X n[.;`.>`.It.-x.It.IW.}+ 4; [w J7 7f.xU.'V Of IX.gW.Nt.k)+{f.O0 .* ^d.( +Bw.o| IG+JG+KG+f$ T`._y ++ ta YA `~  { Jn =@ [, g' p[ 7C A_ _ +22 F) 9d 6] C@ P= U; J^ != }@ +] 7; Q< g=.~9 R}+'w+hD M}+LG+MG+LG+0E+M}+NG+OG+B} Z} z$ >= ;4  9 ck Nn }].)p ]X )/+y> E. E. Um No PG+bp v!.|q =j.^t./9 !s.c' lz KN.}l.QG+RG+SG+TG+c$.UG+G+ 8@ t+ /, m  <& C@ z@ Y+ )) 43 &. .^ Fw+VG+WG+WG+sy ,n gr *K yl .x 8v *8 A# {0 {0 D% f; ;/ '# 7| l# >$+>$+O@ Xw f, Sb f8 I0 |' L9 t3 ;; ;&.r^ A0 K% H. 9= /: De XG+YG+<s 'w.+C iz ur !t ;r+d3+]w+#A+)J Fv er Xz |C sy Ew d7 c$ vv y# 0^ k' +e 9++/d L; K; $$ w%+X'.ZG+`G+Kx+X6. H+.H++H+@H+#H+$H+%H+K$ T$+oG+&H+cJ *H+=H+-H+;H+>H+,H+'H+)H+!H+~H+_{.bv.IS.tm.'[ G@+t;+d1 .* }| n=+3T.[S.Nr N0 o: C} =@ :5 C$ D$ <~ f-  / 4< %1 ;`.p: ;`.;`.;5 |z.E3 L=+C1 Yb f> U. @[ 1;.w-.H{ {H+%^ ~, '* >C TS.]H+^H+cj.%b.ii.HS.3`.n: w( %e X9 Ib 7- 7- f[ ({ 8- ~4 e1 [: 1@ 8h R% }e 08 k} IJ 2G ]/ IJ l} &* S* 08 ,{ q[ <m./H+(H+_H+1I.]G+:H+CA+<H+B} C} by +  l7 l7 Se *.+(E 7O -v vO A~.",
"-*.9E 67 a> 67 9E ;`.C3 UX 7x [H+)X.^d+5D.L6 !b v* Gb *5 WV 'V oX.!F !F 'p Jn [4 4R }H+fL &0 |H+&0 A2+3& U0 `w t. T= |/ ;N ;N _[ g  7: I+ w( Re {t+`R 2& L7  % X_ ** P  i) 3; >= 5, @/ 3) _: OQ.It.Yx.1H+2H+3H+/E.A;+UA.4H+Zb.E[+zZ >#+-x.4; >= => y' g& dv.cf G~ n% cf `a E. E. E. E. y> E. y> P4 Pp #l.|h.Q}+18 .0 vo 5H+RB+6H+7H+8H+9H+{d+2~ l% S* 9^ $# J+ ]% ]% |) ~>+,~ 4@ I8.hr 0H+>* ir k) $I Y0 aH+7=+0u n; 6v =8 bH+8$ 8$ '! Sb M+ i. `! cH+)w+k,.y  6V >! 1= 2= Oc B{+@, ^, {* z( m% U. og xc M> V2 R# W' /% ]; {' jr $Y dH+kB ]w+eH+#A+)J Cr e$ SE SE r= 9s *. t5  ^ `$ g] e@ }= _> _5 %$ 9s `A b%+3N Gs fH+gH+v@ hH+iH+jH+kH+lH+mH+nH+0F oH+pH+qH+rH+sH+tH+uH+vH+wH+xH+yH+zH+]++>@ e2 Gt.D3 -x.oO.AH+BH+.M.H| /{ *h.lo.!X.B} 31 6> |! '0 C$ @! @@ K^ _  Re 4< ][ p: !X.>#+;s.CH+c' 47 2: b' *- Yb 9, V' fl @8 O6 j6 W# k0 2& n8 o#+Jw.DH+EH+bg.d&+KN.cB..t j> |{ W9 )[ ro.5! ro.8- E3 97 nz <: ~] +M.Y/ .= ,- ,- ,- q' '< ob ob :  g} 3a W/ wM.nS.i!+FH+GH+1I.HH+:H+cy+D-+{[ 6> by +  (* g= _* !r _8 8B.n=+IH+JH+",
"pt o: T] 'k.ra `Z.R}+C3 7x GT.C;.KH+)X.:{ x2 Y_ Y_ t>  v =5 Ug+&s.xT bY.l- zv 1~ [d.LH+kz.MH+aH+TJ RB x|.V0 Gq 8O p< |~ ;N X< =@ g  K^ J) E$ [~ *= 5+ C# C& /M j( G_ J) K^ Wy 3) v( Wy <6 {9 D3 Of 16 FH ey+JF+_7 IV.OC.bI.Zb.NH+8C.$1 a' $V.5) V. =i J- >a V, (: |& ^* >8 E. E. E. E. E. E. E. E. Po tS.+u.3`.[{ a> *8.OH+PH+QH+RH+SH+@F.IW.B+ V, C@ ,> p+ @= 8: .[ f] 9~ (- f, ~0 l' hr g+ O +mE TH+s= 98 /x a# 4y sy qs -7 g% b& 65 i+ Sb s| 3@ UH+1z QP X* -8 k' c) Y8 h>+Ho 0@ &* m, O) g{ C+ 6{ A> i6 C+ i- t& != 5; w. h] st ^( H, !F.Zr+ie  K _x 6v ua V0 2l.*; Mj  ; h{.a~ 08 )# o{ e, 9J 6@+%$ na.na.*. ~u w'+_; V]+VH+WH+XH+YH+ZH+`H+ I+.I++I+@I+#I+$I+%I+&I+*I+=I+-I+v# ;I+>I+,I+1& NQ.Wy <-.:{ 'I+)I+!I+-[+0{ ~^ -*.Nt.R}+S4 6> wP.|; 8R %= 89 if G( S= &= =@ ;`.[I._5+Tb+%c (9.MM.!`.yZ C1 i> x$ I1 M! H=.:%.)h $- U= ]+ 2& $q+9a+~I+;{.{I+]I+^I+Va+_y.Ex ,^ Cx W9 0' um.5! <{ 5d.tm.tS.+u.%1 {' wY <4 2- 3| wK ob :  8< ;$.Gm ;$.X: X: N[ `( 7q.py+/I+(I+_I+N}+:I+`C %c Nt.by Zo )' bf d6 P2 Wp ,a  q v|.0o.Q1.",
"*s k6 $j.M0 +0 2`.Q}+/p.<I+GT.[I+}I+|I+1C.YE z4 Y_ ); &T.&5 1I+&s.&s.2I+rw.h  !] M/ '{ *C dr |H+lF  x 2v V0 Gq KS.p_ Z/ }{ m: )[ jo.SY.`^ '^ j> Cx bs G) Wz ~( =_ Xx  / )[ k6 n[.S4 41 4X 3I+:7 )o :7 e2 Q}+Q}+IX.Q}+IX.2T 4I+5I+:I+BU.)X.37 5) Z7 mi R' M- A3 Y; W* S$ 1* E. E. E. E. E. E. E. 3( Bo.Z} zT.tS.g' Xx 8U.6I+7I+8I+FH+9I+FV.]g K> ,) ]; ** S* ;( += p+ s@ C  Y+ [' 0^ {5 A2+:, _P 0I+3 +*; zA qL FK iF+o< %+.<; -$.U0 =$ d{ i+ Z| y-.5@+Qx SD -8 Z| `w y# '* 0+ &{ ;3 48 q+ g@ h) >> Y_ D+ )= +] [= )0 f{ h- zv |~ <  Iw Hr 15.4/ 8=+9.+c= _P C& C& i. h>+Px 2.+$& :# m_ U= z( n$ 55 8O H& b%+hc.Vd Dv N[.O%+]u aI+bI+cI+dI+eI+fI+gI+hI+iI+jI+kI+lI+mI+nI+oI+pI+qI+;0 rI+sI+tI+)7 uI+L=+}7 vI+v_ Di+)I+0y c. !^ .D c2 ][ ![ 77 77 <6 #! Ke :* G( Xs 4' 4' j> Nt.Pc D-+}i..`.y..=`.CH+}! Xy *- |* V. >) /#+I=.@c $- {* p| w1 iA l:.wI+xI+9i.yI+'{.^y.9V.(y $j.X[ .t um.1{ )[ $5 77 ;`._j.pq o: e- d1 8h I) g} .| &h g} `] ;$.'k.jX a(+W/ <P g8.<m.zI+AI+BI+CI+FG.`C hv.d6+n[.Jo Se l7 l7 !f.!f.bk aO.>< 2| r!.nI.",
"Jb 3! a> ,^ qM.Mt.JV./p.DI+EI+[I+{d+io.7> ); i{ ~; V: !b &5 1I+lB+lB+0- rx F3 f- f- Cx 4w '_ c{ z; W_ u. .I .} .} t[ y_ k6 um.#1 9E 41 <{ 41 nF Mk.51.kz /X +} UM %h.0q.^t.iv.o{+-`.RZ.mL. F.>o.oS cB.KE+(9 iv.Qk.ly.ly..`.4I+2T <H+EV.FI+ S.ea Z7  . 'm D> n& /% x[ o[ z4 E- E. E- E. E. E. E. z' Y} x* e[ `} 8/ @   q 03.GI+HI+gW.B+ (= =j wG p( a. /; F$ .2 [J x; f% +3 L7 l+ x~ UJ NE+;8 II+rh JI+nA hz ). v= r~ xf+,z gr hr Y0 4& gv r= 2 ++C '4 W +-* {5 {5 hv <; =$ U0 #a b5 F# j$ ,% g; r! q! G+  @ J  Z# [= R# +] He S] 1/ t# u2.]} {x+u2.fn SE Z| |2 s| e% T| () O@ y  9& /, D@ n/ Nb )# M+ c%+s9.KI+,@ 6y dM Hq && LI+MI+NI+OI+PI+QI+RI+SI+TI+UI+VI+WI+XI+YI+ZI+`I+ J+.J++J+@J+#J+zh &T.z4 eG.$J+%J+&J++*.:< =9 yZ 6> -*.@1 #1 )[ W9 +1 8R Ke ), }> .e A~ 22 d- vm.eo..X.6F+^9 Hn. D !s.b2 9- Lk C+ V. qh *J+=J+:%.@[ q> &8 ta ZA f5 -J+;J+4k.>J+9i.cj.n^+^{ 2! %e /{ .t 0' 18 `Z.Jt.Qk.!z aJ..0 .0 f1 ]^ |- W& 5! .t W9 Jb Y9 Y9 9' z} [8 8`.Mk.tV.aE+#{.,J+zY.oS *h.^y d5 ]l v! u! t9.'J+'J+zf sf. c gI j} D/ X[ ",
"Q0 3X.Kd.&e iv.)J+WQ.VQ.!J+*r.*r.~J+E+.A2 Fb z> z> u* %@ {J+]J+^J+/J+/J+&T.JW.%1 %1 n[.rc 51.`] ra _+ ~] ./ Y~ [$ W9 wo >`.31 B3 ;`.tm.D3 Of !o ^E.]E.yW.UM zm.OG+rd rd 2T /E.dB.]0. B+' +0I.PF+6q.aJ.z;+-`.WC.`Z.=z.H: %h.bI.3H+Mx+EI+(J+_J+i(  ] mi 'm <B.$~ (2 c_ l& `% 3( E- %> E. y> E. E. 5* B$ `^ SY.;N p, }/ ]! y_ (E }2 .9 :J+<J+`++)/ i* J  J  X_ UB mA.F& F& /- WJ 2l.2l.jv  2 `8 Aa U* [J+~0 Vw 3# b*+}J+qW G/.Xr+rL u^.tr 3c {- lF hv Gq J +-8  = 4 +Jq <; 65 }[ mc {0 ~) v< -a 7= => &- |@ 7  S# p& 8^ 8^ 8^ Z  N= 2) 8< %>.%>.u) u) i{.2- j  CL CL M& L7 9& y@ |= M+ ): '5 (% `2 0= ^  F6.$x Nx IQ }/.|J+Y'.v4 1J+2J+3J+4J+5J+6J+7J+8J+9J+0J+aJ+bJ+cJ+dJ+eJ+fJ+gJ+hJ+iJ+jJ+kJ+<w 4^ z> 3( 4{ lJ+mJ+:{ Yf.ea Yf.<6 -*.;#+77 7- )[ |; #! =#.cO nJ+N(+-J =( ;$.7J.L0 )s.BX.[g.D-+Pc Q}+D3 b' L6 h' 15 *, oJ+pJ+Rz.|0 y. 9J i{.}h.-8.mi.Be.)e+mT.tG `7.Mm.hG.lz X[ /{ Jt.&e qM.qM.)9 p#+^i.qJ+rJ+ZX.`i.~[ wo d2 ][ R}+{[ nX.)V.^G+Pc rd p: p: :8 X3.sJ+s~.[{.^%.tV.F0.1< :#+6p PG aO.YF ZE tJ+%# F$ '5 s+ 1- 8: g  ",
"uJ+T} L0 ~z :7 2H+WQ.JF+<n.UG+!J+vJ+E+.8> Fb 4^ h& 1*  4 wJ+^J+!W.xJ+ v /^ JW.Z} %1 C} `Z.W/ t[ 4: 4: /b ,> &_ Y~ `^ 1{ C} b2 ;`.D3 |z.D3 |z.tm.!o rE =f.*x.[G+yJ+Zh.rd Zh.5!+zJ+AJ+G|+:y./0.!b.e5.3> Ft.gd.Gt.e' <[ E/ =f.bI.BJ+E-+GT.#4 _e+h( &> wc 'm I{ =~ :_ H^ L. }0 3( y> P4 3( P4 E. E. &@ [; 9/ 7- `~ `: K+ S= rc h9 zv <b [%.CJ+Rj m1 99 J  .' <2 [J 2++F& Jx F& As H& P, 2( U5+@a Aa =a c5 ;!+#u Eb.DJ+EJ+1I P$+Gf.Ir eC.3q+=0 yb ., `w h$ f8 C& [- As XJ b& df -7 G1 a% t  '~ <* X^ |0 =4 h= .@ [& h- Y- F+ t- Y7 |@ K^ +/ |- Y~ $_ w_ }/ Y& u1 >h s| B  Bq R& |= 9& Sb o  -/ l% t& H{ p& `: T= NJ !Q FJ+GJ+ys HJ+IJ+JJ+KJ+LJ+MJ+NJ+OJ+PJ+QJ+%C+RJ+SJ+TJ+UJ+VJ+WJ+XJ+YJ+ZJ+`J+ K+$~ z> z> D. F. WX [j mO.@/ Q< hi <6 -*..D CH+Ib |{ vA }, 7] f) k+ .K+_y RV <$ e' V}  0 Tz.+K+Zh.rd [I.|z.b' 9- w$ |0 #c p4.@K+og }0 n{ f/ 4- }h.SO.!Z.#K+$K+^Q.%K+'F.Qg.>q Cx Cx 18 2`.Y9 =f. j.UJ.2M.&K+*K+HF ^C++K+(9 (9 Q}+B} _W.lo.`C zZ <H+'w+IX.WC.IS./%.uQ 0y+yg+m[.m[.=K+P[ Ut.F`.-K+6p PG tJ+;K+>K+zP ~b +# *' H4 '0 U< ",
",K+QH.&l.rE 'K+)K+=A IV.Cy [I+Cy vJ+F+.JW.z4 F. j{ W$ z4 I| I| !W.eG.eG.i> b' 1C.<6 .D '^ .| B( w_ 9^ K+ _#+G_ H/ R] xP.<6 b2 D3 B3 a' NG D3 D3 Q}+ D eo.BX.-s.Kt.}i.}i.^G+!K+Bd.hF.-o.#<+>0.zz.dR.0o.%s j9+Gt.Z( }5 `] ~z !K+YG.nX.:b+|I+/d+$V.ec Xb '; D> T$ g@ =/ [= gg P4 Vm z' y> E. E. E. 3* B$ 47 7- 5! `^ +/  { Zo.q_ ;< h8 #[ <%.Mi+M. 8@ ]; ~% =  e5+P@ C%+Px b  Dz ~K+P, 2 +{K+z3 Aa H~ F1 c5 z3 Fw .F ]K+0G x) 4/ &K z= 8# FK Cv %$ ]+  > C  B  A  4@ 'U ~0 .6 ja e% t  K@ jc )~ L% s; ^m Z  P  ~% 7, h' x, oc m! i% m( 0) ** ** E) X( X( k! e, ej _> B  ]+ 8y k' ]+ R& ]  -( C_ 5; != J  f] /} w& hc. J ^K+dM Q; Dv -r *r /K+(K+_K+:K+<K+g` [K+}K+|K+1K+2K+3K+4K+5K+V# 6K+7K+Bi+Z- D. D. E. h& )U.PQ.Yf.@/ 3) 8- <: b2 ![ 8K+57 jo.-*.O0 `& 2^ j9 ^3 p!+m> E/ .0 G: ZX.BA+UT.5F.&h.%c Of JW.5q q! -> u} r2.r2.=4 ~; r+ j) C) }h.IE `c.gg.!o.9K+[2+ra.)y ~6 6d Cx `Z.z} %h. j.<C.<C.0K+{h Zp+fK.M}+PW.aK+3I+[I.M*+_W.,#+>#+bK+<H+>#+R}+{f.*s ^E.X3.R~.cK+dK+(;+eK+=K+, +Ut.F`.rf.fK+gK+hK+iK+9p 9@ E  X  [> 7; j% ",
"Q0 yD.UM [g.'w+}i.^G+<H+jK+_W.B3 D3 H'.7: g= )b x$ h' }1 m! XX uI+)U.[+ A$ Wy |! <: n: ;N |- S= m{ /  +@ H+ [, g  }X.<6 Z} 97 16 16 87 g2 87 ~s. z.!X.wm. D /9 D-+n>+nX.aK+Tb+ai+]@+j2+SC.%s.kK+P1.U` !&.;x.=j.J1 `~  { OY xo Jb 18 @1 OQ.wX.|$ a! i= FB a2 m, tf v& .' _* q$ Jo (} 4q y> y> y> .4 Se d  '^ .t .t wP.nr R[ ]' }~ wf `2 R&.$[ `2 Q# h) `+ >  1$ Y+ Io $> Qh /$ k' hv Tn.lK+rh {0 I2 M7+G1 g% ns mw 5M Xr+mK+nK+oK+aG Us+(N XC. x >! l+ f8 0~ L7 '! i$ =7 D! lc !, N^ ~) v< me U4 P2 r! 1- d, D) l( ;= 9, V$ *~ v; .] g{ y+ y+ O) E) Pj /; {+ ~5 A, *  <; ($ l' Jq R; {D /i+5| ;( m_ f. 9~ C& Gq 1E +v mn 76 Wn xA B@+U{+a +pK+qK+rK+sK+g` tK+uK+vK+wK+xK+yK+zK+AK+m$ <`.M] D_ 8* 3( D. E. z> `3 hi `} `} `} @/ e1 C} c2 @1 CH+CH+~[ ly.2> aT.BK+N` &2+2s+v|.,^ qM.%x.pg X}.LZ.{v.EZ.IX.1h.;j.q! -> ,7 i0.z/ wh D0 |, :' }b -v C'+{s+)G+ 2.[0.q|+}o.,y.t_ &s X[ P0 2`.[8  j.Tz.DT.CK+Y>+DK+`C+EK+HI+%c IV.BI WV 7`.Yx.FK+cU *H @4 5|+4X 24 j9+X:+.A.GK+HK+Cr.IK+JK+KK+5M.]p uw+LK+MK+NK+pn+>n.1' *' !# ^* ~= -= ",
"Mx.po.BX.<C.|e+*z+<C.|B.OK+MM.um.)[ +/ h) +] d> Y7 j- U. j- 9{ >V.o7 U< Gh /  a- b' b' MA <6 @/ 4; x2 gc gc gc YE 8> jc.ay+xT xT |C.xT xT xT E+.'V >5 sS.IV.fV 4x+oX.1H+1H+/p.4x+PK+3x+<g.HG.Yg.QK+6R.hG.IS.zT.Bp Bp |q tm.D/ 4B.|- [6 IW.RK+9- +  C$ 6  p$ g] I# s| m+ {+ v] v] ]! v!.y> E. y> 3* Vk.X9 1! [! <7 Nt.OY 9R Bt $! += ~' r< $[ Df <b K' [= J^ U< H+ (  a/ _#+*h Bc u. <; aU b& {0 J6 {0 |% T| 2v g+ +x 6# gE+y= G; 4y WS.WS..x $u &8 M+ yq e@ 05 @3 ed 0^ ]+ ~5 I# (- ej ej f, `$ 4% :4 Y+ ;@ :4 f] X, O* 0, +( [@ T$ ]= ]= [@ T$ @. %, $= 1+ Lb ~5 $x v) nb Zg+mw %C g+ $Q.3^ v1 M+ q# f% r# |2 >V 0+ nA &$ b$ Wn 7( rC+Ro+5s.*; &) <s SK+TK+UK+VK+WK+XK+YK+ZK+hq+dO `| .@ l% s> y> E. E. 3( Lk F3 `} e[ 3) 3) <: <: #4 b2 `K+ L+DV.BA+.L+;g+yz.mX Zp++L+ou.U} Y9  j.RU.Va+YO.;8.8' KE+:j.K< k- U: >8 y/ Nf y' 4a ;< B&+0W L&+<e+@L+#L+l*+)F.dC._D wN.%j.'> X[ 2`.2`.Y9  j.Tz.IC.&K.$L+(&.%L+(b+M}+^G+#S.&L+J~++4 &5 *L+3( E. :n io.S4 ,`.j9+Gr.=L+-L+;L+>L+8i.M5+K~.#>+>j.,L+y`.'L+P).ed !p @= ]; V; ^* D~ #@ ",
"hK cq./6 6F+)L+)L+IC.no.FY.8[ /{ Ib ^  ]; 5; C+ Yb a! h' a! =X.5q c[ *h 9y 9^ {`.jc.rx 9- d[ |$ `3 {# zi ,; Bb W$ om id./^ A2 0a+xT xT xT &s.bY.WV oX.<B <B @4 @4 WV |C.)G  z.sS.sS.5!+EU.!L+~L+mF.nI.Qk.5~+*@ ap M* yp nz ;N %_ l( @/ F+.*5 C1 [, i  *# wv 3+ aU 0+ ~5 v1 -# >@ {% v, E- y> E. .4 Vk.G: ~E.%h.0q.jv.y$+OD+@} ^I.|~ J) @& v} 9C )= +[ +[ +[ *~ U$ <= #. 0) :< ~] >@ Z| (> u] 8$ 0$ 0$ 0$ (> WF 2( &$+Lz &K 1g.G; ^x+b$+{x+TY Yo+;_ p< %. %[ Ye 58 b +)* k' ~0 I# I# B  B  y@ t. t. -8 aU t. 2A Jg 7@ U$ i( }@ }@ )% K5 )% D~ 8; [@ ^= ;  !( k' *$ <; #N Ww /. >y 'D lB.A) 1m+>* -$ ]D N/ B# *$ u] >V T, }) vv mn Vd qE TB ]$ _; {L+]L+^L+/L+(L+_L+:L+7D+<L+[L+}L+G8.:P 99 *A Fq y> E. E. 3( Lk @/ @/ e[ e[ `} <: <: 31 b2 ;#+,#+g6+)L+|L+1L+2L+3L+4L+5L+6L+&l.^9 uA+>b.7L+8L+Jw./g.+K+.B l- K< d8 -4 fb.J- ^m B' v. Q2 8e.bz.7V.6x+9L+#L+0L+Qo+}Q.}| T] 4! p; 6d oq =f.*x.DT.aL+bL+yY./&.aC `C+[E+#j.rB+&L+m>.+4 &5 h& D. E. E. 87 77 Gt.Kq [ +Vt.cL+`p.bI nG.(*+3}+s8+I`.dL+~ +32 `M cT M/ !e m, .@ o[ 0= [= ",
"6- kK.4X. 0 ZX.)L+eL+qS.OK+G: jo.`^ `+ h) r$ Z  |1 Z  M6 Q  M6 Q  U< 8~ t@ 6@ A$ rx t> A- XX .  oc Vh H> H> ,; V- 3{ !b !b i> 8> Xy xT Xy Xy F+.UQ.C3 1H+4x+(W fL+E+.gL+F+.87 Yx.gL+!J+PW.Zb.+K+]6 &e ][ I:.w- .! ^b s; x+ #- 7: $= e[ X& A2 aC.K^ ,- g} 5| *Y ^D NJ 'H a#.my.>@ 6] qO E- E. E. .4 >`.qM.PY RR hL++K+iL+83.7' bz.51.f- <~ 7: U8 r$ 5; +[ )0 <= v} v} +& 7~ :~ $_ j+ Z| ua @*.f% J6 T| f% N/ xa d/ A&+2t |g.O8.Lz er jL+Ri kf.pC 65 Wd e, o> H2 7] 05 e& f, ;3 R@ +' 9& x~ ;_ sa t, ^D <; s. -_ W< Q*.}@ G. ]= }@ }@ )% [@ -) [@ [@ r| ;  Mb J/ |2 Gq $+ X-+&$+l. P3 I/.`5.kL+*,+ZU.^> B# |2 *$ -8 WF d/ ^> -* 9s QB TB +.+lL+gH+mL+nL+oL+pL+qL+rL+sL+tL+uL+vL+wL+f& c~ 89 C$ s> y> E. E. 3( 5q @/ F3 e[ A$ |! e[ ~9 NG #4 xL+BU.GW.yL+I*+JZ.zL+2L+1L+ZW.iY./6 ^6 _Y.=8.[y.0V._$+u;++K+/!.'p xp d8 >8 y/ H- `a z' vr.a_ kz 3T.(F+AL+BL+mn+{v du SE Z& f1 ./ ]^ c> 3! ~E.^9 o5+)L+TX.CL+DL+CL+EL+sD+HI+<i+FL+GL+HL+IL+e*.E. E. y> 87 Ht.d6+<8 ,q Xc.yC.Kc.Kc.Sw.1H [:+JL+I`.R[ _S.Z+.yv PZ 1, x* @@ R$ S$ 0= R# ",
"`^ b- 6d vm.PY %x.KL+LL+ko.c' Ib H/ %_  c p$ _# x* 7: '0 $. $. 9/ p, 9O /) t^ +@ G+ J^ Y, R= R$ [@ p* >[ q2.=i 6_ s* 6! r; x> *-  T $l.Ed.8> bY. z.aZ. f  f sS. f 7x D3 io.io.}8 7`. z.(9 <H+0q.9E 5d.5g.Qo 79 D+ w' .u ^5 ^5 a= B+ v( <+ MA `} ~% [e -( :' y4.dD 9$+3& x1 zd..I 3| E8.E- E. E. .4 >`.PY zm.BA+CK+<g.OF+;g+ML+]{ $C.wM.8_ Bc J+ 1- cf v$ p& T$ o! o! ~2 q& y( ~] YS.-$.g% g% b& 9$ 9$ v3 i. B# >V r= 9$+g+ yl sy Kr ,n NL+ @./s.Z| x~ b; l+ }' e@ C  6+ 6+ R@ ,! y@ /> 2^ 2^ L, v) A +<; bu Z& !( c% n! [@ l3 ]= ]= )% [@ [@ m3 5] +. T$ b% Io L7 bi+]D Vw e$ ]P 76.HI CD CD Gi +x y:.@*.*$ aU @6 0+ O, 1v -* 9s TA O%+Gs i# OL+Rq iN PL+QL+~E RL+SL+TL+UL+VL+WL+NA UE !0 6, .- E. E. E. P4 C1 N= @/ 3) A$ A$ NQ.31 a' #4 ZZ.'V.<H+mo.XL+YL+m)+m)+ZL+!g.`L+`( [S.0o.IG.[y.fG 5X.;g+jd.#l.s|.;C w* >8 H- H- 6* ,U ;< Et +R 8e. M+VV %N %Y e&+$+ a{ 3: Z~ 4B.Z~ '[ '[ 2! lz pM.z-+%Z.2h.iD .M++M+Yi.@M+vQ 3/+2{+#M+WV $M+!m P4 3{+It.wP.d6+;x.!z ON %M+&M+Ya.JG.mm.]v.*M+AS q_ ep hp .R  * ,< 8: 8, v} .: |4 S$ ",
"5q s|.pt wo ;s.wm.ky.9' Jt../ Hb H/ r+ R| V  3' -| }, p[ |-  / 2) g} M+ [J ;@ 1@ w] N| #< R> ;; 2% i* J* O6 Rz.25 E+ E+ r; x> B-  T Ed.$l.1h.C2 aZ.`C Hn.PY hy.MM.`K+ZZ.6T io.|7 Ya+io.b2 .D <{ +1 }; >> `6 x$ U. l! l! l8 1b XF J7 H3 0/ H+ |+ x( B( 5| &( N3 gr 4& C, ^} TV |^ A~ Jo E- E. E. 3* >`.PY eL+BA+(D+=M+JZ.Hu ME.uh+HF nA+fW.,@+1$ %= A/ v$ J^ T$ o, f~ h} i% $= 4B.Et f/ S@ ${  > I0 e@ 2$ %. ~< &8 $x T`.}R x7 MI VS.xr -M+;M+1m+ir UJ T`.M9 0& 2& T= *%.B, j! S& <x.d}.$#.*x LB VS.Ww 1 +$3 4+ 1+ N) o[ l3 ~= )% 8; )% )% r| k/ +. Z_ +. V; <& X_ .2 B# dx+st 30 }Q.9b sa.:s+>M+b5.-! Wz hv N, 0+ -$ O, d/  x H& @{ <o >0 %$+9  Px l# o_ g_ '5 R5+,M+'M+)M+!M+~M+9: v$ C$ P] =d E. E. E. E- 9- 7, v( e[ z$ A$ 21 31 6T NG #4 5|+aZ.)V.oS.z-+IC.zm.Tz._Y.aG.rm.H=+{M+]M+Ya.Xa.]&.OF+jd.-*.H'.`} x+ >8 F- H- %> C' ,< <D  M+Y: ^M+yh+/M+$U.<b+t;+q, {^ <6 <6 +1 [6 +1 9q.67 ~E.^9 DT.]&.(M+5X.*b.=y.sv.Ut WC.24 ,`.,`.tS.(Y.eq.(Y.|z.d2 d2 R}+Ok.hL+:l.TT.&K._g.RU.1F 8`.$p h9 >< u, y|.Z(  { 3) 2~ u& N>  } <= ",
"!m ,U _%.Z} -*.lo.B} nF c' Y& f] s+ M= {! 4% r. /D D# D# L= Z& 4$ dn 65 |2 Sb 7F S@ 7$ _M+@^ @' u+ n% ,) k/ X# i; C+ x$ x> k- Lk C1 zp 38 f2 Nt.^t.[g.BX.,K+:M+qa 1! @1 NG -x.%5 <M+Z3 |! a- |$ |$ 2~ a= sO #8 i; t& Y) sO H- E. &@ #@ j; +/ g- R| Bc 22 J=.er w# Zs gr y: x1 W_ 2- v! z> E. E. z' {9 [7 [M+UX.|L+}M+b9.|M+&H.Zp+[e+;W.1M+t: :4 c~ h- p& l% v; ~' ~2 v; ;  3; SY.&s y_ [~  { v. p[ W& x* ;N [$ }5 {..,_ o{.y1 Cw.Jw+2M+3M+4M+e9+5M+,n p- eD |[ |[ @|+C4+07+N} p!+Ww Az Kw+lD+}q+es+Tk.cr 3& =( !( z( q% o[ n! U$ +( G. $~ $~ M. 5] 5] [@ o[ h) m{ +| x; +C ;s &Y m#+2V.G].~a+6M+&x XB >! -8 -8 :, d/ O, 1v 9+ &$ l; :& ]~ w  I# N/ qd *@+|g 5@ 7M+8M+9M+0M+aM+Ln U5 i; Z  rO ]b E. E. E. 4* M6 (  U< v( >= #- z$ {9 |z.D3 bM+:b+fV 2H+IX.lo.Pc 3I+*h.FD.{w.op +R )z 4M &b.xA+8f.}e+)9 W9 %_ A@ V5 t* fb.G- 6* Wo 2, W_ hB cM+<b+>| Q2 ,| G/ mf V< f[ 4`.g2 aC.4s.:j.b2 Ib 2! =f.Vy dM+xz.jg.9k.27+eM+Gz } +Zo.pL.mr u3 }2 wP.C} |z.pt 16 5|+^t.z;+D[+|e+|e+[G+[g.oL._8 .u.h9 v. f- la '> ;N 3) 2~ f> 15 M> j- ",
"4* =| ;, +  21 {`.pt n: SY.t) *' :* D$ I( [' i+ a& m' n' 65 S& {D m' EH ;_ 0^ dd b; WJ b+ 7& @* /; ', v} E_  } u& Y- s; x> t> k- 5q 1h.16 T|+sm.cy+nL.GG.zD.fM+kK.Jt.@1 |I+OQ.<M+gM+hM+#T.Y7 A- f> j- )3 ^e |0 j6 @[  I ,' T: XF Q4 Q< S[ <~ g  Y~ g} h~ C4+Eb.2g.xw F>+%+.:$ hB -# 9: %> D. E. X$ {9 G: LL+ZL+PK.iM+CV.Cj.5L+5L+jM+kM+8W.lM+1+ @- l{ #= Q# P# !: @. #= 8; Q< )[ Jb wo !3 C} e1 Z} a- X& d[ ~9 SY.'[ =_ s[ (+ aT.j#+mM+{!+fC.7d.XE+gl.5T.l. ^P FN &2+B) g5 Cq.(q+nM+15.T_ 1x.|g+'j.WR.e$ Wz 5$ L< z( o% X; f~ i& 0, 0, .: r| +. +. $~ E_ f~ ~= f{ g@ 9O k  C& g~ Dt+`$+25.{T Tt+]3 sa yz -8 >V >V 0+ d/ ]D T, T, T, Os.s&+[o ]  L7 H'+oM+($+9  A2+pM+qM+rM+p`.YE 7! %- &- &@ E- E. E. E. %> !% (  A@ j% 5; 5; >= io.;5 B3 M*+aZ.nR.5~+tm.:x.pc Vp Bp '> X: u) +R cB+x[.(g.bL+c0.z;+W9 ~^ 0) R= i- t* J- G- `a Wb R| 7_.<D F/ sM+)2+|+.|X.NK.NK.V] yZ 4`.io.bY.*5 B2 _6 X9 EJ.ko.UJ.dM+xz.sM.V3..*+hh./< lQ.)'+] +Jv n[.wo -*.C} ;5 38 nR.C3 'V.y..zZ 8C.%h.PY %h.2`.`~ v. vr._  d  [$ f- h  2~ 2~ )b ]# Ai s; ",
" 9 14 (* cf Mr S  Bp Jo g  f@ &* c~ C. @= e@ =7 >_ S& M9 XB XB u] k+ h~ 6| b +Y5 ~0 +^ 6$ i@ 69 (* b6 X- L> p* M> oc t- t> K< K< Bo.zT.e2 ^t..j.D[+PW.HI+)L++W.Z9 MM.R4 }! F3 37 'W.#T.#/ j- i; tM+~G tM+uM+vM+og z/ !h i= =Y Y) e8 '0 G_ |- }, x( '< ]M @@+n~ wM+xM+w# k. x7 b{ s. gI ]b E- y> `*.Vk.[7 kQ +W.6t bq.yM+zm.z-+LL+6F+zM+U} b> Hb >  t) !# I/ (% pb R$ b. 4) v( |{ X[ cu _[ _[ zv NQ.z$ }+ [+ _: +1 jo.}5 {s %( XR.J, e9+AM+@b+VC+BM+B +>m+fD =v.)a+6.+g5 CM+86.DM+m.  :+ah+Ki.lD+Fz+YM M9 EH v] Z+ r]  ' s& R# U. u& u& U$ v} )% 4~ G. D~ R# )0 |@ m( e_ k0 C  p' r= EM+Ho+QR.vu+iB -! 3y >V {5 0+ UJ d/ <- Jq UJ 0+ l' 6V Y+ |) I# [R Bx GQ z[.b& _S.Ad+(k+.- F{ ]m '; ~; 5* ck E. E. E. `a Q  Y, g{ #= +] |@ Y} Of /p.<H+yJ+z;+;x.cu oO ^5 *'.]b Z% ~% <$ hI /X 'C >J {v.pg /)+9E :+ 0/ V; R* '3 Xb y'  9 `a v- I( I) <$ $! BJ.Sn.U] W9 5d.wP.5d.NQ.Z} c[ eq.}V.F+.[6 b- Jt.Jt.Tz.dM+`g.l3.Ct.FM+GM+-~+HM+IM+Up.t~+{f.xo 9E wo 16 38 ~s.AT.][ B} >#+Mt.9E N0 _8 .u.}$ <~ _  == R| ~% |, x* -- ~# s; x' '; -4 ",
"1b w$ .9 #- ;> K< 2{ Vk.`} x. C@ p$ 8u M= o> c) 65 {D C0 C0 Z| T| T* am u! 4r +w.H5 d5+J6 q+ (* 5; '3 L> H{ J{ (= 9; *~ Q  |$ 5g.%1 ][ B} `C yJ+D[+]U.HI+&h.bZ.%x.MM.9q.@x.:{ $V.mY.L=+{] 3~ +[ *T.*T.*T.*T.Y# t* E. E. U: [> O. 6, [, L+ x( |- `: '< 7F %r 19 D4.ah ]& kf./E iv )4 2, 2&.P4 y> R` NQ.MM.hy.JM++j.KM+Hn.zZ zZ zZ 8C.ky. D [! y} y4 ]e H  H  c} __ y+ #= 4) @/ R] Z~ `~  { I+ ;N A$ %5 >V.*X.#T.37 hi _#+j( q, u) k. gl.U=+/3 LM+2&+N3 ,V $<+[q [q >N +s.]v (x+2x.m.  :+{6+MM+NM+^P  F ${ l, P. ** @& /% g{ }@ 8^ e> g> )% 6) t& ec q) 9; 8; 5) j- @& ]e {e s@ e{ 3y &7+7x+9a+nm.OB P;.($ >V -8 UJ  = UJ {5 {5 2v {5 2v t. ]  4% M& Pl @, OM+.8+k0 @= ;j.i= W$ D. D. G{ j{ 3* ~m E. E. E. &@ ,= b. i% #. Q< 5, |$ !o E-+PM+^C+QM+jd.j> 8u 9* H- `a +! z@ rt BJ.RM+)z HF co.LL+ly.<{ +S.y]  ! '%  } A> K# -4 `a =d f= |> q[ ra  =.kK.67 wo C} Z} {9 }8 b' g2 hd.ay+G)+l!+X9 $5 5> -s.SM+cz.wO v}+0^.Qg.m[.Sp.TM+^< 'h.*2+!9 Jb c2  z.~s.UQ.38 16 16 38 Of tm.n[.d&.95 g= 6, h- ]% @@ hc He l7 A- i= 1b D. E. E. ",
"~; x+ *> WY R  ;j.d[ ~4 _[ ~% 6] {% W[ pn+-J D! +6 lE lE *$ b& 0$ d) GB q7 4r m} $a d5+N^ ~! V, ,e Q# v} K> O6 k* N# q% /; D) $_ W/ U9 6F+GG.*z+by+LG+/5+UM+yJ+%h.A} um.H'._L.Z3 -x.D3 F3 @/ j% /* R~ @>+%6 l! 4_ E. E. 3_ p& p& d6 [, ,> U, S= p+ -( 5| J=.dg+VM+`F 0u nb d}.A&+$D -( Pp Vm Um jx.C} ko.b+..j.wm./9 ;s.!s.A} A}  D 9q. D CH+R] k! `k ): *4 {) '] a. #= 8, Wy d  Z~ |{ }$ R< H+ z$ 11 L6 M;. [ [1 4) Y( <2 Mb .= <; dr br {x+WM+>C i! &$._ +Zp /! <d.@i+XM+BM+]C+sw+YM+S].ZM+`M+]( VD C  <e M| /; ^* 99 y+ }@ l! U. V2 @& S2 n! h' ^] {; 8; >= Q  $= y4 Y+ 5  S| 8O y:.54 M` &%+1S. C j. e/ {5 UJ  = x|.V0 V0 j. UJ 3& *$ Sb !* EB x  Rb x!+w++x4 ;~ 6@.d> Ai G{ G{ D. n3 X$ ~m E. E. E. 4a Q  l% j% 8, 5) 6, Zo 3I+PW.^C+bo.3q.uA+&s u! }d. N+G- i7 S= 4+ ]s ,C .N+HF '0.Z9 2! y).|j >; I. 1] p^ !h J- -4 ^m =d 9: S= V[ e' JA.dq.y_ um.)[ +N+~9 87 g2 E3 97 hd.eq.<7.AP.9q.5> -s.!g.4M e++@N+U}.#N+M~.6M.<q || || U5.51.3! 41 16 C2 ~s.16 87 hd.4s.1h.eq.{9 {9 :e i{ i{ ~; U: w, M* L* L*  9 y' E. E. E. E. ",
"u* .! e8 r$ r' >> [; w( `~ !] ;@ p< {s *( 9F+[C }C lE lE U0 z3 Aa b~ Ds.O(+}e 8& O^ (S .c k} I[ n( (: S: L5 P6 L5 9= =/ b/ z~ Q2 {( 61.$N+GG.6F.Yt+M}+FG.Zh.Tb+3I+;#+<6 8- }! _: B3 5|+b2 <: N= +a @>+be.%N+14 J7 E- %> rO [= WY s' '0 >  U, U, p> <& v+ %7 Z4 Zq }G IL &N+zF.^$+,v A~ _%.^l ^l 4o D3 3B.*N+e2 Q}+f2 tm.|z.D3 31 .D ![ @1 ZZ.8- C_ d, b% R> J@ cg ;~ k% [; e[ :+ 18 n: MA |! 3) %5 |7 YE XX $V.]] @T.a/ k( f] 3| <; &u Wq nE ^^+,1  m+;h+tV tV C! qC dg+=N+Nw+Az $;+$;+YM+Gi su+K[.e{ _% ## ,% g@ l% 8@ R* <= U. .  V2 R$ y% X) <= C+ $@ U. Y7 Y7 ;= _~ $# f] 5  #b t. T`.h++m#+6r+$Q.A +j. x|.x|.x|.x|.j. s# j. s# @u UJ s| v3 u  0@ q'+w> -N+;N+*/ w' Y- 6! F{ D. D. 4^ &@ P4 E. E. E. 4a Z  }@ +] B+ Q  N= _[ >#+by+OF+fK.~&.EZ.P0 !f.>N+H- J- .u q+ u) +R RM+,N+s2 G=+F: {_ 'N+1j ;j  b Mi+>) fq.z/ wh y' &@ _* ;N B_ /{ 6d 6d a> |X.fF.'[ .D (Y.97 <6 }! a' |z._6 ro.}6 3B.KM+6t HF vh+YJ P1.[h.)N+Ne.j)+o#+iB U/ po.67 S4 16 ~s.~s.io.87 :x.4s.I:.=- Wy 8: Z% D- D. D. D- z> 4^ z> 4^ 4^ K# E. E. E. E. ",
" 9 .! a= h- He He 8: w( V& Z/ /} 0s+/M+y1 @C jO N4 ^D FC.XB XB XB ;!+c) i$ f, U* 4d 7$ M7+o> o$ H% |: N% k/ O6 n^ @& h@ ,5 gv.!N+$U._Z `L+BA+BA+BA+<C.cy+YG.ey+AT.D3 8- }X.<+ e[ #1 *`.|z.}V.|b w6.i8 on %> Ml T: U: `P bf *A U8 )' %= p+ f@ f@ k! Mb v+ K4 3R ~N+TV 'H v=.~-+R; HQ -( Cc P4 ck ,U 97 ![ 16 7`.(Y.$l.Gb qt ho._S 1h.87 -x.|I+|! <+ C_ f@ g. 2c @# 2' h- Zo MA Ht.S4 pt S  m7 c[ 7> %5 9- |$ ~`.Ed.$l.3) [: ~^ f- i{.h! (G+NS X&+<d./P jz.'g+N} {N+HQ.]N+6h O-+yr m. Kw+^N+{} su+N} T= g8 {) f} _~ b. y+ y+ }@ U. V2 +( s& N] KY.7) ^] x$ i= z4 `% a! -= l% C_ p+ c/ >@ 2& /N+Dt+zF.SE 3v j. D;+x|.s# x|.D;+@u @u ns 2C 9+ Xw 0~ R@ `b p  (N+_N+:Q 8} E+ 1* 3{ zi n[ 4^ u* X$ ~m E. E. E. 4a |1 5; Q  .  2~ j% `^ Ok.*z+|d.;g+Yg.Q1.B`.NY dv.I- I- :N+W: bs ]s !> v9.<N+@j.(6 Ah `< [N+}N+|N+H> 1N+S' Uh Uh j{ 6* S  e1 ~4 Nq.cu z} XN.mf 2N+ | S4 g2 Z} .D +N+_6 a' b2 =5.=5.5> b+..X.^b+HF ML+dR.ON G~.>^ -b.3N+DF+WA.qY.!s.c2 C3 C3 ;5 It.16 5g.Bp S  !4 [; He s' Nf D. D. D- i{ Dc ~; V: r; B- x9 z> E. 3( ",
"=| !; rO A/ h  W& =@ j> 6d e' R2 /M+(v &%+,q+3s+q- f$ FC.f$ lE y3 C0 *$ *$ B# g% ~0 B# v3 e@ |) u+ H% n# }@ &> O* 8, }$ {^ ~2+Sn.We+A-+4> jy.eL+-s.-s.Mt.d2 tS.a' |! }X.@/ @/ 8- yP.yP.!F }N.Vm E- E- E. E. E. XF L* a= /* H4 P% 1- p$ U, J+ ** S* Z+ Z+ 6] Z/ jp bs T.+qp 4N+I++j  -| C' E- ck z' zp {9 }8 5q }+ JW.i> =| Q4 4,.xU.$l.IW.io.|! v( m, [& C% ui+<e x. )' |$ 21 NQ.31 (Y.Qo w+ !4 ~`.'W.O8 A$ 9- PL 2* Co.om Gb Bo.3< +..I0.2F !U .R 9L tV <d.iB+WM+,m+Zh+5N+5N+Cj DM+]%+ [.k9+TP fL >@ 1& +# ]* ]; n! Y, ~' != U. 3~ G. i* 6N+6N+@. V$ 8^ =>  4 j{ Y_ '= 3~ +  |+ {! z@ 1~ _+ g/ wD 2^ T`.^D -! A +pC A +$u Lr s# g+ X-+T, S| 3' 08 t+ v~ #Y.Ue ki+x[ Dc D- 1* ]2 5{ 1* u- X$ ~m E. E. E. &@ w$ B+ !% $@ 3~ c, R] 7F+^C+3M.uh+ML+mq.Ip {~.7N+*g dv.v!.8N+`] ^s kz nA+UM hv.9N+[j 0N+U- D. D. D. D. D. I> D. G{ K# j' z$ MA Z} %1 ![ X9 '[ V] 7- _6 (Y.38 It.g2 ~s.87 NG @x.+N+8K+3B.[G+zm..X.[Z.2M.7q.&@.HF -s+&%+aN+2..Kt.T|+D3 ;5 UX 16 It.-x.MA a- m7 ;j.q! x+ B- 1* K# z> W$ )b .  l! '= |@ J^ .  V: 4^ ~; ",
"Q4 Q4 yh [; FU Hb NK.8_ 7J.MK.j%+cE+M` s_+;b.n{.qC f$ N4 qs lE XB Z| `8 aU (> b& g% 6& a% N& i} N& ;; I/ K' d> i( P  v: `: |X.^c.PD++0 ^c.67 .0 G: %e 18 B_ +/ FU /  C_ 3; N= _L.bN+JY 1h.3* ]b 5* E. E. E. E. %> g& rO *> V, @@ %= E$ {! l( `; d, +* +* F$ ma ed -_ %. U& &h =  }/ w. A' P4 %> z' =3 c[ (} !4 9} 9- ;j.M* 79 ;j.2{ b' a- a- NQ.7: m{ ^  v& G# f} r+ A/ |$ e[ {9 Z} Bp =- n7 >> 9- A- :W 3~ k7 u- 4^ 5* z> j{ v* (} }2 Z$ u3 o!+/D 4F ~M !M r- p]+N3 2&+z<+z<+HE jD+cN+Q3 Q3 1x+>| 3: Mb r& P= @@ }@ T$ J^ <= >- U$ <= X; ;k J< !: W' Q= =~ `6 ~; r; g= !% |1 +  <~ _  }, 4< Z/ T.+1/ h+ %u S& T`.T`.f$ f$ A +s# e$ $I  = 5| p$ .' >  Y  S~ |i+dN+S2 t7 Dc w, z4 _^ 6! x> Wb Vm E. E- E. 4a ;, 6, |@ ,= h( C( R] nF Vy ]i.W:+vh+};+eN+u`.7r 9: .[ J6.+q 5D u~ }b f|.&l._W.fN+{= 5j H> D. D. D. G{ G{ S' I> I> j{ A- B$ Zo {9 NQ.ZZ.um.R4 )[ 77 }! g2 eq.bY.'V cU F+.~9 ro.=5.R4 #1 3B.wm.%h.9' }P aG.gN+;-+(F+;-+61.ZX.<H+GT.NG 6T 6T |z.-x.NQ.}X.@/ 2~ rO Q4 ^m gg %- s; .! a2 B+ l% [> l% h{ Z; +] -> y' x9 ",
">> ;, 0p X< l: pS rp cL 0[ 3X.hN+^t+QV iN+`v+3s+%+.,* $3 f$ L, e! -! iv ($ >V r# Gq xa /$ @] o+ M+ #& ^  G+ Z% i% e@+~~+55 }5 |X.ra .U pX.O| 3, 3, K^ :~ E) A( H  (_ ]; 3; G+ {] Tj.[: A$ 9{ k{ X~ ^m E. E- V: q! q! r$ `@ I  D) {% @  {% *# ,{ @  v] 5  o> I) X/ jN+ay B@ z$ ea 2~ Bf ~m E- ck 6* s> !4 A$ Q  >> t> t> k7 5, v( `} 4`.}8 io.e[ h  I+ `+ ,> :4 #& /b =@ a' ~9 b2 b2 97 [+ [+ 2~ o) x9 i{ _^ _^ CE+]2 v* i{ ^`.i> 21 x* zv (%.v. .= 2$ 4$ ,_ A +7v $Q.m{+C +Fz+P3 `l+kN+AJ.>-+[a+fv.ma w; A( V; 4) ;= <= <= +[ U$ U$ ~= S; i~ q3 o[ ^% W* }& i& `% E+ h' gc om o7 0/ D) R| }, }/ /M bi+p| a{ {b `w `w lE Wz ua j. l' gv >V 9d s+ b% q> q% ]= ]g V$ U. 9; *~ 5) :W @k |* Yb i> ~m E. E. E. &@ Z% J^ T$ h( #/ c, !^ 77 Y9 J4.om. 5 @} uO 'n {t+^! V[ la hp 51.)- ~h 7[ qo.yP.lN+dg (] mN+nN+,; K* U- G{ G{ J> G{ K# k7 A$ _: <: .D |6 77 77 <{ .D b2 io.-5 'V 'V cU fo.~9 @x.u` <{ R4 CH+R4 [! z} m0+kK.oN+pN+9_ qN+Mx.b+.M*+bM+NG NG -x.FV.a' MA Wy 6  z$ 79 &@ E- `a F+ 8^ $@ V5 3~ n! f{ l% o[ s& |@ Dc z> j{ ",
"6@ t) <~ p, E} rN+S. NP lu.8< <D d! /E 1S.H_ q- f! q- :E :E L, pC 8v SE 2v 3y yz 7d ]+ /[ 5  ~s yq 7< R| }; [; ^  8~ 33+sN+/M ]  .% ay >7+O= n! K' ~' N% 6N++Y.<g &6 X  f{ 8^ ^] 0, %, Nh j1 F~ tN+Ga E. t* 5; 09 U8 n, ^, 8& ]  F) -_ T.+-_ F) S| M[ R& |= >@ L< l: w; #@ Th z4 x9 6* %> E- Hi+x/ {m r! #- z$ Q  rO w+ 5, P= j; /  A$ 4`.IW.F3 }X.g  g  Y~ :4 l  c1 &h 5! 77 9q.[! +1 4, U< '0 |1 ~; D- !; z4 |1 O8 C$ 3; N= >= 8: g- g- 8: ,< [' .2 S| 0& hv :, x|.#u w: eh.>m+7w >m+7w A,+#B %( I) HJ y0 b_ 7; |@ <= U$ <= U$ <= )% f~ h} i* i~ {| cj i~ #~ &, u& $@ `% j{ M* m, b% f@ @= n  9O ej M& Qh Qh >h >h s| i. y; Q@ WJ >E 3d +c X  {* z( h; A3 Ai F+ U. n= V; U~ T$ j- 8^ O8 w+ A' E. E- y> ]b $@ #. #. 8; 4) U; (  <{ 18 !n e5 'C $q+C) YA y|.Z/ wK <$ {s 7/ f' |X.[5 ^_ TZ.uN+Ih _] _d o* 5j 5^ B1 S' G{ U- F{ 1* |1 e[ `} NQ.6> 31 C} b2 6> d2 tm.~s.-5 s|.pt pt D3 .D ro.ro.xP.)[ :+ SY.7- X9 b-  | !9.!9.!9.OP.n0+=5.(J+)X.~9 a' 31 a' a' d[ ^^ aC.Z% s> 4a %> ^m $@ J^ <= B+ ,= }@ T$ U; R$ m% +] V: E- 5* ",
"vN+zU.m( /  X( #U.wN+~~+T. <~ !( M[ D1 |^ g$ :E M9 $3 $3 'H T`.FC.<x.$+ dB+}g.sc /K c! (m L< =# jN+%. B( g} K+ <& X_ N& of.>4 <Q P/ ei+'j H. W' `2 >, xN+yN+zN+PS v' 2% -= Y- B> J{ AN+BN+CN+D{ o1 1;.pn r* R# ^* m& U~ $, .2 %. 2- my.bu c  G) /> *  N+ ]+ g/ @  ,0 [^ &Y.o^ W$ >8 z> %> y> #e ck Uo s> ;> 5q ;, w+ !% 4) P= j; .{ 5D.4`.%5 37 yZ R< g  x( wY DN+EN+F6.b- Y3 AY.A..X9 R] f  f  Q  z4 y' >8 Y_ 5; h) g@ b_ U; *> g= B$ >= +  C_ `k HJ 6@ ): D@ 1& w4.}^ j( 2+ z~ .} wY (M h[+Rm ,0 lK.FN+Xk i* A3 G. D~ U$ D~ U$ A3 D~ .: G. e~ NV.~| G0 nc </ `) ~2 A3 {# 3( j{ s' O. @@ 6, Z; |& |& O  0} nh +~ :i [0 c6 ;; a1 G# f. N| !# m# R* n, @& t& -, O> i& X; @( Rh S; G. {; U$ Z% C8 E. 4* E. ]b w$ #@ #@ K5 6: W, i) )^ !^ .| {..%( c.+{..ew.X/ X/ lu.6]+GN+='.(  $= 0) B~ 5~ HN+l= .b .b +2 L) e~    zi G{ I> S' 1* o) z$ MA E3 c[ (Y.l- ZH IN+,*.1q a'+!~+|z.)[ m: <6 -x.^^ 5q k7 Q  4) 3; 4) 6; )^ -  fa 7W )^ _{ H3 {] @T. S._: E3 _: E3 |$ w+ =d `*.=d &@ 5* E-  9 >- o[ O= R$ n! X, Y, Z; g{ Z; +] L* 4* i{ ",
"JN+Il -= ea +@ 7  &*.P= 8, B+ P  k! ,{ [4 3$ Z| Z| U0 -$.3y hv ($ 2l.Os.f5+c+ 8O yF.Ph ^z 5  I) -@ B  Bq +: &8 M+ %[ o> 1& q'+h@+|g Y' K9 q3 K% D_ 0f n_ KN+KN+M{ O! |& ^* `6 %- J{ LN+MN+MN+D{ 1M U' y/ ^e P# h* ^* a. dj Lc `$ -_ 12 `w Gq ($ CK M>+-$ 3y .} Y~ 8/ h@ +( j= `% W$ `a %> #e ck Um Nn z' 7* B' yp [; $. $= K^ U< Wy E3 Z3 :: A$ U< O| !^ &_ w_ }D BW.Hb 47 47 B..NN+~9.oa /  O. s' V: ^m >8 a2 #= U~ 1% X, [= k7 YE A- !% Y7 #@ b_ 3j X; S2 X;  ! LV.b, 7) X, 8) Ak &/ Ak Pi+gV #~ ON+PN+Pe `{ |4 D~ <= D~ D~ U$ A3 k{ L# G. +& QN+RN+cd B{ {| T~ i* ~= `% G{ D. 4a J7 d8 *- 3~ n! o! *~ j-       Z7 V' >) h' $@ B+ -- U5 Z- i= i= w' 8^ t& u& ;- G. l& 3j G} (# )% )% T$ 2~ J3+E- ~m 4* ^m &- Z- A- +( di Ni+W, T; q& &1 X( j( j( l: #M.*O )2 ;[+SN+TN+Il #@ {; 6) )% nm V=.]f t; a] Z_ '% +& ;- ,; I> ]m U- x' o) 2~ z$ 21 MA eq.UN+@m }N.^l do Al B;.pt V& g' e1 xU.3* y> 3( om J| *~ *~ <^ {; ]] i( D( i( ]] ]] ,= ,= ~`.Q  ~`.Q  2~ >= q! ]b P4 5* %> z' ~m 5_ ^* n#  ' )] R$ l% [= J^ B+ >- w$ M* x+ s' ",
"3..P  Z  x$ a! .  ~`.s' j' ~# P  t) W: J( 9d ej N+ |2 C& |2 N+ i. i. y  sV ^S b1 Io Fz J: 9^ |> >@ J/ 8O 6V 8O ^z o= v+ '5 p# vT q'+CX.c6 (: v% X) &6 z% :g ;&.W=.@l n/ V, t> {# nm si CN+BN+hl N# )b 4^ h' m# !: O. a. a} j3 -@ :' u. N+ w& ~X R; Nx ~R.}- q, g' H+ h% m! VN+Bk Bk 1b E- E. #e #e #e #e E- E- K< 7: m{ H+ N= Y} c[ ,V.OQ.wX.|$ B+ 3; -  ~7 ~7 y( -6 O| +S.5,.QY WN+WN+S[ q& $= A- 1b y' x' f> s& G} b_ n! '= j' k- k- A- [w <= R$ +& fg '% ki Ec L) E~ T[ E~ L) ji XN+XN+YN+xf ZN+`N+.b 2] 2] r| ^= A3 D~ D~ U$ G. k{ k{ D~ Qe l^  O+DU.hl N# j* := C+ y' E. E. E. E. E- i{ f> G. '3 rk s* 1* '; F{ G{ D. G{ D- y' u* >8 y' D- D. g& `% 0, t& t& 9; 6) @& (# ~2 )% [@ n! 5) v- ck 4* 5* &@ u* !; E+ <^ dg xM.B~ B~ b, Q= Q*.x] 2g [^ .O+GU GU ZL.ZL.+O+Q= Ee q) ;) Y[ o^ R' Ek .& Z_ r| f~ +& 8^ n[ G{ S' I> 7{ a! >= 6, #- [; !4 4q Vm #e ^l (~.S  UO.e1 B_ W& Mr 2&.P4 E. E. ~; 8^ B+ >- {; V2 j- V2 {; {; j- ,= {; ,= J| !% !% s' g= -- x+ B' E- E- ck P4 E- 4_ o[ N% )] m% b. J^ .  Yb ~; `a 4* k- b. J  ",
"4, !% *- J7 L* w, J7 d8 .- :e k% x. Af :s Xs |) 4% 4% .= K4 [e X_ L< 4% v] v] @  `: L+ L+ Y~ u_ 3| Lb O@ P@ a$ fd M+ M| f_ }] F@ p  :@ *j c6 c6 +~ z% c6 u' <g xD ;&.E! m# rO v* @O+<w hl ^k `7 i* x$ 5* Z% Y, h) @- [& G@ @] 2A r. j+ N, <- T, <- 6@+2l.M, !( X< U< l% O* j= Z7 }1 }0 %> E. E. E. #e y> P4 ~m w+ <~ C_ f  [, B$ |! 1C.37 uI+,= *~ }@  [ << T; C( z] z] gi gi q,+-6 FU Gh .] #= Z- 1b K# {# V2 )] =/ U~ )0 Y7 ^s.u- 5* ~; !b y$ ~2 d~ u; Qe U[ '% yf 5] E~ e~ L) yf L) Pe 'k ji Qk _] E_ 5a E~ #~ ]= }@ 0= )% U$ D~ D~ )% k/ `) {| 1s iZ.T~ +& 4~ o^ >8 D. D. D. E. E. E- 4a D+ +[ v} 9, {# D- K# D. D. D. z> 3( D. g& ]b z> D. D. D. ~; U. V2 '3 i& U$ ~= n! 6) +( K5 [@ Z  3_ %> 5* %> `a g& ~; gc {; {= xM.xM.B~ @. ~2 m= @. T; W, Pi+WN.<] Ni+xM.y] %, O* ec j- A- y2 n[ A> &, S$ o! P# O= e> D- G{ D- F{ 1* |* >> s' >> >> 79 =d E- #e Vm 6R ,- [e &= `~ .( Ap ~m P4 y> E. ]b w6.;4 a2 w' A- A- A- A- A- A- $@ A- $@ |1 Z% a2 ;, ;> ;, *g 6* y> E- %> P4 E- Md }@ s& /% a. O) Y, >= k- 5* 3( 3( rO b_ y. ",
"YE v* !m 4* z> E- E- 4* 4* &@ 3_ Bf Bf Bf j4 a#+q$ q$ v, =- S  Mr MA Zo Se 8u Zo Zo 95 .( q< .(  { -@ O@ c& H'+() O& #& u+ t^ P$ f. ;; u' $, $, A0 u$ u' ;&.ld *4 P> $, !: 14 ~; rk X; nc u% v% ~' m8 z> a2 Z# m# p& V, `@ S* V  !] |> 9d 2- 5$ 9d 9d 5| '< }, Q  2~ <=    Te X- 0, }0 E- E. E. E. #e y> y> !m w+ E$ ^  K^ r+ 9/ )^ %5  T Ed.Z  *~ #@ ~= #= X, O= B~ .{ i) )^ _{ U< 4, '0 8, '= B- 1b F. {# j- .@ !# Z; +] )b 4* E. E. D. 4^ x$ K' v; S$ j* f~ f~ 6) k/ )% )% r| +. `{ Z_ +. 5] +. r| D~ r| 6) ~= [= }@ 0= <= U$ U$ *~ U$ [@ P# Q* c_ u% W* P* L# Xb G{ E. E. E. E. E. E. 3( w, )= 5; F+ ^m D. E. 3( 3( E. E. E. P4 E- E- 3( z> E. E. &@ => 9, f> 9, != @& O= n! U. x, t- L* 6* E- %> E- E- z> u* t- {; 8; T; T; |j 9) @. m= 7) 7) 8) U; WN.S; WN.@. 8) n! U. x$ Yb x> u* G{ Bb &> ~= R# v; n! sO z> D. G{ h& h& &@ Fb 4a ^m 4a 6* %> y> E- y> |q {+ Io }/ Jn @=.2&.y> y> E. E. E. E- %> 6* &@ &@ &@ &@ 6* &@ &@ &@ ]b ^m 4a 7* ]b ]b z' 6* P4 E. E. y> E. E. E. P4 C- A- +] Q$ 2% .@ -- M* 4* D. E. N* h% /; ",
"*- `a P4 ~m E- 3( E- %> 3( 3( E. y> E- %> 4* z' 1o bm z' z' z' C8 !>.+` +` Wo +` Qp .- ap *@ m`.Ro {+ ^$ N2 Bx @^ M  -9 G@ M| E  E  O  Q~ 63 63 |& n/ d_ +~ b} E! +~ @< Z# '' ZP V. d~ C] T~ 9= <b *3 E- -> a= ~# ;4 .! 79 :e xp *@ 1q Pp (~.Mt Pp Y$ Y$ St.w* J7 gc j- U.    0, L> &- E- E. E. E. #e #e #e @m =3 }$ += U, ,> H/ yZ _S !m 3* om x9 w, r; B- x$ o) o) a! j' YE o3  T rx rw.w- d8 gg 1b 1b V: x$ +[ +] +] A- 5_ 3( E. E- 3( 4^ L* x$ C+ C+ h' C+ )b t- x, j= t7 E+ Bk :^ j= :^ x, -, -, -, 15 )b D+ D+ => )b )b i= t- i= C+ h' t& v} Z2 H. Q* Q# 9, y' D. E. D. E. E. E. E. E- 5_ Z  ~# &- z> 3( 3( E. 3( E. E. E. #e y> y> E. E- E- E- 6* J7 C- i= w' ^* n# 2% V; 8^ x' j{ z> E- E- %> E- E- z> u* gc m! 8; T; W, @. h} f~ f~ f~ T$ n! h} n! f~ l3 8; }@ *~ V. V: &- 1b K# G{ g& C- i- l! d> ,' !; D. pn D. z> E. D. E. D. E. y> y> E- E- E- #e m`.+* Io 1$ mr %l.~m y> y> y> E- E. E. E. E. E. E. E. E. E. E. E. E. E. E. E. E. E. E. E. E. E. E. y> #e E. #e E. y> g& 4a Z% .@ )] V, s; ]b 3( 3( D. =| 5, ]; ",
"om z> E. y> E- E- y> E. P4 ck E- ck P4 Vm P4 P4 Um P4 P4 ~m P4 P4 P4 ~m ^l ^l Vm ~m ~m 1o 5o Vo pc W: Lc $> 7& f_ 2' !0 ]% U8 P2 _* P] V5 V5 g= g= e8 g= e8 g= g= ~# z6.W~ gg `a ~; -> `6 B- 2s qd+E- E. ~m 3G =d C8 Md Wb )/+4q Vp R` Vo Vo Sq Vo Sq ,O 2&.C8 u* V: a2 f> f> C+ i= 7* E. E. E. E. E. E. P4 y> go.Se K^ $. `+ h  aC..4 -s :n P4 E- P4 E- 4* 4* 4* !m 5* ~m 3* 5* !m 3* @m 4* %> 4* 4^ g& `a 5* 4a B' 7* 5* E- E. E. E. P4 y> 3( 4* 4* 4* !m 4* P4 P4 4* z> 3( 3( 3( E- 3( 3( z> E- E- 3( E- E- E- E- E- E- E- E- 4* 4* 4* g& u* i{ V: w, x> 5_ `a E. E. E. E. E. E. E. E. E. %> =| D0 %> E. E. E. E. E. E. E. E. E. E. E. E. E- y> E- E- %> &@  9 x> n! =/ O  P= A- u* 4* 3( P4 E- E- E- E- E. 4^ V: D+ 5) e} fa 7; J| f> h' w$ D+ x$ B- |* B- gc Y_ M* U: gg 4^ 4* D. 3( E. D. g& gg i{ 5* E- E- D. z> E. D. 3( E- E- E- E- E- y> E- y> E. E. ku @= o$ ]! Jo Vo E. E. y> E. E. E. E. E. y> y> y> y> y> y> y> y> y> y> y> y> #e y> #e y> #e y> y> E. E. E. y> y> #e E. 4* =d {X s' 14 6* E. E. 3( E. E- 79 h- ",
"z> 4* E- E- #e E- E- E- #e E- E- #e #e ck #e ck ck ck P4 ck ~m ~m ck ck P4 ck P4 Um P4 x/ Vm Nn z' Qp sQ sQ *g Oo B' Nn ~m Vm y> y> E. y> y> y> y> y> y> y> y> y> y> E. E. E. E. E. E. E. E. E. E. E. E. P4 Vm }o 1o B' C8 Uo Sq xP bm bm bm B' B' Vo Vo Vo B' &@ 4a J7 w, w, gg  9 E- E. E. E. E. E. E. E- y> B' g6 9} +  A/ 9} w* }N.:n P4 P4 #e #e E- ck #e Vm Vm P4 P4 P4 y> Um y> y> Um #e #e %> P4 %> E- E- E- #e y> E- P4 E- E. P4 P4 ck #e E- #e #e #e P4 E- #e #e E- #e E- #e #e E- #e E. y> y> E. E. E. y> y> y> y> y> y> y> #e y> y> E. 3( y> E- E. E. E. E. E. E. E. E. E. #e #e y> E. y> E. E- E. y> E. E. E. E. E. E. E. E. y> P4 E- ck #e P4 3( 5* 4a ;4 [= Z# .9 i8 on %> 4* P4 E- P4 E- E- E- z> g& Q4 N* k- Lk w* Q4 ]b 5* 6* ~m ~m 4* 4* 4* ~m !m ~m P4 4* E. E. E. P4 P4 E- E. y> E. y> E. #e E- E- 3( E- E. y> #e E- y> #e #e E- y> E- E. Vm |b Wt So 85 Um E. E. y> E. y> E. E. E. E. E. y> E. E. E. E. E. E. E. y> E. E. E. y> E. y> y> #e y> y> y> #e E. #e E- 4* P4 ]b Nn %> E. E. E. 3( E. y> C8 8* ",
"z> P4 E. E. E. E. E. E. y> y> E. E. E. E. y> y> #e #e y> y> y> #e y> E. E. E. E. E. E. E. y> y> y> E. E. E. E. y> E. y> y> y> y> y> y> E- y> #e y> y> y> y> E. y> E. E. E. E. E. E. E. E. E. E. E. E. E. E. E. y> E. E. E. E. y> y> E. E. E. E. E. y> #e #e y> E- 3( P4 E- E- E. E. E. E. E. E. E. E. E. E. E. P4 4,.K< q! ;j.w* !>.-s =L -s #e #e P4 #e #e Um Um y> Um Um qn 7o qn Um Um Um Um #e #e y> E- E- %> P4 ck E- P4 y> #e E. E. #e #e y> E- E. E. E. E. E. E. E. E. E. E. E. E. E. y> #e #e E. y> y> #e y> y> #e #e y> y> #e #e #e #e #e E- E- P4 #e P4 E. E. E. E. E. E. E. E- y> E- #e #e E. y> E. E. E. E. E. E. E. E. E. E. E. E. y> y> y> y> y> 3( E. E- ^m D0 4a g& E- 4* E- E- E- E- E- E- E- E. E. E. E. 3( 3( P4 E. E. E. E. y> E. E. E. E. y> y> y> y> E- #e P4 y> P4 y> E- #e E- E. E- y> #e E. E. E. E. E. y> y> y> y> y> y> E. E. E. E. E. #e x/ P4 y> E. E. E. E. E. E. E. E. E. E. E. E. E. E. E. E. E. E. E. E. E. E. E. E. E. E. E. y> y> y> E. E. E. y> y> y> E. E. E. E. E. E. E. E. E. E. E- x/ ",
"3( P4 #e E- #e E- E- E- #e #e y> #e y> y> #e Um y> E- E- #e #e E- y> E. E. E. E. y> E. y> E. P4 #e #e #e #e #e P4 y> #e y> y> E. E. E. E. E. E. E. E. E. E. E. E. E. E. E. E. E. E. E. E. E. E. E. E. E. E. E. #e E. E. E. E. E. E. E. E. E. E. E. E. E. E. y> E- E. E. E. E. E. E. E. E. E. E. E. E. E. E- E- P4 =d Bf rO s> +` Vo Um ^l Um #e y> y> y> Um #e Um Vm rn Um Um Um Um qn Vm Um #e y> y> #e Vm P4 ck E- E- E. y> E- ck E- E- #e y> #e E- y> #e E. E. E. y> E. E. y> y> y> #e #e y> E. E. y> #e #e y> #e #e y> y> y> y> y> y> y> y> y> y> y> #e #e #e y> #e y> E. E. #e E- %> ck #e E. P4 #e #e E. E. y> E. E. y> E. E. E. E. E. y> #e #e y> #e E- P4 E. E. E. y> 3( 4* %> %> E- E- E- 4* %> %> E- E- E. E. E. E. E. y> E- E- 3( E- E- #e y> E- E. E- E- ck E. #e E- P4 P4 E- E- %> E- y> E. E. E. E. E. Sm E. E. E. y> y> y> y> y> y> y> y> #e E. y> E. E. E. E. E. y> E. y> y> y> E. y> E. y> E. y> #e #e E. E. E. E. E. E. #e #e E. E. #e E- E. E. #e #e y> E. #e Um y> P4 #e y> E. y> E. y> E. E. y> E- y> ck ",
"E. E. #e y> E. Sm Sm E. E. E. E. E. E. E. E. E. E. E. E. y> E. E. E. E. E. E. E. E. E. E. E. E. E. E. E. E. E. E. E. E. E. E. E. E. E. E. E. E. E. E. E. E. E. E. E. E. E. E. E. E. E. E. E. E. E. E. E. E. E. E. E. E. E. E. E. E. E. E. E. E. E. E. E. E. E. E. E. E. E. E. E. E. E. E. E. E. E. E. E. E. E. z> &@ =d L* =d 5* 4* P4 y> y> #e #e #e #e y> y> #e #e Um Um Um Um Um Um Um Um Um P4 P4 y> y> E- E. #e #e E. y> #e #e #e #e E. #e E. E. E. E. E. E. E. E. E. E. E. E. E. E. E. E. E. y> y> E. y> y> E. E. E. E. y> E. E. E. E. y> y> y> y> #e y> #e y> E. E. y> E. y> #e y> E- E. E. E. y> E. E. E. E. E. E. E. y> y> E. E. E. E. E. E. E. E. E. E. E. E. E. y> E. E- 3( 3( E- E- #e P4 %> E- E. E. E. E. E. E. E. E. E. E. E. E. E. E. E. E. E. E. E. E. E. E. E. #e #e #e #e #e E. E. E. E. E. E. E. E. E. E. E. E. E. y> y> y> E. y> E. E. E. y> E. E. E. E. E. E. E. E. E. E. E. E. E. E. E. E. E. E. E. #e #e y> E- E- E. E. y> #e y> y> y> Um y> y> E. y> E. y> y> E. E. E. E. E. E. E. E. y> E. E. y> y> ",
"3( E- Sm E- E- Sm E. Sm #e Sm E. E. E. #e E. y> y> P4 E. #e E. E. E. E. E. E. E. E. E. E. E. E. E. y> E. E. E. y> E. E. E. E. E. E. E. E. E. E. E. E. E. E. E. E. E. E. E. E. E. E. E. E. E. E. E. E. E. E. E. E. E. E. E. E. E. E. E. E. E. E. E. E. E. E. E. E. E. E. E. E. E. E. E. E. E. E. E. E. E. E- E- 6* ]b =d 7* D0 5* 4* #e P4 y> Sm E. #e #e Um rn ck P4 ck Um rn Vm 0o 0o Vm Vm Vm Vm Vm ck ck E- E- #e E- E- P4 y> P4 E- ck E. E- P4 #e E. E. E. E. E. E. E. #e E. y> #e #e E. #e #e #e #e #e #e #e #e #e #e E. E. E. E. E. E. E. #e #e #e E- E- E- #e #e #e #e #e E- #e ck #e #e y> #e E. y> E. E. E. E- y> E- #e P4 P4 E- y> E- y> #e y> E- y> E. E. #e E. E- E- E- E- E- E- P4 E- ck E- E- E- 3( E. E. E. E. E. E- E. E- E. E- E- E- E. E- #e E- E. #e E. E- E- E- E. ck #e E- Sm Sm Sm E. E. Sm E. E. E. E. E. E. #e y> E. #e y> y> E. E. E. E. E. E. E. E. E. E. E. #e y> E- #e E- #e E- E- E- #e E- #e #e #e #e E. y> E- ck E- Um Um Vm y> y> y> #e #e #e E. #e y> E. E. y> E. E. E. E. E. E. E. y> E. y> ",
"E. E. E. E. E. E. E. E. E. E. E. E. E. E. E. E. E. E. E. E. E. E. E. E. E. E. E. E. E. E. E. E. E. E. E. E. E. y> E. E. E. E. E. E. E. E. E. #e E- E- y> E. E. E. E. E. E. E. E. E. E. E. E. E. E. E. E. E. E. E. E. E. E. E. E. E. E. E. E. E. E. E. E. E. E. E. E. E. E. E. E. E. E. E. E. E. E. E. E. y> y> E- ~m B' ~m P4 y> E. E. y> E. E. E. E. y> y> y> y> y> y> y> y> y> y> -s Um -s Um Um #e Um Um y> #e E. E. E. E- y> #e E. E- E. E. E- #e E. E. E. E. E. E. E. E. y> E. E. E. E. E. E. E. E. E. E. E. E. E. E. E. E. E. E. E. E. E. E. #e #e #e #e E- E- E- y> #e #e E- y> #e E. #e E. E. E. E. E. E. E. E. E. E. E. E. E. y> E. y> E. E. E. y> y> E. E. E. E. E. E. E. E. E. E. E. E. E. E. E. E. E. E. E. E. E. E. E. E. E. E. E. E. E. E. E. E. E. E. E. E. E. E. E- 3( E. E. E. E. E- E. E. E. E. E. E. E. E. E. y> y> y> y> y> y> E. E. y> y> y> E. E. E. E. E. E. E. E. E. E. E. E. E. E. E. E. E. E. E. E. E. E. E. E. E. E. E. E. E. y> #e Um y> y> E. y> E. E. 7o Al Um Um #e Um y> Um Um Um qn Vm Vm 0o ",
"g& on nn nn E- E- E- #e #e #e Sm #e y> P4 ~m bm z' ~m Vo Wo Vp Vp Sq |o Vm y> E. E. E. y> y> Um y> Um Um Um y> y> E. E. E. E. E. E. E. E. E. E. E. E. E. #e #e #e E. #e E. E. E. E. E. E. E- A' D0 C8 Nn z' P4 P4 3( ~m ,O Vp wp ku ^l Um y> y> E. y> y> #e ^l 6o ^_+Ko u!. i+Y`.^~.Lp Lp %U.Lp.Lp.zS zS 5m+eL So q< w. oO ~p m`.Rp /2+MY MY (k+#O+1b+Y`.8)+}#+Mn u!.Kp 3v+@N Lp @N @N Ko Jz s`.cp oz oz db.(} v, yp s> v- yh v- C8 y> #e E- ck y> #e E. E. E. E. E. y> E. P4 E. y> ck x/ x/ x/ ck ck Vm ck P4 #e y> y> E. E. E. E. E. E. E. E. y> #e Um Vm P4 P4 #e P4 #e P4 y> #e #e E- E. E. E. E. E. E. E. E. E. D. E. E- P4 Vm Vm 1o ~m 1o Vm Vm Um Um y> ^l bm QK.C' Wo  p }].QK.QK.D8.~~.U}+wp No 3G E- 3( 3( E- z> ]b ,U Sq /h+Sq Sq Uo Sq xP Sq Sq Sq C'  p E#+bm Um E. E- y> y> #e E. Sm E- 3( E- #e E. E- E- #e E. y> #e E- ^l ^l Vm y> Al $O+= +]E.)'+Rp 3#+,h.QK.,h.D8.Sq C' Vp Qp 4q Qp Qp 8E Pp Pp pc Cc Cc Cc [].Cc Cc *@ Mp bp |b j4 w!.v, r! 95 {X v6.E. #e E. }o 6R u7 mr J6.Wp Wp &p Wp Wp Yo Yo *h+Dq 7r ",
"t& .9 Ti (* 49 49 b8 d6 e8 P] t! t! v, V~ Qo 6R j4  p Jv 6| L= =1 ma 1R  / !3 1&.Mt 4~+xK xK v, <5 95 l7 l7 0p Bf 2&.Qp 4q Ap |q Se Vk.5g.Qo |b v- =d ~m y> E. E. E. E. E- 6* g& D. E. E. J7 @@ .' ]; O. [, #- *> -- _# X= ~5 p| D# c4.'p 3q St.*@ xp @=.=- ]`.'Q.o`.,_ 3& A +FC.|[ h+ h+ h+ S& S& %u _y g$ h! =$ Gq [- |G NJ c{ B;+K[.N} ]( M} B;+'_ @C f! qC j9 O#+,* x7 }R b{ 'H T`.e! -! <x.N, 2l.Q@ O/ w  E1 {, wf 89 :* l{ Z% ]b E. y> E- E. E. E. E. E. E. E. E. E. E. E. A' q$ M= 2; Fm 2; 2; Re 2; M= ;< Q% 8r w. *.+Jo db.db.Wp !r Yo oO 8u 8u 8u q< So r! q$ q$ <5 75 q! x+ 79 =| 4* Fb Q4 ~; &@ h& `a j{ gg J7 yp xK `/ c4..( n) u7 }2 u3 ~p 2t.,h.^!.q_ `R B&+0w *( 9L *( *( %3 :H 0w u. 2+ j} :e J7 w, A- #- m{ 2) ~D 4R 4R !p ~D ~D 2, ^! ^! ^! }~ _+ V[ ae. p y> E. E. Um E. #e E. D. 3( E- E. 3( 3( E- y> E- E. y> E- !m :n P4 y> u/+vh+:n+%O+2x.@} %s P0 fI &s Vb <'.h] le 4| bs m~ rt *( i{.{s :' :' :' :' 5$ =( -_ -_ B&+5+ =1 05 U4 ~b A0 ha F  QC+&O+Tm E. 4_ ,- !, I2 H1 6+ D& g) g) g) m+ !* e& e& ,! ",
"I/ o{ L  l, G% Y@ Y@ }] l, X@ '# f_ l, '6 f= .p pz ^_+1, r# -8 x|.V0  = <; v1 2, kr ;< == q+ n{ i@ @* v& G@ _~ 1- +  9: w( ]  /$ O@ w  9& v+ xz ;< 8u g6 6* E. E. E. E- D0 rO }0 wh Tm z> $@ ^, @' t3 j$ f_ m_ &* I  N& =>.qz Y* 0+ Vb }q %1 u7 Jn vr.p[ R| Sp 'Q.V5.SE va *O+gr Kr yl gr Kr Z..fr mw gr  @.nE >* 2t qB Hw 7# ,z 5T.1m+5T.K0.}m+VS.hn+5T.gl.Br o] O8.:x @x {r Bo >d Bo [  yb |. HB :I _; Fs UH+:% g8 o/ %* t' 7= (* 7* E. E- E- E. E. E. y> E. E. E. E. P4 E- E- ap F$ BL O/ 1v d/ TF 1v nA O, O, -$ r=  = >V -8 2v V0 -8 -8 (> B# u] 9$ A, m+ ${ ~* f;  - j$ 9@ 2' m_ s+ e8 r; k7 *> g= j8 1b 1b x9 q! _* +u &= 6| D# j@ dn m) m) 3$ :  Kn X`.s_ g~ -r c$ =O+2/ +$+d$ Hw *0 s, 2/ zA *; ${ :5 ;, ~# k% m_ @' g% lE =$ y# .6 =$ wD >_ '* '* '* {b y# S& Z/ Ap 3( E. #e Vm E. ck Tm z> 3( P4 E- %> Tm z> E- P4 E- z> E- ~m !m Vm Um ^x.-O+;O+>O+Um.xV.V/ u~ hI R2 ,V 9F+r- b{ %Q.w|.54 54 w: kf.C, d}.&Y #N D;+SE <x.-! 'H ^t+2^ 0& S@ '# L  B0 ,O+Y' 2b qd+ck %> v!.}' Je 8+ |b+E& E& VJ VJ BL Q@ }g.Q@ X* O/ ",
"q> j$ O& P) P) H~ -a @' O& }] l, g. J@ P) _R *g .- 5o Z~ sV 3D _' Dt+k> Nx p| 6| gI @= C@ s+ S* y. E  B% <g 1% v; >= l{ 7  1*.'O+)O+B~+S` #& s@ f] ** Mr 4* E. E. E. %> Y_ A- => Ha K# g& M6 #& w  C& M[ S| !( V  08 /} >0 h# pE Nx _< }q %1 p[ g' p[ 5! 2) >< 2#+yO. C IL e&+ll v2.8$+}m+}m+hn+}m+oE 7$+V_ Jo+<c u2.84 _. ^. '0+ZN DW.=x VC *q+*&+DW.ZN wC wC Km FC %B eA X-+/' `A JI yb yb g0 !O+Ot oa.TB lk Gt 7| G4 <, Y  :* r' 6* E. E- #e E. E. E. E. E. E. E. y> E. P4 E- g6 [2 ef SD [x.+v  t  + [x.o- Fw Ew Ew FO +v H& )u 7y >m >m As &  q= &  P@ xa D% e% e#+O$ G$ +c @* t^ D  bf rO g= f{ /* $@ t* G- ^m B- *> `; '< 9d :' r. u. 2& |^ 2& =1 Xp %U._8 ~X :I HB yb ~E+sv Dj {& Pn 7D bc [;+Q, Wd k% w' $@ |@ m_ <Q y; 3y `w `w a{ sa $x a{ C# g~ !D $x )4 a{ |> Bo.h& D- D. P4 P4 E- Tm 3( E. y> y> y> D. 3( y> y> 3( P4 y> -s -s qn Um 3!+~O+{O+7{+]O+4Y T .)- op %@.Yx M-+^' Ia Qw RS.6D }Q.q7.(v+^O+A,+m#+Sw O=+O=+Sw #B Qw /O+uC %@+Y/ +* )# '5 :@ [2 &# Pp 2t.<j.AN.dn R; 1v :, N, -8 -8 xa c%+6V N, M>+3D 6@+",
"m_ e, Sb +' #b ~, #b b) _s e@ o> M+ t-.Hf j}  p bm B' 4' ,v )D ^> y:.P, Os.*  |~ p[ 4< _  %_ i  J+ f] w; jg J5 v( !% N= 0/ wN+(O+_O+Du+/$ f_ {+ Y& i  q$ 3* E. ck 5* d8 x$ a= ;, +! rO Bf .( )* ]D -$.{( E/ K0 r: q[ 1^ :& DA -. #N gH k)+n[.}{ m- W9 W9 F6.gv.%>.ZS.k#+e&+oE ll )C :O+K0.hn+Ov }m+8$+9b J, ]} }m+91.n; x4.@x -$+Ov =x =x <O+*q+2V.*q+4U.fm =U.(. du X-+o; %+. C +v dG z& [O+g0 -@+-@+=. =r.X'.Gt f; &* !0 :* H4 %m.z' E- ck #e E. y> E. #e E. E- y> #e E. E- ck |b R% O@ ^> gv nb 4v ^=+~> nb v2.Rk.Gu $Q.x|. = 2l.2l.&++,v }) [- &$ ;s d/ ~5 y@ L7 D% /$ Qh :4 t] 1& |) 95 Bf s' p& 3; .  &- ^m `a yh s' W: 6| j@ [[ -J 3$ j! 1^ !u le ,a ,p B`._' 'v |. yb bc {& 9u =$+dk [z 0u Cv :& Sb D$ `6 x$ q$ += z*+a$ 0+ *$ Z| C0 XB <; <; Wz -$.B*+3y 3y N+ (; ;> zi y' 4* z' ~m %> D. :n }O+|O+1O+YQ ZQ G'.2O+1O+SO SO SO 2O+3O+4O+5O+$L.6O+7O+8O+9O+7s+9<  q Ct Bt /X `y 0O+)_ z: ]3 aO+bO++_ ^O+>@+>@+4r+u2.ll v2.z|.A,+bO+`v+c<.:$ j) 6] Z+ J+ S= S] 1~ W/ 7/ l_ cO+yb.o; R; UJ >V >V aU B# *$ U0 -$.w& ~X 1E ",
"+| `$ 9& R@ B  ~, ~, L7 e& Sb T* n+ s| >h u_ 2t.}].Vp ob <- X] )D k> P, 64 $+ ,_ `R 1> le ob H} _+ -_ p_  % I) Hb {^ p, w_ /[ !6+dO+eO+{e t+ p, C@ 08 l( !' Y} @@ +@ 6, D+ ;4 s' r+ 2) 6| *(  C ZU.3s+fO+hR.2> gO+`y tv.c= |*.du p!+~3 8B.'9 r!.A1 $j.'> ;@ Ez eo hO+D;+&Y t# DN HQ.HQ.VS.=x *q+K0.LB ke $b+a| }m+k(+du /' du ^=+)C VS.<O+=q+iO+2V.jO+I/.kO+fm Oo+Ww C, RV 0& k' {  fM L; LI |. v9 LI [;+}E R ++@.f, f_ .3 E  %* bf 6* E. y> #e E. E. E. E. E. y> y> x/ Md 4_ v- 0p ,- 8O Nx _' tv.&Y t# &Y &Y kf.#V K, L, ;_ C  j$ 7& g8 P) r# 2v y:.#N .N h+ 6/ s. t. 2@ |2  % %. B  9& ~% v, Lk a2 ;, B- d8 j8 rO Z% *> r+ 4' @3 /D dn :' %( j) 4| 9b.B`.*2+)> }R m; Hw c}.EM+$Y 1a bc W` Iw d$ BA k> =* f- zv =@ q+ Jg CL 6V -8 z3 ~0 {D C0 {b C0 C0 C0 `w |2 J/ k0 i@ x+ Ck U- j{ X$ 3( z> E. lO+SM.mO+*o nO+oO+pO+qO+rO+sO+tO+uO+vO+wO+I9.xO+yO+zO+AO+BO+CO+:s.Ct K0 l_ !n 5- 0W z1 n8 DO+Hx+;b.}Q.}F }F kf.kf.l#+ll ZU.eA z|.E[.eW.(v+}Q.:$ w1 #3 o= @  +..fI 1/ ~K+1N h0 %Y %Q.D;+~R.]D 6& Z5 J6 C& C0 U0 iv <x.NJ y:.",
"9~ Xw |2 xa fd }g.Q@ LN &++&++y; 3D <- a$ /K >@ .% %. yz t. 1/ rB Dt+ls wa +$+m; HN iz St p!+E0.u|.xu+ + ls P, 4T.^$+s9.wA VB c1 j3 a) Mb C@ ~% U, E@ O$ {e O  ;; G@ m# => x$ 6, Y+ }g.5F Ew O8.6# WR.$b+o< Ov )& 3c tw tw .y 9u (N m{.c*+%! /Y.tA+c.+jX ~i+7d j+ U#+{s cE+6D l{+9b K0.=U.fm fm iv+*q+Zo+<O+K0.7w 'a >C :$ v7 XR.)_ uo.4U.*q+iO+jO+)N )N kO+Qo+ZN 6D Ot.d5 pO :5 /, 2v gv  + Q, =! @: CA G.+1.+EO+!) v3 G$ >% 5( G( D0 E. y> E- E. E. E. y> y> y> P4 85 :5 H( 09 69 (; B# ]D $+ d}.d}.tv.&Y kf.[G K, [G ^D `$ $* KH.S: p% s- e& 2l.,H Ww ,n yl 2t  t (' /d t| +v %$ >r {$ Zn +* 79 !;  9 7* tp V, Z# if +u ]! b +5+ r. T= j! 2& %( *( ^s o{.hB 3^ j9 1 +zF.%+.!> w1 h++J:.[E g+ n- !D v1 )* 8y 3D K/ K& n,.2@ p< p< 0& x~ x~ g% *$ B# C& /} 8h 2- %x Y/ m{ A- 7{ ,; u* ,U 3( %> y> FO+GO+HO+IO+JO+KO+LO+MO+NO+OO+PO+QO+RO+SO+TO+UO+VO+WO+XO+YO+ZO+&U.bu bi+)4 {s 5D [P E0.m6 NZ ;b.N` 0< y1 ls+M} kz.O#+d}.g+ ZU.%B gn+`O+mA+FC V` 3^ /} .2 ,- u7 .u./>  P+Ot g0 *! -! wD h$ 6+ a~ f; l, f) x~ >V -$ _' iv M>+",
"['.r# WF a$ &++>E P@ _) ev+b  O2 ,v ~R.+C jA 7.+.P++P+|` L= z_ t_ sx o- Cv C= 0z ,. .y Dj DW.@P+Z&+uo.)& #t #t ,. |a #P+$P+{%+Xx 3, 7, @@ G+ :5 m{ q  %P+5( {, B% |& g* t7 15 C$ M& Y] IQ {- (N Cr &P+r~ we Ls 1i.*P+Kg =P+bE ly 9{.Pv 5J -P+1N KI+IR.,| Xm U& B_ o: b:.C) c<.+_ J++4m+wr ^R.yr XE+fm 4U.5T.>y n{.}| &^ 2| Vb 2F np V` 'D *q+iv+I/.4U.dW.;P+ZN ll ^} i_ Qp D. g& Z# c/ :' 3+ wD !D <; CK ~R.SD ev+c& |z L$ H* Eq I  =| E. E- y> E. E. E. E. E. E. y> |b K  ], {! .[ 1~ N+ k> _' :E+%Q.O#+p!+p!+#V ,r+U&+Wz |) g* <#.:J+=N !: m  -$ I-+Gr z= J-+>P+b# (r 5J _r ;. _z ,P+'P+)P+}= M* g& z> z> ;4 89 <, 2b 89 3' @3 e{ h$ x~ 1/ wD TV yb.3v  P+}E A& St J:.;V R2 lz rc la Et a#.T.+=# u_ f& ;@ b%+!P+Cz ~P+{P+bi+=_ =1 F) )* x~ i. Q@ a$ x; :4 x( l( H/ `; 7, oc 'm =i 4^ 1o ^l %> y> ]P+^P+/P+(P+_P+:P+<P+[P+}P+|P+1P+2P+3P+4P+5P+6P+7P+B_+8P+Vg.w5+j&+-Y h4 B>+$x FD.5f.xG bO+'D 9P+,q+>z %v.6C zw.#{  F b{ Ev ~> Lz 8.+jF+zu `v 84 Qw D1 L< }$ 1&.,`.<D ]> 2D+;}+@B j) @3 '< }e 9@ )# IJ (7 e& 3r &$ NJ ++ RV ",
"(- r# N, d/ O/ c+ 6F QP QP &. {  &++$D 6@+01.7.+8z+R. ^S |- i~+/{.zq o- LI |. 0z 2# .y [z 4U.f1.lt.*&+9.+,& ,& >& .F <r ln+Ya nF n7 x+ s' |1 g= m, jc 8G+M  X  H  ]* Wm -, j6 [> v3 Ds 6% ur 3m+Fr m] Mn+0P+E.+aP+bP+03 1i.}y @t _k.Zv Pv VE (G G.+6@+<[ 1Q.e- Z} 1q AN.E/ /+ v2.6t+6# <. 5# 6# Br Ar Ar Po+du w|.I6.1) &= Re f& 22 r= Ww =x 4U.4U.fm wC Qo+5T.A|.}R .* v, Ml y' Q# o  @3 6| 5$ p< y@ a{ w& XJ PP `! Xn cP+mu.9F $4 !; D. y> E- E. E. E. E. E. #e #e g6 !0 9@ !0 ae.YA M>+Vw _G w|.w|.O#+n{.3s+_H K, dP+Y| (; A6.eP+HX.o& Yw o> 2( CS Oh+h^ x= Hh.-& t= vw vw c# 5J fP+7s.q!.4% D0 H- H- `a X~ <0 k8 Yw Kc 3t I5 w~ 0^ 1= T= ,_ @+ q#+]o KI G* >d gP+Vw v) +R 2`.H'.|{ [5 8h 5  D) f= <> b) hP+}r Cz iP+jP+Bq @  '< X= m+ Xw >E 4@ 9  qd ]  r+ K^ J) O. p& d> mi u} !m 8o iJ qn y> kP+lP+mP+nP+oP+pP+qP+rP+sP+tP+uP+vP+wP+xP+yP+zP+AP+BP+S'+CP+Pv T% DP+EP+FP+3y !U f++u|.V_ Zs+GP+MI b4.9< BS 9%.%%+L4 M9 |G m; `s '. HP+xw+9G IP+30 /> F6.vA f<.wo ~( H.+hc.dx+!D A~ q' p> H2 *' L^ 51 (7 ,! &{ H& 2v h! VD ",
"#b s| 2@ X* X* 'U n,.SD pj lQ s&+3++JP+6@+vf.ci+KP+LP+HR.g' -)+^!.K0 dx+(G 3c 7D #t !. mn+cW.Ue.MP+&d =++]D.Kb+c&.Dj ;. HB NP+-*.rw.K< q! x$ $@ C$ :@ s  D@ y. {, =/ 9C 02 25 m& vi  $ Y* ,y WR.Az nu 9z+1i.OP+OP+Md+hM _k.mb -+ yw SJ ;@+PP+1N ,@ K/ qf B..p[ Bp 1q .D <D *N IL Xa :. [. {. :x ar (. Oo+ar ;* <x.:' {% i@ ;( &= -_ jv QP+hn+Ov lB.6t+U .,z +x nb G) ma +a Md =4 H. ;' o> 05 .2 i. LN A  S% QP  ^ >$+Xn mg [* D~+#* !; E. E. y> E. E. E. E. E. y> E- pc !e i@ !e !r r: _m +{ d}.O#+U +Ia c<.f! 2&+_H l> }[ S1+:0 RP+-H Y) hc 5+ s# Sp+=r+SP+TP+UP+Lw Qv VP+Zv @y WP+XP+Ib.QS W= XF F- y/ !G i- 6r Af MJ 'J+h_ 9d 2A a#.T= w1 B, 4- Yx %! =r.Z'.@++YP+y:.hB %@.X[ f[ !^ w_ <2 b/ >  @@ l{ zg+ZP+iP+`P+@++LT u: d, k! t] Wd J/ k,.9  X+ [R u1 ^  a/ a. h) +] C+ K* ]m tM  Q+.Q++Q+@Q+#Q+$Q+%Q+&Q+*Q+=Q+-Q+;Q+>Q+,Q+'Q+)Q+!Q+~Q+{Q+]Q+^Q+TI./Q+#% u +L.+(Q+dG+eG+y  q[ (y 8e.}F '0+'0+4E 4- Z& L= j@ W4 p' lE RB d$ ]& UG zu dr+5G &m _Q+g++Jg u7 l8+OY /K '4 w9 }) 0& I5 9@ )# W) $^ $^ ;{ W) d% :Q+qQ d= n' VD ",
"M+ C& B# Oc O/ 3r &++P@ {z WJ CK eo _m dB+<Q+d++O++(5 pS ;N gB.>p `] [- ^- d$ m; I-+Lz Oo+^3 @P+[Q+$#.ar |*.@x }Q+s, |/.DH -! h9 5g.l7 69 He f= W: _s *7 _s o$ f} ^, Yw i= Y6 m& `b 8z+M[.x4.HQ.WR.|  |Q+1Q+g +1Q+CH CH 3f iF+`U.&; F= Cv ls CA 2Q+(5 !( 9/ W& q< UO.B_ g++R; QT eA %C c}.;* fr g+ g+ }G 9$+x|.a{ Jg p+ `; H( }$ 6| {D s# &x t# l#+eA v2.eA d}.sa 3+ ~e bk 8* &'.S: N& f) %[ C  Qh S` P/ e#+`= 3Q+aF H# 23+4Q+/z 7= !; E. y> y> E. E. E. #e P4 bm C8 j4 -| t] Y% Xp K0 UA &N &x c<.$3 !- m> g! ,r+5Q+|C os V| 6Q+7Q+!0 xz U  L} dD }F+F2.8Q+`<.4/ wa+Lw =& fy Pt |a ca 9Q+0Q+d) J# 02 ^@+}+.K2 ,n.:P zH H2 T* ~5 UJ A +A +#_ m> y4.}R D;+va H.+kv Dt+t, %( %>.4! `^ %_ w] b% <& s+ H4 W8 e. 3N 7z+ P+w%+s&++| y+ f@ w] o> +' +^ Px Oj nu.@] /; P= 7  ]; |@ i= '; 3( aQ+bQ+cQ+dQ+eQ+fQ+vP+gQ+hQ+iQ+jQ+kQ+lQ+mQ+nQ+oQ+pQ+qQ+rQ+sQ+tQ+uQ+O{ vQ+ys 1D SZ =) kg ng n+ d- d- +R E;+30 {-+0O+$! :  ,# .e >9 z# kF 4 +nq.l{.H; xC A(.uu [} k#+bi+S| W: Wp W& ;@ x  b+ 9$ e) W= 9@ {* t' @| :B @| uI =a %#. +.t>+wQ+[C ",
":4 |= Q@ 7+ ]z qd xa y; 6V N+ Et ,| xQ+xQ+G/ X/ =  =  ~] `} 2{ pt ./ 0& !D 2^ ^} ^} :$ 0O+NS &l+yv n> {b ~5 {D Z| C0 r# yz -3 |> t] i} :# .2 e& a~ +' +' j$ j$ ={ -9 [> -, @[ ;- 48 &8 l; _G :D SC ). yQ+zQ+:y fy F= tw Lz 3U +s.e$ |G 2^ 1^ /> yF.Fz p, $. 7: #! <: n0+D[.zd.Vt @t+!_ !- BW ,_ &( j) i{.&( =1 1+ %_ |+ -- Z% 79 d&.ma &( +R /X /X zd.BW =x.A1 A_ Nq.cp w6.4a $6 f{ X_ t] 6] |) ay +~ r& P$ ^) ^) o_ f} S .ha -O h8 ]b E. E. E. E. E. E. P4 C8 Qp pc E8.6| Xw C& F) 4- :E+z|.}F ^} 6/ KD TV fL bG TY By {B Tn.g, c) b; g, 65 AQ+BQ+WS.rL qw+CQ+DQ+=q+yr wr mw xu+^' qr >$ gz Z= {* Wm a6 X~ *A &* F$ g) T| q= _n wa $N m{.nb A|.Sw 6r+v) q#+Q2 3- _+ f1 X[ e- b- {^ `^ :~ P= [& 8@ [> m# |: nA.Jd.~+ tc 9y h% V$ *~ WY .[ ^; u  O+ EQ+Q++[2 O. j% l% 4) M6 Dc G{ E. FQ+GQ+HQ+IQ+JQ+KQ+LQ+MQ+NQ+OQ+PQ+QQ+RQ+SQ+TQ+UQ+VQ+WQ+XQ+dC+}w+-U.>r n6 Ho Hf v~ G4 S# m, !' Jn ra i{.c.+YQ+uh.Z: |- }$ !e  c K  >/ f) g, <; hv -! tv.a*++_ !- 0& Lc dj )] J^ +] I[ uc d} F  o/ *' #* #* $4 @| :B @| *I !, N!+*r Q^+ps e/ ",
"}e l+ >E Z= mm 5@ 9$ v3 9$ |= r: !s.7F+lo.Q}+31 {9 _: E3 |$ d[ E3 ({ _  O0 }{ ~z rc z_ /y /y v. }, W: -I  c `@ G~ C@ 7  d, b% A[ 9_.GQ =; `! v@ h>+4d D& S@ +' %8 71 6r s; Ys }0 Wp le $x 3^ ;v H#+Iw Z1 :y M7 V0.e+ zA l> 5w nQ.@+ %3 S/  { f- r+ J) l{ @@ @- r+ SY.1! 7J.wM.8b.4> ;$.E/ wK K6 S= L+ z@ z@ -| E$ '0 +  q! U:  9 j4 `: A~ le  *  * <$ gv.pf .t I:.R` C8 6* K# J- .  @  :4 [2 Av L: )] .@ 0} Od+,] Nb ZQ+7_ A+ *| ^5 E- D. E. E. E. E. E. ~m v- |b sQ .p Y5 WJ F& r= g! kf.l#+6D >C |^ 3+ &(  m+:E p- ry *O+r;+#u.5& k@ #u.6v M=+`Q+*$+oK+3m+O1 C>+no+BK+Xt+@S >q w}+h+ nR r.+ R+9~ !0 r' r' Af I5 .% xa b$ [# <;+Cv [F .R+91.6t+FC [F +R+kv.Gt.q: mX.+=.+=.n: gy.gy.yZ 3; +] )0 +[ <b Wm !# 6@ a) }D k: a/ )b '; x' i{ Mt 1) w  Zn on+]z P. +  M6 ,= |1 /^ i{ D. E. @R+#R+$R+%R+&R+*R+=R+-R+;R+>R+,R+'R+)R+!R+~R+{R+]R+ro Uy 9F.X% R@ p= nk BB 4j /; m, k% ;> Wb 9} Y& na wY sp qp 3T Wy z$ Y} :5 %= ,{ 6| -( le L= 8<  * N[ `] Z/ X_ xD '7 x% Z2 Ab ^R+;D ++.I% ]E 1u.L^ L^ $4 W) 91 61 /8 M7+/R+U{+(R+_R+R/+",
"48 0^ O@ Z= mm x  e% e% v3 k0 f1 Nt.!X.IX.8v+g2 4`.a- O8 4; O8 O8 H3 Wy +  Vk.{9 n: n: wP.~4 D$ p& g* lN f=.YX ci  3 =~ m& (_ _N+_L 7y+:R+0  <R+5F z3 S`.;# .6 J6 O& hc Ha bl V: ]`.h] T.+%( 9< E0.,H 3c [  >d Nd @: ms X0 W8+/s &( '< -| 7: hc f{ l{ f{ m& m, m{ SY.um.m0+4X.&l.7J.V< }5 g] w] /; O) [& ** m(  @ j% #- x+ w, 4a yp {! o$ I5 Z+ Z+ <& +| k( '0 k- `   9 g& D- h& |* |> M[ 9O >U J9 q3 (F [R+8] v/ R .CP.R~ Yw =Y .! z> E. E. E. E. E. E. %> Wb Mt 4~+Jz #Q.Jq IG gv ]3 n#+UC GF ,C !> i{.9L Z4 |[ A; Z..dr XC.br c= c= c= Fw p- }R+5M+Gr -U.nQ [l+RP >v AW ~3 Wd.*2+G) (Q |R+T+ +3 z@ Wt oO }, }e >@ N, @{ DA L8 <r P8.1R+/o 8.+{. j3.Q;.!9 `/ S  t> 2*.7f.A$ ~^ gy.}X.A$ m! ;- )3 <#.2R+$%. ' z+ }< [/ h% E+ by.S' E- 4q +/ T# 3R+4R+5R+6@ >= $@ y$ j' Co.z> D. E. 6R+7R+8R+9R+0R+aR+bR+cR+dR+eR+fR+gR+hR+iR+jR+kR+lR+mR+*o.(E Xs G# d5+`! )) !* C@ `; _# R  Wb <5 k! o= `k ui nR+oR+5D.uI+X& 9} 8: L+ |/ W/ q[ V[ f' $_ {4 d, h@ Gc pR+qR+rR+_F ]x.=N !R.YE.<0 g; .7 k} 9@ X8 .3 o/ 61 F% E9+%#.T@+sR+tR+uR+",
"%[ ,! qd ]~ ef v  !, s7 P/ (- g} 7F+<7 /9 R}+{9 21 e[ 5D.ea 4; {] 8, '0 v( <+ H'.m: m: .t W& Af [> ,) vR+wR+xR+*#+1] N! P# x[ /A+d5+{  &) <R+r +x# A +Vz.&$.=$ (> @' Af Ha YP 5_ |q q[ :' %3 Dx ^s _' kv S, WD [x.^> Uw yR+h! TV a& dd 9@ (% I% S: Y; !: ', n, h@ !^ 5! c> v2 zR+nf wK [e P. 3% (% !# D_ h; a. a. y+ Z# *> Z% g6 <5 .' m$ t+ X  n( 63 c} =/ R# A- F+ U: 4a /m j{ 2{ {% Bq BN AR+n_ `7 B4 (E+|_ w/ tN+CP.BR+LD h8 a8 ^m g& D. E. E. E. E. y> -p Jz WC.9I.~N+[E Dw J0.;b.@q+:s.0h+]3 /E U +w|.j9 m{+By WR.`:+WS.`:+|g.,z WS.Kr Rk.CR+=8+|g.er ,r+'_ ^' h++0E *Y 4M._8 a#.Cw Nj OA +C Y= B&+Jg 2- a& wD r= BA LI g0 L8 ,. 9z DR+W` [F *! t: }{ c[ g= j' r; rO 8, S[ 4B.xP.hi J| u& I1 #[ J9+Y2 p% W* (_ r> .] )b '; 6{ i{ St.E$ jc 9. ER+X$+6@ 8, *~ {; |1 Q4 3( G{ E. FR+GR+HR+IR+JR+KR+LR+MR+NR+OR+PR+QR+RR+SR+TR+UR+VR+WR+[{.Yk.-#.:# +e 1e `= _s ),  c r+ l7 |b l7 3% |: oh zU.XR+J5 H3 5D.E3 NQ.m: NK.!n [c a(+M0 8_ C=+k( [/ W* YR+!8 qR+ZR+*D Z2 ', 7_ ~! &* IJ cO Qb 2G W= vI W) o/ G  yI 3Q+`..`R+ S+.S+",
"Kb y@ f, %8 '~ ^0 _s o> o  :4 Z/ lz vm.%x.<7 C} 21 e[ G3 G3 z$ |$ @/ h  <+ |; 9E &e Y9 2`.}{ g- H4 ~' A4 +S+=#+lh j* W' e~  ! &*.J+ Z/ 1= XJ 8F 5& ir @S+r- Uw h>+@' hc YP Ha {# Bp j> (8 Cx oq !9 la f' Z/ YA }~ YA wv ;! cT /D Y5 }e U4 -{ ]: q( g[ >)+ZQ+<, [& %_ R]  | XN._I.:7..| !( r> 3% Q8 S: R= R* R* .@ [& /; `; H( T  M= l$ @* {, Ef Ef :K y% `, <= o) j' w+ jc.@=.@=.{9 Xx =1 Zk ): #S+v@+$S+%S+u( (2 :2 fa+'X -D ,e a=  9 5* 4^ D. E. E. E. E. =j.n> Ev Fw qB ;. Iz 9# Qo+Qo+em ~. Iw H; I; Cv qB br 1m+I#+&s+&s+HI LB HI 3^.J++]} #V #V ^3 nE #V j9 tv.7v <x.2A p[ 5g.w(  > }) >d yb ^o wB 1a Ew c*+6r+g+ d}.O#+UV ;V ^t+Rp+Uq.OZ R2 !u c- 97 Z% >> o) rO w$ H+ ^8 4! 1! _L.4; '= i- g9 |K &S+ ' (: 1% 3% h@ |@ 8^ B+ -- Wt |+ +| BN vT ;[++@ Y_ Bk j= F+ =| 3( D. E. XQ *S+=S+-S+;S+>S+,S+'S+)S+!S+~S+{S+]S+^S+/S+(S+_S+:S+~y pT f= Y% na !* j$ k} ]% zf <~ N= _* C$ Q$ Fa >k xN+*/ h% 4) q,+)[ N0 qM.[S.J4.TO.TO.ou.1M.,| sf [/ c% <S+[S+}S+|S+,h <| 7= *' J0 >/ dd T5+E# Ie I5 +w.W= #* -{ W@ `5 n} h6 o} XM ",
"+3 x~ e) m+ ~, _% +* !e 7r [~ X[ vm.%x.jy.;s.-*.NQ.F3 F3 Yf.A$ 21 8- [: _[ }2 gW.%h.%h.9' `Z.j> @= 99 tN+_2 A4 N! =~ +& @. I^ {] zp 5~+ * O/ B8 z'+s= *O+ms H++.@.t  e9 Ha @Y 02 E8.X[ p; /{ 0' d2 :x.%l.Vp Lv Mv }q o!+ep ^d.~D [4 Y% '5 -O */+B[ @| 1S+0D+zP  # `; 8/ {4 b- R4 8K+ | =  tf {* 8= Q* P# n! -= O= h@ t+ W  g] {% 6] F$ ;/ E  uc s( k[ J< T~ B+ 2{ (Y. ( >`.n[.c2 A} !9 %j.18 {^ F@+2S+ri r3 c: ^2 K{ f* ;D ^| -D e8 L* u* 4a 4* E. E. E. P4 s2.Y* 3S+%y yw hh 4S+-0 5S+y= UG =+ ln+`N )E <x C= pw (. R8.=q+DM+k9+N-+37+HI 9b ]} #V nQ bG [G w: t# _G Ya ~R.f/ 8: s> *@ RK.i{.6S+=J 7S+dz Vv !C ew :. c}.@_ *d gH e' $j.$j.`Z.`Z.}{ D/ >`.N* Dc 6! `% w, k7 I+ Le 9[ G: CH+Wy 8: `S YE.c* 8S+J% Y; J  h@ a/ X, l%  @ 9/ g- !' g- m{ w} y( i' E. E. D. 1* v* z> E. E. 2O+]u.9S+0S+aS+bS+cS+dS+eS+fS+gS+hS+iS+jS+kS+lS+mS+nS+/p.5g.<5 Zo `~ 1) -| |+ B$ h- $. _# %= h)  ' x% G0 '| oi s& i% gi oS+@j.[G+2..0c.L1 `L+po.a(+8_ qc w_ x] r] mh Fc t1  ' S# ]/ :> 5$ F) 0L KN JN ,# rQ ,# H2 I  *' ~b G% l, 8& l, G% ",
"E@ M+ /, Y+ #b #< P. @= 8R f- 3! U} jy.|B.zZ {[ D3 31 |! |! _: _: |! +1 _[ k6 lo.Zi.<C.jy.PY X[ |, 8@ -D ^2 N! j* h} %, pS+di L=+Bo.UO._+ }g..^ *; jz (' BH PP g3 J@ h{ og t} |0 Mr e- q[ 2! 2`.][ hd.2*.!>.R` s|.4< f' y|.2R M/ [4 08 o  +c G  U@ m} 51 =I 2' ~! O. i) @V.({ 1C.qS+oO./_ b% #* X^ S~ y+ b. l%  @ v: F$ F$ [e g] g] F$ F$ E  n/ -N s( W* R$ !% jc.-5 *s ;`.p: (9 lo./9 rE ~[ ro.7W nZ.rS+k1 d~ _4 ,) ,) Y2 1M ~E ,8 !; u* i{ z> E. E. E. 6* u: FA  A %) |# cM av Bw az [z Zt+=+ 3s 3s `* _z VE az 8.+e2.sS+9#.kx.9#.#d.NM+_r++q+UC A: A: j9 }F _G 6r+<  _5 %. N= U: U: pO f' JL tS+uS+vS+<y wS+9z DR+2D+dB+7/  / %_ Y~ y} {^ w( ;N :+ |$ W$ x' 1b 3{ x9 o3 yZ 2! m0+Hn.hv.#1 w( G( wf e9 xS+m& v; v; Y, c, l% @. y] 0/ |+ MA A$ 3; fa 4) !b E. E. E. j{ z2 3( E. E. 1O+yS+zS+BE AS+Aq.BS+CS+DS+ES+FS+GS+HS+IS+JS+KS+LS+MS+JV.>`.(} e1 `~ f1 &_ I+ !' N= K^ h) J) m( r% Fc m/ C{ Rh NS+Gh B..OS+PS+&3+QS+9J.a9.)s.kc.MK.6- XN.XN.oa V] &_ p, G_ `: S] 2| N[ (D u|.E0.^I.4w g|.#{ ed Y% .' J  W# ag ;' ,% Ge ,% ",
"Q)  6 U@ M| t^ +# t+ q+ R| Z/ Ym po./6 .X.PY 9E d2 31 <: <6 |! Vk.%1 }2 }2 um.Qk.iL+6q.yW.U} T] l( :* b* f* :2 W' i% i) 7W 7W +  =- Jv ob ~5 wz wz .C 5% qQ P@ ff e. m# 02 *, #8 95 p; c- 6d &e ][ Bp Po v- Pp Ro B_ .* 5' ;! 9%.2R wv 2$ f) f) T9 yH RS+a7 cO  # Kc r$ #@ ea ~`.-x.+/ w] l$ L^ (K $^ W# {* #* m$ <& 4% %[ J0 I5 6] I5 =' @* 63 s- s- I/ hc (} g2 Of IS.:7 IX.IX.^y Ok.RR 7F+W9 )^ S; J. t=.8= (K pb KH.[d %' O% fa+U:  9 i{ %> E. E. E. go.#3 4@ 4 +qr 0m 8% _, `1 cm+cm+SS+qB @: ^- @{ dG /' O8.[. A= XD X5.4o.@d.6T.NM+_r+$r+)1 _D N` n{.^3  @.nb 2t T, p< !e ;4 `6 hH *= 5F Y'.>u 9v @v Dv <o 7y SD ]+ ,- x. m{ x. ^  +/ }$ ;< }$ Q  W$ >8 1b i{ ~; k- Wy 5> TS+cy+<H+!s.Ib m{ wf US+T..K{ b. b. g{ .{ #= -= B~ `+ .[ _* Y} h- J^ #@ w, E. E. E. F. 2*.E- E. E. c!.VS+WS+XS+YS+te+ZS+`S+ T+.T++T+@T+#T+$T+%T+&T+*T+=T+IV.q: {`.<6 f- !] !] _  }; 8: _# m{ m{ g@ N) P< w% `g ph ay X/ Z: RH.8q.=M+-T+zm.iQ eo.,^ ,^ q[ a> e' gH <P 8B.51.8B.[P U5.e|.a3.3}+e1.Jk.f5 ;u+(j.W8+22 '< W: 89 %* v' `- R) '] Ig ",
"CX.`- z( S# h) 89 [, x* 9/ /b X: Q0 QH.QH.G=+5> R}+c2 D/ R] SY.e1 tm.by (%.Jn 7F+EZ.6q.yW.,^ Z( R| G( b* b* Q# i% )^ 2: }X.hi MA {`.n[.'> L= -_ -_ 12 e{ Wd M[ #b v& /* B> xc V. q< '> e' [7 Mt.Q}+-5 1q ho.xU.5g.=@ r: 51.*v |F }| [c i{.3$ -J V| ;T+XS gv+Ie 1' B/ }0 W5 j= Th Ed.h  i  2' 51 >{ *I F# |' !*  > s@ %[ t] [e p> p> {% F$ t+ m$ #* 9@ i@ z@ V& X[ qM.%s $h.#h.]6 %s *z+Pk.oS.3B.l!+-  {= Q= =/ s$ ]* 36 8= !E P< g* }0 ^m `*.C' Vo ,O )n +u.f1 <$ wK le 0^ O/ c+ Gq D1 >T+Et Et =1 A~ 3| }5 l_ NS e&+FC ~d+ZD ,T++d.~a+;s+4U._r+`l+)1 )1 >m+>@+8$+&$+~> &$ Lb ~% -- *> 1- W: 12 U0 >V M, R@ ]  /, $# U4 k$ x. b. h) h% m, B@ g  x* [, 9} 6! Dc `% !b V: t> {9 ;s.TS+CA+.`.;s.18 q+ {E wH ]E V= )! y. y. x] X, ~= #. 7: )' m7 |1 2~ 3~ 4; x9 E. E. E. F. v* E- E. E. YQ 'T+)T+WS+!T+~T+YM.{T+]T+^T+/T+(T+_T+:T+<T+_z+[T+}T+=A AT.g2 NQ.m: |- Y~ X< e[ 3) 7: h% m{ g@ ga __ /: 1s ,b 7< |^ >C .N+aN+`L+-s.WQ..=.8> X& MA Jn J1 )9 4q.e5.!b.!b.%s.|d.|E.{&.ak.|T+:$+w[.2S.kK+ML+c2.]s `R d  #= b. Q* Z) Q* %< Q8 ",
"*4 ag N% l% g= >> M6 A$ ~^ w_ Z: e8+T} kX ]7.~E.OY .t =6 3T ./ _[ 5g.Jo .( 3< !9 p#+|P g8.la 1T+O(+0D+2T+>)+:* C_ f[ m: Ht.}! C} o: n[.nr 4< >< X[  / ,< g} !( 5  t) *> Ai Te d> Se c> c- 67 wm.f2 ~s.4s.8> jc.q; n: P0 aJ.|| 3> w;+M1 (! fO+E|+C;+3T+t8+32 T5+0D+=H y/ S' '; n[ =s.q< &= &3 4T+5T+6T+7T+8T+~0 b; -_ j@ .= K4 ,# q' ,# @3 :> K4 H2 q' 1R le A1 Bt T .9T+e5.9T+-v }h.RU.%K.UM+Ok.0T+l!+ S.v( 3, *h +| f_ B[ E! -N ~' rO =| 2*.Jo p[ f& p[ p[ .t 4< 5d._[ D) g. {e k( R] m: e1 Vk.^^ m7 o7 zp 1&.pv.TC }F ._ +5 HI '& ,& j] z= &K em A) zr WS.`:+(. ar m; As y  p> @! c~ 2' i@ KN :9 <' :> dL @! p& /* Yw ,e 8@ 8@ Z; g{ h) C_ X< '0 |+ +  D+ => Z- x$ x$ o7 <: Y9 jy.|B.eL+%x.<'.zH ,P aT+bT+:B -{ W) ], k! b. 5; ;= [; E8.2{ 2{ x2 >V.|1 N* z> D- x' Th 2*.E- E. E. ZQ cT+dT+eT+fT+ZS+gT+hT+iT+jT+kT+lT+mT+nT+oT+pT+qT+rT+=A Of 97 NQ.Ht.SY.X< Wy Y} B$ $. `+ J  l$ 3% S^ c} d_ U4 -3 i! x: :G m6 Q0 Jt.,*.3( D. j{ w* eL ey+~y 4q.ML+ag.0V.xY..n.#L.U1.H<+~f sT+~f ~Z.+{+YO.d1.n8 4+ 8/ 3; j- U. Z7 p! I1 0= ",
"z% A( Y  p& .  !% ~`.G+ +/ t` ur.e8+e8+!E.zR+qM.^y /{ !7 x_ ~] +1 nz Ro .( Jn h9 O[ ;z &^ &= tT+uT+vT+wT+++.99 C_ =@ 5d.-*.6> {9 d&.C} u3 ~4 x* W& g' <~ p, b/ X( 7  B+ Bk Te ;- Se %e dq.m0+A} C3 Ya+0- YE t> n7 MA J1 !z yW.=M+I*+Lz+5X.ag.9k.hz.xT+yT+zT+AT+&a }+.pn I> by.G{ 2* q; I4 RL+BT+CT+DT+ET+FT+kF 0^ R% 1R ,- g] 6] I5 b +,# @3 @3 ,# X% 2R @I cO+2o.a3.^v eG f5 om./g.PF+zY.NG+oS.=`.GT+HT+a- by S] I) i} #^ 59 IT+-~ s; >8 L* D$ ,- @3 1@ d  _[ 8- 5D.5, ^% 8} @< b_ e} 4) 5) Q  o) F+ }0 }0 rO ;< T= 6/ $<+fO++x ;. =+ &D bz ZF C= #t 0u 9u @$+7=+Hz f+ =r -; #* %D ZQ+IJ =' JT+:9 4y+5| }> `S R~ R~ LD ,) 7_ 8@ Z; Z; J  A@ |+ 8: x* +  $@ w' w' A- j' k7 e[ [! jy.ZX.$x.&l.2| Ye wI xI KT+61 W) $^ ]* E) $= 2~ >= Se Ro ;C 0p 9- M6 k7  T Y_ o^ 8! )b Q4 E. E. E. LT+nx MT+GS+NT+Q7.OT+PT+QT+RT+ST+TT+UT+VT+:T+WT+XT+YT+#S.;5 -x.#4 #4 .D <6 `} c[ Y} '0 J) J  S* n  G@ G@ E  ]/ D# i! qC p8 M-+=z.D/ i> h& G{ D- r; =3 ^!.@q.7q.vz.^H+ZT+ZT+`T+{%. U+u}+hg.I'+.U+~Z.ag.YO.wr.3A a_ {^ 8, U. f> oc Y- I1 r| ",
"s- X  99 V, 5; 5) 4; >= U< &_ V<  =.>W.6J.kK.lz [8 c' t` lf x( ~4 nz q; .( zv 3< %s (< S/ Xs {E +U+[d rh.yS h{ K^ m: m: 77 +1 e1 Nq.e1 =@ g- <~ }$ d  ~% *h [2 ): 7  +[ r* V' t& Zo [$ H: b> z} 6T &s.]2 n3 4^ 1* v* 7> %h.DT.9C.j!+@U+#U+tg.kg.M5+lp $U+%U+gv+-I V++by.by.S' z> X$ db.&3 'L+&U+*U+=U+-U+;U+>U+w~ V  {! i  U, ,> Z+ :> _9 ed wv 2R 9%.5' /! nu+<q Qg.ZO.In 4M  5 6' $o.,U+nY.9' ,#+]s.'U+|z.d&.W[ R% .2 Z' X' M] p( |0 x' x9 v$ p> [e ~] E$ <+ }X.A$ 6, R* c_ `, .@ X, i) j% 6, A- i= 02 >a ;4 *A ^; U| #Q.m~ @u [# MG M; Q +tt L; yA Z0 s, I-+ $+ $+LJ -r W7 $* )U+RZ wI _9 Vz.bU S`.;# 7] +u VY V, W8 <0 :* O. H4 b. 7@ C_ B_ `~ d  `} M6 $@ e> f> A- w$ 9} <: !s.;s.Nk.U9 1> Ie MN xI 26 61 :B o/ c} b% h% N= 7: }$ =@ ~4 Wy 6  8, 5) >= 9{ 0, &> h' L* E. D. E. n'+!U+~U+{U+mO+]U+^U+/U+(U+_U+:U+<U+[U+}U+|U+1U+2U+YT+=A C3 |z.b2 b2 wP.C} by c[ MA 7: m{ S* t+ t+ ): u+ '5 7] JN 3U+n{.A'+yb.r: 5!  T j{ G{ n[ ;j.Ro pq nf._f+:! Vx++n.rk.rk.4U+ZT+u{+)Z.w[.5U+2S.+{+Kk.d1.OZ pf.:+ 3) J| Z  h' V. 9, $~ ",
"m% A+ Y, p& ,= x2 L6 j' [+ h  7- 2! U|+.0 _I.9[ :7.%e )`.!^ +1 nz I:.;C =- (} tm.{f.] +f& i@ ]E @+.2T+;U ,e p& 8: 5d.um.0' <{ n: tm.c4.=@ 9/ ~% l( L+ p+ ='.}D ): h@ ;= j= Z7 t& Zo ]^ ra 0> U|+NG IL+E. E. E. E. D. 6U+_W.yJ+j-+w` 7U+8U+9U+0U+,F.FM+aU+Aw.`E GB :0 O*+02 i= 79 |q Xp bU+cU+Zy+dU+eU+fU+gU+S0.3| d  g- 8, 6, C$ ~% .= j@ ;! 4D Z+.@I &l+vy+=b.[:+hU+.*+U}.;^ ;^ Vt.wQ iU+/5+CA+_P.!J+sS.8v+MF+A_ %3 h$ f. N  A{ J% s; 3{ om *> Z+ d1 !] W& |! _: 21 *> f{ y+ n, C( @V.G| =9 @/ w$ w, 6! E+ s; i7 V8 1y vA +..dn <; -$ 1v N, C& R& k+ 2& RV r- jU+Fw+0;.WD D% dL P% Hd.(7 P).H-+<I jz.yv h] 2; _# H4 h) J  m, -- tp Yb G+ f[ 2) &h $( h  |1 A-    Z7 Y- i6 -, F+ ;j.mX.gW.r: .* 7] wI xI 26 :B =O uc uc '5 S* s+ b% }/ p;  { g' I+ A@ fa j% ;= Ee &> h' x9 E. E. E. iJ kU+lU+mU+nU+oU+pU+qU+rU+sU+tU+uU+vU+wU+xU+yU+^w zU+AU+38 (Y.(Y.b' ^^ n7 n7 o7 Q  A@ 7  q> n  l$ +* |) o> Y5 %%.+r kz.B;+{< /{ |; 5q /m h& /m {`.rc cB.@h.(g.YO.kg.-Z.BU+xI+`T+#L.&M+&b.Iw.PN 7F.XP.xz.hu +R K0 |; |1 a! A- C+ Z- p! k{ ",
"J% Y  O) h{ >= j' gc 5q |7 E3 a' ;#+c2 ~[ ^c.|Q.CU+Xx f[ e[ }8 1h.A2 l- *@ =3 4s.^!.;p  { +* vI gK 4l.DU+N. h- w. k6 _8 9E <{ c2 *s c4.p[ L+ $( ,> @  }/ a) *O o= v: 5, @k &> n& }; Z( jX v2 zO.:6 &5 E. E. E. E. E. u- T|+.`.EU+*3+Lh.FU+GU+=Z.Wt.HU+aU+Aw.IU+JU+KU+}S.R# c~ M= {t+UD LU+LU+MU+NU+OU+PU+QU+KC.,#  { 8: M6 |* q! 8R .= F) :H  w+rA+C;+ms+RU+b6+SU+sM.2/.DK pa.TU+M5+Cc+UU+%L+VU+B!+WU+HV.:7 as 9R ~M 0& e& @# 4N J% s;  4 Q4 l7 I5 4% V  Wy }8 }8 }8 [+ G+ [, fa y).y).Dh gy.4, j' w, V: V: ~; gg gg yh Y$ oz C`.@Q I6.ed 1~ o!+Jo E8.c4.k)+Mz.FN .x cr 5& kF -#.UE Ws T5+%%+b5+_q.'g+:H 3R 1) _  @= `; [& m, >> ~; Fb Lk H'.3| 7< s@ <~ Z  f> 9, p! 25 @K+XU+,; F. `*.d&.V[ e= Xq.D2 YU+26 %| (b 4N W@ F  ^, ^, _s c/ ^! vr. { $. (  $= $= 7; V2 p!    r; E. E. D. -s ZU+@s `U+ V+.V++V+@V+#V+$V+%V+&V+*V+=V+-V+;V+>V+,V+m%.|C.}V.j6+z2 z2 u- om v* s' h) n  n$ v& S* 51 '# {7 E% 62 'V+)V+%3 gp 41 ~4 `3 N* %@ ho..u.g|.a^._f+xz.9^.2S.hk.+n.^I+`T+!V+~V+cB {V+qU.]V+^V+xz.Yc.np .q  ( w+ j' D+ t- Z- 9, A3 ",
"K% )] )] h% >= |1 `3 |1 O8 ,V.It.D3 ;`.b2 y} ~_ Me 4B.8- ~`.5q jc.A2 jc.*@ xp jc.+=.)G 5! t+ vI /V+2T+!R.K' #- |; n: u3 n: 6> d2 5~+*s 5! G_ 1@ ,> w_ *h m/+a) #M.G_ @/ `3 &> k{ }; Xx 6J.(V+G+.HW._V+2* F{ E. D. E. Dd.7x )V.:V+<V+[V+}V+|V+=Z.M +3}+z +1V+48 if 2V+Q# Y; ** 1@ Z/ Z+.3V+3V+4V+5V+6V+7V+8V+%7 Y% g  !' !4 |* k- 8: @3 :' 4- @#.4w 'x.Gm.9V+hu 0V+Kk.9^.wO DK @F aV+qD+bV+cV+dV+eV+mR.<n.)J+ *+1A rt )* !* N  c6 h* s; %@ Co.+  f] o  ,0 Wy }8 IW.It._: e[ v( S9 q,+fV+Eh Eh 8- 5q om %@ om =|  9 y'  9 .- t!.~f..q YA ob S= 8: o7 B- :e zT.oT NS }G QP+9+ c) R/ !e *# XP @I KK.fO+3o.;v I6.S] -| E$ H( .' @- M6 om %@ o3 <: !( N>+[2 h) e> h' &> O> .1 Vh p4.1N+D- &@ Se u_ R/ O(+gV+hV+iV+N~ NL -O 4N H% G  F  _s 9d W[ nr zv 4, e} 4) H3 {] f> oc    Y_ E. E. E. qn jV+kV+lV+mV+nV+oV+pV+qV+rV+sV+tV+uV+vV+wV+xV+yV+zV+AV+@4 cU 3o 3* 3* !m 5* Fb Z  h) b% l: Zk i@ += :> (, S@ EH L/ >1 ,# f- {9 a- C1 rx BV+B2 %j.C) nm.nm.4M rM.RC.CV+ak.}m.`T+XK.&o.bk.$o.A~.DV+D~.Xc.EV+>N t_ pt ;j.t> k- F+ => 9, k{ ",
"(% n% D_ g{ #- Q  ~`.O8 O8 z$ E3 NQ.{9 <: 2: y} 4B.X< ea ~`.L6 JW.hd.:x.:x.aC.eq.zT.3`.8R .7 L^ wH <0 `S V, U8 8R  { [~ 8R 8: NQ.,`.n[.5! {^ x( %_ H/ {4 sf rf <2 G_ @/ L6 f> %6 C/ f' !E.{g.qo.#1 FV+&s.eG.{J+~; %@ ho.[I.}i.2x+>T.GV+HV+IV+JV+YO.1o.6C KV+LV+7Q+h8 Q# ]; J  %_ Z( fp V| MV+NV+OV+PV+QV+RV+.e (; l( <~ x* A/ A/ @= 1R cT $! d#+Ot.'x.,x.~U }h.>y.hz.SV+wO g5.!Q.Nm.!{.TV+QE+`C+iF.UV+WU+|h.x9.MP `R I} e@ M^ __ !R.2K >8 ~; -- f] i} k( [, 3) |! <-.H'.8- '0 U< xP.yP.bN+9> ro.2{ /^ N* *- 7f.3_ !; .- xp Cp Em.'{ h] ed *# g- !4 $@ o7 |q Tt.@+ 3& TF (> d) 1' if J+ ,# @I VV+gO+X&+/s  * u_ Y~ E$ l( W: @- !4 7f.id.5q <6 K6 1$ '5 h) .  p! Z7 X5 M- QY.1N+by.z> v- }2 1) xv am WV+XV+iV+gG.KT+t' t' {* o/ L  o+ :> u, u7 Z$ h  7, PQ.8, ,= 8^ &> 0, k- z> D. D. Al YV+ZV+`V+5E+ W+CR..W++W+@W+#W+$W+%W+&W+*W+=W+-W+;W+>W+,W+>5 .=.OG .4 3* `*.2*.+  J) t+ k( <& ]! K6 dd L3 KG H0 L/ h2 XP `~ a- g2 b' F+.xT UQ.Nk.9< xN.e5.6R.^v ON /y.2q.iG.}m.rL.'W+u#+)N+JK+x +)W+FM+!W+z ++I RK.(} <5 >> ;, +! l! != ",
"v; o[ f{ != 3~ ,= 9{ J| J| 4; |$ z$ z$ z$ {] 3) 3) z$ 9{ y$ L6 eq.~s.eq.;C aC.(Y.AT.C2 e1 7: H4 Z# 0#.V8 V8 UE &* v+ T9 0J :P 4, 5d.6> H'.hi v( @/ <+ 2: %_ H| ,5 9/ 3) j' Y7 +[ D$ |X.{g.Zx.9[ $1 UX :: a- %5 9- $l.hd.e2 ^G+2x+2I.8L.Q&+~W+ak.%s.[q #p +m {W+Yw 9C R~ V, l{ h  Jn u, XP &I ]W+^W+/W+(W+_W+=I m$ <& H2 += i@ ;( += xz 4t B_ i_ I6.PZ 5' !U %s 9R In `g.~I+DK HD.:W+<W+;Z.[W+}W+|W+}C.mR.C3 n[.8`.m- &3  c `@ 1c X# bl Nf 3{ j- r> Av n  i% 4) .S.:{ }X.}X.U< S9 |8 VZ.2Q.Eh y .}+ k- YE *X.B$ )' <5 qO >`.xo )> cO+Ct  * L+ W& |$ Y} Y7 Q  He U, v] 4% U4 ~! V8 r$ U8 j} !U cO+Ct )- gp u_ d  +/ <~ H( p$ 7: M6 xU.A2 11 OQ.g- m, m( #= |@ U. 8^ Yb x> {# {# i{ go.)G 41 _8 kr ya wf hJ @> (K .> I[ `| <0 Z@ U= $# ]/ !p 1~ Z+ >  .] $/ #. ]= D~ &,  } i= D- D. G{ ^l 1W+2W+Ay.Ay.3W+4W+5W+6W+7W+8W+9W+0W+aW+bW+cW+dW+eW+fW+gW+b+.hv./p.-5 hd.aC.b' E3 a- by Z} c4.k6 |~ 5+ T9 +w.hW+O(+51 `; x* X& eq.iW+io.fL+jW+Zi.)i+Kt.uA+&h.KE+kW+EU.&q.zz..n.lW+mW+nW+3f.x +.a+oW+pW+qW+rW+Uz.[d.R/ G( !0 @! )H 5; }@ ",
"0, V2 V2 *~ 9; K5 i( j- m! {; 2~ {] 2~ 2~ .  .  y$ ,= J| M;.%5 ~s.nR.38 ~s.87 38  z.nR.|z.a- -- '= r$ /* %D T..aJ 8L ]B+sW+aJ %= m: Ht.<: [+ [+ >V.|$ E3 }X.SY.:+ h  MA 9- g> != 1- f' 6J.F=+W3 3B.6T -x.Z} 97 d[ g2 |z.3I+Pc @o.tW+uW+[W+vW+wJ.o[.~o u!.Wt cf h- U5 '= ,= >= |$ {`.,a }e vK wW+xW+yW+zW+AW+ZQ+E  i} 8& V* F# d; 05 == .( |q ~f.A1 :' le W[ 1< !9 }h..5 Ui.BW+1H -_+CW+DW+EW+QU.FW+GW+mR. z.3`.oz oz *.+_* d6 X~ HX.Vh 6_ 6_  } =/ |: r& R= %, << _{ v( <+ g  U< ({ T4 Eh VZ.R< 4) 5, |@ e} %_ i  B_ O0 nF )> ]d.*^ *d $! Z~ f[ 5D.3) ea #@ 5) C$ +] v$ )= 35 p! V. a2 Wt R[ kv.%s rc xo }2 }; '0 '0 @@ l{ k% 9} Bo.$l.a- a- _* V5 v$ f{ h{ Y, m, $. X< h  _[ |; 9E <7 rE iv.N%+2;  # !! 7= Z@ 7= 7_ UE *| !! $* $* HW+=' 8& 7& G@ I/ ~' o[ n= /# ~j $[ #8 J- IW+y/ ,U ki.JW+KW+LW+rg MW+NW+OW+VA+PW+QW+RW+SW+TW+UW+VW+WW+XW+YW+<N+ 0 7F+~[ 5d.f[ <: pt 8V.'*.M@.WF.d5.h] 3+ (, D2 ZW+7N+%m.s' >= %5 4`.]d+UX jW+M*+Zi.#h.Zi.>x.OY :x..=.3I+8b.%8.7F.Zt.cL+wC.`W+ X+.X++X+@X+#X+$X+XD+;T+%X+&X+(7 =I &| V8 [> "};
