/* XPM */
static char * _GUN_POV__xpm[] = {
"331 331 415 2",
"  	c None",
". 	c #141D1D",
"+ 	c #14141D",
"@ 	c #1D1D27",
"# 	c #414152",
"$ 	c #384152",
"% 	c #383841",
"& 	c #4A4A5A",
"* 	c #38384A",
"= 	c #303038",
"- 	c #303841",
"; 	c #52526B",
"> 	c #303041",
", 	c #272730",
"' 	c #525A73",
") 	c #273038",
"! 	c #38414A",
"~ 	c #4A5262",
"{ 	c #1D2727",
"] 	c #414A5A",
"^ 	c #1D1D1D",
"/ 	c #272738",
"( 	c #1D2730",
"_ 	c #141414",
": 	c #30271D",
"< 	c #383027",
"[ 	c #38271E",
"} 	c #3E2C1D",
"| 	c #342417",
"1 	c #271D1D",
"2 	c #302727",
"3 	c #2B1D18",
"4 	c #402D1F",
"5 	c #3E2A15",
"6 	c #A7673A",
"7 	c #4B2F1E",
"8 	c #553025",
"9 	c #1D1C1C",
"0 	c #3F2D1F",
"a 	c #452E17",
"b 	c #936337",
"c 	c #6B4B26",
"d 	c #3B2A14",
"e 	c #40311F",
"f 	c #1D1D14",
"g 	c #352721",
"h 	c #362613",
"i 	c #5E3E21",
"j 	c #674725",
"k 	c #453118",
"l 	c #392912",
"m 	c #9D5C42",
"n 	c #A56A41",
"o 	c #AC6F45",
"p 	c #A86C42",
"q 	c #99633B",
"r 	c #1D1414",
"s 	c #281D1B",
"t 	c #2D200F",
"u 	c #402A15",
"v 	c #332512",
"w 	c #3E2C15",
"x 	c #412F17",
"y 	c #604122",
"z 	c #3B2D14",
"A 	c #835630",
"B 	c #9A643B",
"C 	c #AD6F44",
"D 	c #B57348",
"E 	c #BA774B",
"F 	c #BB7A4D",
"G 	c #B27348",
"H 	c #714929",
"I 	c #2B2418",
"J 	c #322413",
"K 	c #241B14",
"L 	c #3D2B13",
"M 	c #402D15",
"N 	c #332A10",
"O 	c #382F14",
"P 	c #80542F",
"Q 	c #99653A",
"R 	c #AA6E42",
"S 	c #B27245",
"T 	c #BB784A",
"U 	c #C37D4F",
"V 	c #C98153",
"W 	c #CE8657",
"X 	c #C17D50",
"Y 	c #4E361C",
"Z 	c #271D1C",
"` 	c #2D1D16",
" .	c #211410",
"..	c #281C0F",
"+.	c #35261A",
"@.	c #744F29",
"#.	c #875D35",
"$.	c #5C4724",
"%.	c #393014",
"&.	c #634725",
"*.	c #8B5B34",
"=.	c #9C663D",
"-.	c #A66B3F",
";.	c #B07146",
">.	c #B97749",
",.	c #C17C4D",
"'.	c #C88152",
").	c #CE8556",
"!.	c #D48959",
"~.	c #8F5D35",
"{.	c #291F13",
"].	c #0A0A14",
"^.	c #342518",
"/.	c #2C1F0E",
"(.	c #1E160A",
"_.	c #100B07",
":.	c #6B4826",
"<.	c #9A6A3D",
"[.	c #7C5A30",
"}.	c #332C11",
"|.	c #4C371C",
"1.	c #79512E",
"2.	c #935F38",
"3.	c #A1683E",
"4.	c #AE7044",
"5.	c #B77649",
"6.	c #C88050",
"7.	c #CE8454",
"8.	c #D28757",
"9.	c #7B502B",
"0.	c #271D14",
"a.	c #1E180B",
"b.	c #131107",
"c.	c #462F16",
"d.	c #7F5830",
"e.	c #835C34",
"f.	c #48391B",
"g.	c #3B3015",
"h.	c #533A1E",
"i.	c #774F2C",
"j.	c #946039",
"k.	c #AB6F43",
"l.	c #B47447",
"m.	c #B77648",
"n.	c #BD7A4B",
"o.	c #C57E4E",
"p.	c #CB8252",
"q.	c #AF7043",
"r.	c #583C1E",
"s.	c #4A4A62",
"t.	c #525A6B",
"u.	c #29251A",
"v.	c #352518",
"w.	c #2A1E0D",
"x.	c #241A0F",
"y.	c #362618",
"z.	c #71502A",
"A.	c #553F1E",
"B.	c #372F14",
"C.	c #372D14",
"D.	c #5F4223",
"E.	c #7B512E",
"F.	c #9F673E",
"G.	c #A86C41",
"H.	c #AF7145",
"I.	c #B57548",
"J.	c #BA7849",
"K.	c #C17C4C",
"L.	c #C98151",
"M.	c #A46A3E",
"N.	c #412F16",
"O.	c #0A0A0A",
"P.	c #2D1F0E",
"Q.	c #1D180B",
"R.	c #201A0C",
"S.	c #50371B",
"T.	c #644424",
"U.	c #614322",
"V.	c #473418",
"W.	c #372C14",
"X.	c #5B3E21",
"Y.	c #805430",
"Z.	c #915E37",
"`.	c #9C663C",
" +	c #A56B40",
".+	c #B37447",
"++	c #BA7749",
"@+	c #7B502C",
"#+	c #0A1414",
"$+	c #00000A",
"%+	c #000000",
"&+	c #38271F",
"*+	c #1A1609",
"=+	c #1E180A",
"-+	c #473318",
";+	c #563C1E",
">+	c #53391C",
",+	c #332812",
"'+	c #593D20",
")+	c #7F542F",
"!+	c #8F5D36",
"~+	c #A2693E",
"{+	c #A86D41",
"]+	c #AE7145",
"^+	c #B87748",
"/+	c #915E35",
"(+	c #30384A",
"_+	c #32261B",
":+	c #191609",
"<+	c #111307",
"[+	c #322712",
"}+	c #4D371B",
"|+	c #5C4021",
"1+	c #4B341A",
"2+	c #3B2C12",
"3+	c #4E371C",
"4+	c #78502C",
"5+	c #8D5C36",
"6+	c #98633A",
"7+	c #9F673D",
"8+	c #A56B3F",
"9+	c #A96E42",
"0+	c #B17346",
"a+	c #BF7B4B",
"b+	c #704B2C",
"c+	c #27261C",
"d+	c #2A1E0E",
"e+	c #171609",
"f+	c #0F0E06",
"g+	c #120D05",
"h+	c #3F2D17",
"i+	c #453018",
"j+	c #322812",
"k+	c #4C371B",
"l+	c #6B4827",
"m+	c #855732",
"n+	c #926038",
"o+	c #9C653B",
"p+	c #A36A3E",
"q+	c #A76C40",
"r+	c #B97447",
"s+	c #402E16",
"t+	c #3C2E22",
"u+	c #2F210F",
"v+	c #0B0904",
"w+	c #2F2210",
"x+	c #3D2D14",
"y+	c #312711",
"z+	c #4F391D",
"A+	c #6C4928",
"B+	c #825531",
"C+	c #905E37",
"D+	c #A56C40",
"E+	c #9A623A",
"F+	c #30261C",
"G+	c #25190C",
"H+	c #111107",
"I+	c #291E0D",
"J+	c #49331A",
"K+	c #3D2C15",
"L+	c #2B230F",
"M+	c #413017",
"N+	c #6B4928",
"O+	c #815430",
"P+	c #96623A",
"Q+	c #9E663C",
"R+	c #A36B3F",
"S+	c #634526",
"T+	c #1D1D30",
"U+	c #2B2318",
"V+	c #070603",
"W+	c #040802",
"X+	c #5F3F21",
"Y+	c #51381C",
"Z+	c #3D2A14",
"`+	c #342C13",
" @	c #6B4727",
".@	c #714A29",
"+@	c #895934",
"@@	c #916038",
"#@	c #9C643B",
"$@	c #A0683C",
"%@	c #966339",
"&@	c #291D1A",
"*@	c #271C0D",
"=@	c #0E1106",
"-@	c #875A33",
";@	c #A16B3D",
">@	c #7A522D",
",@	c #41301E",
"'@	c #3B2A15",
")@	c #332B13",
"!@	c #3F2F17",
"~@	c #4B371B",
"{@	c #774F2B",
"]@	c #7F532F",
"^@	c #8F5F37",
"/@	c #9B633B",
"(@	c #9E673B",
"_@	c #644223",
":@	c #27271D",
"<@	c #302210",
"[@	c #604222",
"}@	c #9B673B",
"|@	c #9F6A3C",
"1@	c #5A412C",
"2@	c #875733",
"3@	c #986339",
"4@	c #3D2B15",
"5@	c #1D1C13",
"6@	c #211910",
"7@	c #19130E",
"8@	c #20190B",
"9@	c #231E0D",
"0@	c #75502A",
"a@	c #A66E40",
"b@	c #7F572D",
"c@	c #47311A",
"d@	c #B37347",
"e@	c #7E542E",
"f@	c #5A627B",
"g@	c #151008",
"h@	c #0F1407",
"i@	c #583D1F",
"j@	c #835730",
"k@	c #895B33",
"l@	c #614324",
"m@	c #473118",
"n@	c #5F4323",
"o@	c #453120",
"p@	c #201A0A",
"q@	c #2D2610",
"r@	c #5F4021",
"s@	c #6F4C28",
"t@	c #452D21",
"u@	c #533F1F",
"v@	c #34271B",
"w@	c #271C13",
"x@	c #2A1E0F",
"y@	c #252112",
"z@	c #533B1C",
"A@	c #714D29",
"B@	c #583031",
"C@	c #45311F",
"D@	c #2A2118",
"E@	c #626283",
"F@	c #6B738C",
"G@	c #737B9B",
"H@	c #626B83",
"I@	c #1E1B12",
"J@	c #291D0E",
"K@	c #291F1A",
"L@	c #45331E",
"M@	c #402F15",
"N@	c #433117",
"O@	c #392B1B",
"P@	c #1A1714",
"Q@	c #6B7393",
"R@	c #261C11",
"S@	c #312418",
"T@	c #382611",
"U@	c #3C2A14",
"V@	c #3D2C14",
"W@	c #332919",
"X@	c #151413",
"Y@	c #6B6B8C",
"Z@	c #201410",
"`@	c #24180A",
" #	c #120B05",
".#	c #302214",
"+#	c #372917",
"@#	c #2F2512",
"##	c #41415A",
"$#	c #1E1412",
"%#	c #20170B",
"&#	c #0E0B09",
"*#	c #251B12",
"=#	c #2A2210",
"-#	c #3F2C14",
";#	c #231F13",
">#	c #271C10",
",#	c #1A130F",
"'#	c #19130A",
")#	c #312211",
"!#	c #151513",
"~#	c #2C200E",
"{#	c #271D12",
"]#	c #1A1511",
"^#	c #18100B",
"/#	c #2A1F10",
"(#	c #16100B",
"_#	c #120D08",
":#	c #2E230F",
"<#	c #140E07",
"[#	c #100E0B",
"}#	c #14140A",
"|#	c #2C230E",
"1#	c #1E160B",
"2#	c #0A0B05",
"3#	c #4F3B23",
"4#	c #43331B",
"5#	c #2F240F",
"6#	c #19120A",
"7#	c #2D2510",
"8#	c #232323",
"9#	c #CB7F4F",
"0#	c #D78B5B",
"a#	c #E79B6B",
"b#	c #EFA373",
"c#	c #CF8353",
"d#	c #FFB383",
"e#	c #DF9363",
"f#	c #FFBF9B",
"g#	c #FFBB93",
"h#	c #F7AB7B",
"                                                                                                                                                                                                                                                                                                                                                                                                                                                                                                                                                                                                                                                                                      ",
"                                                                                                                                                                                                                                                                                                                                                                                                                                                                                                                                                                                                                                                                                      ",
"                                                                                                                                                                                                                                                                                                                                                                                                                                                                                                                                                                                                                                                                                      ",
"                                                                                                                                                                                                                                                                                                                                                                                                                                                                                                                                                                                                                                                                                      ",
"                                                                                                                                                                                                                                                                                                                                                                                                                                                                                                                                                                                                                                                                                      ",
"                                                                                                                                                                                                                                                                                                                                                                                                                                                                                                                                                                                                                                                                                      ",
"                                                                                                                                                                                                                                                                                                                                                                                                                                                                                                                                                                                                                                                                                      ",
"                                                                                                                                                                                                                                                                                                                                                                                                                                                                                                                                                                                                                                                                                      ",
"                                                                                                                                                                                                                                                                                                                                                                                                                                                                                                                                                                                                                                                                                      ",
"                                                                                                                                                                                                                                                                                                                                                                                                                                                                                                                                                                                                                                                                                      ",
"                                                                                                                                                                                                                                                                                                                                                                                                                                                                                                                                                                                                                                                                                      ",
"                                                                                                                                                                                                                                                                                                                                                                                                                                                                                                                                                                                                                                                                                      ",
"                                                                                                                                                                                                                                                                                                                                                                                                                                                                                                                                                                                                                                                                                      ",
"                                                                                                                                                                                                                                                                                                                                                                                                                                                                                                                                                                                                                                                                                      ",
"                                                                                                                                                                                                                                                                                                                                                                                                                                                                                                                                                                                                                                                                                      ",
"                                                                                                                                                                                                                                                                                                                                                                                                                                                                                                                                                                                                                                                                                      ",
"                                                                                                                                                                                                                                                                                                                                                                                                                                                                                                                                                                                                                                                                                      ",
"                                                                                                                                                                                                                                                                                                                                                                                                                                                                                                                                                                                                                                                                                      ",
"                                                                                                                                                                                                                                                                                                                                                                                                                                                                                                                                                                                                                                                                                      ",
"                                                                                                                                                                                                                                                                                                                                                                                                                                                                                                                                                                                                                                                                                      ",
"                                                                                                                                                                                                                                                                                                                                                                                                                                                                                                                                                                                                                                                                                      ",
"                                                                                                                                                                                                                                                                                                                                                                                                                                                                                                                                                                                                                                                                                      ",
"                                                                                                                                                                                                                                                                                                                                                                                                                                                                                                                                                                                                                                                                                      ",
"                                                                                                                                                                                                                                                                                                                                                                                                                                                                                                                                                                                                                                                                                      ",
"                                                                                                                                                                                                                                                                                                                                                                                                                                                                                                                                                                                                                                                                                      ",
"                                                                                                                                                                                                                                                                                                                                                                                                                                                                                                                                                                                                                                                                                      ",
"                                                                                                                                                                                                                                                                                                                                                                                                                                                                                                                                                                                                                                                                                      ",
"                                                                                                                                                                                                                                                                                                                                                                                                                                                                                                                                                                                                                                                                                      ",
"                                                                                                                                                                                                                                                                                                                                                                                                                                                                                                                                                                                                                                                                                      ",
"                                                                                                                                                                                                                                                                                                                                                                                                                                                                                                                                                                                                                                                                                      ",
"                                                                                                                                                                                                                                                                                                                                                                                                                                                                                                                                                                                                                                                                                      ",
"                                                                                                                                                                                                                                                                                                                                                                                                                                                                                                                                                                                                                                                                                      ",
"                                                                                                                                                                                                                                                                                                                                                                                                                                                                                                                                                                                                                                                                                      ",
"                                                                                                                                                                                                                                                                                                                                                                                                                                                                                                                                                                                                                                                                                      ",
"                                                                                                                                                                                                                                                                                                                                                                                                                                                                                                                                                                                                                                                                                      ",
"                                                                                                                                                                                                                                                                                                                                                                                                                                                                                                                                                                                                                                                                                      ",
"                                                                                                                                                                                                                                                                                                                                                                                                                                                                                                                                                                                                                                                                                      ",
"                                                                                                                                                                                                                                                                                                                                                                                                                                                                                                                                                                                                                                                                                      ",
"                                                                                                                                                                                                                                                                                                                                                                                                                                                                                                                                                                                                                                                                                      ",
"                                                                                                                                                                                                                                                                                                                                                                                                                                                                                                                                                                                                                                                                                      ",
"                                                                                                                                                                                                                                                                                                                                                                                                                                                                                                                                                                                                                                                                                      ",
"                                                                                                                                                                                                                                                                                                                                                                                                              . . . . + + + +                                                                                                                                                                                                                                                         ",
"                                                                                                                                                                                                                                                                                                                                                                                                              . . . . + + + +                                                                                                                                                                                                                                                         ",
"                                                                                                                                                                                                                                                                                                                                                                                                              . . . . + + + +                                                                                                                                                                                                                                                         ",
"                                                                                                                                                                                                                                                                                                                                                                                                              . . . . + + + +                                                                                                                                                                                                                                                         ",
"                                                                                                                                                                                                                                                                                                                                                                                                              @ @ @ @ @ @ @ @                                                                                                                                                                                                                                                         ",
"                                                                                                                                                                                                                                                                                                                                                                                                              @ @ @ @ @ @ @ @                                                                                                                                                                                                                                                         ",
"                                                                                                                                                                                                                                                                                                                                                                                                              @ @ @ @ @ @ @ @                                                                                                                                                                                                                                                         ",
"                                                                                                                                                                                                                                                                                                                                                                                                              @ @ @ @ @ @ @ @                                                                                                                                                                                                                                                         ",
"                                                                                                                                                                                                                                                                                                                                                                                                              @ @ @ @ @ @ @ @                                                                                                                                                                                                                                                         ",
"                                                                                                                                                                                                                                                                                                                                                                                                              @ @ @ @ @ @ @ @                                                                                                                                                                                                                                                         ",
"                                                                                                                                                                                                                                                                                                                                                                                                              @ @ @ @ @ @ @ @                                                                                                                                                                                                                                                         ",
"                                                                                                                                                                                                                                                                                                                                                                                                              @ @ @ @ @ @ @ @                                                                                                                                                                                                                                                         ",
"                                                                                                                                                                                                                                                                                                                                                                                                      # # # # # # # # $ $ $ $ % % % %                                                                                                                                                                                                                                                 ",
"                                                                                                                                                                                                                                                                                                                                                                                                      # # # # # # # # $ $ $ $ % % % %                                                                                                                                                                                                                                                 ",
"                                                                                                                                                                                                                                                                                                                                                                                                      # # # # # # # # $ $ $ $ % % % %                                                                                                                                                                                                                                                 ",
"                                                                                                                                                                                                                                                                                                                                                                                                      # # # # # # # # $ $ $ $ % % % %                                                                                                                                                                                                                                                 ",
"                                                                                                                                                                                                                                                                                                                                                                                      % % % % & & & & * * * * # # # # * * * * $ $ $ $ & & & & = = = =                                                                                                                                                                                                                                 ",
"                                                                                                                                                                                                                                                                                                                                                                                      % % % % & & & & * * * * # # # # * * * * $ $ $ $ & & & & = = = =                                                                                                                                                                                                                                 ",
"                                                                                                                                                                                                                                                                                                                                                                                      % % % % & & & & * * * * # # # # * * * * $ $ $ $ & & & & = = = =                                                                                                                                                                                                                                 ",
"                                                                                                                                                                                                                                                                                                                                                                                      % % % % & & & & * * * * # # # # * * * * $ $ $ $ & & & & = = = =                                                                                                                                                                                                                                 ",
"                                                                                                                                                                                                                                                                                                                                                                              - - - - * * * * ; ; ; ; - - - - % % % % > > > > * * * * ; ; ; ; - - - - - - - -                                                                                                                                                                                                                         ",
"                                                                                                                                                                                                                                                                                                                                                                              - - - - * * * * ; ; ; ; - - - - % % % % > > > > * * * * ; ; ; ; - - - - - - - -                                                                                                                                                                                                                         ",
"                                                                                                                                                                                                                                                                                                                                                                              - - - - * * * * ; ; ; ; - - - - % % % % > > > > * * * * ; ; ; ; - - - - - - - -                                                                                                                                                                                                                         ",
"                                                                                                                                                                                                                                                                                                                                                                              - - - - * * * * ; ; ; ; - - - - % % % % > > > > * * * * ; ; ; ; - - - - - - - -                                                                                                                                                                                                                         ",
"                                                                                                                                                                                                                                                                                                                                                                      , , , , = = = = % % % % ' ' ' ' - - - - - - - - = = = = = = = = ; ; ; ; % % % % - - - - = = = =                                                                                                                                                                                                                 ",
"                                                                                                                                                                                                                                                                                                                                                                      , , , , = = = = % % % % ' ' ' ' - - - - - - - - = = = = = = = = ; ; ; ; % % % % - - - - = = = =                                                                                                                                                                                                                 ",
"                                                                                                                                                                                                                                                                                                                                                                      , , , , = = = = % % % % ' ' ' ' - - - - - - - - = = = = = = = = ; ; ; ; % % % % - - - - = = = =                                                                                                                                                                                                                 ",
"                                                                                                                                                                                                                                                                                                                                                                      , , , , = = = = % % % % ' ' ' ' - - - - - - - - = = = = = = = = ; ; ; ; % % % % - - - - = = = =                                                                                                                                                                                                                 ",
"                                                                                                                                                                                                                                                                                                                                                                      , , , , , , , , * * * * ; ; ; ; ) ) ) ) - - - - = = = = = = = = ; ; ; ; % % % % = = = = = = = =                                                                                                                                                                                                                 ",
"                                                                                                                                                                                                                                                                                                                                                                      , , , , , , , , * * * * ; ; ; ; ) ) ) ) - - - - = = = = = = = = ; ; ; ; % % % % = = = = = = = =                                                                                                                                                                                                                 ",
"                                                                                                                                                                                                                                                                                                                                                                      , , , , , , , , * * * * ; ; ; ; ) ) ) ) - - - - = = = = = = = = ; ; ; ; % % % % = = = = = = = =                                                                                                                                                                                                                 ",
"                                                                                                                                                                                                                                                                                                                                                                      , , , , , , , , * * * * ; ; ; ; ) ) ) ) - - - - = = = = = = = = ; ; ; ; % % % % = = = = = = = =                                                                                                                                                                                                                 ",
"                                                                                                                                                                                                                                                                                                                                                              , , , , , , , , > > > > ! ! ! ! ; ; ; ; , , , , = = = = , , , , ) ) ) ) ~ ~ ~ ~ * * * * = = = = ) ) ) ) , , , ,                                                                                                                                                                                                         ",
"                                                                                                                                                                                                                                                                                                                                                              , , , , , , , , > > > > ! ! ! ! ; ; ; ; , , , , = = = = , , , , ) ) ) ) ~ ~ ~ ~ * * * * = = = = ) ) ) ) , , , ,                                                                                                                                                                                                         ",
"                                                                                                                                                                                                                                                                                                                                                              , , , , , , , , > > > > ! ! ! ! ; ; ; ; , , , , = = = = , , , , ) ) ) ) ~ ~ ~ ~ * * * * = = = = ) ) ) ) , , , ,                                                                                                                                                                                                         ",
"                                                                                                                                                                                                                                                                                                                                                              , , , , , , , , > > > > ! ! ! ! ; ; ; ; , , , , = = = = , , , , ) ) ) ) ~ ~ ~ ~ * * * * = = = = ) ) ) ) , , , ,                                                                                                                                                                                                         ",
"                                                                                                                                                                                                                                                                                                                                                              , , , , = = = = - - - - ! ! ! ! & & & & { { { { ) ) ) ) , , , , , , , , ] ] ] ] * * * * - - - - = = = = , , , ,                                                                                                                                                                                                         ",
"                                                                                                                                                                                                                                                                                                                                                              , , , , = = = = - - - - ! ! ! ! & & & & { { { { ) ) ) ) , , , , , , , , ] ] ] ] * * * * - - - - = = = = , , , ,                                                                                                                                                                                                         ",
"                                                                                                                                                                                                                                                                                                                                                              , , , , = = = = - - - - ! ! ! ! & & & & { { { { ) ) ) ) , , , , , , , , ] ] ] ] * * * * - - - - = = = = , , , ,                                                                                                                                                                                                         ",
"                                                                                                                                                                                                                                                                                                                                                              , , , , = = = = - - - - ! ! ! ! & & & & { { { { ) ) ) ) , , , , , , , , ] ] ] ] * * * * - - - - = = = = , , , ,                                                                                                                                                                                                         ",
"                                                                                                                                                                                                                                                                                                                                                              , , , , = = = = > > > > # # # # & & & & @ @ @ @ @ @ @ @ , , , , @ @ @ @ $ $ $ $ - - - - = = = = > > > > , , , ,                                                                                                                                                                                                         ",
"                                                                                                                                                                                                                                                                                                                                                              , , , , = = = = > > > > # # # # & & & & @ @ @ @ @ @ @ @ , , , , @ @ @ @ $ $ $ $ - - - - = = = = > > > > , , , ,                                                                                                                                                                                                         ",
"                                                                                                                                                                                                                                                                                                                                                              , , , , = = = = > > > > # # # # & & & & @ @ @ @ @ @ @ @ , , , , @ @ @ @ $ $ $ $ - - - - = = = = > > > > , , , ,                                                                                                                                                                                                         ",
"                                                                                                                                                                                                                                                                                                                                                              , , , , = = = = > > > > # # # # & & & & @ @ @ @ @ @ @ @ , , , , @ @ @ @ $ $ $ $ - - - - = = = = > > > > , , , ,                                                                                                                                                                                                         ",
"                                                                                                                                                                                                                                                                                                                                                      , , , , = = = = = = = = = = = = ] ] ] ] $ $ $ $ ^ ^ ^ ^ @ @ @ @ { { { { @ @ @ @ $ $ $ $ - - - - , , , , / / / / = = = = , , , ,                                                                                                                                                                                                 ",
"                                                                                                                                                                                                                                                                                                                                                      , , , , = = = = = = = = = = = = ] ] ] ] $ $ $ $ ^ ^ ^ ^ @ @ @ @ { { { { @ @ @ @ $ $ $ $ - - - - , , , , / / / / = = = = , , , ,                                                                                                                                                                                                 ",
"                                                                                                                                                                                                                                                                                                                                                      , , , , = = = = = = = = = = = = ] ] ] ] $ $ $ $ ^ ^ ^ ^ @ @ @ @ { { { { @ @ @ @ $ $ $ $ - - - - , , , , / / / / = = = = , , , ,                                                                                                                                                                                                 ",
"                                                                                                                                                                                                                                                                                                                                                      , , , , = = = = = = = = = = = = ] ] ] ] $ $ $ $ ^ ^ ^ ^ @ @ @ @ { { { { @ @ @ @ $ $ $ $ - - - - , , , , / / / / = = = = , , , ,                                                                                                                                                                                                 ",
"                                                                                                                                                                                                                                                                                                                                                      , , , , = = = = ) ) ) ) ) ) ) ) ; ; ; ; - - - - @ @ @ @ @ @ @ @ , , , , @ @ @ @ - - - - $ $ $ $ @ @ @ @ @ @ @ @ , , , , , , , ,                                                                                                                                                                                                 ",
"                                                                                                                                                                                                                                                                                                                                                      , , , , = = = = ) ) ) ) ) ) ) ) ; ; ; ; - - - - @ @ @ @ @ @ @ @ , , , , @ @ @ @ - - - - $ $ $ $ @ @ @ @ @ @ @ @ , , , , , , , ,                                                                                                                                                                                                 ",
"                                                                                                                                                                                                                                                                                                                                                      , , , , = = = = ) ) ) ) ) ) ) ) ; ; ; ; - - - - @ @ @ @ @ @ @ @ , , , , @ @ @ @ - - - - $ $ $ $ @ @ @ @ @ @ @ @ , , , , , , , ,                                                                                                                                                                                                 ",
"                                                                                                                                                                                                                                                                                                                                                      , , , , = = = = ) ) ) ) ) ) ) ) ; ; ; ; - - - - @ @ @ @ @ @ @ @ , , , , @ @ @ @ - - - - $ $ $ $ @ @ @ @ @ @ @ @ , , , , , , , ,                                                                                                                                                                                                 ",
"                                                                                                                                                                                                                                                                                                                                                      , , , , / / / / , , , , ) ) ) ) ; ; ; ; , , , , @ @ @ @ @ @ @ @ , , , , @ @ @ @ - - - - $ $ $ $ . . . . + + + + @ @ @ @ , , , ,                                                                                                                                                                                                 ",
"                                                                                                                                                                                                                                                                                                                                                      , , , , / / / / , , , , ) ) ) ) ; ; ; ; , , , , @ @ @ @ @ @ @ @ , , , , @ @ @ @ - - - - $ $ $ $ . . . . + + + + @ @ @ @ , , , ,                                                                                                                                                                                                 ",
"                                                                                                                                                                                                                                                                                                                                                      , , , , / / / / , , , , ) ) ) ) ; ; ; ; , , , , @ @ @ @ @ @ @ @ , , , , @ @ @ @ - - - - $ $ $ $ . . . . + + + + @ @ @ @ , , , ,                                                                                                                                                                                                 ",
"                                                                                                                                                                                                                                                                                                                                                      , , , , / / / / , , , , ) ) ) ) ; ; ; ; , , , , @ @ @ @ @ @ @ @ , , , , @ @ @ @ - - - - $ $ $ $ . . . . + + + + @ @ @ @ , , , ,                                                                                                                                                                                                 ",
"                                                                                                                                                                                                                                                                                                                                              , , , , , , , , , , , , , , , , ) ) ) ) ' ' ' ' / / / / { { { { ( ( ( ( @ @ @ @ @ @ @ @ ) ) ) ) ] ] ] ] . . . . _ _ _ _ + + + + , , , , , , , ,                                                                                                                                                                                         ",
"                                                                                                                                                                                                                                                                                                                                              , , , , , , , , , , , , , , , , ) ) ) ) ' ' ' ' / / / / { { { { ( ( ( ( @ @ @ @ @ @ @ @ ) ) ) ) ] ] ] ] . . . . _ _ _ _ + + + + , , , , , , , ,                                                                                                                                                                                         ",
"                                                                                                                                                                                                                                                                                                                                              , , , , , , , , , , , , , , , , ) ) ) ) ' ' ' ' / / / / { { { { ( ( ( ( @ @ @ @ @ @ @ @ ) ) ) ) ] ] ] ] . . . . _ _ _ _ + + + + , , , , , , , ,                                                                                                                                                                                         ",
"                                                                                                                                                                                                                                                                                                                                              , , , , , , , , , , , , , , , , ) ) ) ) ' ' ' ' / / / / { { { { ( ( ( ( @ @ @ @ @ @ @ @ ) ) ) ) ] ] ] ] . . . . _ _ _ _ + + + + , , , , , , , ,                                                                                                                                                                                         ",
"                                                                                                                                                                                                                                                                                                                                              ( ( ( ( , , , , , , , , , , , , ) ) ) ) ~ ~ ~ ~ , , , , , , , , , , , , ( ( ( ( @ @ @ @ / / / / ~ ~ ~ ~ @ @ @ @ + + + + _ _ _ _ + + + + ( ( ( (                                                                                                                                                                                         ",
"                                                                                                                                                                                                                                                                                                                                              ( ( ( ( , , , , , , , , , , , , ) ) ) ) ~ ~ ~ ~ , , , , , , , , , , , , ( ( ( ( @ @ @ @ / / / / ~ ~ ~ ~ @ @ @ @ + + + + _ _ _ _ + + + + ( ( ( (                                                                                                                                                                                         ",
"                                                                                                                                                                                                                                                                                                                                              ( ( ( ( , , , , , , , , , , , , ) ) ) ) ~ ~ ~ ~ , , , , , , , , , , , , ( ( ( ( @ @ @ @ / / / / ~ ~ ~ ~ @ @ @ @ + + + + _ _ _ _ + + + + ( ( ( (                                                                                                                                                                                         ",
"                                                                                                                                                                                                                                                                                                                                              ( ( ( ( , , , , , , , , , , , , ) ) ) ) ~ ~ ~ ~ , , , , , , , , , , , , ( ( ( ( @ @ @ @ / / / / ~ ~ ~ ~ @ @ @ @ + + + + _ _ _ _ + + + + ( ( ( (                                                                                                                                                                                         ",
"                                                                                                                                                                                                                                                                                                                                              @ @ @ @ , , , , ( ( ( ( , , , , ) ) ) ) & & & & ( ( ( ( ( ( ( ( @ @ @ @ { { { { ( ( ( ( , , , , ~ ~ ~ ~ @ @ @ @ @ @ @ @ + + + + + + + + @ @ @ @                                                                                                                                                                                         ",
"                                                                                                                                                                                                                                                                                                                                              @ @ @ @ , , , , ( ( ( ( , , , , ) ) ) ) & & & & ( ( ( ( ( ( ( ( @ @ @ @ { { { { ( ( ( ( , , , , ~ ~ ~ ~ @ @ @ @ @ @ @ @ + + + + + + + + @ @ @ @                                                                                                                                                                                         ",
"                                                                                                                                                                                                                                                                                                                                              @ @ @ @ , , , , ( ( ( ( , , , , ) ) ) ) & & & & ( ( ( ( ( ( ( ( @ @ @ @ { { { { ( ( ( ( , , , , ~ ~ ~ ~ @ @ @ @ @ @ @ @ + + + + + + + + @ @ @ @                                                                                                                                                                                         ",
"                                                                                                                                                                                                                                                                                                                                              @ @ @ @ , , , , ( ( ( ( , , , , ) ) ) ) & & & & ( ( ( ( ( ( ( ( @ @ @ @ { { { { ( ( ( ( , , , , ~ ~ ~ ~ @ @ @ @ @ @ @ @ + + + + + + + + @ @ @ @                                                                                                                                                                                         ",
"                                                                                                                                                                                                                                                                                                                                      @ @ @ @ @ @ @ @ ( ( ( ( ( ( ( ( ( ( ( ( - - - - $ $ $ $ @ @ @ @ ( ( ( ( ( ( ( ( ( ( ( ( ( ( ( ( , , , , ] ] ] ] , , , , ^ ^ ^ ^ @ @ @ @ @ @ @ @ ^ ^ ^ ^ @ @ @ @                                                                                                                                                                                 ",
"                                                                                                                                                                                                                                                                                                                                      @ @ @ @ @ @ @ @ ( ( ( ( ( ( ( ( ( ( ( ( - - - - $ $ $ $ @ @ @ @ ( ( ( ( ( ( ( ( ( ( ( ( ( ( ( ( , , , , ] ] ] ] , , , , ^ ^ ^ ^ @ @ @ @ @ @ @ @ ^ ^ ^ ^ @ @ @ @                                                                                                                                                                                 ",
"                                                                                                                                                                                                                                                                                                                                      @ @ @ @ @ @ @ @ ( ( ( ( ( ( ( ( ( ( ( ( - - - - $ $ $ $ @ @ @ @ ( ( ( ( ( ( ( ( ( ( ( ( ( ( ( ( , , , , ] ] ] ] , , , , ^ ^ ^ ^ @ @ @ @ @ @ @ @ ^ ^ ^ ^ @ @ @ @                                                                                                                                                                                 ",
"                                                                                                                                                                                                                                                                                                                                      @ @ @ @ @ @ @ @ ( ( ( ( ( ( ( ( ( ( ( ( - - - - $ $ $ $ @ @ @ @ ( ( ( ( ( ( ( ( ( ( ( ( ( ( ( ( , , , , ] ] ] ] , , , , ^ ^ ^ ^ @ @ @ @ @ @ @ @ ^ ^ ^ ^ @ @ @ @                                                                                                                                                                                 ",
"                                                                                                                                                                                                                                                                                                                                      @ @ @ @ @ @ @ @ ( ( ( ( @ @ @ @ @ @ @ @ - - - - - - - - @ @ @ @ / / / / ( ( ( ( @ @ @ @ @ @ @ @ , , , , $ $ $ $ ) ) ) ) ^ ^ ^ ^ ^ ^ ^ ^ @ @ @ @ + + + + @ @ @ @                                                                                                                                                                                 ",
"                                                                                                                                                                                                                                                                                                                                      @ @ @ @ @ @ @ @ ( ( ( ( @ @ @ @ @ @ @ @ - - - - - - - - @ @ @ @ / / / / ( ( ( ( @ @ @ @ @ @ @ @ , , , , $ $ $ $ ) ) ) ) ^ ^ ^ ^ ^ ^ ^ ^ @ @ @ @ + + + + @ @ @ @                                                                                                                                                                                 ",
"                                                                                                                                                                                                                                                                                                                                      @ @ @ @ @ @ @ @ ( ( ( ( @ @ @ @ @ @ @ @ - - - - - - - - @ @ @ @ / / / / ( ( ( ( @ @ @ @ @ @ @ @ , , , , $ $ $ $ ) ) ) ) ^ ^ ^ ^ ^ ^ ^ ^ @ @ @ @ + + + + @ @ @ @                                                                                                                                                                                 ",
"                                                                                                                                                                                                                                                                                                                                      @ @ @ @ @ @ @ @ ( ( ( ( @ @ @ @ @ @ @ @ - - - - - - - - @ @ @ @ / / / / ( ( ( ( @ @ @ @ @ @ @ @ , , , , $ $ $ $ ) ) ) ) ^ ^ ^ ^ ^ ^ ^ ^ @ @ @ @ + + + + @ @ @ @                                                                                                                                                                                 ",
"                                                                                                                                                                                                                                                                                                                                      @ @ @ @ @ @ @ @ @ @ @ @ @ @ @ @ @ @ @ @ $ $ $ $ - - - - @ @ @ @ / / / / ( ( ( ( @ @ @ @ @ @ @ @ ( ( ( ( $ $ $ $ - - - - ^ ^ ^ ^ . . . . ^ ^ ^ ^ ^ ^ ^ ^ @ @ @ @                                                                                                                                                                                 ",
"                                                                                                                                                                                                                                                                                                                                      @ @ @ @ @ @ @ @ @ @ @ @ @ @ @ @ @ @ @ @ $ $ $ $ - - - - @ @ @ @ / / / / ( ( ( ( @ @ @ @ @ @ @ @ ( ( ( ( $ $ $ $ - - - - ^ ^ ^ ^ . . . . ^ ^ ^ ^ ^ ^ ^ ^ @ @ @ @                                                                                                                                                                                 ",
"                                                                                                                                                                                                                                                                                                                                      @ @ @ @ @ @ @ @ @ @ @ @ @ @ @ @ @ @ @ @ $ $ $ $ - - - - @ @ @ @ / / / / ( ( ( ( @ @ @ @ @ @ @ @ ( ( ( ( $ $ $ $ - - - - ^ ^ ^ ^ . . . . ^ ^ ^ ^ ^ ^ ^ ^ @ @ @ @                                                                                                                                                                                 ",
"                                                                                                                                                                                                                                                                                                                                      @ @ @ @ @ @ @ @ @ @ @ @ @ @ @ @ @ @ @ @ $ $ $ $ - - - - @ @ @ @ / / / / ( ( ( ( @ @ @ @ @ @ @ @ ( ( ( ( $ $ $ $ - - - - ^ ^ ^ ^ . . . . ^ ^ ^ ^ ^ ^ ^ ^ @ @ @ @                                                                                                                                                                                 ",
"                                                                                                                                                                                                                                                                                                                              @ @ @ @ @ @ @ @ @ @ @ @ . . . . + + + + . . . . $ $ $ $ - - - - , , , , ) ) ) ) / / / / , , , , , , , , { { { { $ $ $ $ - - - - @ @ @ @ ^ ^ ^ ^ ^ ^ ^ ^ ^ ^ ^ ^ @ @ @ @ @ @ @ @                                                                                                                                                                         ",
"                                                                                                                                                                                                                                                                                                                              @ @ @ @ @ @ @ @ @ @ @ @ . . . . + + + + . . . . $ $ $ $ - - - - , , , , ) ) ) ) / / / / , , , , , , , , { { { { $ $ $ $ - - - - @ @ @ @ ^ ^ ^ ^ ^ ^ ^ ^ ^ ^ ^ ^ @ @ @ @ @ @ @ @                                                                                                                                                                         ",
"                                                                                                                                                                                                                                                                                                                              @ @ @ @ @ @ @ @ @ @ @ @ . . . . + + + + . . . . $ $ $ $ - - - - , , , , ) ) ) ) / / / / , , , , , , , , { { { { $ $ $ $ - - - - @ @ @ @ ^ ^ ^ ^ ^ ^ ^ ^ ^ ^ ^ ^ @ @ @ @ @ @ @ @                                                                                                                                                                         ",
"                                                                                                                                                                                                                                                                                                                              @ @ @ @ @ @ @ @ @ @ @ @ . . . . + + + + . . . . $ $ $ $ - - - - , , , , ) ) ) ) / / / / , , , , , , , , { { { { $ $ $ $ - - - - @ @ @ @ ^ ^ ^ ^ ^ ^ ^ ^ ^ ^ ^ ^ @ @ @ @ @ @ @ @                                                                                                                                                                         ",
"                                                                                                                                                                                                                                                                                                              : : : : < < < < @ @ @ @ @ @ @ @ @ @ @ @ + + + + + + + + @ @ @ @ $ $ $ $ ) ) ) ) , , , , ) ) ) ) ) ) ) ) / / / / , , , , @ @ @ @ - - - - $ $ $ $ @ @ @ @ @ @ @ @ ^ ^ ^ ^ . . . . + + + + [ [ [ [ } } } } | | | |                                                                                                                                                         ",
"                                                                                                                                                                                                                                                                                                              : : : : < < < < @ @ @ @ @ @ @ @ @ @ @ @ + + + + + + + + @ @ @ @ $ $ $ $ ) ) ) ) , , , , ) ) ) ) ) ) ) ) / / / / , , , , @ @ @ @ - - - - $ $ $ $ @ @ @ @ @ @ @ @ ^ ^ ^ ^ . . . . + + + + [ [ [ [ } } } } | | | |                                                                                                                                                         ",
"                                                                                                                                                                                                                                                                                                              : : : : < < < < @ @ @ @ @ @ @ @ @ @ @ @ + + + + + + + + @ @ @ @ $ $ $ $ ) ) ) ) , , , , ) ) ) ) ) ) ) ) / / / / , , , , @ @ @ @ - - - - $ $ $ $ @ @ @ @ @ @ @ @ ^ ^ ^ ^ . . . . + + + + [ [ [ [ } } } } | | | |                                                                                                                                                         ",
"                                                                                                                                                                                                                                                                                                              : : : : < < < < @ @ @ @ @ @ @ @ @ @ @ @ + + + + + + + + @ @ @ @ $ $ $ $ ) ) ) ) , , , , ) ) ) ) ) ) ) ) / / / / , , , , @ @ @ @ - - - - $ $ $ $ @ @ @ @ @ @ @ @ ^ ^ ^ ^ . . . . + + + + [ [ [ [ } } } } | | | |                                                                                                                                                         ",
"                                                                                                                                                                                                                                                                                                      1 1 1 1 2 2 2 2 < < < < @ @ @ @ @ @ @ @ . . . . + + + + . . . . ( ( ( ( $ $ $ $ / / / / / / / / ) ) ) ) ) ) ) ) , , , , , , , , @ @ @ @ > > > > $ $ $ $ @ @ @ @ @ @ @ @ ^ ^ ^ ^ . . . . + + + + 3 3 3 3 4 4 4 4 5 5 5 5 6 6 6 6 7 7 7 7 8 8 8 8                                                                                                                                 ",
"                                                                                                                                                                                                                                                                                                      1 1 1 1 2 2 2 2 < < < < @ @ @ @ @ @ @ @ . . . . + + + + . . . . ( ( ( ( $ $ $ $ / / / / / / / / ) ) ) ) ) ) ) ) , , , , , , , , @ @ @ @ > > > > $ $ $ $ @ @ @ @ @ @ @ @ ^ ^ ^ ^ . . . . + + + + 3 3 3 3 4 4 4 4 5 5 5 5 6 6 6 6 7 7 7 7 8 8 8 8                                                                                                                                 ",
"                                                                                                                                                                                                                                                                                                      1 1 1 1 2 2 2 2 < < < < @ @ @ @ @ @ @ @ . . . . + + + + . . . . ( ( ( ( $ $ $ $ / / / / / / / / ) ) ) ) ) ) ) ) , , , , , , , , @ @ @ @ > > > > $ $ $ $ @ @ @ @ @ @ @ @ ^ ^ ^ ^ . . . . + + + + 3 3 3 3 4 4 4 4 5 5 5 5 6 6 6 6 7 7 7 7 8 8 8 8                                                                                                                                 ",
"                                                                                                                                                                                                                                                                                                      1 1 1 1 2 2 2 2 < < < < @ @ @ @ @ @ @ @ . . . . + + + + . . . . ( ( ( ( $ $ $ $ / / / / / / / / ) ) ) ) ) ) ) ) , , , , , , , , @ @ @ @ > > > > $ $ $ $ @ @ @ @ @ @ @ @ ^ ^ ^ ^ . . . . + + + + 3 3 3 3 4 4 4 4 5 5 5 5 6 6 6 6 7 7 7 7 8 8 8 8                                                                                                                                 ",
"                                                                                                                                                                                                                                                                                              1 1 1 1 1 1 1 1 < < < < 2 2 2 2 . . . . @ @ @ @ + + + + + + + + @ @ @ @ , , , , $ $ $ $ / / / / ) ) ) ) ) ) ) ) ) ) ) ) , , , , , , , , @ @ @ @ ) ) ) ) $ $ $ $ @ @ @ @ @ @ @ @ ^ ^ ^ ^ ^ ^ ^ ^ + + + + 9 9 9 9 0 0 0 0 4 4 4 4 a a a a b b b b c c c c d d d d                                                                                                                         ",
"                                                                                                                                                                                                                                                                                              1 1 1 1 1 1 1 1 < < < < 2 2 2 2 . . . . @ @ @ @ + + + + + + + + @ @ @ @ , , , , $ $ $ $ / / / / ) ) ) ) ) ) ) ) ) ) ) ) , , , , , , , , @ @ @ @ ) ) ) ) $ $ $ $ @ @ @ @ @ @ @ @ ^ ^ ^ ^ ^ ^ ^ ^ + + + + 9 9 9 9 0 0 0 0 4 4 4 4 a a a a b b b b c c c c d d d d                                                                                                                         ",
"                                                                                                                                                                                                                                                                                              1 1 1 1 1 1 1 1 < < < < 2 2 2 2 . . . . @ @ @ @ + + + + + + + + @ @ @ @ , , , , $ $ $ $ / / / / ) ) ) ) ) ) ) ) ) ) ) ) , , , , , , , , @ @ @ @ ) ) ) ) $ $ $ $ @ @ @ @ @ @ @ @ ^ ^ ^ ^ ^ ^ ^ ^ + + + + 9 9 9 9 0 0 0 0 4 4 4 4 a a a a b b b b c c c c d d d d                                                                                                                         ",
"                                                                                                                                                                                                                                                                                              1 1 1 1 1 1 1 1 < < < < 2 2 2 2 . . . . @ @ @ @ + + + + + + + + @ @ @ @ , , , , $ $ $ $ / / / / ) ) ) ) ) ) ) ) ) ) ) ) , , , , , , , , @ @ @ @ ) ) ) ) $ $ $ $ @ @ @ @ @ @ @ @ ^ ^ ^ ^ ^ ^ ^ ^ + + + + 9 9 9 9 0 0 0 0 4 4 4 4 a a a a b b b b c c c c d d d d                                                                                                                         ",
"                                                                                                                                                                                                                                                                                      e e e e f f f f : : : : < < < < @ @ @ @ . . . . @ @ @ @ + + + + + + + + . . . . , , , , $ $ $ $ / / / / ) ) ) ) ) ) ) ) / / / / , , , , , , , , @ @ @ @ , , , , * * * * ( ( ( ( @ @ @ @ @ @ @ @ ^ ^ ^ ^ . . . . + + + + g g g g 4 4 4 4 h h h h i i i i j j j j k k k k l l l l                                                                                                                 ",
"                                                                                                                                                                                                                                                                                      e e e e f f f f : : : : < < < < @ @ @ @ . . . . @ @ @ @ + + + + + + + + . . . . , , , , $ $ $ $ / / / / ) ) ) ) ) ) ) ) / / / / , , , , , , , , @ @ @ @ , , , , * * * * ( ( ( ( @ @ @ @ @ @ @ @ ^ ^ ^ ^ . . . . + + + + g g g g 4 4 4 4 h h h h i i i i j j j j k k k k l l l l                                                                                                                 ",
"                                                                                                                                                                                                                                                                                      e e e e f f f f : : : : < < < < @ @ @ @ . . . . @ @ @ @ + + + + + + + + . . . . , , , , $ $ $ $ / / / / ) ) ) ) ) ) ) ) / / / / , , , , , , , , @ @ @ @ , , , , * * * * ( ( ( ( @ @ @ @ @ @ @ @ ^ ^ ^ ^ . . . . + + + + g g g g 4 4 4 4 h h h h i i i i j j j j k k k k l l l l                                                                                                                 ",
"                                                                                                                                                                                                                                                                                      e e e e f f f f : : : : < < < < @ @ @ @ . . . . @ @ @ @ + + + + + + + + . . . . , , , , $ $ $ $ / / / / ) ) ) ) ) ) ) ) / / / / , , , , , , , , @ @ @ @ , , , , * * * * ( ( ( ( @ @ @ @ @ @ @ @ ^ ^ ^ ^ . . . . + + + + g g g g 4 4 4 4 h h h h i i i i j j j j k k k k l l l l                                                                                                                 ",
"                                                                                                                                                                                                                                              m m m m n n n n o o o o p p p p q q q q f f f f r r r r 1 1 1 1 : : : : . . . . @ @ @ @ . . . . + + + + + + + + @ @ @ @ ) ) ) ) - - - - / / / / / / / / / / / / @ @ @ @ @ @ @ @ @ @ @ @ @ @ @ @ , , , , * * * * , , , , ^ ^ ^ ^ ^ ^ ^ ^ ^ ^ ^ ^ . . . . + + + + s s s s t t t t u u u u v v v v w w w w x x x x y y y y z z z z                                                                                                         ",
"                                                                                                                                                                                                                                              m m m m n n n n o o o o p p p p q q q q f f f f r r r r 1 1 1 1 : : : : . . . . @ @ @ @ . . . . + + + + + + + + @ @ @ @ ) ) ) ) - - - - / / / / / / / / / / / / @ @ @ @ @ @ @ @ @ @ @ @ @ @ @ @ , , , , * * * * , , , , ^ ^ ^ ^ ^ ^ ^ ^ ^ ^ ^ ^ . . . . + + + + s s s s t t t t u u u u v v v v w w w w x x x x y y y y z z z z                                                                                                         ",
"                                                                                                                                                                                                                                              m m m m n n n n o o o o p p p p q q q q f f f f r r r r 1 1 1 1 : : : : . . . . @ @ @ @ . . . . + + + + + + + + @ @ @ @ ) ) ) ) - - - - / / / / / / / / / / / / @ @ @ @ @ @ @ @ @ @ @ @ @ @ @ @ , , , , * * * * , , , , ^ ^ ^ ^ ^ ^ ^ ^ ^ ^ ^ ^ . . . . + + + + s s s s t t t t u u u u v v v v w w w w x x x x y y y y z z z z                                                                                                         ",
"                                                                                                                                                                                                                                              m m m m n n n n o o o o p p p p q q q q f f f f r r r r 1 1 1 1 : : : : . . . . @ @ @ @ . . . . + + + + + + + + @ @ @ @ ) ) ) ) - - - - / / / / / / / / / / / / @ @ @ @ @ @ @ @ @ @ @ @ @ @ @ @ , , , , * * * * , , , , ^ ^ ^ ^ ^ ^ ^ ^ ^ ^ ^ ^ . . . . + + + + s s s s t t t t u u u u v v v v w w w w x x x x y y y y z z z z                                                                                                         ",
"                                                                                                                                                                                                                      A A A A B B B B C C C C D D D D E E E E F F F F G G G G H H H H r r r r 1 1 1 1 : : : : 1 1 1 1 + + + + . . . . + + + + + + + + @ @ @ @ @ @ @ @ = = = = - - - - , , , , ( ( ( ( { { { { ^ ^ ^ ^ ^ ^ ^ ^ ^ ^ ^ ^ + + + + @ @ @ @ > > > > , , , , + + + + + + + + . . . . . . . . + + + + + + + + I I I I t t t t J J J J K K K K L L L L M M M M N N N N O O O O                                                                                                 ",
"                                                                                                                                                                                                                      A A A A B B B B C C C C D D D D E E E E F F F F G G G G H H H H r r r r 1 1 1 1 : : : : 1 1 1 1 + + + + . . . . + + + + + + + + @ @ @ @ @ @ @ @ = = = = - - - - , , , , ( ( ( ( { { { { ^ ^ ^ ^ ^ ^ ^ ^ ^ ^ ^ ^ + + + + @ @ @ @ > > > > , , , , + + + + + + + + . . . . . . . . + + + + + + + + I I I I t t t t J J J J K K K K L L L L M M M M N N N N O O O O                                                                                                 ",
"                                                                                                                                                                                                                      A A A A B B B B C C C C D D D D E E E E F F F F G G G G H H H H r r r r 1 1 1 1 : : : : 1 1 1 1 + + + + . . . . + + + + + + + + @ @ @ @ @ @ @ @ = = = = - - - - , , , , ( ( ( ( { { { { ^ ^ ^ ^ ^ ^ ^ ^ ^ ^ ^ ^ + + + + @ @ @ @ > > > > , , , , + + + + + + + + . . . . . . . . + + + + + + + + I I I I t t t t J J J J K K K K L L L L M M M M N N N N O O O O                                                                                                 ",
"                                                                                                                                                                                                                      A A A A B B B B C C C C D D D D E E E E F F F F G G G G H H H H r r r r 1 1 1 1 : : : : 1 1 1 1 + + + + . . . . + + + + + + + + @ @ @ @ @ @ @ @ = = = = - - - - , , , , ( ( ( ( { { { { ^ ^ ^ ^ ^ ^ ^ ^ ^ ^ ^ ^ + + + + @ @ @ @ > > > > , , , , + + + + + + + + . . . . . . . . + + + + + + + + I I I I t t t t J J J J K K K K L L L L M M M M N N N N O O O O                                                                                                 ",
"                                                                                                                                                                                                      P P P P Q Q Q Q R R R R S S S S T T T T U U U U V V V V W W W W X X X X Y Y Y Y f f f f Z Z Z Z : : : : + + + + + + + + + + + + . . . . @ @ @ @ @ @ @ @ ( ( ( ( > > > > > > > > @ @ @ @ @ @ @ @ . . . . + + + + + + + + + + + + + + + + ^ ^ ^ ^ > > > > , , , , + + + + _ _ _ _ + + + + + + + + + + + + + + + + Z Z Z Z ` ` ` `  . . . .........+.+.+.+.@.@.@.@.#.#.#.#.$.$.$.$.%.%.%.%.                                                                                        ",
"                                                                                                                                                                                                      P P P P Q Q Q Q R R R R S S S S T T T T U U U U V V V V W W W W X X X X Y Y Y Y f f f f Z Z Z Z : : : : + + + + + + + + + + + + . . . . @ @ @ @ @ @ @ @ ( ( ( ( > > > > > > > > @ @ @ @ @ @ @ @ . . . . + + + + + + + + + + + + + + + + ^ ^ ^ ^ > > > > , , , , + + + + _ _ _ _ + + + + + + + + + + + + + + + + Z Z Z Z ` ` ` `  . . . .........+.+.+.+.@.@.@.@.#.#.#.#.$.$.$.$.%.%.%.%.                                                                                        ",
"                                                                                                                                                                                                      P P P P Q Q Q Q R R R R S S S S T T T T U U U U V V V V W W W W X X X X Y Y Y Y f f f f Z Z Z Z : : : : + + + + + + + + + + + + . . . . @ @ @ @ @ @ @ @ ( ( ( ( > > > > > > > > @ @ @ @ @ @ @ @ . . . . + + + + + + + + + + + + + + + + ^ ^ ^ ^ > > > > , , , , + + + + _ _ _ _ + + + + + + + + + + + + + + + + Z Z Z Z ` ` ` `  . . . .........+.+.+.+.@.@.@.@.#.#.#.#.$.$.$.$.%.%.%.%.                                                                                        ",
"                                                                                                                                                                                                      P P P P Q Q Q Q R R R R S S S S T T T T U U U U V V V V W W W W X X X X Y Y Y Y f f f f Z Z Z Z : : : : + + + + + + + + + + + + . . . . @ @ @ @ @ @ @ @ ( ( ( ( > > > > > > > > @ @ @ @ @ @ @ @ . . . . + + + + + + + + + + + + + + + + ^ ^ ^ ^ > > > > , , , , + + + + _ _ _ _ + + + + + + + + + + + + + + + + Z Z Z Z ` ` ` `  . . . .........+.+.+.+.@.@.@.@.#.#.#.#.$.$.$.$.%.%.%.%.                                                                                        ",
"                                                                                                                                                                                      &.&.&.&.*.*.*.*.=.=.=.=.-.-.-.-.;.;.;.;.>.>.>.>.,.,.,.,.'.'.'.'.).).).).!.!.!.!.~.~.~.~.{.{.{.{.f f f f : : : : : : : : + + + + + + + + . . . . ^ ^ ^ ^ @ @ @ @ @ @ @ @ ( ( ( ( > > > > = = = = ( ( ( ( @ @ @ @ @ @ @ @ + + + + _ _ _ _ ].].].]._ _ _ _ . . . . - - - - , , , , @ @ @ @ _ _ _ _ _ _ _ _ + + + + + + + + + + + + 1 1 1 1 ^.^.^.^././././.(.(.(.(._._._._.:.:.:.:.<.<.<.<.[.[.[.[.}.}.}.}.                                                                                        ",
"                                                                                                                                                                                      &.&.&.&.*.*.*.*.=.=.=.=.-.-.-.-.;.;.;.;.>.>.>.>.,.,.,.,.'.'.'.'.).).).).!.!.!.!.~.~.~.~.{.{.{.{.f f f f : : : : : : : : + + + + + + + + . . . . ^ ^ ^ ^ @ @ @ @ @ @ @ @ ( ( ( ( > > > > = = = = ( ( ( ( @ @ @ @ @ @ @ @ + + + + _ _ _ _ ].].].]._ _ _ _ . . . . - - - - , , , , @ @ @ @ _ _ _ _ _ _ _ _ + + + + + + + + + + + + 1 1 1 1 ^.^.^.^././././.(.(.(.(._._._._.:.:.:.:.<.<.<.<.[.[.[.[.}.}.}.}.                                                                                        ",
"                                                                                                                                                                                      &.&.&.&.*.*.*.*.=.=.=.=.-.-.-.-.;.;.;.;.>.>.>.>.,.,.,.,.'.'.'.'.).).).).!.!.!.!.~.~.~.~.{.{.{.{.f f f f : : : : : : : : + + + + + + + + . . . . ^ ^ ^ ^ @ @ @ @ @ @ @ @ ( ( ( ( > > > > = = = = ( ( ( ( @ @ @ @ @ @ @ @ + + + + _ _ _ _ ].].].]._ _ _ _ . . . . - - - - , , , , @ @ @ @ _ _ _ _ _ _ _ _ + + + + + + + + + + + + 1 1 1 1 ^.^.^.^././././.(.(.(.(._._._._.:.:.:.:.<.<.<.<.[.[.[.[.}.}.}.}.                                                                                        ",
"                                                                                                                                                                                      &.&.&.&.*.*.*.*.=.=.=.=.-.-.-.-.;.;.;.;.>.>.>.>.,.,.,.,.'.'.'.'.).).).).!.!.!.!.~.~.~.~.{.{.{.{.f f f f : : : : : : : : + + + + + + + + . . . . ^ ^ ^ ^ @ @ @ @ @ @ @ @ ( ( ( ( > > > > = = = = ( ( ( ( @ @ @ @ @ @ @ @ + + + + _ _ _ _ ].].].]._ _ _ _ . . . . - - - - , , , , @ @ @ @ _ _ _ _ _ _ _ _ + + + + + + + + + + + + 1 1 1 1 ^.^.^.^././././.(.(.(.(._._._._.:.:.:.:.<.<.<.<.[.[.[.[.}.}.}.}.                                                                                        ",
"                                                                                                                                                                              |.|.|.|.1.1.1.1.2.2.2.2.3.3.3.3.4.4.4.4.5.5.5.5.>.>.>.>.,.,.,.,.6.6.6.6.7.7.7.7.8.8.8.8.9.9.9.9.r r r r 0.0.0.0.: : : : 1 1 1 1 + + + + . . . . . . . . ^ ^ ^ ^ @ @ @ @ @ @ @ @ , , , , - - - - / / / / ( ( ( ( , , , , ( ( ( ( @ @ @ @ + + + + _ _ _ _ + + + + _ _ _ _ = = = = ) ) ) ) @ @ @ @ + + + + _ _ _ _ _ _ _ _ + + + + + + + + + + + + ^.^.^.^././././.a.a.a.a.b.b.b.b.c.c.c.c.d.d.d.d.e.e.e.e.f.f.f.f.g.g.g.g.                                                                                ",
"                                                                                                                                                                              |.|.|.|.1.1.1.1.2.2.2.2.3.3.3.3.4.4.4.4.5.5.5.5.>.>.>.>.,.,.,.,.6.6.6.6.7.7.7.7.8.8.8.8.9.9.9.9.r r r r 0.0.0.0.: : : : 1 1 1 1 + + + + . . . . . . . . ^ ^ ^ ^ @ @ @ @ @ @ @ @ , , , , - - - - / / / / ( ( ( ( , , , , ( ( ( ( @ @ @ @ + + + + _ _ _ _ + + + + _ _ _ _ = = = = ) ) ) ) @ @ @ @ + + + + _ _ _ _ _ _ _ _ + + + + + + + + + + + + ^.^.^.^././././.a.a.a.a.b.b.b.b.c.c.c.c.d.d.d.d.e.e.e.e.f.f.f.f.g.g.g.g.                                                                                ",
"                                                                                                                                                                              |.|.|.|.1.1.1.1.2.2.2.2.3.3.3.3.4.4.4.4.5.5.5.5.>.>.>.>.,.,.,.,.6.6.6.6.7.7.7.7.8.8.8.8.9.9.9.9.r r r r 0.0.0.0.: : : : 1 1 1 1 + + + + . . . . . . . . ^ ^ ^ ^ @ @ @ @ @ @ @ @ , , , , - - - - / / / / ( ( ( ( , , , , ( ( ( ( @ @ @ @ + + + + _ _ _ _ + + + + _ _ _ _ = = = = ) ) ) ) @ @ @ @ + + + + _ _ _ _ _ _ _ _ + + + + + + + + + + + + ^.^.^.^././././.a.a.a.a.b.b.b.b.c.c.c.c.d.d.d.d.e.e.e.e.f.f.f.f.g.g.g.g.                                                                                ",
"                                                                                                                                                                              |.|.|.|.1.1.1.1.2.2.2.2.3.3.3.3.4.4.4.4.5.5.5.5.>.>.>.>.,.,.,.,.6.6.6.6.7.7.7.7.8.8.8.8.9.9.9.9.r r r r 0.0.0.0.: : : : 1 1 1 1 + + + + . . . . . . . . ^ ^ ^ ^ @ @ @ @ @ @ @ @ , , , , - - - - / / / / ( ( ( ( , , , , ( ( ( ( @ @ @ @ + + + + _ _ _ _ + + + + _ _ _ _ = = = = ) ) ) ) @ @ @ @ + + + + _ _ _ _ _ _ _ _ + + + + + + + + + + + + ^.^.^.^././././.a.a.a.a.b.b.b.b.c.c.c.c.d.d.d.d.e.e.e.e.f.f.f.f.g.g.g.g.                                                                                ",
"                                                                                                                                                                              h.h.h.h.i.i.i.i.j.j.j.j.3.3.3.3.k.k.k.k.l.l.l.l.m.m.m.m.n.n.n.n.o.o.o.o.p.p.p.p.q.q.q.q.r.r.r.r.f f f f 1 1 1 1 : : : : 0.0.0.0.+ + + + . . . . ^ ^ ^ ^ + + + + , , , , ~ ~ ~ ~ s.s.s.s.; ; ; ; ' ' ' ' t.t.t.t., , , , @ @ @ @ @ @ @ @ @ @ @ @ + + + + ) ) ) ) ~ ~ ~ ~ ~ ~ ~ ~ s.s.s.s.] ] ] ] $ $ $ $ + + + + _ _ _ _ _ _ _ _ + + + + + + + + u.u.u.u.v.v.v.v.w.w.w.w.x.x.x.x.y.y.y.y.j j j j z.z.z.z.A.A.A.A.B.B.B.B.                                                                                ",
"                                                                                                                                                                              h.h.h.h.i.i.i.i.j.j.j.j.3.3.3.3.k.k.k.k.l.l.l.l.m.m.m.m.n.n.n.n.o.o.o.o.p.p.p.p.q.q.q.q.r.r.r.r.f f f f 1 1 1 1 : : : : 0.0.0.0.+ + + + . . . . ^ ^ ^ ^ + + + + , , , , ~ ~ ~ ~ s.s.s.s.; ; ; ; ' ' ' ' t.t.t.t., , , , @ @ @ @ @ @ @ @ @ @ @ @ + + + + ) ) ) ) ~ ~ ~ ~ ~ ~ ~ ~ s.s.s.s.] ] ] ] $ $ $ $ + + + + _ _ _ _ _ _ _ _ + + + + + + + + u.u.u.u.v.v.v.v.w.w.w.w.x.x.x.x.y.y.y.y.j j j j z.z.z.z.A.A.A.A.B.B.B.B.                                                                                ",
"                                                                                                                                                                              h.h.h.h.i.i.i.i.j.j.j.j.3.3.3.3.k.k.k.k.l.l.l.l.m.m.m.m.n.n.n.n.o.o.o.o.p.p.p.p.q.q.q.q.r.r.r.r.f f f f 1 1 1 1 : : : : 0.0.0.0.+ + + + . . . . ^ ^ ^ ^ + + + + , , , , ~ ~ ~ ~ s.s.s.s.; ; ; ; ' ' ' ' t.t.t.t., , , , @ @ @ @ @ @ @ @ @ @ @ @ + + + + ) ) ) ) ~ ~ ~ ~ ~ ~ ~ ~ s.s.s.s.] ] ] ] $ $ $ $ + + + + _ _ _ _ _ _ _ _ + + + + + + + + u.u.u.u.v.v.v.v.w.w.w.w.x.x.x.x.y.y.y.y.j j j j z.z.z.z.A.A.A.A.B.B.B.B.                                                                                ",
"                                                                                                                                                                              h.h.h.h.i.i.i.i.j.j.j.j.3.3.3.3.k.k.k.k.l.l.l.l.m.m.m.m.n.n.n.n.o.o.o.o.p.p.p.p.q.q.q.q.r.r.r.r.f f f f 1 1 1 1 : : : : 0.0.0.0.+ + + + . . . . ^ ^ ^ ^ + + + + , , , , ~ ~ ~ ~ s.s.s.s.; ; ; ; ' ' ' ' t.t.t.t., , , , @ @ @ @ @ @ @ @ @ @ @ @ + + + + ) ) ) ) ~ ~ ~ ~ ~ ~ ~ ~ s.s.s.s.] ] ] ] $ $ $ $ + + + + _ _ _ _ _ _ _ _ + + + + + + + + u.u.u.u.v.v.v.v.w.w.w.w.x.x.x.x.y.y.y.y.j j j j z.z.z.z.A.A.A.A.B.B.B.B.                                                                                ",
"                                                                                                                                                                      C.C.C.C.D.D.D.D.E.E.E.E.2.2.2.2.F.F.F.F.G.G.G.G.H.H.H.H.I.I.I.I.J.J.J.J.K.K.K.K.L.L.L.L.M.M.M.M.N.N.N.N.1 1 1 1 : : : : : : : : + + + + + + + + + + + + . . . . . . . . O.O.O.O.O.O.O.O.O.O.O.O.O.O.O.O.O.O.O.O.].].].].^ ^ ^ ^ + + + + + + + + _ _ _ _ _ _ _ _ _ _ _ _ ].].].].O.O.O.O.O.O.O.O.O.O.O.O.O.O.O.O._ _ _ _ + + + + _ _ _ _ + + + + _ _ _ _ 1 1 1 1 v.v.v.v.P.P.P.P.Q.Q.Q.Q.R.R.R.R.S.S.S.S.T.T.T.T.U.U.U.U.V.V.V.V.g.g.g.g.                                                                        ",
"                                                                                                                                                                      C.C.C.C.D.D.D.D.E.E.E.E.2.2.2.2.F.F.F.F.G.G.G.G.H.H.H.H.I.I.I.I.J.J.J.J.K.K.K.K.L.L.L.L.M.M.M.M.N.N.N.N.1 1 1 1 : : : : : : : : + + + + + + + + + + + + . . . . . . . . O.O.O.O.O.O.O.O.O.O.O.O.O.O.O.O.O.O.O.O.].].].].^ ^ ^ ^ + + + + + + + + _ _ _ _ _ _ _ _ _ _ _ _ ].].].].O.O.O.O.O.O.O.O.O.O.O.O.O.O.O.O._ _ _ _ + + + + _ _ _ _ + + + + _ _ _ _ 1 1 1 1 v.v.v.v.P.P.P.P.Q.Q.Q.Q.R.R.R.R.S.S.S.S.T.T.T.T.U.U.U.U.V.V.V.V.g.g.g.g.                                                                        ",
"                                                                                                                                                                      C.C.C.C.D.D.D.D.E.E.E.E.2.2.2.2.F.F.F.F.G.G.G.G.H.H.H.H.I.I.I.I.J.J.J.J.K.K.K.K.L.L.L.L.M.M.M.M.N.N.N.N.1 1 1 1 : : : : : : : : + + + + + + + + + + + + . . . . . . . . O.O.O.O.O.O.O.O.O.O.O.O.O.O.O.O.O.O.O.O.].].].].^ ^ ^ ^ + + + + + + + + _ _ _ _ _ _ _ _ _ _ _ _ ].].].].O.O.O.O.O.O.O.O.O.O.O.O.O.O.O.O._ _ _ _ + + + + _ _ _ _ + + + + _ _ _ _ 1 1 1 1 v.v.v.v.P.P.P.P.Q.Q.Q.Q.R.R.R.R.S.S.S.S.T.T.T.T.U.U.U.U.V.V.V.V.g.g.g.g.                                                                        ",
"                                                                                                                                                                      C.C.C.C.D.D.D.D.E.E.E.E.2.2.2.2.F.F.F.F.G.G.G.G.H.H.H.H.I.I.I.I.J.J.J.J.K.K.K.K.L.L.L.L.M.M.M.M.N.N.N.N.1 1 1 1 : : : : : : : : + + + + + + + + + + + + . . . . . . . . O.O.O.O.O.O.O.O.O.O.O.O.O.O.O.O.O.O.O.O.].].].].^ ^ ^ ^ + + + + + + + + _ _ _ _ _ _ _ _ _ _ _ _ ].].].].O.O.O.O.O.O.O.O.O.O.O.O.O.O.O.O._ _ _ _ + + + + _ _ _ _ + + + + _ _ _ _ 1 1 1 1 v.v.v.v.P.P.P.P.Q.Q.Q.Q.R.R.R.R.S.S.S.S.T.T.T.T.U.U.U.U.V.V.V.V.g.g.g.g.                                                                        ",
"                                                                                                                                                                      W.W.W.W.X.X.X.X.Y.Y.Y.Y.Z.Z.Z.Z.`.`.`.`. + + + +k.k.k.k..+.+.+.+++++++++K.K.K.K.q.q.q.q.@+@+@+@+f f f f 1 1 1 1 : : : : : : : : + + + + + + + + + + + + @ @ @ @ #+#+#+#+$+$+$+$+$+$+$+$+$+$+$+$+$+$+$+$+$+$+$+$+O.O.O.O.! ! ! ! # # # # # # # # $ $ $ $ # # # # , , , , %+%+%+%+$+$+$+$+$+$+$+$+$+$+$+$+$+$+$+$+O.O.O.O.+ + + + + + + + + + + + _ _ _ _ f f f f &+&+&+&+t t t t *+*+*+*+=+=+=+=+-+-+-+-+;+;+;+;+j j j j >+>+>+>+%.%.%.%.                                                                        ",
"                                                                                                                                                                      W.W.W.W.X.X.X.X.Y.Y.Y.Y.Z.Z.Z.Z.`.`.`.`. + + + +k.k.k.k..+.+.+.+++++++++K.K.K.K.q.q.q.q.@+@+@+@+f f f f 1 1 1 1 : : : : : : : : + + + + + + + + + + + + @ @ @ @ #+#+#+#+$+$+$+$+$+$+$+$+$+$+$+$+$+$+$+$+$+$+$+$+O.O.O.O.! ! ! ! # # # # # # # # $ $ $ $ # # # # , , , , %+%+%+%+$+$+$+$+$+$+$+$+$+$+$+$+$+$+$+$+O.O.O.O.+ + + + + + + + + + + + _ _ _ _ f f f f &+&+&+&+t t t t *+*+*+*+=+=+=+=+-+-+-+-+;+;+;+;+j j j j >+>+>+>+%.%.%.%.                                                                        ",
"                                                                                                                                                                      W.W.W.W.X.X.X.X.Y.Y.Y.Y.Z.Z.Z.Z.`.`.`.`. + + + +k.k.k.k..+.+.+.+++++++++K.K.K.K.q.q.q.q.@+@+@+@+f f f f 1 1 1 1 : : : : : : : : + + + + + + + + + + + + @ @ @ @ #+#+#+#+$+$+$+$+$+$+$+$+$+$+$+$+$+$+$+$+$+$+$+$+O.O.O.O.! ! ! ! # # # # # # # # $ $ $ $ # # # # , , , , %+%+%+%+$+$+$+$+$+$+$+$+$+$+$+$+$+$+$+$+O.O.O.O.+ + + + + + + + + + + + _ _ _ _ f f f f &+&+&+&+t t t t *+*+*+*+=+=+=+=+-+-+-+-+;+;+;+;+j j j j >+>+>+>+%.%.%.%.                                                                        ",
"                                                                                                                                                                      W.W.W.W.X.X.X.X.Y.Y.Y.Y.Z.Z.Z.Z.`.`.`.`. + + + +k.k.k.k..+.+.+.+++++++++K.K.K.K.q.q.q.q.@+@+@+@+f f f f 1 1 1 1 : : : : : : : : + + + + + + + + + + + + @ @ @ @ #+#+#+#+$+$+$+$+$+$+$+$+$+$+$+$+$+$+$+$+$+$+$+$+O.O.O.O.! ! ! ! # # # # # # # # $ $ $ $ # # # # , , , , %+%+%+%+$+$+$+$+$+$+$+$+$+$+$+$+$+$+$+$+O.O.O.O.+ + + + + + + + + + + + _ _ _ _ f f f f &+&+&+&+t t t t *+*+*+*+=+=+=+=+-+-+-+-+;+;+;+;+j j j j >+>+>+>+%.%.%.%.                                                                        ",
"                                                                                                                                                                      ,+,+,+,+'+'+'+'+)+)+)+)+!+!+!+!+B B B B ~+~+~+~+{+{+{+{+]+]+]+]+^+^+^+^+K.K.K.K./+/+/+/+r r r r 1 1 1 1 1 1 1 1 : : : : 0.0.0.0._ _ _ _ + + + + . . . . + + + + $+$+$+$+$+$+$+$+$+$+$+$+$+$+$+$+$+$+$+$+$+$+$+$+O.O.O.O.> > > > (+(+(+(+(+(+(+(+(+(+(+(+* * * * , , , , $+$+$+$+$+$+$+$+$+$+$+$+$+$+$+$+$+$+$+$+$+$+$+$+].].].].+ + + + + + + + + + + + _ _ _ _ _+_+_+_+t t t t :+:+:+:+<+<+<+<+[+[+[+[+}+}+}+}+|+|+|+|+1+1+1+1+2+2+2+2+                                                                        ",
"                                                                                                                                                                      ,+,+,+,+'+'+'+'+)+)+)+)+!+!+!+!+B B B B ~+~+~+~+{+{+{+{+]+]+]+]+^+^+^+^+K.K.K.K./+/+/+/+r r r r 1 1 1 1 1 1 1 1 : : : : 0.0.0.0._ _ _ _ + + + + . . . . + + + + $+$+$+$+$+$+$+$+$+$+$+$+$+$+$+$+$+$+$+$+$+$+$+$+O.O.O.O.> > > > (+(+(+(+(+(+(+(+(+(+(+(+* * * * , , , , $+$+$+$+$+$+$+$+$+$+$+$+$+$+$+$+$+$+$+$+$+$+$+$+].].].].+ + + + + + + + + + + + _ _ _ _ _+_+_+_+t t t t :+:+:+:+<+<+<+<+[+[+[+[+}+}+}+}+|+|+|+|+1+1+1+1+2+2+2+2+                                                                        ",
"                                                                                                                                                                      ,+,+,+,+'+'+'+'+)+)+)+)+!+!+!+!+B B B B ~+~+~+~+{+{+{+{+]+]+]+]+^+^+^+^+K.K.K.K./+/+/+/+r r r r 1 1 1 1 1 1 1 1 : : : : 0.0.0.0._ _ _ _ + + + + . . . . + + + + $+$+$+$+$+$+$+$+$+$+$+$+$+$+$+$+$+$+$+$+$+$+$+$+O.O.O.O.> > > > (+(+(+(+(+(+(+(+(+(+(+(+* * * * , , , , $+$+$+$+$+$+$+$+$+$+$+$+$+$+$+$+$+$+$+$+$+$+$+$+].].].].+ + + + + + + + + + + + _ _ _ _ _+_+_+_+t t t t :+:+:+:+<+<+<+<+[+[+[+[+}+}+}+}+|+|+|+|+1+1+1+1+2+2+2+2+                                                                        ",
"                                                                                                                                                                      ,+,+,+,+'+'+'+'+)+)+)+)+!+!+!+!+B B B B ~+~+~+~+{+{+{+{+]+]+]+]+^+^+^+^+K.K.K.K./+/+/+/+r r r r 1 1 1 1 1 1 1 1 : : : : 0.0.0.0._ _ _ _ + + + + . . . . + + + + $+$+$+$+$+$+$+$+$+$+$+$+$+$+$+$+$+$+$+$+$+$+$+$+O.O.O.O.> > > > (+(+(+(+(+(+(+(+(+(+(+(+* * * * , , , , $+$+$+$+$+$+$+$+$+$+$+$+$+$+$+$+$+$+$+$+$+$+$+$+].].].].+ + + + + + + + + + + + _ _ _ _ _+_+_+_+t t t t :+:+:+:+<+<+<+<+[+[+[+[+}+}+}+}+|+|+|+|+1+1+1+1+2+2+2+2+                                                                        ",
"                                                                                                                                                                      ,+,+,+,+3+3+3+3+4+4+4+4+5+5+5+5+6+6+6+6+7+7+7+7+8+8+8+8+9+9+9+9+0+0+0+0+a+a+a+a+b+b+b+b+f f f f 1 1 1 1 : : : : : : : : + + + + + + + + + + + + . . . . ].].].].$+$+$+$+$+$+$+$+$+$+$+$+$+$+$+$+$+$+$+$+$+$+$+$+$+$+$+$+%+%+%+%+%+%+%+%+%+%+%+%+%+%+%+%+%+%+%+%+$+$+$+$+$+$+$+$+$+$+$+$+$+$+$+$+$+$+$+$+$+$+$+$+$+$+$+$+$+$+$+$+_ _ _ _ + + + + + + + + _ _ _ _ c+c+c+c+4 4 4 4 d+d+d+d+e+e+e+e+f+f+f+f+g+g+g+g+h+h+h+h+i+i+i+i+d d d d                                                                         ",
"                                                                                                                                                                      ,+,+,+,+3+3+3+3+4+4+4+4+5+5+5+5+6+6+6+6+7+7+7+7+8+8+8+8+9+9+9+9+0+0+0+0+a+a+a+a+b+b+b+b+f f f f 1 1 1 1 : : : : : : : : + + + + + + + + + + + + . . . . ].].].].$+$+$+$+$+$+$+$+$+$+$+$+$+$+$+$+$+$+$+$+$+$+$+$+$+$+$+$+%+%+%+%+%+%+%+%+%+%+%+%+%+%+%+%+%+%+%+%+$+$+$+$+$+$+$+$+$+$+$+$+$+$+$+$+$+$+$+$+$+$+$+$+$+$+$+$+$+$+$+$+_ _ _ _ + + + + + + + + _ _ _ _ c+c+c+c+4 4 4 4 d+d+d+d+e+e+e+e+f+f+f+f+g+g+g+g+h+h+h+h+i+i+i+i+d d d d                                                                         ",
"                                                                                                                                                                      ,+,+,+,+3+3+3+3+4+4+4+4+5+5+5+5+6+6+6+6+7+7+7+7+8+8+8+8+9+9+9+9+0+0+0+0+a+a+a+a+b+b+b+b+f f f f 1 1 1 1 : : : : : : : : + + + + + + + + + + + + . . . . ].].].].$+$+$+$+$+$+$+$+$+$+$+$+$+$+$+$+$+$+$+$+$+$+$+$+$+$+$+$+%+%+%+%+%+%+%+%+%+%+%+%+%+%+%+%+%+%+%+%+$+$+$+$+$+$+$+$+$+$+$+$+$+$+$+$+$+$+$+$+$+$+$+$+$+$+$+$+$+$+$+$+_ _ _ _ + + + + + + + + _ _ _ _ c+c+c+c+4 4 4 4 d+d+d+d+e+e+e+e+f+f+f+f+g+g+g+g+h+h+h+h+i+i+i+i+d d d d                                                                         ",
"                                                                                                                                                                      ,+,+,+,+3+3+3+3+4+4+4+4+5+5+5+5+6+6+6+6+7+7+7+7+8+8+8+8+9+9+9+9+0+0+0+0+a+a+a+a+b+b+b+b+f f f f 1 1 1 1 : : : : : : : : + + + + + + + + + + + + . . . . ].].].].$+$+$+$+$+$+$+$+$+$+$+$+$+$+$+$+$+$+$+$+$+$+$+$+$+$+$+$+%+%+%+%+%+%+%+%+%+%+%+%+%+%+%+%+%+%+%+%+$+$+$+$+$+$+$+$+$+$+$+$+$+$+$+$+$+$+$+$+$+$+$+$+$+$+$+$+$+$+$+$+_ _ _ _ + + + + + + + + _ _ _ _ c+c+c+c+4 4 4 4 d+d+d+d+e+e+e+e+f+f+f+f+g+g+g+g+h+h+h+h+i+i+i+i+d d d d                                                                         ",
"                                                                                                                                                                      j+j+j+j+k+k+k+k+l+l+l+l+m+m+m+m+n+n+n+n+o+o+o+o+p+p+p+p+q+q+q+q+k.k.k.k.r+r+r+r+s+s+s+s+f f f f : : : : 2 2 2 2 : : : : _ _ _ _ + + + + + + + + . . . . _ _ _ _ #+#+#+#++ + + + O.O.O.O.$+$+$+$+$+$+$+$+$+$+$+$+$+$+$+$+O.O.O.O.O.O.O.O.O.O.O.O.O.O.O.O.O.O.O.O.$+$+$+$+$+$+$+$+$+$+$+$+$+$+$+$+O.O.O.O._ _ _ _ ].].].].].].].]._ _ _ _ + + + + + + + + _ _ _ _ f f f f t+t+t+t+u+u+u+u+v+v+v+v+%+%+%+%+%+%+%+%+w+w+w+w+x+x+x+x+d d d d                                                                         ",
"                                                                                                                                                                      j+j+j+j+k+k+k+k+l+l+l+l+m+m+m+m+n+n+n+n+o+o+o+o+p+p+p+p+q+q+q+q+k.k.k.k.r+r+r+r+s+s+s+s+f f f f : : : : 2 2 2 2 : : : : _ _ _ _ + + + + + + + + . . . . _ _ _ _ #+#+#+#++ + + + O.O.O.O.$+$+$+$+$+$+$+$+$+$+$+$+$+$+$+$+O.O.O.O.O.O.O.O.O.O.O.O.O.O.O.O.O.O.O.O.$+$+$+$+$+$+$+$+$+$+$+$+$+$+$+$+O.O.O.O._ _ _ _ ].].].].].].].]._ _ _ _ + + + + + + + + _ _ _ _ f f f f t+t+t+t+u+u+u+u+v+v+v+v+%+%+%+%+%+%+%+%+w+w+w+w+x+x+x+x+d d d d                                                                         ",
"                                                                                                                                                                      j+j+j+j+k+k+k+k+l+l+l+l+m+m+m+m+n+n+n+n+o+o+o+o+p+p+p+p+q+q+q+q+k.k.k.k.r+r+r+r+s+s+s+s+f f f f : : : : 2 2 2 2 : : : : _ _ _ _ + + + + + + + + . . . . _ _ _ _ #+#+#+#++ + + + O.O.O.O.$+$+$+$+$+$+$+$+$+$+$+$+$+$+$+$+O.O.O.O.O.O.O.O.O.O.O.O.O.O.O.O.O.O.O.O.$+$+$+$+$+$+$+$+$+$+$+$+$+$+$+$+O.O.O.O._ _ _ _ ].].].].].].].]._ _ _ _ + + + + + + + + _ _ _ _ f f f f t+t+t+t+u+u+u+u+v+v+v+v+%+%+%+%+%+%+%+%+w+w+w+w+x+x+x+x+d d d d                                                                         ",
"                                                                                                                                                                      j+j+j+j+k+k+k+k+l+l+l+l+m+m+m+m+n+n+n+n+o+o+o+o+p+p+p+p+q+q+q+q+k.k.k.k.r+r+r+r+s+s+s+s+f f f f : : : : 2 2 2 2 : : : : _ _ _ _ + + + + + + + + . . . . _ _ _ _ #+#+#+#++ + + + O.O.O.O.$+$+$+$+$+$+$+$+$+$+$+$+$+$+$+$+O.O.O.O.O.O.O.O.O.O.O.O.O.O.O.O.O.O.O.O.$+$+$+$+$+$+$+$+$+$+$+$+$+$+$+$+O.O.O.O._ _ _ _ ].].].].].].].]._ _ _ _ + + + + + + + + _ _ _ _ f f f f t+t+t+t+u+u+u+u+v+v+v+v+%+%+%+%+%+%+%+%+w+w+w+w+x+x+x+x+d d d d                                                                         ",
"                                                                                                                                                                      y+y+y+y+z+z+z+z+A+A+A+A+B+B+B+B+C+C+C+C+B B B B 3.3.3.3.D+D+D+D+k.k.k.k.E+E+E+E+f f f f r r r r 1 1 1 1 : : : : f f f f _ _ _ _ + + + + + + + + . . . . . . . . . . . . @ @ @ @ _ _ _ _ $+$+$+$+$+$+$+$+$+$+$+$+$+$+$+$+$+$+$+$+$+$+$+$+$+$+$+$+$+$+$+$+$+$+$+$+$+$+$+$+$+$+$+$+$+$+$+$+$+$+$+$+O.O.O.O.@ @ @ @ + + + + + + + + _ _ _ _ _ _ _ _ + + + + _ _ _ _ _ _ _ _ F+F+F+F+v.v.v.v.G+G+G+G+H+H+H+H+%+%+%+%+I+I+I+I+J+J+J+J+K+K+K+K+                                                                        ",
"                                                                                                                                                                      y+y+y+y+z+z+z+z+A+A+A+A+B+B+B+B+C+C+C+C+B B B B 3.3.3.3.D+D+D+D+k.k.k.k.E+E+E+E+f f f f r r r r 1 1 1 1 : : : : f f f f _ _ _ _ + + + + + + + + . . . . . . . . . . . . @ @ @ @ _ _ _ _ $+$+$+$+$+$+$+$+$+$+$+$+$+$+$+$+$+$+$+$+$+$+$+$+$+$+$+$+$+$+$+$+$+$+$+$+$+$+$+$+$+$+$+$+$+$+$+$+$+$+$+$+O.O.O.O.@ @ @ @ + + + + + + + + _ _ _ _ _ _ _ _ + + + + _ _ _ _ _ _ _ _ F+F+F+F+v.v.v.v.G+G+G+G+H+H+H+H+%+%+%+%+I+I+I+I+J+J+J+J+K+K+K+K+                                                                        ",
"                                                                                                                                                                      y+y+y+y+z+z+z+z+A+A+A+A+B+B+B+B+C+C+C+C+B B B B 3.3.3.3.D+D+D+D+k.k.k.k.E+E+E+E+f f f f r r r r 1 1 1 1 : : : : f f f f _ _ _ _ + + + + + + + + . . . . . . . . . . . . @ @ @ @ _ _ _ _ $+$+$+$+$+$+$+$+$+$+$+$+$+$+$+$+$+$+$+$+$+$+$+$+$+$+$+$+$+$+$+$+$+$+$+$+$+$+$+$+$+$+$+$+$+$+$+$+$+$+$+$+O.O.O.O.@ @ @ @ + + + + + + + + _ _ _ _ _ _ _ _ + + + + _ _ _ _ _ _ _ _ F+F+F+F+v.v.v.v.G+G+G+G+H+H+H+H+%+%+%+%+I+I+I+I+J+J+J+J+K+K+K+K+                                                                        ",
"                                                                                                                                                                      y+y+y+y+z+z+z+z+A+A+A+A+B+B+B+B+C+C+C+C+B B B B 3.3.3.3.D+D+D+D+k.k.k.k.E+E+E+E+f f f f r r r r 1 1 1 1 : : : : f f f f _ _ _ _ + + + + + + + + . . . . . . . . . . . . @ @ @ @ _ _ _ _ $+$+$+$+$+$+$+$+$+$+$+$+$+$+$+$+$+$+$+$+$+$+$+$+$+$+$+$+$+$+$+$+$+$+$+$+$+$+$+$+$+$+$+$+$+$+$+$+$+$+$+$+O.O.O.O.@ @ @ @ + + + + + + + + _ _ _ _ _ _ _ _ + + + + _ _ _ _ _ _ _ _ F+F+F+F+v.v.v.v.G+G+G+G+H+H+H+H+%+%+%+%+I+I+I+I+J+J+J+J+K+K+K+K+                                                                        ",
"                                                                                                                                                                      L+L+L+L+M+M+M+M+N+N+N+N+O+O+O+O+!+!+!+!+P+P+P+P+Q+Q+Q+Q+R+R+R+R+k.k.k.k.S+S+S+S+r r r r f f f f 1 1 1 1 1 1 1 1 _ _ _ _ + + + + + + + + + + + + T+T+T+T+~ ~ ~ ~ ~ ~ ~ ~ t.t.t.t., , , , %+%+%+%+$+$+$+$+$+$+$+$+$+$+$+$+$+$+$+$+$+$+$+$+$+$+$+$+$+$+$+$+$+$+$+$+$+$+$+$+$+$+$+$+$+$+$+$+$+$+$+$+_ _ _ _ ~ ~ ~ ~ ~ ~ ~ ~ ~ ~ ~ ~ ) ) ) ) _ _ _ _ + + + + _ _ _ _ _ _ _ _ 0.0.0.0.U+U+U+U+u+u+u+u+V+V+V+V+W+W+W+W+X+X+X+X+4+4+4+4+Y+Y+Y+Y+Z+Z+Z+Z+                                                                ",
"                                                                                                                                                                      L+L+L+L+M+M+M+M+N+N+N+N+O+O+O+O+!+!+!+!+P+P+P+P+Q+Q+Q+Q+R+R+R+R+k.k.k.k.S+S+S+S+r r r r f f f f 1 1 1 1 1 1 1 1 _ _ _ _ + + + + + + + + + + + + T+T+T+T+~ ~ ~ ~ ~ ~ ~ ~ t.t.t.t., , , , %+%+%+%+$+$+$+$+$+$+$+$+$+$+$+$+$+$+$+$+$+$+$+$+$+$+$+$+$+$+$+$+$+$+$+$+$+$+$+$+$+$+$+$+$+$+$+$+$+$+$+$+_ _ _ _ ~ ~ ~ ~ ~ ~ ~ ~ ~ ~ ~ ~ ) ) ) ) _ _ _ _ + + + + _ _ _ _ _ _ _ _ 0.0.0.0.U+U+U+U+u+u+u+u+V+V+V+V+W+W+W+W+X+X+X+X+4+4+4+4+Y+Y+Y+Y+Z+Z+Z+Z+                                                                ",
"                                                                                                                                                                      L+L+L+L+M+M+M+M+N+N+N+N+O+O+O+O+!+!+!+!+P+P+P+P+Q+Q+Q+Q+R+R+R+R+k.k.k.k.S+S+S+S+r r r r f f f f 1 1 1 1 1 1 1 1 _ _ _ _ + + + + + + + + + + + + T+T+T+T+~ ~ ~ ~ ~ ~ ~ ~ t.t.t.t., , , , %+%+%+%+$+$+$+$+$+$+$+$+$+$+$+$+$+$+$+$+$+$+$+$+$+$+$+$+$+$+$+$+$+$+$+$+$+$+$+$+$+$+$+$+$+$+$+$+$+$+$+$+_ _ _ _ ~ ~ ~ ~ ~ ~ ~ ~ ~ ~ ~ ~ ) ) ) ) _ _ _ _ + + + + _ _ _ _ _ _ _ _ 0.0.0.0.U+U+U+U+u+u+u+u+V+V+V+V+W+W+W+W+X+X+X+X+4+4+4+4+Y+Y+Y+Y+Z+Z+Z+Z+                                                                ",
"                                                                                                                                                                      L+L+L+L+M+M+M+M+N+N+N+N+O+O+O+O+!+!+!+!+P+P+P+P+Q+Q+Q+Q+R+R+R+R+k.k.k.k.S+S+S+S+r r r r f f f f 1 1 1 1 1 1 1 1 _ _ _ _ + + + + + + + + + + + + T+T+T+T+~ ~ ~ ~ ~ ~ ~ ~ t.t.t.t., , , , %+%+%+%+$+$+$+$+$+$+$+$+$+$+$+$+$+$+$+$+$+$+$+$+$+$+$+$+$+$+$+$+$+$+$+$+$+$+$+$+$+$+$+$+$+$+$+$+$+$+$+$+_ _ _ _ ~ ~ ~ ~ ~ ~ ~ ~ ~ ~ ~ ~ ) ) ) ) _ _ _ _ + + + + _ _ _ _ _ _ _ _ 0.0.0.0.U+U+U+U+u+u+u+u+V+V+V+V+W+W+W+W+X+X+X+X+4+4+4+4+Y+Y+Y+Y+Z+Z+Z+Z+                                                                ",
"                                                                                                                                                              L+L+L+L+L+L+L+L+`+`+`+`+ @ @ @ @.@.@.@.@+@+@+@+@@@@@@@@@#@#@#@#@$@$@$@$@%@%@%@%@K+K+K+K+_ _ _ _ f f f f 1 1 1 1 1 1 1 1 _ _ _ _ + + + + + + + + + + + + + + + + ].].].].].].].]._ _ _ _ O.O.O.O.$+$+$+$+O.O.O.O.O.O.O.O.O.O.O.O.O.O.O.O.O.O.O.O.O.O.O.O.O.O.O.O.O.O.O.O.O.O.O.O.O.O.O.O.O.O.O.O.$+$+$+$+O.O.O.O.#+#+#+#+#+#+#+#+].].].].].].].]._ _ _ _ _ _ _ _ _ _ _ _ _ _ _ _ r r r r &@&@&@&@` ` ` ` *@*@*@*@=@=@=@=@-@-@-@-@;@;@;@;@>@>@>@>@,@,@,@,@'@'@'@'@                                                        ",
"                                                                                                                                                              L+L+L+L+L+L+L+L+`+`+`+`+ @ @ @ @.@.@.@.@+@+@+@+@@@@@@@@@#@#@#@#@$@$@$@$@%@%@%@%@K+K+K+K+_ _ _ _ f f f f 1 1 1 1 1 1 1 1 _ _ _ _ + + + + + + + + + + + + + + + + ].].].].].].].]._ _ _ _ O.O.O.O.$+$+$+$+O.O.O.O.O.O.O.O.O.O.O.O.O.O.O.O.O.O.O.O.O.O.O.O.O.O.O.O.O.O.O.O.O.O.O.O.O.O.O.O.O.O.O.O.$+$+$+$+O.O.O.O.#+#+#+#+#+#+#+#+].].].].].].].]._ _ _ _ _ _ _ _ _ _ _ _ _ _ _ _ r r r r &@&@&@&@` ` ` ` *@*@*@*@=@=@=@=@-@-@-@-@;@;@;@;@>@>@>@>@,@,@,@,@'@'@'@'@                                                        ",
"                                                                                                                                                              L+L+L+L+L+L+L+L+`+`+`+`+ @ @ @ @.@.@.@.@+@+@+@+@@@@@@@@@#@#@#@#@$@$@$@$@%@%@%@%@K+K+K+K+_ _ _ _ f f f f 1 1 1 1 1 1 1 1 _ _ _ _ + + + + + + + + + + + + + + + + ].].].].].].].]._ _ _ _ O.O.O.O.$+$+$+$+O.O.O.O.O.O.O.O.O.O.O.O.O.O.O.O.O.O.O.O.O.O.O.O.O.O.O.O.O.O.O.O.O.O.O.O.O.O.O.O.O.O.O.O.$+$+$+$+O.O.O.O.#+#+#+#+#+#+#+#+].].].].].].].]._ _ _ _ _ _ _ _ _ _ _ _ _ _ _ _ r r r r &@&@&@&@` ` ` ` *@*@*@*@=@=@=@=@-@-@-@-@;@;@;@;@>@>@>@>@,@,@,@,@'@'@'@'@                                                        ",
"                                                                                                                                                              L+L+L+L+L+L+L+L+`+`+`+`+ @ @ @ @.@.@.@.@+@+@+@+@@@@@@@@@#@#@#@#@$@$@$@$@%@%@%@%@K+K+K+K+_ _ _ _ f f f f 1 1 1 1 1 1 1 1 _ _ _ _ + + + + + + + + + + + + + + + + ].].].].].].].]._ _ _ _ O.O.O.O.$+$+$+$+O.O.O.O.O.O.O.O.O.O.O.O.O.O.O.O.O.O.O.O.O.O.O.O.O.O.O.O.O.O.O.O.O.O.O.O.O.O.O.O.O.O.O.O.$+$+$+$+O.O.O.O.#+#+#+#+#+#+#+#+].].].].].].].]._ _ _ _ _ _ _ _ _ _ _ _ _ _ _ _ r r r r &@&@&@&@` ` ` ` *@*@*@*@=@=@=@=@-@-@-@-@;@;@;@;@>@>@>@>@,@,@,@,@'@'@'@'@                                                        ",
"                                                                                                                                                              )@)@)@)@!@!@!@!@~@~@~@~@{@{@{@{@{@{@{@{@]@]@]@]@^@^@^@^@/@/@/@/@(@(@(@(@_@_@_@_@_ _ _ _ _ _ _ _ f f f f :@:@:@:@f f f f _ _ _ _ + + + + + + + + + + + + > > > > %+%+%+%+%+%+%+%+%+%+%+%+%+%+%+%+%+%+%+%++ + + + + + + + + + + + . . . . . . . . + + + + + + + + . . . . . . . . . . . . . . . . $+$+$+$+%+%+%+%+%+%+%+%+%+%+%+%+%+%+%+%+] ] ] ] ^ ^ ^ ^ _ _ _ _ _ _ _ _ _ _ _ _ _ _ _ _ s s s s ` ` ` ` <@<@<@<@=@=@=@=@[@[@[@[@}@}@}@}@|@|@|@|@1@1@1@1@'@'@'@'@                                                        ",
"                                                                                                                                                              )@)@)@)@!@!@!@!@~@~@~@~@{@{@{@{@{@{@{@{@]@]@]@]@^@^@^@^@/@/@/@/@(@(@(@(@_@_@_@_@_ _ _ _ _ _ _ _ f f f f :@:@:@:@f f f f _ _ _ _ + + + + + + + + + + + + > > > > %+%+%+%+%+%+%+%+%+%+%+%+%+%+%+%+%+%+%+%++ + + + + + + + + + + + . . . . . . . . + + + + + + + + . . . . . . . . . . . . . . . . $+$+$+$+%+%+%+%+%+%+%+%+%+%+%+%+%+%+%+%+] ] ] ] ^ ^ ^ ^ _ _ _ _ _ _ _ _ _ _ _ _ _ _ _ _ s s s s ` ` ` ` <@<@<@<@=@=@=@=@[@[@[@[@}@}@}@}@|@|@|@|@1@1@1@1@'@'@'@'@                                                        ",
"                                                                                                                                                              )@)@)@)@!@!@!@!@~@~@~@~@{@{@{@{@{@{@{@{@]@]@]@]@^@^@^@^@/@/@/@/@(@(@(@(@_@_@_@_@_ _ _ _ _ _ _ _ f f f f :@:@:@:@f f f f _ _ _ _ + + + + + + + + + + + + > > > > %+%+%+%+%+%+%+%+%+%+%+%+%+%+%+%+%+%+%+%++ + + + + + + + + + + + . . . . . . . . + + + + + + + + . . . . . . . . . . . . . . . . $+$+$+$+%+%+%+%+%+%+%+%+%+%+%+%+%+%+%+%+] ] ] ] ^ ^ ^ ^ _ _ _ _ _ _ _ _ _ _ _ _ _ _ _ _ s s s s ` ` ` ` <@<@<@<@=@=@=@=@[@[@[@[@}@}@}@}@|@|@|@|@1@1@1@1@'@'@'@'@                                                        ",
"                                                                                                                                                              )@)@)@)@!@!@!@!@~@~@~@~@{@{@{@{@{@{@{@{@]@]@]@]@^@^@^@^@/@/@/@/@(@(@(@(@_@_@_@_@_ _ _ _ _ _ _ _ f f f f :@:@:@:@f f f f _ _ _ _ + + + + + + + + + + + + > > > > %+%+%+%+%+%+%+%+%+%+%+%+%+%+%+%+%+%+%+%++ + + + + + + + + + + + . . . . . . . . + + + + + + + + . . . . . . . . . . . . . . . . $+$+$+$+%+%+%+%+%+%+%+%+%+%+%+%+%+%+%+%+] ] ] ] ^ ^ ^ ^ _ _ _ _ _ _ _ _ _ _ _ _ _ _ _ _ s s s s ` ` ` ` <@<@<@<@=@=@=@=@[@[@[@[@}@}@}@}@|@|@|@|@1@1@1@1@'@'@'@'@                                                        ",
"                                                                                                                                                              !@!@!@!@~@~@~@~@ @ @ @ @2@2@2@2@^@^@^@^@/@/@/@/@R+R+R+R+k.k.k.k.3@3@3@3@4@4@4@4@r r r r _ _ _ _ f f f f : : : : + + + + _ _ _ _ + + + + + + + + . . . . ; ; ; ; ( ( ( ( @ @ @ @ ( ( ( ( , , , , , , , , ].].].].O.O.O.O.O.O.O.O.O.O.O.O.O.O.O.O.O.O.O.O.O.O.O.O.O.O.O.O.O.O.O.O.O.O.O.O.$+$+$+$++ + + + , , , , @ @ @ @ ( ( ( ( ^ ^ ^ ^ ; ; ; ; - - - - O.O.O.O._ _ _ _ _ _ _ _ _ _ _ _ 5@5@5@5@6@6@6@6@7@7@7@7@8@8@8@8@9@9@9@9@0@0@0@0@a@a@a@a@b@b@b@b@c@c@c@c@d d d d                                                 ",
"                                                                                                                                                              !@!@!@!@~@~@~@~@ @ @ @ @2@2@2@2@^@^@^@^@/@/@/@/@R+R+R+R+k.k.k.k.3@3@3@3@4@4@4@4@r r r r _ _ _ _ f f f f : : : : + + + + _ _ _ _ + + + + + + + + . . . . ; ; ; ; ( ( ( ( @ @ @ @ ( ( ( ( , , , , , , , , ].].].].O.O.O.O.O.O.O.O.O.O.O.O.O.O.O.O.O.O.O.O.O.O.O.O.O.O.O.O.O.O.O.O.O.O.O.O.$+$+$+$++ + + + , , , , @ @ @ @ ( ( ( ( ^ ^ ^ ^ ; ; ; ; - - - - O.O.O.O._ _ _ _ _ _ _ _ _ _ _ _ 5@5@5@5@6@6@6@6@7@7@7@7@8@8@8@8@9@9@9@9@0@0@0@0@a@a@a@a@b@b@b@b@c@c@c@c@d d d d                                                 ",
"                                                                                                                                                              !@!@!@!@~@~@~@~@ @ @ @ @2@2@2@2@^@^@^@^@/@/@/@/@R+R+R+R+k.k.k.k.3@3@3@3@4@4@4@4@r r r r _ _ _ _ f f f f : : : : + + + + _ _ _ _ + + + + + + + + . . . . ; ; ; ; ( ( ( ( @ @ @ @ ( ( ( ( , , , , , , , , ].].].].O.O.O.O.O.O.O.O.O.O.O.O.O.O.O.O.O.O.O.O.O.O.O.O.O.O.O.O.O.O.O.O.O.O.O.O.$+$+$+$++ + + + , , , , @ @ @ @ ( ( ( ( ^ ^ ^ ^ ; ; ; ; - - - - O.O.O.O._ _ _ _ _ _ _ _ _ _ _ _ 5@5@5@5@6@6@6@6@7@7@7@7@8@8@8@8@9@9@9@9@0@0@0@0@a@a@a@a@b@b@b@b@c@c@c@c@d d d d                                                 ",
"                                                                                                                                                              !@!@!@!@~@~@~@~@ @ @ @ @2@2@2@2@^@^@^@^@/@/@/@/@R+R+R+R+k.k.k.k.3@3@3@3@4@4@4@4@r r r r _ _ _ _ f f f f : : : : + + + + _ _ _ _ + + + + + + + + . . . . ; ; ; ; ( ( ( ( @ @ @ @ ( ( ( ( , , , , , , , , ].].].].O.O.O.O.O.O.O.O.O.O.O.O.O.O.O.O.O.O.O.O.O.O.O.O.O.O.O.O.O.O.O.O.O.O.O.O.$+$+$+$++ + + + , , , , @ @ @ @ ( ( ( ( ^ ^ ^ ^ ; ; ; ; - - - - O.O.O.O._ _ _ _ _ _ _ _ _ _ _ _ 5@5@5@5@6@6@6@6@7@7@7@7@8@8@8@8@9@9@9@9@0@0@0@0@a@a@a@a@b@b@b@b@c@c@c@c@d d d d                                                 ",
"                                                                                                                                                              !@!@!@!@ @ @ @ @2@2@2@2@^@^@^@^@/@/@/@/@R+R+R+R+d@d@d@d@d@d@d@d@e@e@e@e@_ _ _ _ _ _ _ _ _ _ _ _ f f f f 1 1 1 1 _ _ _ _ + + + + + + + + + + + + @ @ @ @ ~ ~ ~ ~ ; ; ; ; t.t.t.t.' ' ' ' f@f@f@f@f@f@f@f@~ ~ ~ ~ ~ ~ ~ ~ ; ; ; ; t.t.t.t.' ' ' ' ' ' ' ' ' ' ' ' t.t.t.t.; ; ; ; s.s.s.s.] ] ] ] t.t.t.t.f@f@f@f@' ' ' ' t.t.t.t.; ; ; ; ' ' ' ' > > > > O.O.O.O._ _ _ _ _ _ _ _ _ _ _ _ r r r r 6@6@6@6@g@g@g@g@/./././.h@h@h@h@i@i@i@i@j@j@j@j@k@k@k@k@l@l@l@l@m@m@m@m@                                                ",
"                                                                                                                                                              !@!@!@!@ @ @ @ @2@2@2@2@^@^@^@^@/@/@/@/@R+R+R+R+d@d@d@d@d@d@d@d@e@e@e@e@_ _ _ _ _ _ _ _ _ _ _ _ f f f f 1 1 1 1 _ _ _ _ + + + + + + + + + + + + @ @ @ @ ~ ~ ~ ~ ; ; ; ; t.t.t.t.' ' ' ' f@f@f@f@f@f@f@f@~ ~ ~ ~ ~ ~ ~ ~ ; ; ; ; t.t.t.t.' ' ' ' ' ' ' ' ' ' ' ' t.t.t.t.; ; ; ; s.s.s.s.] ] ] ] t.t.t.t.f@f@f@f@' ' ' ' t.t.t.t.; ; ; ; ' ' ' ' > > > > O.O.O.O._ _ _ _ _ _ _ _ _ _ _ _ r r r r 6@6@6@6@g@g@g@g@/./././.h@h@h@h@i@i@i@i@j@j@j@j@k@k@k@k@l@l@l@l@m@m@m@m@                                                ",
"                                                                                                                                                              !@!@!@!@ @ @ @ @2@2@2@2@^@^@^@^@/@/@/@/@R+R+R+R+d@d@d@d@d@d@d@d@e@e@e@e@_ _ _ _ _ _ _ _ _ _ _ _ f f f f 1 1 1 1 _ _ _ _ + + + + + + + + + + + + @ @ @ @ ~ ~ ~ ~ ; ; ; ; t.t.t.t.' ' ' ' f@f@f@f@f@f@f@f@~ ~ ~ ~ ~ ~ ~ ~ ; ; ; ; t.t.t.t.' ' ' ' ' ' ' ' ' ' ' ' t.t.t.t.; ; ; ; s.s.s.s.] ] ] ] t.t.t.t.f@f@f@f@' ' ' ' t.t.t.t.; ; ; ; ' ' ' ' > > > > O.O.O.O._ _ _ _ _ _ _ _ _ _ _ _ r r r r 6@6@6@6@g@g@g@g@/./././.h@h@h@h@i@i@i@i@j@j@j@j@k@k@k@k@l@l@l@l@m@m@m@m@                                                ",
"                                                                                                                                                              !@!@!@!@ @ @ @ @2@2@2@2@^@^@^@^@/@/@/@/@R+R+R+R+d@d@d@d@d@d@d@d@e@e@e@e@_ _ _ _ _ _ _ _ _ _ _ _ f f f f 1 1 1 1 _ _ _ _ + + + + + + + + + + + + @ @ @ @ ~ ~ ~ ~ ; ; ; ; t.t.t.t.' ' ' ' f@f@f@f@f@f@f@f@~ ~ ~ ~ ~ ~ ~ ~ ; ; ; ; t.t.t.t.' ' ' ' ' ' ' ' ' ' ' ' t.t.t.t.; ; ; ; s.s.s.s.] ] ] ] t.t.t.t.f@f@f@f@' ' ' ' t.t.t.t.; ; ; ; ' ' ' ' > > > > O.O.O.O._ _ _ _ _ _ _ _ _ _ _ _ r r r r 6@6@6@6@g@g@g@g@/./././.h@h@h@h@i@i@i@i@j@j@j@j@k@k@k@k@l@l@l@l@m@m@m@m@                                                ",
"                                                                                                                                                      !@!@!@!@~@~@~@~@n@n@n@n@{@{@{@{@{@{@{@{@2@2@2@2@^@^@^@^@/@/@/@/@^@^@^@^@o@o@o@o@_ _ _ _ _ _ _ _ _ _ _ _ : : : : 0.0.0.0.#+#+#+#++ + + + + + + + + + + + _ _ _ _ $+$+$+$+$+$+$+$+$+$+$+$+$+$+$+$+$+$+$+$+$+$+$+$+$+$+$+$+$+$+$+$+$+$+$+$+%+%+%+%+%+%+%+%+%+%+%+%+%+%+%+%+%+%+%+%+%+%+%+%+$+$+$+$+$+$+$+$+$+$+$+$+$+$+$+$+$+$+$+$+$+$+$+$+$+$+$+$+%+%+%+%+].].].].+ + + + _ _ _ _ _ _ _ _ _ _ _ _ _ _ _ _ U+U+U+U+ . . . .d+d+d+d+p@p@p@p@q@q@q@q@r@r@r@r@0@0@0@0@s@s@s@s@j j j j t@t@t@t@                                        ",
"                                                                                                                                                      !@!@!@!@~@~@~@~@n@n@n@n@{@{@{@{@{@{@{@{@2@2@2@2@^@^@^@^@/@/@/@/@^@^@^@^@o@o@o@o@_ _ _ _ _ _ _ _ _ _ _ _ : : : : 0.0.0.0.#+#+#+#++ + + + + + + + + + + + _ _ _ _ $+$+$+$+$+$+$+$+$+$+$+$+$+$+$+$+$+$+$+$+$+$+$+$+$+$+$+$+$+$+$+$+$+$+$+$+%+%+%+%+%+%+%+%+%+%+%+%+%+%+%+%+%+%+%+%+%+%+%+%+$+$+$+$+$+$+$+$+$+$+$+$+$+$+$+$+$+$+$+$+$+$+$+$+$+$+$+$+%+%+%+%+].].].].+ + + + _ _ _ _ _ _ _ _ _ _ _ _ _ _ _ _ U+U+U+U+ . . . .d+d+d+d+p@p@p@p@q@q@q@q@r@r@r@r@0@0@0@0@s@s@s@s@j j j j t@t@t@t@                                        ",
"                                                                                                                                                      !@!@!@!@~@~@~@~@n@n@n@n@{@{@{@{@{@{@{@{@2@2@2@2@^@^@^@^@/@/@/@/@^@^@^@^@o@o@o@o@_ _ _ _ _ _ _ _ _ _ _ _ : : : : 0.0.0.0.#+#+#+#++ + + + + + + + + + + + _ _ _ _ $+$+$+$+$+$+$+$+$+$+$+$+$+$+$+$+$+$+$+$+$+$+$+$+$+$+$+$+$+$+$+$+$+$+$+$+%+%+%+%+%+%+%+%+%+%+%+%+%+%+%+%+%+%+%+%+%+%+%+%+$+$+$+$+$+$+$+$+$+$+$+$+$+$+$+$+$+$+$+$+$+$+$+$+$+$+$+$+%+%+%+%+].].].].+ + + + _ _ _ _ _ _ _ _ _ _ _ _ _ _ _ _ U+U+U+U+ . . . .d+d+d+d+p@p@p@p@q@q@q@q@r@r@r@r@0@0@0@0@s@s@s@s@j j j j t@t@t@t@                                        ",
"                                                                                                                                                      !@!@!@!@~@~@~@~@n@n@n@n@{@{@{@{@{@{@{@{@2@2@2@2@^@^@^@^@/@/@/@/@^@^@^@^@o@o@o@o@_ _ _ _ _ _ _ _ _ _ _ _ : : : : 0.0.0.0.#+#+#+#++ + + + + + + + + + + + _ _ _ _ $+$+$+$+$+$+$+$+$+$+$+$+$+$+$+$+$+$+$+$+$+$+$+$+$+$+$+$+$+$+$+$+$+$+$+$+%+%+%+%+%+%+%+%+%+%+%+%+%+%+%+%+%+%+%+%+%+%+%+%+$+$+$+$+$+$+$+$+$+$+$+$+$+$+$+$+$+$+$+$+$+$+$+$+$+$+$+$+%+%+%+%+].].].].+ + + + _ _ _ _ _ _ _ _ _ _ _ _ _ _ _ _ U+U+U+U+ . . . .d+d+d+d+p@p@p@p@q@q@q@q@r@r@r@r@0@0@0@0@s@s@s@s@j j j j t@t@t@t@                                        ",
"                                                                                                                                                      u@u@u@u@~@~@~@~@~@~@~@~@u@u@u@u@ @ @ @ @{@{@{@{@2@2@2@2@2@2@2@2@]@]@]@]@v@v@v@v@_ _ _ _ _ _ _ _ _ _ _ _ 1 1 1 1 + + + + _ _ _ _ + + + + + + + + + + + + _ _ _ _ $+$+$+$+$+$+$+$+$+$+$+$+$+$+$+$+$+$+$+$+%+%+%+%+$+$+$+$+].].].].@ @ @ @ (+(+(+(+* * * * * * * * * * * * * * * * > > > > _ _ _ _ ].].].].$+$+$+$+$+$+$+$+$+$+$+$+$+$+$+$+$+$+$+$+$+$+$+$+#+#+#+#+@ @ @ @ + + + + _ _ _ _ _ _ _ _ #+#+#+#+w@w@w@w@ . . . .7@7@7@7@x@x@x@x@y@y@y@y@z@z@z@z@|+|+|+|+A@A@A@A@T.T.T.T.B@B@B@B@                                        ",
"                                                                                                                                                      u@u@u@u@~@~@~@~@~@~@~@~@u@u@u@u@ @ @ @ @{@{@{@{@2@2@2@2@2@2@2@2@]@]@]@]@v@v@v@v@_ _ _ _ _ _ _ _ _ _ _ _ 1 1 1 1 + + + + _ _ _ _ + + + + + + + + + + + + _ _ _ _ $+$+$+$+$+$+$+$+$+$+$+$+$+$+$+$+$+$+$+$+%+%+%+%+$+$+$+$+].].].].@ @ @ @ (+(+(+(+* * * * * * * * * * * * * * * * > > > > _ _ _ _ ].].].].$+$+$+$+$+$+$+$+$+$+$+$+$+$+$+$+$+$+$+$+$+$+$+$+#+#+#+#+@ @ @ @ + + + + _ _ _ _ _ _ _ _ #+#+#+#+w@w@w@w@ . . . .7@7@7@7@x@x@x@x@y@y@y@y@z@z@z@z@|+|+|+|+A@A@A@A@T.T.T.T.B@B@B@B@                                        ",
"                                                                                                                                                      u@u@u@u@~@~@~@~@~@~@~@~@u@u@u@u@ @ @ @ @{@{@{@{@2@2@2@2@2@2@2@2@]@]@]@]@v@v@v@v@_ _ _ _ _ _ _ _ _ _ _ _ 1 1 1 1 + + + + _ _ _ _ + + + + + + + + + + + + _ _ _ _ $+$+$+$+$+$+$+$+$+$+$+$+$+$+$+$+$+$+$+$+%+%+%+%+$+$+$+$+].].].].@ @ @ @ (+(+(+(+* * * * * * * * * * * * * * * * > > > > _ _ _ _ ].].].].$+$+$+$+$+$+$+$+$+$+$+$+$+$+$+$+$+$+$+$+$+$+$+$+#+#+#+#+@ @ @ @ + + + + _ _ _ _ _ _ _ _ #+#+#+#+w@w@w@w@ . . . .7@7@7@7@x@x@x@x@y@y@y@y@z@z@z@z@|+|+|+|+A@A@A@A@T.T.T.T.B@B@B@B@                                        ",
"                                                                                                                                                      u@u@u@u@~@~@~@~@~@~@~@~@u@u@u@u@ @ @ @ @{@{@{@{@2@2@2@2@2@2@2@2@]@]@]@]@v@v@v@v@_ _ _ _ _ _ _ _ _ _ _ _ 1 1 1 1 + + + + _ _ _ _ + + + + + + + + + + + + _ _ _ _ $+$+$+$+$+$+$+$+$+$+$+$+$+$+$+$+$+$+$+$+%+%+%+%+$+$+$+$+].].].].@ @ @ @ (+(+(+(+* * * * * * * * * * * * * * * * > > > > _ _ _ _ ].].].].$+$+$+$+$+$+$+$+$+$+$+$+$+$+$+$+$+$+$+$+$+$+$+$+#+#+#+#+@ @ @ @ + + + + _ _ _ _ _ _ _ _ #+#+#+#+w@w@w@w@ . . . .7@7@7@7@x@x@x@x@y@y@y@y@z@z@z@z@|+|+|+|+A@A@A@A@T.T.T.T.B@B@B@B@                                        ",
"                                                                                                                                                       @ @ @ @{@{@{@{@{@{@{@{@]@]@]@]@2@2@2@2@^@^@^@^@2@2@2@2@{@{@{@{@C@C@C@C@D@D@D@D@_ _ _ _ r r r r r r r r 1 1 1 1 _ _ _ _ _ _ _ _ _ _ _ _ + + + + + + + + _ _ _ _ $+$+$+$+$+$+$+$+$+$+$+$+O.O.O.O.+ + + + > > > > ] ] ] ] E@E@E@E@F@F@F@F@G@G@G@G@G@G@G@G@G@G@G@G@G@G@G@G@G@G@G@G@G@G@G@G@H@H@H@H@' ' ' ' # # # # / / / / + + + + $+$+$+$+$+$+$+$+$+$+$+$+].].].].+ + + + + + + + + + + + _ _ _ _ ].].].].r r r r I@I@I@I@7@7@7@7@J@J@J@J@K@K@K@K@L@L@L@L@M@M@M@M@N@N@N@N@y y y y                                                 ",
"                                                                                                                                                       @ @ @ @{@{@{@{@{@{@{@{@]@]@]@]@2@2@2@2@^@^@^@^@2@2@2@2@{@{@{@{@C@C@C@C@D@D@D@D@_ _ _ _ r r r r r r r r 1 1 1 1 _ _ _ _ _ _ _ _ _ _ _ _ + + + + + + + + _ _ _ _ $+$+$+$+$+$+$+$+$+$+$+$+O.O.O.O.+ + + + > > > > ] ] ] ] E@E@E@E@F@F@F@F@G@G@G@G@G@G@G@G@G@G@G@G@G@G@G@G@G@G@G@G@G@G@G@G@H@H@H@H@' ' ' ' # # # # / / / / + + + + $+$+$+$+$+$+$+$+$+$+$+$+].].].].+ + + + + + + + + + + + _ _ _ _ ].].].].r r r r I@I@I@I@7@7@7@7@J@J@J@J@K@K@K@K@L@L@L@L@M@M@M@M@N@N@N@N@y y y y                                                 ",
"                                                                                                                                                       @ @ @ @{@{@{@{@{@{@{@{@]@]@]@]@2@2@2@2@^@^@^@^@2@2@2@2@{@{@{@{@C@C@C@C@D@D@D@D@_ _ _ _ r r r r r r r r 1 1 1 1 _ _ _ _ _ _ _ _ _ _ _ _ + + + + + + + + _ _ _ _ $+$+$+$+$+$+$+$+$+$+$+$+O.O.O.O.+ + + + > > > > ] ] ] ] E@E@E@E@F@F@F@F@G@G@G@G@G@G@G@G@G@G@G@G@G@G@G@G@G@G@G@G@G@G@G@G@H@H@H@H@' ' ' ' # # # # / / / / + + + + $+$+$+$+$+$+$+$+$+$+$+$+].].].].+ + + + + + + + + + + + _ _ _ _ ].].].].r r r r I@I@I@I@7@7@7@7@J@J@J@J@K@K@K@K@L@L@L@L@M@M@M@M@N@N@N@N@y y y y                                                 ",
"                                                                                                                                                       @ @ @ @{@{@{@{@{@{@{@{@]@]@]@]@2@2@2@2@^@^@^@^@2@2@2@2@{@{@{@{@C@C@C@C@D@D@D@D@_ _ _ _ r r r r r r r r 1 1 1 1 _ _ _ _ _ _ _ _ _ _ _ _ + + + + + + + + _ _ _ _ $+$+$+$+$+$+$+$+$+$+$+$+O.O.O.O.+ + + + > > > > ] ] ] ] E@E@E@E@F@F@F@F@G@G@G@G@G@G@G@G@G@G@G@G@G@G@G@G@G@G@G@G@G@G@G@G@H@H@H@H@' ' ' ' # # # # / / / / + + + + $+$+$+$+$+$+$+$+$+$+$+$+].].].].+ + + + + + + + + + + + _ _ _ _ ].].].].r r r r I@I@I@I@7@7@7@7@J@J@J@J@K@K@K@K@L@L@L@L@M@M@M@M@N@N@N@N@y y y y                                                 ",
"                                                                                                                                              n@n@n@n@{@{@{@{@2@2@2@2@^@^@^@^@/@/@/@/@/@/@/@/@^@^@^@^@2@2@2@2@ @ @ @ @O@O@O@O@P@P@P@P@_ _ _ _ r r r r _ _ _ _ f f f f _ _ _ _ _ _ _ _ + + + + + + + + + + + + + + + + $+$+$+$+].].].].@ @ @ @ > > > > # # # # ~ ~ ~ ~ f@f@f@f@H@H@H@H@Q@Q@Q@Q@G@G@G@G@G@G@G@G@G@G@G@G@G@G@G@G@G@G@G@G@F@F@F@F@H@H@H@H@' ' ' ' ; ; ; ; ] ] ] ] * * * * , , , , _ _ _ _ $+$+$+$+].].].].+ + + + #+#+#+#+_ _ _ _ + + + + _ _ _ _ _ _ _ _ 0.0.0.0. . . . .J@J@J@J@R@R@R@R@S@S@S@S@T@T@T@T@U@U@U@U@V@V@V@V@                                                ",
"                                                                                                                                              n@n@n@n@{@{@{@{@2@2@2@2@^@^@^@^@/@/@/@/@/@/@/@/@^@^@^@^@2@2@2@2@ @ @ @ @O@O@O@O@P@P@P@P@_ _ _ _ r r r r _ _ _ _ f f f f _ _ _ _ _ _ _ _ + + + + + + + + + + + + + + + + $+$+$+$+].].].].@ @ @ @ > > > > # # # # ~ ~ ~ ~ f@f@f@f@H@H@H@H@Q@Q@Q@Q@G@G@G@G@G@G@G@G@G@G@G@G@G@G@G@G@G@G@G@G@F@F@F@F@H@H@H@H@' ' ' ' ; ; ; ; ] ] ] ] * * * * , , , , _ _ _ _ $+$+$+$+].].].].+ + + + #+#+#+#+_ _ _ _ + + + + _ _ _ _ _ _ _ _ 0.0.0.0. . . . .J@J@J@J@R@R@R@R@S@S@S@S@T@T@T@T@U@U@U@U@V@V@V@V@                                                ",
"                                                                                                                                              n@n@n@n@{@{@{@{@2@2@2@2@^@^@^@^@/@/@/@/@/@/@/@/@^@^@^@^@2@2@2@2@ @ @ @ @O@O@O@O@P@P@P@P@_ _ _ _ r r r r _ _ _ _ f f f f _ _ _ _ _ _ _ _ + + + + + + + + + + + + + + + + $+$+$+$+].].].].@ @ @ @ > > > > # # # # ~ ~ ~ ~ f@f@f@f@H@H@H@H@Q@Q@Q@Q@G@G@G@G@G@G@G@G@G@G@G@G@G@G@G@G@G@G@G@G@F@F@F@F@H@H@H@H@' ' ' ' ; ; ; ; ] ] ] ] * * * * , , , , _ _ _ _ $+$+$+$+].].].].+ + + + #+#+#+#+_ _ _ _ + + + + _ _ _ _ _ _ _ _ 0.0.0.0. . . . .J@J@J@J@R@R@R@R@S@S@S@S@T@T@T@T@U@U@U@U@V@V@V@V@                                                ",
"                                                                                                                                              n@n@n@n@{@{@{@{@2@2@2@2@^@^@^@^@/@/@/@/@/@/@/@/@^@^@^@^@2@2@2@2@ @ @ @ @O@O@O@O@P@P@P@P@_ _ _ _ r r r r _ _ _ _ f f f f _ _ _ _ _ _ _ _ + + + + + + + + + + + + + + + + $+$+$+$+].].].].@ @ @ @ > > > > # # # # ~ ~ ~ ~ f@f@f@f@H@H@H@H@Q@Q@Q@Q@G@G@G@G@G@G@G@G@G@G@G@G@G@G@G@G@G@G@G@G@F@F@F@F@H@H@H@H@' ' ' ' ; ; ; ; ] ] ] ] * * * * , , , , _ _ _ _ $+$+$+$+].].].].+ + + + #+#+#+#+_ _ _ _ + + + + _ _ _ _ _ _ _ _ 0.0.0.0. . . . .J@J@J@J@R@R@R@R@S@S@S@S@T@T@T@T@U@U@U@U@V@V@V@V@                                                ",
"                                                                                                                                      n@n@n@n@{@{@{@{@2@2@2@2@/@/@/@/@R+R+R+R+d@d@d@d@k.k.k.k.^@^@^@^@]@]@]@]@n@n@n@n@W@W@W@W@X@X@X@X@r r r r r r r r _ _ _ _ _ _ _ _ _ _ _ _ + + + + + + + + + + + + + + + + + + + + + + + + @ @ @ @ / / / / > > > > $ $ $ $ s.s.s.s.' ' ' ' f@f@f@f@F@F@F@F@G@G@G@G@G@G@G@G@G@G@G@G@Q@Q@Q@Q@Q@Q@Q@Q@Y@Y@Y@Y@f@f@f@f@' ' ' ' s.s.s.s.# # # # (+(+(+(+= = = = , , , , @ @ @ @ + + + + + + + + _ _ _ _ #+#+#+#+_ _ _ _ + + + + _ _ _ _ r r r r Z@Z@Z@Z@/./././.`@`@`@`@ # # # #.#.#.#.#+#+#+#+#V@V@V@V@                                                ",
"                                                                                                                                      n@n@n@n@{@{@{@{@2@2@2@2@/@/@/@/@R+R+R+R+d@d@d@d@k.k.k.k.^@^@^@^@]@]@]@]@n@n@n@n@W@W@W@W@X@X@X@X@r r r r r r r r _ _ _ _ _ _ _ _ _ _ _ _ + + + + + + + + + + + + + + + + + + + + + + + + @ @ @ @ / / / / > > > > $ $ $ $ s.s.s.s.' ' ' ' f@f@f@f@F@F@F@F@G@G@G@G@G@G@G@G@G@G@G@G@Q@Q@Q@Q@Q@Q@Q@Q@Y@Y@Y@Y@f@f@f@f@' ' ' ' s.s.s.s.# # # # (+(+(+(+= = = = , , , , @ @ @ @ + + + + + + + + _ _ _ _ #+#+#+#+_ _ _ _ + + + + _ _ _ _ r r r r Z@Z@Z@Z@/./././.`@`@`@`@ # # # #.#.#.#.#+#+#+#+#V@V@V@V@                                                ",
"                                                                                                                                      n@n@n@n@{@{@{@{@2@2@2@2@/@/@/@/@R+R+R+R+d@d@d@d@k.k.k.k.^@^@^@^@]@]@]@]@n@n@n@n@W@W@W@W@X@X@X@X@r r r r r r r r _ _ _ _ _ _ _ _ _ _ _ _ + + + + + + + + + + + + + + + + + + + + + + + + @ @ @ @ / / / / > > > > $ $ $ $ s.s.s.s.' ' ' ' f@f@f@f@F@F@F@F@G@G@G@G@G@G@G@G@G@G@G@G@Q@Q@Q@Q@Q@Q@Q@Q@Y@Y@Y@Y@f@f@f@f@' ' ' ' s.s.s.s.# # # # (+(+(+(+= = = = , , , , @ @ @ @ + + + + + + + + _ _ _ _ #+#+#+#+_ _ _ _ + + + + _ _ _ _ r r r r Z@Z@Z@Z@/./././.`@`@`@`@ # # # #.#.#.#.#+#+#+#+#V@V@V@V@                                                ",
"                                                                                                                                      n@n@n@n@{@{@{@{@2@2@2@2@/@/@/@/@R+R+R+R+d@d@d@d@k.k.k.k.^@^@^@^@]@]@]@]@n@n@n@n@W@W@W@W@X@X@X@X@r r r r r r r r _ _ _ _ _ _ _ _ _ _ _ _ + + + + + + + + + + + + + + + + + + + + + + + + @ @ @ @ / / / / > > > > $ $ $ $ s.s.s.s.' ' ' ' f@f@f@f@F@F@F@F@G@G@G@G@G@G@G@G@G@G@G@G@Q@Q@Q@Q@Q@Q@Q@Q@Y@Y@Y@Y@f@f@f@f@' ' ' ' s.s.s.s.# # # # (+(+(+(+= = = = , , , , @ @ @ @ + + + + + + + + _ _ _ _ #+#+#+#+_ _ _ _ + + + + _ _ _ _ r r r r Z@Z@Z@Z@/./././.`@`@`@`@ # # # #.#.#.#.#+#+#+#+#V@V@V@V@                                                ",
"                                                                                                                                      n@n@n@n@u@u@u@u@n@n@n@n@{@{@{@{@]@]@]@]@{@{@{@{@{@{@{@{@ @ @ @ @n@n@n@n@u@u@u@u@@#@#@#@#_ _ _ _ r r r r r r r r _ _ _ _ _ _ _ _ + + + + + + + + + + + + + + + + + + + + + + + + ^ ^ ^ ^ @ @ @ @ , , , , > > > > # # # # s.s.s.s.' ' ' ' f@f@f@f@H@H@H@H@F@F@F@F@G@G@G@G@G@G@G@G@Y@Y@Y@Y@; ; ; ; E@E@E@E@f@f@f@f@' ' ' ' ~ ~ ~ ~ ########* * * * = = = = , , , , @ @ @ @ . . . . + + + + + + + + + + + + #+#+#+#+_ _ _ _ + + + + _ _ _ _ $#$#$#$#/./././.%#%#%#%#&#&#&#&#*#*#*#*#=#=#=#=#-#-#-#-#                                                ",
"                                                                                                                                      n@n@n@n@u@u@u@u@n@n@n@n@{@{@{@{@]@]@]@]@{@{@{@{@{@{@{@{@ @ @ @ @n@n@n@n@u@u@u@u@@#@#@#@#_ _ _ _ r r r r r r r r _ _ _ _ _ _ _ _ + + + + + + + + + + + + + + + + + + + + + + + + ^ ^ ^ ^ @ @ @ @ , , , , > > > > # # # # s.s.s.s.' ' ' ' f@f@f@f@H@H@H@H@F@F@F@F@G@G@G@G@G@G@G@G@Y@Y@Y@Y@; ; ; ; E@E@E@E@f@f@f@f@' ' ' ' ~ ~ ~ ~ ########* * * * = = = = , , , , @ @ @ @ . . . . + + + + + + + + + + + + #+#+#+#+_ _ _ _ + + + + _ _ _ _ $#$#$#$#/./././.%#%#%#%#&#&#&#&#*#*#*#*#=#=#=#=#-#-#-#-#                                                ",
"                                                                                                                                      n@n@n@n@u@u@u@u@n@n@n@n@{@{@{@{@]@]@]@]@{@{@{@{@{@{@{@{@ @ @ @ @n@n@n@n@u@u@u@u@@#@#@#@#_ _ _ _ r r r r r r r r _ _ _ _ _ _ _ _ + + + + + + + + + + + + + + + + + + + + + + + + ^ ^ ^ ^ @ @ @ @ , , , , > > > > # # # # s.s.s.s.' ' ' ' f@f@f@f@H@H@H@H@F@F@F@F@G@G@G@G@G@G@G@G@Y@Y@Y@Y@; ; ; ; E@E@E@E@f@f@f@f@' ' ' ' ~ ~ ~ ~ ########* * * * = = = = , , , , @ @ @ @ . . . . + + + + + + + + + + + + #+#+#+#+_ _ _ _ + + + + _ _ _ _ $#$#$#$#/./././.%#%#%#%#&#&#&#&#*#*#*#*#=#=#=#=#-#-#-#-#                                                ",
"                                                                                                                                      n@n@n@n@u@u@u@u@n@n@n@n@{@{@{@{@]@]@]@]@{@{@{@{@{@{@{@{@ @ @ @ @n@n@n@n@u@u@u@u@@#@#@#@#_ _ _ _ r r r r r r r r _ _ _ _ _ _ _ _ + + + + + + + + + + + + + + + + + + + + + + + + ^ ^ ^ ^ @ @ @ @ , , , , > > > > # # # # s.s.s.s.' ' ' ' f@f@f@f@H@H@H@H@F@F@F@F@G@G@G@G@G@G@G@G@Y@Y@Y@Y@; ; ; ; E@E@E@E@f@f@f@f@' ' ' ' ~ ~ ~ ~ ########* * * * = = = = , , , , @ @ @ @ . . . . + + + + + + + + + + + + #+#+#+#+_ _ _ _ + + + + _ _ _ _ $#$#$#$#/./././.%#%#%#%#&#&#&#&#*#*#*#*#=#=#=#=#-#-#-#-#                                                ",
"                                                                                                                                      n@n@n@n@{@{@{@{@]@]@]@]@]@]@]@]@{@{@{@{@ @ @ @ @n@n@n@n@u@u@u@u@!@!@!@!@)@)@)@)@;#;#;#;#_ _ _ _ _ _ _ _ r r r r _ _ _ _ + + + + + + + + + + + + + + + + + + + + _ _ _ _ + + + + . . . . @ @ @ @ / / / / - - - - $ $ $ $ s.s.s.s.; ; ; ; ' ' ' ' f@f@f@f@f@f@f@f@H@H@H@H@H@H@H@H@F@F@F@F@; ; ; ; ; ; ; ; ' ' ' ' ; ; ; ; ] ] ] ] # # # # * * * * > > > > / / / / @ @ @ @ @ @ @ @ + + + + + + + + + + + + + + + + _ _ _ _ + + + + + + + + r r r r /./././.>#>#>#>#,#,#,#,#'#'#'#'#)#)#)#)#V@V@V@V@                                                ",
"                                                                                                                                      n@n@n@n@{@{@{@{@]@]@]@]@]@]@]@]@{@{@{@{@ @ @ @ @n@n@n@n@u@u@u@u@!@!@!@!@)@)@)@)@;#;#;#;#_ _ _ _ _ _ _ _ r r r r _ _ _ _ + + + + + + + + + + + + + + + + + + + + _ _ _ _ + + + + . . . . @ @ @ @ / / / / - - - - $ $ $ $ s.s.s.s.; ; ; ; ' ' ' ' f@f@f@f@f@f@f@f@H@H@H@H@H@H@H@H@F@F@F@F@; ; ; ; ; ; ; ; ' ' ' ' ; ; ; ; ] ] ] ] # # # # * * * * > > > > / / / / @ @ @ @ @ @ @ @ + + + + + + + + + + + + + + + + _ _ _ _ + + + + + + + + r r r r /./././.>#>#>#>#,#,#,#,#'#'#'#'#)#)#)#)#V@V@V@V@                                                ",
"                                                                                                                                      n@n@n@n@{@{@{@{@]@]@]@]@]@]@]@]@{@{@{@{@ @ @ @ @n@n@n@n@u@u@u@u@!@!@!@!@)@)@)@)@;#;#;#;#_ _ _ _ _ _ _ _ r r r r _ _ _ _ + + + + + + + + + + + + + + + + + + + + _ _ _ _ + + + + . . . . @ @ @ @ / / / / - - - - $ $ $ $ s.s.s.s.; ; ; ; ' ' ' ' f@f@f@f@f@f@f@f@H@H@H@H@H@H@H@H@F@F@F@F@; ; ; ; ; ; ; ; ' ' ' ' ; ; ; ; ] ] ] ] # # # # * * * * > > > > / / / / @ @ @ @ @ @ @ @ + + + + + + + + + + + + + + + + _ _ _ _ + + + + + + + + r r r r /./././.>#>#>#>#,#,#,#,#'#'#'#'#)#)#)#)#V@V@V@V@                                                ",
"                                                                                                                                      n@n@n@n@{@{@{@{@]@]@]@]@]@]@]@]@{@{@{@{@ @ @ @ @n@n@n@n@u@u@u@u@!@!@!@!@)@)@)@)@;#;#;#;#_ _ _ _ _ _ _ _ r r r r _ _ _ _ + + + + + + + + + + + + + + + + + + + + _ _ _ _ + + + + . . . . @ @ @ @ / / / / - - - - $ $ $ $ s.s.s.s.; ; ; ; ' ' ' ' f@f@f@f@f@f@f@f@H@H@H@H@H@H@H@H@F@F@F@F@; ; ; ; ; ; ; ; ' ' ' ' ; ; ; ; ] ] ] ] # # # # * * * * > > > > / / / / @ @ @ @ @ @ @ @ + + + + + + + + + + + + + + + + _ _ _ _ + + + + + + + + r r r r /./././.>#>#>#>#,#,#,#,#'#'#'#'#)#)#)#)#V@V@V@V@                                                ",
"                                                                                                                              n@n@n@n@{@{@{@{@2@2@2@2@^@^@^@^@/@/@/@/@2@2@2@2@]@]@]@]@{@{@{@{@n@n@n@n@~@~@~@~@!@!@!@!@!#!#!#!#_ _ _ _ _ _ _ _ _ _ _ _ _ _ _ _ + + + + + + + + + + + + _ _ _ _ _ _ _ _ _ _ _ _ + + + + ^ ^ ^ ^ @ @ @ @ / / / / > > > > * * * * $ $ $ $ ] ] ] ] ~ ~ ~ ~ ; ; ; ; ' ' ' ' ' ' ' ' f@f@f@f@f@f@f@f@H@H@H@H@f@f@f@f@' ' ' ' ; ; ; ; ] ] ] ] $ $ $ $ (+(+(+(+= = = = , , , , T+T+T+T+@ @ @ @ + + + + + + + + + + + + + + + + + + + + + + + + + + + + _ _ _ _ ~#~#~#~#{#{#{#{#]#]#]#]#^#^#^#^#V@V@V@V@                                                        ",
"                                                                                                                              n@n@n@n@{@{@{@{@2@2@2@2@^@^@^@^@/@/@/@/@2@2@2@2@]@]@]@]@{@{@{@{@n@n@n@n@~@~@~@~@!@!@!@!@!#!#!#!#_ _ _ _ _ _ _ _ _ _ _ _ _ _ _ _ + + + + + + + + + + + + _ _ _ _ _ _ _ _ _ _ _ _ + + + + ^ ^ ^ ^ @ @ @ @ / / / / > > > > * * * * $ $ $ $ ] ] ] ] ~ ~ ~ ~ ; ; ; ; ' ' ' ' ' ' ' ' f@f@f@f@f@f@f@f@H@H@H@H@f@f@f@f@' ' ' ' ; ; ; ; ] ] ] ] $ $ $ $ (+(+(+(+= = = = , , , , T+T+T+T+@ @ @ @ + + + + + + + + + + + + + + + + + + + + + + + + + + + + _ _ _ _ ~#~#~#~#{#{#{#{#]#]#]#]#^#^#^#^#V@V@V@V@                                                        ",
"                                                                                                                              n@n@n@n@{@{@{@{@2@2@2@2@^@^@^@^@/@/@/@/@2@2@2@2@]@]@]@]@{@{@{@{@n@n@n@n@~@~@~@~@!@!@!@!@!#!#!#!#_ _ _ _ _ _ _ _ _ _ _ _ _ _ _ _ + + + + + + + + + + + + _ _ _ _ _ _ _ _ _ _ _ _ + + + + ^ ^ ^ ^ @ @ @ @ / / / / > > > > * * * * $ $ $ $ ] ] ] ] ~ ~ ~ ~ ; ; ; ; ' ' ' ' ' ' ' ' f@f@f@f@f@f@f@f@H@H@H@H@f@f@f@f@' ' ' ' ; ; ; ; ] ] ] ] $ $ $ $ (+(+(+(+= = = = , , , , T+T+T+T+@ @ @ @ + + + + + + + + + + + + + + + + + + + + + + + + + + + + _ _ _ _ ~#~#~#~#{#{#{#{#]#]#]#]#^#^#^#^#V@V@V@V@                                                        ",
"                                                                                                                              n@n@n@n@{@{@{@{@2@2@2@2@^@^@^@^@/@/@/@/@2@2@2@2@]@]@]@]@{@{@{@{@n@n@n@n@~@~@~@~@!@!@!@!@!#!#!#!#_ _ _ _ _ _ _ _ _ _ _ _ _ _ _ _ + + + + + + + + + + + + _ _ _ _ _ _ _ _ _ _ _ _ + + + + ^ ^ ^ ^ @ @ @ @ / / / / > > > > * * * * $ $ $ $ ] ] ] ] ~ ~ ~ ~ ; ; ; ; ' ' ' ' ' ' ' ' f@f@f@f@f@f@f@f@H@H@H@H@f@f@f@f@' ' ' ' ; ; ; ; ] ] ] ] $ $ $ $ (+(+(+(+= = = = , , , , T+T+T+T+@ @ @ @ + + + + + + + + + + + + + + + + + + + + + + + + + + + + _ _ _ _ ~#~#~#~#{#{#{#{#]#]#]#]#^#^#^#^#V@V@V@V@                                                        ",
"                                                                                                                      n@n@n@n@{@{@{@{@]@]@]@]@{@{@{@{@ @ @ @ @ @ @ @ @ @ @ @ @u@u@u@u@u@u@u@u@~@~@~@~@~@~@~@~@!@!@!@!@_ _ _ _ _ _ _ _ _ _ _ _ _ _ _ _ + + + + + + + + + + + + _ _ _ _ _ _ _ _ _ _ _ _ _ _ _ _ + + + + ^ ^ ^ ^ @ @ @ @ , , , , = = = = - - - - * * * * ########s.s.s.s.; ; ; ; ' ' ' ' f@f@f@f@f@f@f@f@f@f@f@f@f@f@f@f@E@E@E@E@E@E@E@E@~ ~ ~ ~ ] ] ] ] ] ] ] ] $ $ $ $ = = = = , , , , @ @ @ @ @ @ @ @ + + + + + + + + + + + + + + + + + + + + + + + + + + + + #+#+#+#+_ _ _ _ /#/#/#/#(#(#(#(#_#_#_#_#                                                                ",
"                                                                                                                      n@n@n@n@{@{@{@{@]@]@]@]@{@{@{@{@ @ @ @ @ @ @ @ @ @ @ @ @u@u@u@u@u@u@u@u@~@~@~@~@~@~@~@~@!@!@!@!@_ _ _ _ _ _ _ _ _ _ _ _ _ _ _ _ + + + + + + + + + + + + _ _ _ _ _ _ _ _ _ _ _ _ _ _ _ _ + + + + ^ ^ ^ ^ @ @ @ @ , , , , = = = = - - - - * * * * ########s.s.s.s.; ; ; ; ' ' ' ' f@f@f@f@f@f@f@f@f@f@f@f@f@f@f@f@E@E@E@E@E@E@E@E@~ ~ ~ ~ ] ] ] ] ] ] ] ] $ $ $ $ = = = = , , , , @ @ @ @ @ @ @ @ + + + + + + + + + + + + + + + + + + + + + + + + + + + + #+#+#+#+_ _ _ _ /#/#/#/#(#(#(#(#_#_#_#_#                                                                ",
"                                                                                                                      n@n@n@n@{@{@{@{@]@]@]@]@{@{@{@{@ @ @ @ @ @ @ @ @ @ @ @ @u@u@u@u@u@u@u@u@~@~@~@~@~@~@~@~@!@!@!@!@_ _ _ _ _ _ _ _ _ _ _ _ _ _ _ _ + + + + + + + + + + + + _ _ _ _ _ _ _ _ _ _ _ _ _ _ _ _ + + + + ^ ^ ^ ^ @ @ @ @ , , , , = = = = - - - - * * * * ########s.s.s.s.; ; ; ; ' ' ' ' f@f@f@f@f@f@f@f@f@f@f@f@f@f@f@f@E@E@E@E@E@E@E@E@~ ~ ~ ~ ] ] ] ] ] ] ] ] $ $ $ $ = = = = , , , , @ @ @ @ @ @ @ @ + + + + + + + + + + + + + + + + + + + + + + + + + + + + #+#+#+#+_ _ _ _ /#/#/#/#(#(#(#(#_#_#_#_#                                                                ",
"                                                                                                                      n@n@n@n@{@{@{@{@]@]@]@]@{@{@{@{@ @ @ @ @ @ @ @ @ @ @ @ @u@u@u@u@u@u@u@u@~@~@~@~@~@~@~@~@!@!@!@!@_ _ _ _ _ _ _ _ _ _ _ _ _ _ _ _ + + + + + + + + + + + + _ _ _ _ _ _ _ _ _ _ _ _ _ _ _ _ + + + + ^ ^ ^ ^ @ @ @ @ , , , , = = = = - - - - * * * * ########s.s.s.s.; ; ; ; ' ' ' ' f@f@f@f@f@f@f@f@f@f@f@f@f@f@f@f@E@E@E@E@E@E@E@E@~ ~ ~ ~ ] ] ] ] ] ] ] ] $ $ $ $ = = = = , , , , @ @ @ @ @ @ @ @ + + + + + + + + + + + + + + + + + + + + + + + + + + + + #+#+#+#+_ _ _ _ /#/#/#/#(#(#(#(#_#_#_#_#                                                                ",
"                                                                                                              n@n@n@n@{@{@{@{@ @ @ @ @n@n@n@n@u@u@u@u@~@~@~@~@~@~@~@~@~@~@~@~@~@~@~@~@~@~@~@~@!@!@!@!@)@)@)@)@)@)@)@)@_ _ _ _ _ _ _ _ _ _ _ _ _ _ _ _ + + + + _ _ _ _ _ _ _ _ ].].].].#+#+#+#+_ _ _ _ + + + + + + + + @ @ @ @ @ @ @ @ , , , , ) ) ) ) > > > > * * * * ########s.s.s.s.; ; ; ; ' ' ' ' f@f@f@f@f@f@f@f@Y@Y@Y@Y@H@H@H@H@f@f@f@f@' ' ' ' s.s.s.s.######### # # # $ $ $ $ - - - - , , , , @ @ @ @ @ @ @ @ + + + + + + + + + + + + + + + + + + + + + + + + + + + + #+#+#+#+#+#+#+#+:#:#:#:#<#<#<#<#[#[#[#[#                                                                ",
"                                                                                                              n@n@n@n@{@{@{@{@ @ @ @ @n@n@n@n@u@u@u@u@~@~@~@~@~@~@~@~@~@~@~@~@~@~@~@~@~@~@~@~@!@!@!@!@)@)@)@)@)@)@)@)@_ _ _ _ _ _ _ _ _ _ _ _ _ _ _ _ + + + + _ _ _ _ _ _ _ _ ].].].].#+#+#+#+_ _ _ _ + + + + + + + + @ @ @ @ @ @ @ @ , , , , ) ) ) ) > > > > * * * * ########s.s.s.s.; ; ; ; ' ' ' ' f@f@f@f@f@f@f@f@Y@Y@Y@Y@H@H@H@H@f@f@f@f@' ' ' ' s.s.s.s.######### # # # $ $ $ $ - - - - , , , , @ @ @ @ @ @ @ @ + + + + + + + + + + + + + + + + + + + + + + + + + + + + #+#+#+#+#+#+#+#+:#:#:#:#<#<#<#<#[#[#[#[#                                                                ",
"                                                                                                              n@n@n@n@{@{@{@{@ @ @ @ @n@n@n@n@u@u@u@u@~@~@~@~@~@~@~@~@~@~@~@~@~@~@~@~@~@~@~@~@!@!@!@!@)@)@)@)@)@)@)@)@_ _ _ _ _ _ _ _ _ _ _ _ _ _ _ _ + + + + _ _ _ _ _ _ _ _ ].].].].#+#+#+#+_ _ _ _ + + + + + + + + @ @ @ @ @ @ @ @ , , , , ) ) ) ) > > > > * * * * ########s.s.s.s.; ; ; ; ' ' ' ' f@f@f@f@f@f@f@f@Y@Y@Y@Y@H@H@H@H@f@f@f@f@' ' ' ' s.s.s.s.######### # # # $ $ $ $ - - - - , , , , @ @ @ @ @ @ @ @ + + + + + + + + + + + + + + + + + + + + + + + + + + + + #+#+#+#+#+#+#+#+:#:#:#:#<#<#<#<#[#[#[#[#                                                                ",
"                                                                                                              n@n@n@n@{@{@{@{@ @ @ @ @n@n@n@n@u@u@u@u@~@~@~@~@~@~@~@~@~@~@~@~@~@~@~@~@~@~@~@~@!@!@!@!@)@)@)@)@)@)@)@)@_ _ _ _ _ _ _ _ _ _ _ _ _ _ _ _ + + + + _ _ _ _ _ _ _ _ ].].].].#+#+#+#+_ _ _ _ + + + + + + + + @ @ @ @ @ @ @ @ , , , , ) ) ) ) > > > > * * * * ########s.s.s.s.; ; ; ; ' ' ' ' f@f@f@f@f@f@f@f@Y@Y@Y@Y@H@H@H@H@f@f@f@f@' ' ' ' s.s.s.s.######### # # # $ $ $ $ - - - - , , , , @ @ @ @ @ @ @ @ + + + + + + + + + + + + + + + + + + + + + + + + + + + + #+#+#+#+#+#+#+#+:#:#:#:#<#<#<#<#[#[#[#[#                                                                ",
"                                                                                                              n@n@n@n@n@n@n@n@u@u@u@u@n@n@n@n@ @ @ @ @ @ @ @ @n@n@n@n@u@u@u@u@~@~@~@~@~@~@~@~@~@~@~@~@!@!@!@!@)@)@)@)@_ _ _ _ }#}#}#}##+#+#+#+_ _ _ _ _ _ _ _ #+#+#+#+].].].].].].].].#+#+#+#+_ _ _ _ + + + + + + + + @ @ @ @ @ @ @ @ , , , , ) ) ) ) > > > > * * * * ########s.s.s.s.; ; ; ; ' ' ' ' f@f@f@f@f@f@f@f@E@E@E@E@f@f@f@f@f@f@f@f@' ' ' ' ~ ~ ~ ~ ] ] ] ] $ $ $ $ (+(+(+(+- - - - = = = = ( ( ( ( @ @ @ @ + + + + + + + + + + + + + + + + + + + + + + + + + + + + _ _ _ _ ].].].].|#|#|#|#1#1#1#1#2#2#2#2#                                                                ",
"                                                                                                              n@n@n@n@n@n@n@n@u@u@u@u@n@n@n@n@ @ @ @ @ @ @ @ @n@n@n@n@u@u@u@u@~@~@~@~@~@~@~@~@~@~@~@~@!@!@!@!@)@)@)@)@_ _ _ _ }#}#}#}##+#+#+#+_ _ _ _ _ _ _ _ #+#+#+#+].].].].].].].].#+#+#+#+_ _ _ _ + + + + + + + + @ @ @ @ @ @ @ @ , , , , ) ) ) ) > > > > * * * * ########s.s.s.s.; ; ; ; ' ' ' ' f@f@f@f@f@f@f@f@E@E@E@E@f@f@f@f@f@f@f@f@' ' ' ' ~ ~ ~ ~ ] ] ] ] $ $ $ $ (+(+(+(+- - - - = = = = ( ( ( ( @ @ @ @ + + + + + + + + + + + + + + + + + + + + + + + + + + + + _ _ _ _ ].].].].|#|#|#|#1#1#1#1#2#2#2#2#                                                                ",
"                                                                                                              n@n@n@n@n@n@n@n@u@u@u@u@n@n@n@n@ @ @ @ @ @ @ @ @n@n@n@n@u@u@u@u@~@~@~@~@~@~@~@~@~@~@~@~@!@!@!@!@)@)@)@)@_ _ _ _ }#}#}#}##+#+#+#+_ _ _ _ _ _ _ _ #+#+#+#+].].].].].].].].#+#+#+#+_ _ _ _ + + + + + + + + @ @ @ @ @ @ @ @ , , , , ) ) ) ) > > > > * * * * ########s.s.s.s.; ; ; ; ' ' ' ' f@f@f@f@f@f@f@f@E@E@E@E@f@f@f@f@f@f@f@f@' ' ' ' ~ ~ ~ ~ ] ] ] ] $ $ $ $ (+(+(+(+- - - - = = = = ( ( ( ( @ @ @ @ + + + + + + + + + + + + + + + + + + + + + + + + + + + + _ _ _ _ ].].].].|#|#|#|#1#1#1#1#2#2#2#2#                                                                ",
"                                                                                                              n@n@n@n@n@n@n@n@u@u@u@u@n@n@n@n@ @ @ @ @ @ @ @ @n@n@n@n@u@u@u@u@~@~@~@~@~@~@~@~@~@~@~@~@!@!@!@!@)@)@)@)@_ _ _ _ }#}#}#}##+#+#+#+_ _ _ _ _ _ _ _ #+#+#+#+].].].].].].].].#+#+#+#+_ _ _ _ + + + + + + + + @ @ @ @ @ @ @ @ , , , , ) ) ) ) > > > > * * * * ########s.s.s.s.; ; ; ; ' ' ' ' f@f@f@f@f@f@f@f@E@E@E@E@f@f@f@f@f@f@f@f@' ' ' ' ~ ~ ~ ~ ] ] ] ] $ $ $ $ (+(+(+(+- - - - = = = = ( ( ( ( @ @ @ @ + + + + + + + + + + + + + + + + + + + + + + + + + + + + _ _ _ _ ].].].].|#|#|#|#1#1#1#1#2#2#2#2#                                                                ",
"                                                                                                              n@n@n@n@n@n@n@n@2@2@2@2@/@/@/@/@R+R+R+R+/@/@/@/@2@2@2@2@{@{@{@{@ @ @ @ @u@u@u@u@u@u@u@u@3#3#3#3#4#4#4#4#_ _ _ _ ].].].]._ _ _ _ _ _ _ _ #+#+#+#+].].].].].].].].#+#+#+#+_ _ _ _ _ _ _ _ + + + + + + + + @ @ @ @ @ @ @ @ , , , , ) ) ) ) > > > > ! ! ! ! ] ] ] ] s.s.s.s.~ ~ ~ ~ ' ' ' ' ' ' ' ' f@f@f@f@f@f@f@f@f@f@f@f@' ' ' ' t.t.t.t.~ ~ ~ ~ s.s.s.s.s.s.s.s.* * * * ) ) ) ) ) ) ) ) / / / / @ @ @ @ + + + + + + + + + + + + + + + + + + + + + + + + + + + + _ _ _ _ ].].].].].].].].5#5#5#5#6#6#6#6#                                                                ",
"                                                                                                              n@n@n@n@n@n@n@n@2@2@2@2@/@/@/@/@R+R+R+R+/@/@/@/@2@2@2@2@{@{@{@{@ @ @ @ @u@u@u@u@u@u@u@u@3#3#3#3#4#4#4#4#_ _ _ _ ].].].]._ _ _ _ _ _ _ _ #+#+#+#+].].].].].].].].#+#+#+#+_ _ _ _ _ _ _ _ + + + + + + + + @ @ @ @ @ @ @ @ , , , , ) ) ) ) > > > > ! ! ! ! ] ] ] ] s.s.s.s.~ ~ ~ ~ ' ' ' ' ' ' ' ' f@f@f@f@f@f@f@f@f@f@f@f@' ' ' ' t.t.t.t.~ ~ ~ ~ s.s.s.s.s.s.s.s.* * * * ) ) ) ) ) ) ) ) / / / / @ @ @ @ + + + + + + + + + + + + + + + + + + + + + + + + + + + + _ _ _ _ ].].].].].].].].5#5#5#5#6#6#6#6#                                                                ",
"                                                                                                              n@n@n@n@n@n@n@n@2@2@2@2@/@/@/@/@R+R+R+R+/@/@/@/@2@2@2@2@{@{@{@{@ @ @ @ @u@u@u@u@u@u@u@u@3#3#3#3#4#4#4#4#_ _ _ _ ].].].]._ _ _ _ _ _ _ _ #+#+#+#+].].].].].].].].#+#+#+#+_ _ _ _ _ _ _ _ + + + + + + + + @ @ @ @ @ @ @ @ , , , , ) ) ) ) > > > > ! ! ! ! ] ] ] ] s.s.s.s.~ ~ ~ ~ ' ' ' ' ' ' ' ' f@f@f@f@f@f@f@f@f@f@f@f@' ' ' ' t.t.t.t.~ ~ ~ ~ s.s.s.s.s.s.s.s.* * * * ) ) ) ) ) ) ) ) / / / / @ @ @ @ + + + + + + + + + + + + + + + + + + + + + + + + + + + + _ _ _ _ ].].].].].].].].5#5#5#5#6#6#6#6#                                                                ",
"                                                                                                              n@n@n@n@n@n@n@n@2@2@2@2@/@/@/@/@R+R+R+R+/@/@/@/@2@2@2@2@{@{@{@{@ @ @ @ @u@u@u@u@u@u@u@u@3#3#3#3#4#4#4#4#_ _ _ _ ].].].]._ _ _ _ _ _ _ _ #+#+#+#+].].].].].].].].#+#+#+#+_ _ _ _ _ _ _ _ + + + + + + + + @ @ @ @ @ @ @ @ , , , , ) ) ) ) > > > > ! ! ! ! ] ] ] ] s.s.s.s.~ ~ ~ ~ ' ' ' ' ' ' ' ' f@f@f@f@f@f@f@f@f@f@f@f@' ' ' ' t.t.t.t.~ ~ ~ ~ s.s.s.s.s.s.s.s.* * * * ) ) ) ) ) ) ) ) / / / / @ @ @ @ + + + + + + + + + + + + + + + + + + + + + + + + + + + + _ _ _ _ ].].].].].].].].5#5#5#5#6#6#6#6#                                                                ",
"                                                                                                      n@n@n@n@{@{@{@{@/@/@/@/@R+R+R+R+/@/@/@/@2@2@2@2@{@{@{@{@ @ @ @ @ @ @ @ @n@n@n@n@u@u@u@u@~@~@~@~@~@~@~@~@)@)@)@)@}#}#}#}##+#+#+#+#+#+#+#+].].].].].].].].].].].].#+#+#+#+#+#+#+#+_ _ _ _ _ _ _ _ + + + + + + + + @ @ @ @ @ @ @ @ , , , , = = = = (+(+(+(+$ $ $ $ ] ] ] ] s.s.s.s.~ ~ ~ ~ t.t.t.t.' ' ' ' ' ' ' ' ' ' ' ' ' ' ' ' ' ' ' ' ; ; ; ; ~ ~ ~ ~ ] ] ] ] # # # # - - - - ( ( ( ( ( ( ( ( ( ( ( ( @ @ @ @ + + + + + + + + + + + + + + + + + + + + + + + + _ _ _ _ _ _ _ _ ].].].].].].].]._ _ _ _ 7#7#7#7#                                                                ",
"                                                                                                      n@n@n@n@{@{@{@{@/@/@/@/@R+R+R+R+/@/@/@/@2@2@2@2@{@{@{@{@ @ @ @ @ @ @ @ @n@n@n@n@u@u@u@u@~@~@~@~@~@~@~@~@)@)@)@)@}#}#}#}##+#+#+#+#+#+#+#+].].].].].].].].].].].].#+#+#+#+#+#+#+#+_ _ _ _ _ _ _ _ + + + + + + + + @ @ @ @ @ @ @ @ , , , , = = = = (+(+(+(+$ $ $ $ ] ] ] ] s.s.s.s.~ ~ ~ ~ t.t.t.t.' ' ' ' ' ' ' ' ' ' ' ' ' ' ' ' ' ' ' ' ; ; ; ; ~ ~ ~ ~ ] ] ] ] # # # # - - - - ( ( ( ( ( ( ( ( ( ( ( ( @ @ @ @ + + + + + + + + + + + + + + + + + + + + + + + + _ _ _ _ _ _ _ _ ].].].].].].].]._ _ _ _ 7#7#7#7#                                                                ",
"                                                                                                      n@n@n@n@{@{@{@{@/@/@/@/@R+R+R+R+/@/@/@/@2@2@2@2@{@{@{@{@ @ @ @ @ @ @ @ @n@n@n@n@u@u@u@u@~@~@~@~@~@~@~@~@)@)@)@)@}#}#}#}##+#+#+#+#+#+#+#+].].].].].].].].].].].].#+#+#+#+#+#+#+#+_ _ _ _ _ _ _ _ + + + + + + + + @ @ @ @ @ @ @ @ , , , , = = = = (+(+(+(+$ $ $ $ ] ] ] ] s.s.s.s.~ ~ ~ ~ t.t.t.t.' ' ' ' ' ' ' ' ' ' ' ' ' ' ' ' ' ' ' ' ; ; ; ; ~ ~ ~ ~ ] ] ] ] # # # # - - - - ( ( ( ( ( ( ( ( ( ( ( ( @ @ @ @ + + + + + + + + + + + + + + + + + + + + + + + + _ _ _ _ _ _ _ _ ].].].].].].].]._ _ _ _ 7#7#7#7#                                                                ",
"                                                                                                      n@n@n@n@{@{@{@{@/@/@/@/@R+R+R+R+/@/@/@/@2@2@2@2@{@{@{@{@ @ @ @ @ @ @ @ @n@n@n@n@u@u@u@u@~@~@~@~@~@~@~@~@)@)@)@)@}#}#}#}##+#+#+#+#+#+#+#+].].].].].].].].].].].].#+#+#+#+#+#+#+#+_ _ _ _ _ _ _ _ + + + + + + + + @ @ @ @ @ @ @ @ , , , , = = = = (+(+(+(+$ $ $ $ ] ] ] ] s.s.s.s.~ ~ ~ ~ t.t.t.t.' ' ' ' ' ' ' ' ' ' ' ' ' ' ' ' ' ' ' ' ; ; ; ; ~ ~ ~ ~ ] ] ] ] # # # # - - - - ( ( ( ( ( ( ( ( ( ( ( ( @ @ @ @ + + + + + + + + + + + + + + + + + + + + + + + + _ _ _ _ _ _ _ _ ].].].].].].].]._ _ _ _ 7#7#7#7#                                                                ",
"                                                                                              n@n@n@n@{@{@{@{@/@/@/@/@^@^@^@^@2@2@2@2@{@{@{@{@ @ @ @ @u@u@u@u@~@~@~@~@!@!@!@!@)@)@)@)@!@!@!@!@!@!@!@!@)@)@)@)@8#8#8#8#].].].].#+#+#+#+].].].].].].].].].].].].].].].].#+#+#+#+#+#+#+#+_ _ _ _ _ _ _ _ + + + + + + + + @ @ @ @ @ @ @ @ , , , , = = = = * * * * $ $ $ $ ] ] ] ] s.s.s.s.~ ~ ~ ~ ; ; ; ; t.t.t.t.t.t.t.t.' ' ' ' t.t.t.t.; ; ; ; ~ ~ ~ ~ ] ] ] ] ########$ $ $ $ (+(+(+(+, , , , ( ( ( ( @ @ @ @ @ @ @ @ + + + + _ _ _ _ _ _ _ _ + + + + + + + + + + + + _ _ _ _ _ _ _ _ #+#+#+#+].].].].].].].]._ _ _ _                                                                 ",
"                                                                                              n@n@n@n@{@{@{@{@/@/@/@/@^@^@^@^@2@2@2@2@{@{@{@{@ @ @ @ @u@u@u@u@~@~@~@~@!@!@!@!@)@)@)@)@!@!@!@!@!@!@!@!@)@)@)@)@8#8#8#8#].].].].#+#+#+#+].].].].].].].].].].].].].].].].#+#+#+#+#+#+#+#+_ _ _ _ _ _ _ _ + + + + + + + + @ @ @ @ @ @ @ @ , , , , = = = = * * * * $ $ $ $ ] ] ] ] s.s.s.s.~ ~ ~ ~ ; ; ; ; t.t.t.t.t.t.t.t.' ' ' ' t.t.t.t.; ; ; ; ~ ~ ~ ~ ] ] ] ] ########$ $ $ $ (+(+(+(+, , , , ( ( ( ( @ @ @ @ @ @ @ @ + + + + _ _ _ _ _ _ _ _ + + + + + + + + + + + + _ _ _ _ _ _ _ _ #+#+#+#+].].].].].].].]._ _ _ _                                                                 ",
"                                                                                              n@n@n@n@{@{@{@{@/@/@/@/@^@^@^@^@2@2@2@2@{@{@{@{@ @ @ @ @u@u@u@u@~@~@~@~@!@!@!@!@)@)@)@)@!@!@!@!@!@!@!@!@)@)@)@)@8#8#8#8#].].].].#+#+#+#+].].].].].].].].].].].].].].].].#+#+#+#+#+#+#+#+_ _ _ _ _ _ _ _ + + + + + + + + @ @ @ @ @ @ @ @ , , , , = = = = * * * * $ $ $ $ ] ] ] ] s.s.s.s.~ ~ ~ ~ ; ; ; ; t.t.t.t.t.t.t.t.' ' ' ' t.t.t.t.; ; ; ; ~ ~ ~ ~ ] ] ] ] ########$ $ $ $ (+(+(+(+, , , , ( ( ( ( @ @ @ @ @ @ @ @ + + + + _ _ _ _ _ _ _ _ + + + + + + + + + + + + _ _ _ _ _ _ _ _ #+#+#+#+].].].].].].].]._ _ _ _                                                                 ",
"                                                                                              n@n@n@n@{@{@{@{@/@/@/@/@^@^@^@^@2@2@2@2@{@{@{@{@ @ @ @ @u@u@u@u@~@~@~@~@!@!@!@!@)@)@)@)@!@!@!@!@!@!@!@!@)@)@)@)@8#8#8#8#].].].].#+#+#+#+].].].].].].].].].].].].].].].].#+#+#+#+#+#+#+#+_ _ _ _ _ _ _ _ + + + + + + + + @ @ @ @ @ @ @ @ , , , , = = = = * * * * $ $ $ $ ] ] ] ] s.s.s.s.~ ~ ~ ~ ; ; ; ; t.t.t.t.t.t.t.t.' ' ' ' t.t.t.t.; ; ; ; ~ ~ ~ ~ ] ] ] ] ########$ $ $ $ (+(+(+(+, , , , ( ( ( ( @ @ @ @ @ @ @ @ + + + + _ _ _ _ _ _ _ _ + + + + + + + + + + + + _ _ _ _ _ _ _ _ #+#+#+#+].].].].].].].]._ _ _ _                                                                 ",
"                                                                                              2@2@2@2@ @ @ @ @n@n@n@n@n@n@n@n@~@~@~@~@)@)@)@)@L+L+L+L+)@)@)@)@)@)@)@)@~@~@~@~@n@n@n@n@ @ @ @ @{@{@{@{@ @ @ @ @ @ @ @ @].].].].].].].].O.O.O.O.].].].].].].].].].].].].].].].].#+#+#+#+_ _ _ _ _ _ _ _ + + + + + + + + @ @ @ @ ( ( ( ( / / / / > > > > * * * * $ $ $ $ ] ] ] ] ] ] ] ] ~ ~ ~ ~ ~ ~ ~ ~ ; ; ; ; ; ; ; ; ; ; ; ; ~ ~ ~ ~ s.s.s.s.########! ! ! ! * * * * * * * * (+(+(+(+) ) ) ) ( ( ( ( ( ( ( ( . . . . + + + + + + + + _ _ _ _ _ _ _ _ _ _ _ _ _ _ _ _ _ _ _ _ _ _ _ _ _ _ _ _ ].].].].].].].].].].].].                                                                ",
"                                                                                              2@2@2@2@ @ @ @ @n@n@n@n@n@n@n@n@~@~@~@~@)@)@)@)@L+L+L+L+)@)@)@)@)@)@)@)@~@~@~@~@n@n@n@n@ @ @ @ @{@{@{@{@ @ @ @ @ @ @ @ @].].].].].].].].O.O.O.O.].].].].].].].].].].].].].].].].#+#+#+#+_ _ _ _ _ _ _ _ + + + + + + + + @ @ @ @ ( ( ( ( / / / / > > > > * * * * $ $ $ $ ] ] ] ] ] ] ] ] ~ ~ ~ ~ ~ ~ ~ ~ ; ; ; ; ; ; ; ; ; ; ; ; ~ ~ ~ ~ s.s.s.s.########! ! ! ! * * * * * * * * (+(+(+(+) ) ) ) ( ( ( ( ( ( ( ( . . . . + + + + + + + + _ _ _ _ _ _ _ _ _ _ _ _ _ _ _ _ _ _ _ _ _ _ _ _ _ _ _ _ ].].].].].].].].].].].].                                                                ",
"                                                                                              2@2@2@2@ @ @ @ @n@n@n@n@n@n@n@n@~@~@~@~@)@)@)@)@L+L+L+L+)@)@)@)@)@)@)@)@~@~@~@~@n@n@n@n@ @ @ @ @{@{@{@{@ @ @ @ @ @ @ @ @].].].].].].].].O.O.O.O.].].].].].].].].].].].].].].].].#+#+#+#+_ _ _ _ _ _ _ _ + + + + + + + + @ @ @ @ ( ( ( ( / / / / > > > > * * * * $ $ $ $ ] ] ] ] ] ] ] ] ~ ~ ~ ~ ~ ~ ~ ~ ; ; ; ; ; ; ; ; ; ; ; ; ~ ~ ~ ~ s.s.s.s.########! ! ! ! * * * * * * * * (+(+(+(+) ) ) ) ( ( ( ( ( ( ( ( . . . . + + + + + + + + _ _ _ _ _ _ _ _ _ _ _ _ _ _ _ _ _ _ _ _ _ _ _ _ _ _ _ _ ].].].].].].].].].].].].                                                                ",
"                                                                                              2@2@2@2@ @ @ @ @n@n@n@n@n@n@n@n@~@~@~@~@)@)@)@)@L+L+L+L+)@)@)@)@)@)@)@)@~@~@~@~@n@n@n@n@ @ @ @ @{@{@{@{@ @ @ @ @ @ @ @ @].].].].].].].].O.O.O.O.].].].].].].].].].].].].].].].].#+#+#+#+_ _ _ _ _ _ _ _ + + + + + + + + @ @ @ @ ( ( ( ( / / / / > > > > * * * * $ $ $ $ ] ] ] ] ] ] ] ] ~ ~ ~ ~ ~ ~ ~ ~ ; ; ; ; ; ; ; ; ; ; ; ; ~ ~ ~ ~ s.s.s.s.########! ! ! ! * * * * * * * * (+(+(+(+) ) ) ) ( ( ( ( ( ( ( ( . . . . + + + + + + + + _ _ _ _ _ _ _ _ _ _ _ _ _ _ _ _ _ _ _ _ _ _ _ _ _ _ _ _ ].].].].].].].].].].].].                                                                ",
"                                                                                              {@{@{@{@n@n@n@n@~@~@~@~@)@)@)@)@!@!@!@!@3#3#3#3#3#3#3#3#3#3#3#3#3#3#3#3#)@)@)@)@L+L+L+L+L+L+L+L+!@!@!@!@u@u@u@u@].].].].].].].].O.O.O.O.O.O.O.O.].].].].].].].].].].].].].].].].#+#+#+#+_ _ _ _ _ _ _ _ + + + + + + + + @ @ @ @ ( ( ( ( / / / / > > > > * * * * $ $ $ $ ########] ] ] ] s.s.s.s.~ ~ ~ ~ ~ ~ ~ ~ ~ ~ ~ ~ ~ ~ ~ ~ ~ ~ ~ ~ ] ] ] ] # # # # * * * * - - - - - - - - > > > > ) ) ) ) , , , , @ @ @ @ + + + + + + + + + + + + _ _ _ _ _ _ _ _ _ _ _ _ _ _ _ _ _ _ _ _ _ _ _ _ _ _ _ _ #+#+#+#+].].].].O.O.O.O.                                                                ",
"                                                                                              {@{@{@{@n@n@n@n@~@~@~@~@)@)@)@)@!@!@!@!@3#3#3#3#3#3#3#3#3#3#3#3#3#3#3#3#)@)@)@)@L+L+L+L+L+L+L+L+!@!@!@!@u@u@u@u@].].].].].].].].O.O.O.O.O.O.O.O.].].].].].].].].].].].].].].].].#+#+#+#+_ _ _ _ _ _ _ _ + + + + + + + + @ @ @ @ ( ( ( ( / / / / > > > > * * * * $ $ $ $ ########] ] ] ] s.s.s.s.~ ~ ~ ~ ~ ~ ~ ~ ~ ~ ~ ~ ~ ~ ~ ~ ~ ~ ~ ~ ] ] ] ] # # # # * * * * - - - - - - - - > > > > ) ) ) ) , , , , @ @ @ @ + + + + + + + + + + + + _ _ _ _ _ _ _ _ _ _ _ _ _ _ _ _ _ _ _ _ _ _ _ _ _ _ _ _ #+#+#+#+].].].].O.O.O.O.                                                                ",
"                                                                                              {@{@{@{@n@n@n@n@~@~@~@~@)@)@)@)@!@!@!@!@3#3#3#3#3#3#3#3#3#3#3#3#3#3#3#3#)@)@)@)@L+L+L+L+L+L+L+L+!@!@!@!@u@u@u@u@].].].].].].].].O.O.O.O.O.O.O.O.].].].].].].].].].].].].].].].].#+#+#+#+_ _ _ _ _ _ _ _ + + + + + + + + @ @ @ @ ( ( ( ( / / / / > > > > * * * * $ $ $ $ ########] ] ] ] s.s.s.s.~ ~ ~ ~ ~ ~ ~ ~ ~ ~ ~ ~ ~ ~ ~ ~ ~ ~ ~ ~ ] ] ] ] # # # # * * * * - - - - - - - - > > > > ) ) ) ) , , , , @ @ @ @ + + + + + + + + + + + + _ _ _ _ _ _ _ _ _ _ _ _ _ _ _ _ _ _ _ _ _ _ _ _ _ _ _ _ #+#+#+#+].].].].O.O.O.O.                                                                ",
"                                                                                              {@{@{@{@n@n@n@n@~@~@~@~@)@)@)@)@!@!@!@!@3#3#3#3#3#3#3#3#3#3#3#3#3#3#3#3#)@)@)@)@L+L+L+L+L+L+L+L+!@!@!@!@u@u@u@u@].].].].].].].].O.O.O.O.O.O.O.O.].].].].].].].].].].].].].].].].#+#+#+#+_ _ _ _ _ _ _ _ + + + + + + + + @ @ @ @ ( ( ( ( / / / / > > > > * * * * $ $ $ $ ########] ] ] ] s.s.s.s.~ ~ ~ ~ ~ ~ ~ ~ ~ ~ ~ ~ ~ ~ ~ ~ ~ ~ ~ ~ ] ] ] ] # # # # * * * * - - - - - - - - > > > > ) ) ) ) , , , , @ @ @ @ + + + + + + + + + + + + _ _ _ _ _ _ _ _ _ _ _ _ _ _ _ _ _ _ _ _ _ _ _ _ _ _ _ _ #+#+#+#+].].].].O.O.O.O.                                                                ",
"                                                                                               @ @ @ @~@~@~@~@~@~@~@~@ @ @ @ @]@]@]@]@^@^@^@^@^@^@^@^@^@^@^@^@^@^@^@^@{@{@{@{@n@n@n@n@~@~@~@~@u@u@u@u@~@~@~@~@].].].].].].].].O.O.O.O.].].].].].].].].].].].].].].].].#+#+#+#+#+#+#+#+_ _ _ _ + + + + + + + + . . . . @ @ @ @ ( ( ( ( ) ) ) ) > > > > * * * * $ $ $ $ # # # # ] ] ] ] s.s.s.s.~ ~ ~ ~ ~ ~ ~ ~ ~ ~ ~ ~ ~ ~ ~ ~ s.s.s.s.] ] ] ] # # # # * * * * - - - - > > > > = = = = / / / / , , , , @ @ @ @ . . . . + + + + + + + + + + + + _ _ _ _ _ _ _ _ #+#+#+#+#+#+#+#+#+#+#+#+#+#+#+#+#+#+#+#+].].].].O.O.O.O.                                                                ",
"                                                                                               @ @ @ @~@~@~@~@~@~@~@~@ @ @ @ @]@]@]@]@^@^@^@^@^@^@^@^@^@^@^@^@^@^@^@^@{@{@{@{@n@n@n@n@~@~@~@~@u@u@u@u@~@~@~@~@].].].].].].].].O.O.O.O.].].].].].].].].].].].].].].].].#+#+#+#+#+#+#+#+_ _ _ _ + + + + + + + + . . . . @ @ @ @ ( ( ( ( ) ) ) ) > > > > * * * * $ $ $ $ # # # # ] ] ] ] s.s.s.s.~ ~ ~ ~ ~ ~ ~ ~ ~ ~ ~ ~ ~ ~ ~ ~ s.s.s.s.] ] ] ] # # # # * * * * - - - - > > > > = = = = / / / / , , , , @ @ @ @ . . . . + + + + + + + + + + + + _ _ _ _ _ _ _ _ #+#+#+#+#+#+#+#+#+#+#+#+#+#+#+#+#+#+#+#+].].].].O.O.O.O.                                                                ",
"                                                                                               @ @ @ @~@~@~@~@~@~@~@~@ @ @ @ @]@]@]@]@^@^@^@^@^@^@^@^@^@^@^@^@^@^@^@^@{@{@{@{@n@n@n@n@~@~@~@~@u@u@u@u@~@~@~@~@].].].].].].].].O.O.O.O.].].].].].].].].].].].].].].].].#+#+#+#+#+#+#+#+_ _ _ _ + + + + + + + + . . . . @ @ @ @ ( ( ( ( ) ) ) ) > > > > * * * * $ $ $ $ # # # # ] ] ] ] s.s.s.s.~ ~ ~ ~ ~ ~ ~ ~ ~ ~ ~ ~ ~ ~ ~ ~ s.s.s.s.] ] ] ] # # # # * * * * - - - - > > > > = = = = / / / / , , , , @ @ @ @ . . . . + + + + + + + + + + + + _ _ _ _ _ _ _ _ #+#+#+#+#+#+#+#+#+#+#+#+#+#+#+#+#+#+#+#+].].].].O.O.O.O.                                                                ",
"                                                                                               @ @ @ @~@~@~@~@~@~@~@~@ @ @ @ @]@]@]@]@^@^@^@^@^@^@^@^@^@^@^@^@^@^@^@^@{@{@{@{@n@n@n@n@~@~@~@~@u@u@u@u@~@~@~@~@].].].].].].].].O.O.O.O.].].].].].].].].].].].].].].].].#+#+#+#+#+#+#+#+_ _ _ _ + + + + + + + + . . . . @ @ @ @ ( ( ( ( ) ) ) ) > > > > * * * * $ $ $ $ # # # # ] ] ] ] s.s.s.s.~ ~ ~ ~ ~ ~ ~ ~ ~ ~ ~ ~ ~ ~ ~ ~ s.s.s.s.] ] ] ] # # # # * * * * - - - - > > > > = = = = / / / / , , , , @ @ @ @ . . . . + + + + + + + + + + + + _ _ _ _ _ _ _ _ #+#+#+#+#+#+#+#+#+#+#+#+#+#+#+#+#+#+#+#+].].].].O.O.O.O.                                                                ",
"                                                                                              n@n@n@n@^@^@^@^@^@^@^@^@R+R+R+R+d@d@d@d@9#9#9#9#0#0#0#0#a#a#a#a#b#b#b#b#a#a#a#a#c#c#c#c#k.k.k.k./@/@/@/@{@{@{@{@].].].].O.O.O.O.O.O.O.O.].].].].].].].].].].].].].].].].#+#+#+#+#+#+#+#+_ _ _ _ + + + + + + + + . . . . @ @ @ @ , , , , ) ) ) ) > > > > * * * * $ $ $ $ # # # # ] ] ] ] ] ] ] ] s.s.s.s.~ ~ ~ ~ ~ ~ ~ ~ ~ ~ ~ ~ s.s.s.s.] ] ] ] # # # # ! ! ! ! (+(+(+(+> > > > ) ) ) ) / / / / ( ( ( ( @ @ @ @ @ @ @ @ + + + + + + + + + + + + _ _ _ _ _ _ _ _ #+#+#+#+#+#+#+#+#+#+#+#+#+#+#+#+].].].].].].].].].].].].O.O.O.O.                                                        ",
"                                                                                              n@n@n@n@^@^@^@^@^@^@^@^@R+R+R+R+d@d@d@d@9#9#9#9#0#0#0#0#a#a#a#a#b#b#b#b#a#a#a#a#c#c#c#c#k.k.k.k./@/@/@/@{@{@{@{@].].].].O.O.O.O.O.O.O.O.].].].].].].].].].].].].].].].].#+#+#+#+#+#+#+#+_ _ _ _ + + + + + + + + . . . . @ @ @ @ , , , , ) ) ) ) > > > > * * * * $ $ $ $ # # # # ] ] ] ] ] ] ] ] s.s.s.s.~ ~ ~ ~ ~ ~ ~ ~ ~ ~ ~ ~ s.s.s.s.] ] ] ] # # # # ! ! ! ! (+(+(+(+> > > > ) ) ) ) / / / / ( ( ( ( @ @ @ @ @ @ @ @ + + + + + + + + + + + + _ _ _ _ _ _ _ _ #+#+#+#+#+#+#+#+#+#+#+#+#+#+#+#+].].].].].].].].].].].].O.O.O.O.                                                        ",
"                                                                                              n@n@n@n@^@^@^@^@^@^@^@^@R+R+R+R+d@d@d@d@9#9#9#9#0#0#0#0#a#a#a#a#b#b#b#b#a#a#a#a#c#c#c#c#k.k.k.k./@/@/@/@{@{@{@{@].].].].O.O.O.O.O.O.O.O.].].].].].].].].].].].].].].].].#+#+#+#+#+#+#+#+_ _ _ _ + + + + + + + + . . . . @ @ @ @ , , , , ) ) ) ) > > > > * * * * $ $ $ $ # # # # ] ] ] ] ] ] ] ] s.s.s.s.~ ~ ~ ~ ~ ~ ~ ~ ~ ~ ~ ~ s.s.s.s.] ] ] ] # # # # ! ! ! ! (+(+(+(+> > > > ) ) ) ) / / / / ( ( ( ( @ @ @ @ @ @ @ @ + + + + + + + + + + + + _ _ _ _ _ _ _ _ #+#+#+#+#+#+#+#+#+#+#+#+#+#+#+#+].].].].].].].].].].].].O.O.O.O.                                                        ",
"                                                                                              n@n@n@n@^@^@^@^@^@^@^@^@R+R+R+R+d@d@d@d@9#9#9#9#0#0#0#0#a#a#a#a#b#b#b#b#a#a#a#a#c#c#c#c#k.k.k.k./@/@/@/@{@{@{@{@].].].].O.O.O.O.O.O.O.O.].].].].].].].].].].].].].].].].#+#+#+#+#+#+#+#+_ _ _ _ + + + + + + + + . . . . @ @ @ @ , , , , ) ) ) ) > > > > * * * * $ $ $ $ # # # # ] ] ] ] ] ] ] ] s.s.s.s.~ ~ ~ ~ ~ ~ ~ ~ ~ ~ ~ ~ s.s.s.s.] ] ] ] # # # # ! ! ! ! (+(+(+(+> > > > ) ) ) ) / / / / ( ( ( ( @ @ @ @ @ @ @ @ + + + + + + + + + + + + _ _ _ _ _ _ _ _ #+#+#+#+#+#+#+#+#+#+#+#+#+#+#+#+].].].].].].].].].].].].O.O.O.O.                                                        ",
"                                                                                              ^@^@^@^@R+R+R+R+d@d@d@d@0#0#0#0#a#a#a#a#d#d#d#d#d#d#d#d#d#d#d#d#d#d#d#d#d#d#d#d#b#b#b#b#e#e#e#e#c#c#c#c#k.k.k.k.O.O.O.O.O.O.O.O.].].].].].].].].].].].].].].].].].].].].].].].].#+#+#+#+_ _ _ _ + + + + + + + + . . . . @ @ @ @ , , , , ) ) ) ) > > > > * * * * $ $ $ $ # # # # ] ] ] ] ] ] ] ] s.s.s.s.~ ~ ~ ~ ~ ~ ~ ~ ~ ~ ~ ~ s.s.s.s.] ] ] ] # # # # $ $ $ $ * * * * > > > > ) ) ) ) , , , , ( ( ( ( @ @ @ @ @ @ @ @ + + + + + + + + + + + + _ _ _ _ #+#+#+#+#+#+#+#+#+#+#+#+#+#+#+#+].].].].].].].].].].].].].].].].O.O.O.O.                                                        ",
"                                                                                              ^@^@^@^@R+R+R+R+d@d@d@d@0#0#0#0#a#a#a#a#d#d#d#d#d#d#d#d#d#d#d#d#d#d#d#d#d#d#d#d#b#b#b#b#e#e#e#e#c#c#c#c#k.k.k.k.O.O.O.O.O.O.O.O.].].].].].].].].].].].].].].].].].].].].].].].].#+#+#+#+_ _ _ _ + + + + + + + + . . . . @ @ @ @ , , , , ) ) ) ) > > > > * * * * $ $ $ $ # # # # ] ] ] ] ] ] ] ] s.s.s.s.~ ~ ~ ~ ~ ~ ~ ~ ~ ~ ~ ~ s.s.s.s.] ] ] ] # # # # $ $ $ $ * * * * > > > > ) ) ) ) , , , , ( ( ( ( @ @ @ @ @ @ @ @ + + + + + + + + + + + + _ _ _ _ #+#+#+#+#+#+#+#+#+#+#+#+#+#+#+#+].].].].].].].].].].].].].].].].O.O.O.O.                                                        ",
"                                                                                              ^@^@^@^@R+R+R+R+d@d@d@d@0#0#0#0#a#a#a#a#d#d#d#d#d#d#d#d#d#d#d#d#d#d#d#d#d#d#d#d#b#b#b#b#e#e#e#e#c#c#c#c#k.k.k.k.O.O.O.O.O.O.O.O.].].].].].].].].].].].].].].].].].].].].].].].].#+#+#+#+_ _ _ _ + + + + + + + + . . . . @ @ @ @ , , , , ) ) ) ) > > > > * * * * $ $ $ $ # # # # ] ] ] ] ] ] ] ] s.s.s.s.~ ~ ~ ~ ~ ~ ~ ~ ~ ~ ~ ~ s.s.s.s.] ] ] ] # # # # $ $ $ $ * * * * > > > > ) ) ) ) , , , , ( ( ( ( @ @ @ @ @ @ @ @ + + + + + + + + + + + + _ _ _ _ #+#+#+#+#+#+#+#+#+#+#+#+#+#+#+#+].].].].].].].].].].].].].].].].O.O.O.O.                                                        ",
"                                                                                              ^@^@^@^@R+R+R+R+d@d@d@d@0#0#0#0#a#a#a#a#d#d#d#d#d#d#d#d#d#d#d#d#d#d#d#d#d#d#d#d#b#b#b#b#e#e#e#e#c#c#c#c#k.k.k.k.O.O.O.O.O.O.O.O.].].].].].].].].].].].].].].].].].].].].].].].].#+#+#+#+_ _ _ _ + + + + + + + + . . . . @ @ @ @ , , , , ) ) ) ) > > > > * * * * $ $ $ $ # # # # ] ] ] ] ] ] ] ] s.s.s.s.~ ~ ~ ~ ~ ~ ~ ~ ~ ~ ~ ~ s.s.s.s.] ] ] ] # # # # $ $ $ $ * * * * > > > > ) ) ) ) , , , , ( ( ( ( @ @ @ @ @ @ @ @ + + + + + + + + + + + + _ _ _ _ #+#+#+#+#+#+#+#+#+#+#+#+#+#+#+#+].].].].].].].].].].].].].].].].O.O.O.O.                                                        ",
"                                                                                              0#0#0#0#0#0#0#0#b#b#b#b#d#d#d#d#d#d#d#d#f#f#f#f#f#f#f#f#f#f#f#f#f#f#f#f#f#f#f#f#f#f#f#f#d#d#d#d#b#b#b#b#O.O.O.O.O.O.O.O.].].].].].].].].].].].].].].].].].].].].].].].].].].].].#+#+#+#+_ _ _ _ + + + + + + + + . . . . @ @ @ @ , , , , ) ) ) ) > > > > (+(+(+(+$ $ $ $ (+(+(+(+(+(+(+(+s.s.s.s.~ ~ ~ ~ ~ ~ ~ ~ ~ ~ ~ ~ ~ ~ ~ ~ s.s.s.s.] ] ] ] # # # # $ $ $ $ * * * * > > > > ) ) ) ) , , , , ( ( ( ( @ @ @ @ . . . . + + + + _ _ _ _ _ _ _ _ _ _ _ _ #+#+#+#+#+#+#+#+].].].].].].].].].].].].].].].].].].].].].].].].O.O.O.O.                                                        ",
"                                                                                              0#0#0#0#0#0#0#0#b#b#b#b#d#d#d#d#d#d#d#d#f#f#f#f#f#f#f#f#f#f#f#f#f#f#f#f#f#f#f#f#f#f#f#f#d#d#d#d#b#b#b#b#O.O.O.O.O.O.O.O.].].].].].].].].].].].].].].].].].].].].].].].].].].].].#+#+#+#+_ _ _ _ + + + + + + + + . . . . @ @ @ @ , , , , ) ) ) ) > > > > (+(+(+(+$ $ $ $ (+(+(+(+(+(+(+(+s.s.s.s.~ ~ ~ ~ ~ ~ ~ ~ ~ ~ ~ ~ ~ ~ ~ ~ s.s.s.s.] ] ] ] # # # # $ $ $ $ * * * * > > > > ) ) ) ) , , , , ( ( ( ( @ @ @ @ . . . . + + + + _ _ _ _ _ _ _ _ _ _ _ _ #+#+#+#+#+#+#+#+].].].].].].].].].].].].].].].].].].].].].].].].O.O.O.O.                                                        ",
"                                                                                              0#0#0#0#0#0#0#0#b#b#b#b#d#d#d#d#d#d#d#d#f#f#f#f#f#f#f#f#f#f#f#f#f#f#f#f#f#f#f#f#f#f#f#f#d#d#d#d#b#b#b#b#O.O.O.O.O.O.O.O.].].].].].].].].].].].].].].].].].].].].].].].].].].].].#+#+#+#+_ _ _ _ + + + + + + + + . . . . @ @ @ @ , , , , ) ) ) ) > > > > (+(+(+(+$ $ $ $ (+(+(+(+(+(+(+(+s.s.s.s.~ ~ ~ ~ ~ ~ ~ ~ ~ ~ ~ ~ ~ ~ ~ ~ s.s.s.s.] ] ] ] # # # # $ $ $ $ * * * * > > > > ) ) ) ) , , , , ( ( ( ( @ @ @ @ . . . . + + + + _ _ _ _ _ _ _ _ _ _ _ _ #+#+#+#+#+#+#+#+].].].].].].].].].].].].].].].].].].].].].].].].O.O.O.O.                                                        ",
"                                                                                              0#0#0#0#0#0#0#0#b#b#b#b#d#d#d#d#d#d#d#d#f#f#f#f#f#f#f#f#f#f#f#f#f#f#f#f#f#f#f#f#f#f#f#f#d#d#d#d#b#b#b#b#O.O.O.O.O.O.O.O.].].].].].].].].].].].].].].].].].].].].].].].].].].].].#+#+#+#+_ _ _ _ + + + + + + + + . . . . @ @ @ @ , , , , ) ) ) ) > > > > (+(+(+(+$ $ $ $ (+(+(+(+(+(+(+(+s.s.s.s.~ ~ ~ ~ ~ ~ ~ ~ ~ ~ ~ ~ ~ ~ ~ ~ s.s.s.s.] ] ] ] # # # # $ $ $ $ * * * * > > > > ) ) ) ) , , , , ( ( ( ( @ @ @ @ . . . . + + + + _ _ _ _ _ _ _ _ _ _ _ _ #+#+#+#+#+#+#+#+].].].].].].].].].].].].].].].].].].].].].].].].O.O.O.O.                                                        ",
"                                                                                              a#a#a#a#b#b#b#b#d#d#d#d#f#f#f#f#f#f#f#f#f#f#f#f#f#f#f#f#f#f#f#f#f#f#f#f#f#f#f#f#f#f#f#f#d#d#d#d#d#d#d#d#O.O.O.O.O.O.O.O.].].].].].].].].].].].].].].].].].].].].].].].].].].].].#+#+#+#+_ _ _ _ + + + + + + + + . . . . @ @ @ @ , , , , ) ) ) ) > > > > * * * * $ $ $ $ ########] ] ] ] s.s.s.s.~ ~ ~ ~ ~ ~ ~ ~ ~ ~ ~ ~ ~ ~ ~ ~ s.s.s.s.] ] ] ] ########$ $ $ $ * * * * > > > > ) ) ) ) , , , , T+T+T+T+@ @ @ @ . . . . + + + + _ _ _ _ _ _ _ _ #+#+#+#+].].].].].].].].].].].].].].].].].].].].].].].].].].].].].].].].].].].].                                                        ",
"                                                                                              a#a#a#a#b#b#b#b#d#d#d#d#f#f#f#f#f#f#f#f#f#f#f#f#f#f#f#f#f#f#f#f#f#f#f#f#f#f#f#f#f#f#f#f#d#d#d#d#d#d#d#d#O.O.O.O.O.O.O.O.].].].].].].].].].].].].].].].].].].].].].].].].].].].].#+#+#+#+_ _ _ _ + + + + + + + + . . . . @ @ @ @ , , , , ) ) ) ) > > > > * * * * $ $ $ $ ########] ] ] ] s.s.s.s.~ ~ ~ ~ ~ ~ ~ ~ ~ ~ ~ ~ ~ ~ ~ ~ s.s.s.s.] ] ] ] ########$ $ $ $ * * * * > > > > ) ) ) ) , , , , T+T+T+T+@ @ @ @ . . . . + + + + _ _ _ _ _ _ _ _ #+#+#+#+].].].].].].].].].].].].].].].].].].].].].].].].].].].].].].].].].].].].                                                        ",
"                                                                                              a#a#a#a#b#b#b#b#d#d#d#d#f#f#f#f#f#f#f#f#f#f#f#f#f#f#f#f#f#f#f#f#f#f#f#f#f#f#f#f#f#f#f#f#d#d#d#d#d#d#d#d#O.O.O.O.O.O.O.O.].].].].].].].].].].].].].].].].].].].].].].].].].].].].#+#+#+#+_ _ _ _ + + + + + + + + . . . . @ @ @ @ , , , , ) ) ) ) > > > > * * * * $ $ $ $ ########] ] ] ] s.s.s.s.~ ~ ~ ~ ~ ~ ~ ~ ~ ~ ~ ~ ~ ~ ~ ~ s.s.s.s.] ] ] ] ########$ $ $ $ * * * * > > > > ) ) ) ) , , , , T+T+T+T+@ @ @ @ . . . . + + + + _ _ _ _ _ _ _ _ #+#+#+#+].].].].].].].].].].].].].].].].].].].].].].].].].].].].].].].].].].].].                                                        ",
"                                                                                              a#a#a#a#b#b#b#b#d#d#d#d#f#f#f#f#f#f#f#f#f#f#f#f#f#f#f#f#f#f#f#f#f#f#f#f#f#f#f#f#f#f#f#f#d#d#d#d#d#d#d#d#O.O.O.O.O.O.O.O.].].].].].].].].].].].].].].].].].].].].].].].].].].].].#+#+#+#+_ _ _ _ + + + + + + + + . . . . @ @ @ @ , , , , ) ) ) ) > > > > * * * * $ $ $ $ ########] ] ] ] s.s.s.s.~ ~ ~ ~ ~ ~ ~ ~ ~ ~ ~ ~ ~ ~ ~ ~ s.s.s.s.] ] ] ] ########$ $ $ $ * * * * > > > > ) ) ) ) , , , , T+T+T+T+@ @ @ @ . . . . + + + + _ _ _ _ _ _ _ _ #+#+#+#+].].].].].].].].].].].].].].].].].].].].].].].].].].].].].].].].].].].].                                                        ",
"                                                                                      a#a#a#a#b#b#b#b#d#d#d#d#f#f#f#f#f#f#f#f#f#f#f#f#f#f#f#f#g#g#g#g#g#g#g#g#g#g#g#g#f#f#f#f#d#d#d#d#d#d#d#d#d#d#d#d#O.O.O.O.O.O.O.O.].].].].O.O.O.O.O.O.O.O.].].].].].].].].].].].].].].].].#+#+#+#+_ _ _ _ + + + + + + + + . . . . @ @ @ @ , , , , ) ) ) ) > > > > * * * * $ $ $ $ ########] ] ] ] ~ ~ ~ ~ ~ ~ ~ ~ ; ; ; ; ; ; ; ; ; ; ; ; ~ ~ ~ ~ ] ] ] ] ########$ $ $ $ * * * * > > > > ) ) ) ) , , , , ( ( ( ( @ @ @ @ + + + + + + + + _ _ _ _ #+#+#+#+].].].].].].].].].].].].].].].].].].].].].].].].].].].].].].].].].].].].].].].].O.O.O.O.                                                ",
"                                                                                      a#a#a#a#b#b#b#b#d#d#d#d#f#f#f#f#f#f#f#f#f#f#f#f#f#f#f#f#g#g#g#g#g#g#g#g#g#g#g#g#f#f#f#f#d#d#d#d#d#d#d#d#d#d#d#d#O.O.O.O.O.O.O.O.].].].].O.O.O.O.O.O.O.O.].].].].].].].].].].].].].].].].#+#+#+#+_ _ _ _ + + + + + + + + . . . . @ @ @ @ , , , , ) ) ) ) > > > > * * * * $ $ $ $ ########] ] ] ] ~ ~ ~ ~ ~ ~ ~ ~ ; ; ; ; ; ; ; ; ; ; ; ; ~ ~ ~ ~ ] ] ] ] ########$ $ $ $ * * * * > > > > ) ) ) ) , , , , ( ( ( ( @ @ @ @ + + + + + + + + _ _ _ _ #+#+#+#+].].].].].].].].].].].].].].].].].].].].].].].].].].].].].].].].].].].].].].].].O.O.O.O.                                                ",
"                                                                                      a#a#a#a#b#b#b#b#d#d#d#d#f#f#f#f#f#f#f#f#f#f#f#f#f#f#f#f#g#g#g#g#g#g#g#g#g#g#g#g#f#f#f#f#d#d#d#d#d#d#d#d#d#d#d#d#O.O.O.O.O.O.O.O.].].].].O.O.O.O.O.O.O.O.].].].].].].].].].].].].].].].].#+#+#+#+_ _ _ _ + + + + + + + + . . . . @ @ @ @ , , , , ) ) ) ) > > > > * * * * $ $ $ $ ########] ] ] ] ~ ~ ~ ~ ~ ~ ~ ~ ; ; ; ; ; ; ; ; ; ; ; ; ~ ~ ~ ~ ] ] ] ] ########$ $ $ $ * * * * > > > > ) ) ) ) , , , , ( ( ( ( @ @ @ @ + + + + + + + + _ _ _ _ #+#+#+#+].].].].].].].].].].].].].].].].].].].].].].].].].].].].].].].].].].].].].].].].O.O.O.O.                                                ",
"                                                                                      a#a#a#a#b#b#b#b#d#d#d#d#f#f#f#f#f#f#f#f#f#f#f#f#f#f#f#f#g#g#g#g#g#g#g#g#g#g#g#g#f#f#f#f#d#d#d#d#d#d#d#d#d#d#d#d#O.O.O.O.O.O.O.O.].].].].O.O.O.O.O.O.O.O.].].].].].].].].].].].].].].].].#+#+#+#+_ _ _ _ + + + + + + + + . . . . @ @ @ @ , , , , ) ) ) ) > > > > * * * * $ $ $ $ ########] ] ] ] ~ ~ ~ ~ ~ ~ ~ ~ ; ; ; ; ; ; ; ; ; ; ; ; ~ ~ ~ ~ ] ] ] ] ########$ $ $ $ * * * * > > > > ) ) ) ) , , , , ( ( ( ( @ @ @ @ + + + + + + + + _ _ _ _ #+#+#+#+].].].].].].].].].].].].].].].].].].].].].].].].].].].].].].].].].].].].].].].].O.O.O.O.                                                ",
"                                                                              a#a#a#a#b#b#b#b#d#d#d#d#f#f#f#f#f#f#f#f#f#f#f#f#d#d#d#d#f#f#f#f#f#f#f#f#g#g#g#g#g#g#g#g#d#d#d#d#d#d#d#d#d#d#d#d#h#h#h#h#O.O.O.O.].].].].O.O.O.O.O.O.O.O.O.O.O.O.].].].].].].].].].].].].#+#+#+#+#+#+#+#+_ _ _ _ + + + + + + + + . . . . @ @ @ @ , , , , ) ) ) ) > > > > * * * * $ $ $ $ ########s.s.s.s.~ ~ ~ ~ ; ; ; ; ; ; ; ; t.t.t.t.; ; ; ; ~ ~ ~ ~ ~ ~ ~ ~ ] ] ] ] # # # # * * * * - - - - ) ) ) ) , , , , ( ( ( ( @ @ @ @ + + + + + + + + _ _ _ _ #+#+#+#+].].].].].].].].].].].].].].].].].].].].].].].].].].].].].].].].].].].].].].].].O.O.O.O.                                                ",
"                                                                              a#a#a#a#b#b#b#b#d#d#d#d#f#f#f#f#f#f#f#f#f#f#f#f#d#d#d#d#f#f#f#f#f#f#f#f#g#g#g#g#g#g#g#g#d#d#d#d#d#d#d#d#d#d#d#d#h#h#h#h#O.O.O.O.].].].].O.O.O.O.O.O.O.O.O.O.O.O.].].].].].].].].].].].].#+#+#+#+#+#+#+#+_ _ _ _ + + + + + + + + . . . . @ @ @ @ , , , , ) ) ) ) > > > > * * * * $ $ $ $ ########s.s.s.s.~ ~ ~ ~ ; ; ; ; ; ; ; ; t.t.t.t.; ; ; ; ~ ~ ~ ~ ~ ~ ~ ~ ] ] ] ] # # # # * * * * - - - - ) ) ) ) , , , , ( ( ( ( @ @ @ @ + + + + + + + + _ _ _ _ #+#+#+#+].].].].].].].].].].].].].].].].].].].].].].].].].].].].].].].].].].].].].].].].O.O.O.O.                                                ",
"                                                                              a#a#a#a#b#b#b#b#d#d#d#d#f#f#f#f#f#f#f#f#f#f#f#f#d#d#d#d#f#f#f#f#f#f#f#f#g#g#g#g#g#g#g#g#d#d#d#d#d#d#d#d#d#d#d#d#h#h#h#h#O.O.O.O.].].].].O.O.O.O.O.O.O.O.O.O.O.O.].].].].].].].].].].].].#+#+#+#+#+#+#+#+_ _ _ _ + + + + + + + + . . . . @ @ @ @ , , , , ) ) ) ) > > > > * * * * $ $ $ $ ########s.s.s.s.~ ~ ~ ~ ; ; ; ; ; ; ; ; t.t.t.t.; ; ; ; ~ ~ ~ ~ ~ ~ ~ ~ ] ] ] ] # # # # * * * * - - - - ) ) ) ) , , , , ( ( ( ( @ @ @ @ + + + + + + + + _ _ _ _ #+#+#+#+].].].].].].].].].].].].].].].].].].].].].].].].].].].].].].].].].].].].].].].].O.O.O.O.                                                ",
"                                                                              a#a#a#a#b#b#b#b#d#d#d#d#f#f#f#f#f#f#f#f#f#f#f#f#d#d#d#d#f#f#f#f#f#f#f#f#g#g#g#g#g#g#g#g#d#d#d#d#d#d#d#d#d#d#d#d#h#h#h#h#O.O.O.O.].].].].O.O.O.O.O.O.O.O.O.O.O.O.].].].].].].].].].].].].#+#+#+#+#+#+#+#+_ _ _ _ + + + + + + + + . . . . @ @ @ @ , , , , ) ) ) ) > > > > * * * * $ $ $ $ ########s.s.s.s.~ ~ ~ ~ ; ; ; ; ; ; ; ; t.t.t.t.; ; ; ; ~ ~ ~ ~ ~ ~ ~ ~ ] ] ] ] # # # # * * * * - - - - ) ) ) ) , , , , ( ( ( ( @ @ @ @ + + + + + + + + _ _ _ _ #+#+#+#+].].].].].].].].].].].].].].].].].].].].].].].].].].].].].].].].].].].].].].].].O.O.O.O.                                                ",
"                                                                      a#a#a#a#b#b#b#b#d#d#d#d#d#d#d#d#g#g#g#g#d#d#d#d#d#d#d#d#g#g#g#g#g#g#g#g#g#g#g#g#g#g#g#g#d#d#d#d#d#d#d#d#d#d#d#d#d#d#d#d#O.O.O.O.O.O.O.O.O.O.O.O.O.O.O.O.O.O.O.O.O.O.O.O.].].].].].].].].].].].].#+#+#+#+#+#+#+#+_ _ _ _ + + + + + + + + . . . . @ @ @ @ , , , , ) ) ) ) > > > > * * * * # # # # ] ] ] ] s.s.s.s.~ ~ ~ ~ ; ; ; ; ' ' ' ' ' ' ' ' ' ' ' ' ; ; ; ; ~ ~ ~ ~ s.s.s.s.########$ $ $ $ - - - - = = = = / / / / ( ( ( ( @ @ @ @ + + + + + + + + _ _ _ _ ].].].].].].].].].].].].].].].].].].].].].].].].].].].].].].].].].].].].].].].].].].].].].].].].                                                ",
"                                                                      a#a#a#a#b#b#b#b#d#d#d#d#d#d#d#d#g#g#g#g#d#d#d#d#d#d#d#d#g#g#g#g#g#g#g#g#g#g#g#g#g#g#g#g#d#d#d#d#d#d#d#d#d#d#d#d#d#d#d#d#O.O.O.O.O.O.O.O.O.O.O.O.O.O.O.O.O.O.O.O.O.O.O.O.].].].].].].].].].].].].#+#+#+#+#+#+#+#+_ _ _ _ + + + + + + + + . . . . @ @ @ @ , , , , ) ) ) ) > > > > * * * * # # # # ] ] ] ] s.s.s.s.~ ~ ~ ~ ; ; ; ; ' ' ' ' ' ' ' ' ' ' ' ' ; ; ; ; ~ ~ ~ ~ s.s.s.s.########$ $ $ $ - - - - = = = = / / / / ( ( ( ( @ @ @ @ + + + + + + + + _ _ _ _ ].].].].].].].].].].].].].].].].].].].].].].].].].].].].].].].].].].].].].].].].].].].].].].].].                                                ",
"                                                                      a#a#a#a#b#b#b#b#d#d#d#d#d#d#d#d#g#g#g#g#d#d#d#d#d#d#d#d#g#g#g#g#g#g#g#g#g#g#g#g#g#g#g#g#d#d#d#d#d#d#d#d#d#d#d#d#d#d#d#d#O.O.O.O.O.O.O.O.O.O.O.O.O.O.O.O.O.O.O.O.O.O.O.O.].].].].].].].].].].].].#+#+#+#+#+#+#+#+_ _ _ _ + + + + + + + + . . . . @ @ @ @ , , , , ) ) ) ) > > > > * * * * # # # # ] ] ] ] s.s.s.s.~ ~ ~ ~ ; ; ; ; ' ' ' ' ' ' ' ' ' ' ' ' ; ; ; ; ~ ~ ~ ~ s.s.s.s.########$ $ $ $ - - - - = = = = / / / / ( ( ( ( @ @ @ @ + + + + + + + + _ _ _ _ ].].].].].].].].].].].].].].].].].].].].].].].].].].].].].].].].].].].].].].].].].].].].].].].].                                                ",
"                                                                      a#a#a#a#b#b#b#b#d#d#d#d#d#d#d#d#g#g#g#g#d#d#d#d#d#d#d#d#g#g#g#g#g#g#g#g#g#g#g#g#g#g#g#g#d#d#d#d#d#d#d#d#d#d#d#d#d#d#d#d#O.O.O.O.O.O.O.O.O.O.O.O.O.O.O.O.O.O.O.O.O.O.O.O.].].].].].].].].].].].].#+#+#+#+#+#+#+#+_ _ _ _ + + + + + + + + . . . . @ @ @ @ , , , , ) ) ) ) > > > > * * * * # # # # ] ] ] ] s.s.s.s.~ ~ ~ ~ ; ; ; ; ' ' ' ' ' ' ' ' ' ' ' ' ; ; ; ; ~ ~ ~ ~ s.s.s.s.########$ $ $ $ - - - - = = = = / / / / ( ( ( ( @ @ @ @ + + + + + + + + _ _ _ _ ].].].].].].].].].].].].].].].].].].].].].].].].].].].].].].].].].].].].].].].].].].].].].].].].                                                ",
"                                                              a#a#a#a#b#b#b#b#d#d#d#d#g#g#g#g#g#g#g#g#g#g#g#g#g#g#g#g#g#g#g#g#f#f#f#f#g#g#g#g#d#d#d#d#g#g#g#g#d#d#d#d#d#d#d#d#h#h#h#h#b#b#b#b#O.O.O.O.O.O.O.O.O.O.O.O.O.O.O.O.O.O.O.O.].].].].].].].].].].].].].].].].#+#+#+#+#+#+#+#+_ _ _ _ + + + + + + + + @ @ @ @ @ @ @ @ , , , , ) ) ) ) > > > > * * * * # # # # ] ] ] ] s.s.s.s.~ ~ ~ ~ ; ; ; ; ' ' ' ' ' ' ' ' ' ' ' ' t.t.t.t.~ ~ ~ ~ s.s.s.s.] ] ] ] $ $ $ $ * * * * > > > > ) ) ) ) ( ( ( ( @ @ @ @ . . . . + + + + _ _ _ _ ].].].].].].].].].].].].].].].].].].].].].].].].].].].].].].].].].].].].].].].].].].].].O.O.O.O.                                                ",
"                                                              a#a#a#a#b#b#b#b#d#d#d#d#g#g#g#g#g#g#g#g#g#g#g#g#g#g#g#g#g#g#g#g#f#f#f#f#g#g#g#g#d#d#d#d#g#g#g#g#d#d#d#d#d#d#d#d#h#h#h#h#b#b#b#b#O.O.O.O.O.O.O.O.O.O.O.O.O.O.O.O.O.O.O.O.].].].].].].].].].].].].].].].].#+#+#+#+#+#+#+#+_ _ _ _ + + + + + + + + @ @ @ @ @ @ @ @ , , , , ) ) ) ) > > > > * * * * # # # # ] ] ] ] s.s.s.s.~ ~ ~ ~ ; ; ; ; ' ' ' ' ' ' ' ' ' ' ' ' t.t.t.t.~ ~ ~ ~ s.s.s.s.] ] ] ] $ $ $ $ * * * * > > > > ) ) ) ) ( ( ( ( @ @ @ @ . . . . + + + + _ _ _ _ ].].].].].].].].].].].].].].].].].].].].].].].].].].].].].].].].].].].].].].].].].].].].O.O.O.O.                                                ",
"                                                              a#a#a#a#b#b#b#b#d#d#d#d#g#g#g#g#g#g#g#g#g#g#g#g#g#g#g#g#g#g#g#g#f#f#f#f#g#g#g#g#d#d#d#d#g#g#g#g#d#d#d#d#d#d#d#d#h#h#h#h#b#b#b#b#O.O.O.O.O.O.O.O.O.O.O.O.O.O.O.O.O.O.O.O.].].].].].].].].].].].].].].].].#+#+#+#+#+#+#+#+_ _ _ _ + + + + + + + + @ @ @ @ @ @ @ @ , , , , ) ) ) ) > > > > * * * * # # # # ] ] ] ] s.s.s.s.~ ~ ~ ~ ; ; ; ; ' ' ' ' ' ' ' ' ' ' ' ' t.t.t.t.~ ~ ~ ~ s.s.s.s.] ] ] ] $ $ $ $ * * * * > > > > ) ) ) ) ( ( ( ( @ @ @ @ . . . . + + + + _ _ _ _ ].].].].].].].].].].].].].].].].].].].].].].].].].].].].].].].].].].].].].].].].].].].].O.O.O.O.                                                ",
"                                                              a#a#a#a#b#b#b#b#d#d#d#d#g#g#g#g#g#g#g#g#g#g#g#g#g#g#g#g#g#g#g#g#f#f#f#f#g#g#g#g#d#d#d#d#g#g#g#g#d#d#d#d#d#d#d#d#h#h#h#h#b#b#b#b#O.O.O.O.O.O.O.O.O.O.O.O.O.O.O.O.O.O.O.O.].].].].].].].].].].].].].].].].#+#+#+#+#+#+#+#+_ _ _ _ + + + + + + + + @ @ @ @ @ @ @ @ , , , , ) ) ) ) > > > > * * * * # # # # ] ] ] ] s.s.s.s.~ ~ ~ ~ ; ; ; ; ' ' ' ' ' ' ' ' ' ' ' ' t.t.t.t.~ ~ ~ ~ s.s.s.s.] ] ] ] $ $ $ $ * * * * > > > > ) ) ) ) ( ( ( ( @ @ @ @ . . . . + + + + _ _ _ _ ].].].].].].].].].].].].].].].].].].].].].].].].].].].].].].].].].].].].].].].].].].].].O.O.O.O.                                                ",
"                                                      a#a#a#a#b#b#b#b#d#d#d#d#g#g#g#g#d#d#d#d#f#f#f#f#f#f#f#f#f#f#f#f#f#f#f#f#g#g#g#g#g#g#g#g#g#g#g#g#d#d#d#d#d#d#d#d#h#h#h#h#b#b#b#b#b#b#b#b#O.O.O.O.O.O.O.O.O.O.O.O.O.O.O.O.].].].].].].].].].].].].].].].].].].].].#+#+#+#+#+#+#+#+_ _ _ _ + + + + + + + + @ @ @ @ @ @ @ @ , , , , ) ) ) ) > > > > * * * * # # # # ] ] ] ] s.s.s.s.~ ~ ~ ~ ; ; ; ; ' ' ' ' ' ' ' ' ' ' ' ' t.t.t.t.; ; ; ; ~ ~ ~ ~ ] ] ] ] # # # # * * * * > > > > ) ) ) ) , , , , @ @ @ @ . . . . + + + + _ _ _ _ ].].].].].].].].].].].].].].].].].].].].].].].].].].].].].].].].].].].].].].].].].].].].].].].].O.O.O.O.                                        ",
"                                                      a#a#a#a#b#b#b#b#d#d#d#d#g#g#g#g#d#d#d#d#f#f#f#f#f#f#f#f#f#f#f#f#f#f#f#f#g#g#g#g#g#g#g#g#g#g#g#g#d#d#d#d#d#d#d#d#h#h#h#h#b#b#b#b#b#b#b#b#O.O.O.O.O.O.O.O.O.O.O.O.O.O.O.O.].].].].].].].].].].].].].].].].].].].].#+#+#+#+#+#+#+#+_ _ _ _ + + + + + + + + @ @ @ @ @ @ @ @ , , , , ) ) ) ) > > > > * * * * # # # # ] ] ] ] s.s.s.s.~ ~ ~ ~ ; ; ; ; ' ' ' ' ' ' ' ' ' ' ' ' t.t.t.t.; ; ; ; ~ ~ ~ ~ ] ] ] ] # # # # * * * * > > > > ) ) ) ) , , , , @ @ @ @ . . . . + + + + _ _ _ _ ].].].].].].].].].].].].].].].].].].].].].].].].].].].].].].].].].].].].].].].].].].].].].].].].O.O.O.O.                                        ",
"                                                      a#a#a#a#b#b#b#b#d#d#d#d#g#g#g#g#d#d#d#d#f#f#f#f#f#f#f#f#f#f#f#f#f#f#f#f#g#g#g#g#g#g#g#g#g#g#g#g#d#d#d#d#d#d#d#d#h#h#h#h#b#b#b#b#b#b#b#b#O.O.O.O.O.O.O.O.O.O.O.O.O.O.O.O.].].].].].].].].].].].].].].].].].].].].#+#+#+#+#+#+#+#+_ _ _ _ + + + + + + + + @ @ @ @ @ @ @ @ , , , , ) ) ) ) > > > > * * * * # # # # ] ] ] ] s.s.s.s.~ ~ ~ ~ ; ; ; ; ' ' ' ' ' ' ' ' ' ' ' ' t.t.t.t.; ; ; ; ~ ~ ~ ~ ] ] ] ] # # # # * * * * > > > > ) ) ) ) , , , , @ @ @ @ . . . . + + + + _ _ _ _ ].].].].].].].].].].].].].].].].].].].].].].].].].].].].].].].].].].].].].].].].].].].].].].].].O.O.O.O.                                        ",
"                                                      a#a#a#a#b#b#b#b#d#d#d#d#g#g#g#g#d#d#d#d#f#f#f#f#f#f#f#f#f#f#f#f#f#f#f#f#g#g#g#g#g#g#g#g#g#g#g#g#d#d#d#d#d#d#d#d#h#h#h#h#b#b#b#b#b#b#b#b#O.O.O.O.O.O.O.O.O.O.O.O.O.O.O.O.].].].].].].].].].].].].].].].].].].].].#+#+#+#+#+#+#+#+_ _ _ _ + + + + + + + + @ @ @ @ @ @ @ @ , , , , ) ) ) ) > > > > * * * * # # # # ] ] ] ] s.s.s.s.~ ~ ~ ~ ; ; ; ; ' ' ' ' ' ' ' ' ' ' ' ' t.t.t.t.; ; ; ; ~ ~ ~ ~ ] ] ] ] # # # # * * * * > > > > ) ) ) ) , , , , @ @ @ @ . . . . + + + + _ _ _ _ ].].].].].].].].].].].].].].].].].].].].].].].].].].].].].].].].].].].].].].].].].].].].].].].].O.O.O.O.                                        ",
"                                              a#a#a#a#b#b#b#b#d#d#d#d#d#d#d#d#f#f#f#f#f#f#f#f#f#f#f#f#f#f#f#f#f#f#f#f#g#g#g#g#d#d#d#d#d#d#d#d#d#d#d#d#d#d#d#d#h#h#h#h#d#d#d#d#b#b#b#b#O.O.O.O.O.O.O.O.O.O.O.O.O.O.O.O.O.O.O.O.].].].].].].].].].].].].].].].].].].].].#+#+#+#+#+#+#+#+_ _ _ _ + + + + + + + + @ @ @ @ @ @ @ @ , , , , ) ) ) ) > > > > * * * * # # # # ] ] ] ] s.s.s.s.~ ~ ~ ~ ; ; ; ; ' ' ' ' ' ' ' ' ' ' ' ' ; ; ; ; ; ; ; ; ~ ~ ~ ~ ] ] ] ] # # # # * * * * > > > > / / / / , , , , @ @ @ @ . . . . + + + + _ _ _ _ #+#+#+#+].].].].].].].].].].].].].].].].].].].].].].].].].].].].].].].].].].].].].].].].].].].].O.O.O.O.                                        ",
"                                              a#a#a#a#b#b#b#b#d#d#d#d#d#d#d#d#f#f#f#f#f#f#f#f#f#f#f#f#f#f#f#f#f#f#f#f#g#g#g#g#d#d#d#d#d#d#d#d#d#d#d#d#d#d#d#d#h#h#h#h#d#d#d#d#b#b#b#b#O.O.O.O.O.O.O.O.O.O.O.O.O.O.O.O.O.O.O.O.].].].].].].].].].].].].].].].].].].].].#+#+#+#+#+#+#+#+_ _ _ _ + + + + + + + + @ @ @ @ @ @ @ @ , , , , ) ) ) ) > > > > * * * * # # # # ] ] ] ] s.s.s.s.~ ~ ~ ~ ; ; ; ; ' ' ' ' ' ' ' ' ' ' ' ' ; ; ; ; ; ; ; ; ~ ~ ~ ~ ] ] ] ] # # # # * * * * > > > > / / / / , , , , @ @ @ @ . . . . + + + + _ _ _ _ #+#+#+#+].].].].].].].].].].].].].].].].].].].].].].].].].].].].].].].].].].].].].].].].].].].].O.O.O.O.                                        ",
"                                              a#a#a#a#b#b#b#b#d#d#d#d#d#d#d#d#f#f#f#f#f#f#f#f#f#f#f#f#f#f#f#f#f#f#f#f#g#g#g#g#d#d#d#d#d#d#d#d#d#d#d#d#d#d#d#d#h#h#h#h#d#d#d#d#b#b#b#b#O.O.O.O.O.O.O.O.O.O.O.O.O.O.O.O.O.O.O.O.].].].].].].].].].].].].].].].].].].].].#+#+#+#+#+#+#+#+_ _ _ _ + + + + + + + + @ @ @ @ @ @ @ @ , , , , ) ) ) ) > > > > * * * * # # # # ] ] ] ] s.s.s.s.~ ~ ~ ~ ; ; ; ; ' ' ' ' ' ' ' ' ' ' ' ' ; ; ; ; ; ; ; ; ~ ~ ~ ~ ] ] ] ] # # # # * * * * > > > > / / / / , , , , @ @ @ @ . . . . + + + + _ _ _ _ #+#+#+#+].].].].].].].].].].].].].].].].].].].].].].].].].].].].].].].].].].].].].].].].].].].].O.O.O.O.                                        ",
"                                              a#a#a#a#b#b#b#b#d#d#d#d#d#d#d#d#f#f#f#f#f#f#f#f#f#f#f#f#f#f#f#f#f#f#f#f#g#g#g#g#d#d#d#d#d#d#d#d#d#d#d#d#d#d#d#d#h#h#h#h#d#d#d#d#b#b#b#b#O.O.O.O.O.O.O.O.O.O.O.O.O.O.O.O.O.O.O.O.].].].].].].].].].].].].].].].].].].].].#+#+#+#+#+#+#+#+_ _ _ _ + + + + + + + + @ @ @ @ @ @ @ @ , , , , ) ) ) ) > > > > * * * * # # # # ] ] ] ] s.s.s.s.~ ~ ~ ~ ; ; ; ; ' ' ' ' ' ' ' ' ' ' ' ' ; ; ; ; ; ; ; ; ~ ~ ~ ~ ] ] ] ] # # # # * * * * > > > > / / / / , , , , @ @ @ @ . . . . + + + + _ _ _ _ #+#+#+#+].].].].].].].].].].].].].].].].].].].].].].].].].].].].].].].].].].].].].].].].].].].].O.O.O.O.                                        ",
"                              a#a#a#a#a#a#a#a#b#b#b#b#d#d#d#d#f#f#f#f#f#f#f#f#f#f#f#f#f#f#f#f#g#g#g#g#g#g#g#g#g#g#g#g#d#d#d#d#g#g#g#g#d#d#d#d#h#h#h#h#h#h#h#h#a#a#a#a#b#b#b#b#b#b#b#b#O.O.O.O.O.O.O.O.O.O.O.O.O.O.O.O.O.O.O.O.O.O.O.O.].].].].].].].].].].].].].].].].#+#+#+#+#+#+#+#+_ _ _ _ + + + + + + + + @ @ @ @ @ @ @ @ , , , , ) ) ) ) > > > > * * * * $ $ $ $ ] ] ] ] s.s.s.s.~ ~ ~ ~ ; ; ; ; ; ; ; ; t.t.t.t.t.t.t.t.; ; ; ; ~ ~ ~ ~ s.s.s.s.] ] ] ] # # # # * * * * = = = = , , , , ( ( ( ( @ @ @ @ + + + + + + + + _ _ _ _ #+#+#+#+].].].].].].].].].].].].].].].].].].].].].].].].].].].].].].].].].].].].].].].].].].].].O.O.O.O.                                        ",
"                              a#a#a#a#a#a#a#a#b#b#b#b#d#d#d#d#f#f#f#f#f#f#f#f#f#f#f#f#f#f#f#f#g#g#g#g#g#g#g#g#g#g#g#g#d#d#d#d#g#g#g#g#d#d#d#d#h#h#h#h#h#h#h#h#a#a#a#a#b#b#b#b#b#b#b#b#O.O.O.O.O.O.O.O.O.O.O.O.O.O.O.O.O.O.O.O.O.O.O.O.].].].].].].].].].].].].].].].].#+#+#+#+#+#+#+#+_ _ _ _ + + + + + + + + @ @ @ @ @ @ @ @ , , , , ) ) ) ) > > > > * * * * $ $ $ $ ] ] ] ] s.s.s.s.~ ~ ~ ~ ; ; ; ; ; ; ; ; t.t.t.t.t.t.t.t.; ; ; ; ~ ~ ~ ~ s.s.s.s.] ] ] ] # # # # * * * * = = = = , , , , ( ( ( ( @ @ @ @ + + + + + + + + _ _ _ _ #+#+#+#+].].].].].].].].].].].].].].].].].].].].].].].].].].].].].].].].].].].].].].].].].].].].O.O.O.O.                                        ",
"                              a#a#a#a#a#a#a#a#b#b#b#b#d#d#d#d#f#f#f#f#f#f#f#f#f#f#f#f#f#f#f#f#g#g#g#g#g#g#g#g#g#g#g#g#d#d#d#d#g#g#g#g#d#d#d#d#h#h#h#h#h#h#h#h#a#a#a#a#b#b#b#b#b#b#b#b#O.O.O.O.O.O.O.O.O.O.O.O.O.O.O.O.O.O.O.O.O.O.O.O.].].].].].].].].].].].].].].].].#+#+#+#+#+#+#+#+_ _ _ _ + + + + + + + + @ @ @ @ @ @ @ @ , , , , ) ) ) ) > > > > * * * * $ $ $ $ ] ] ] ] s.s.s.s.~ ~ ~ ~ ; ; ; ; ; ; ; ; t.t.t.t.t.t.t.t.; ; ; ; ~ ~ ~ ~ s.s.s.s.] ] ] ] # # # # * * * * = = = = , , , , ( ( ( ( @ @ @ @ + + + + + + + + _ _ _ _ #+#+#+#+].].].].].].].].].].].].].].].].].].].].].].].].].].].].].].].].].].].].].].].].].].].].O.O.O.O.                                        ",
"                              a#a#a#a#a#a#a#a#b#b#b#b#d#d#d#d#f#f#f#f#f#f#f#f#f#f#f#f#f#f#f#f#g#g#g#g#g#g#g#g#g#g#g#g#d#d#d#d#g#g#g#g#d#d#d#d#h#h#h#h#h#h#h#h#a#a#a#a#b#b#b#b#b#b#b#b#O.O.O.O.O.O.O.O.O.O.O.O.O.O.O.O.O.O.O.O.O.O.O.O.].].].].].].].].].].].].].].].].#+#+#+#+#+#+#+#+_ _ _ _ + + + + + + + + @ @ @ @ @ @ @ @ , , , , ) ) ) ) > > > > * * * * $ $ $ $ ] ] ] ] s.s.s.s.~ ~ ~ ~ ; ; ; ; ; ; ; ; t.t.t.t.t.t.t.t.; ; ; ; ~ ~ ~ ~ s.s.s.s.] ] ] ] # # # # * * * * = = = = , , , , ( ( ( ( @ @ @ @ + + + + + + + + _ _ _ _ #+#+#+#+].].].].].].].].].].].].].].].].].].].].].].].].].].].].].].].].].].].].].].].].].].].].O.O.O.O.                                        ",
"                      a#a#a#a#a#a#a#a#b#b#b#b#d#d#d#d#g#g#g#g#g#g#g#g#f#f#f#f#g#g#g#g#g#g#g#g#g#g#g#g#d#d#d#d#f#f#f#f#d#d#d#d#d#d#d#d#h#h#h#h#h#h#h#h#a#a#a#a#b#b#b#b#e#e#e#e#e#e#e#e#O.O.O.O.O.O.O.O.O.O.O.O.O.O.O.O.O.O.O.O.].].].].].].].].].].].].].].].].].].].].#+#+#+#+#+#+#+#+_ _ _ _ + + + + + + + + @ @ @ @ @ @ @ @ , , , , ) ) ) ) > > > > * * * * # # # # ] ] ] ] s.s.s.s.~ ~ ~ ~ ; ; ; ; ' ' ' ' ' ' ' ' ' ' ' ' ; ; ; ; ; ; ; ; ~ ~ ~ ~ ] ] ] ] # # # # * * * * > > > > / / / / , , , , @ @ @ @ . . . . + + + + _ _ _ _ #+#+#+#+].].].].].].].].].].].].].].].].].].].].].].].].].].].].].].].].].].].].].].].].].].].].O.O.O.O.                                        ",
"                      a#a#a#a#a#a#a#a#b#b#b#b#d#d#d#d#g#g#g#g#g#g#g#g#f#f#f#f#g#g#g#g#g#g#g#g#g#g#g#g#d#d#d#d#f#f#f#f#d#d#d#d#d#d#d#d#h#h#h#h#h#h#h#h#a#a#a#a#b#b#b#b#e#e#e#e#e#e#e#e#O.O.O.O.O.O.O.O.O.O.O.O.O.O.O.O.O.O.O.O.].].].].].].].].].].].].].].].].].].].].#+#+#+#+#+#+#+#+_ _ _ _ + + + + + + + + @ @ @ @ @ @ @ @ , , , , ) ) ) ) > > > > * * * * # # # # ] ] ] ] s.s.s.s.~ ~ ~ ~ ; ; ; ; ' ' ' ' ' ' ' ' ' ' ' ' ; ; ; ; ; ; ; ; ~ ~ ~ ~ ] ] ] ] # # # # * * * * > > > > / / / / , , , , @ @ @ @ . . . . + + + + _ _ _ _ #+#+#+#+].].].].].].].].].].].].].].].].].].].].].].].].].].].].].].].].].].].].].].].].].].].].O.O.O.O.                                        ",
"                      a#a#a#a#a#a#a#a#b#b#b#b#d#d#d#d#g#g#g#g#g#g#g#g#f#f#f#f#g#g#g#g#g#g#g#g#g#g#g#g#d#d#d#d#f#f#f#f#d#d#d#d#d#d#d#d#h#h#h#h#h#h#h#h#a#a#a#a#b#b#b#b#e#e#e#e#e#e#e#e#O.O.O.O.O.O.O.O.O.O.O.O.O.O.O.O.O.O.O.O.].].].].].].].].].].].].].].].].].].].].#+#+#+#+#+#+#+#+_ _ _ _ + + + + + + + + @ @ @ @ @ @ @ @ , , , , ) ) ) ) > > > > * * * * # # # # ] ] ] ] s.s.s.s.~ ~ ~ ~ ; ; ; ; ' ' ' ' ' ' ' ' ' ' ' ' ; ; ; ; ; ; ; ; ~ ~ ~ ~ ] ] ] ] # # # # * * * * > > > > / / / / , , , , @ @ @ @ . . . . + + + + _ _ _ _ #+#+#+#+].].].].].].].].].].].].].].].].].].].].].].].].].].].].].].].].].].].].].].].].].].].].O.O.O.O.                                        ",
"                      a#a#a#a#a#a#a#a#b#b#b#b#d#d#d#d#g#g#g#g#g#g#g#g#f#f#f#f#g#g#g#g#g#g#g#g#g#g#g#g#d#d#d#d#f#f#f#f#d#d#d#d#d#d#d#d#h#h#h#h#h#h#h#h#a#a#a#a#b#b#b#b#e#e#e#e#e#e#e#e#O.O.O.O.O.O.O.O.O.O.O.O.O.O.O.O.O.O.O.O.].].].].].].].].].].].].].].].].].].].].#+#+#+#+#+#+#+#+_ _ _ _ + + + + + + + + @ @ @ @ @ @ @ @ , , , , ) ) ) ) > > > > * * * * # # # # ] ] ] ] s.s.s.s.~ ~ ~ ~ ; ; ; ; ' ' ' ' ' ' ' ' ' ' ' ' ; ; ; ; ; ; ; ; ~ ~ ~ ~ ] ] ] ] # # # # * * * * > > > > / / / / , , , , @ @ @ @ . . . . + + + + _ _ _ _ #+#+#+#+].].].].].].].].].].].].].].].].].].].].].].].].].].].].].].].].].].].].].].].].].].].].O.O.O.O.                                        ",
"              a#a#a#a#b#b#b#b#h#h#h#h#d#d#d#d#g#g#g#g#g#g#g#g#g#g#g#g#g#g#g#g#g#g#g#g#g#g#g#g#d#d#d#d#d#d#d#d#d#d#d#d#d#d#d#d#d#d#d#d#b#b#b#b#b#b#b#b#a#a#a#a#a#a#a#a#e#e#e#e#0#0#0#0#O.O.O.O.O.O.O.O.O.O.O.O.O.O.O.O.O.O.O.O.O.O.O.O.].].].].].].].].].].].].].].].].#+#+#+#+#+#+#+#+_ _ _ _ + + + + + + + + @ @ @ @ @ @ @ @ , , , , ) ) ) ) > > > > * * * * $ $ $ $ ] ] ] ] s.s.s.s.~ ~ ~ ~ ; ; ; ; ; ; ; ; t.t.t.t.t.t.t.t.; ; ; ; ~ ~ ~ ~ s.s.s.s.] ] ] ] # # # # * * * * = = = = , , , , ( ( ( ( @ @ @ @ + + + + + + + + _ _ _ _ #+#+#+#+].].].].].].].].].].].].].].].].].].].].].].].].].].].].].].].].].].].].].].].].].].].].O.O.O.O.                                        ",
"              a#a#a#a#b#b#b#b#h#h#h#h#d#d#d#d#g#g#g#g#g#g#g#g#g#g#g#g#g#g#g#g#g#g#g#g#g#g#g#g#d#d#d#d#d#d#d#d#d#d#d#d#d#d#d#d#d#d#d#d#b#b#b#b#b#b#b#b#a#a#a#a#a#a#a#a#e#e#e#e#0#0#0#0#O.O.O.O.O.O.O.O.O.O.O.O.O.O.O.O.O.O.O.O.O.O.O.O.].].].].].].].].].].].].].].].].#+#+#+#+#+#+#+#+_ _ _ _ + + + + + + + + @ @ @ @ @ @ @ @ , , , , ) ) ) ) > > > > * * * * $ $ $ $ ] ] ] ] s.s.s.s.~ ~ ~ ~ ; ; ; ; ; ; ; ; t.t.t.t.t.t.t.t.; ; ; ; ~ ~ ~ ~ s.s.s.s.] ] ] ] # # # # * * * * = = = = , , , , ( ( ( ( @ @ @ @ + + + + + + + + _ _ _ _ #+#+#+#+].].].].].].].].].].].].].].].].].].].].].].].].].].].].].].].].].].].].].].].].].].].].O.O.O.O.                                        ",
"              a#a#a#a#b#b#b#b#h#h#h#h#d#d#d#d#g#g#g#g#g#g#g#g#g#g#g#g#g#g#g#g#g#g#g#g#g#g#g#g#d#d#d#d#d#d#d#d#d#d#d#d#d#d#d#d#d#d#d#d#b#b#b#b#b#b#b#b#a#a#a#a#a#a#a#a#e#e#e#e#0#0#0#0#O.O.O.O.O.O.O.O.O.O.O.O.O.O.O.O.O.O.O.O.O.O.O.O.].].].].].].].].].].].].].].].].#+#+#+#+#+#+#+#+_ _ _ _ + + + + + + + + @ @ @ @ @ @ @ @ , , , , ) ) ) ) > > > > * * * * $ $ $ $ ] ] ] ] s.s.s.s.~ ~ ~ ~ ; ; ; ; ; ; ; ; t.t.t.t.t.t.t.t.; ; ; ; ~ ~ ~ ~ s.s.s.s.] ] ] ] # # # # * * * * = = = = , , , , ( ( ( ( @ @ @ @ + + + + + + + + _ _ _ _ #+#+#+#+].].].].].].].].].].].].].].].].].].].].].].].].].].].].].].].].].].].].].].].].].].].].O.O.O.O.                                        ",
"              a#a#a#a#b#b#b#b#h#h#h#h#d#d#d#d#g#g#g#g#g#g#g#g#g#g#g#g#g#g#g#g#g#g#g#g#g#g#g#g#d#d#d#d#d#d#d#d#d#d#d#d#d#d#d#d#d#d#d#d#b#b#b#b#b#b#b#b#a#a#a#a#a#a#a#a#e#e#e#e#0#0#0#0#O.O.O.O.O.O.O.O.O.O.O.O.O.O.O.O.O.O.O.O.O.O.O.O.].].].].].].].].].].].].].].].].#+#+#+#+#+#+#+#+_ _ _ _ + + + + + + + + @ @ @ @ @ @ @ @ , , , , ) ) ) ) > > > > * * * * $ $ $ $ ] ] ] ] s.s.s.s.~ ~ ~ ~ ; ; ; ; ; ; ; ; t.t.t.t.t.t.t.t.; ; ; ; ~ ~ ~ ~ s.s.s.s.] ] ] ] # # # # * * * * = = = = , , , , ( ( ( ( @ @ @ @ + + + + + + + + _ _ _ _ #+#+#+#+].].].].].].].].].].].].].].].].].].].].].].].].].].].].].].].].].].].].].].].].].].].].O.O.O.O.                                        ",
"a#a#a#b#b#b#b#h#h#h#h#d#d#d#d#d#d#d#d#d#d#d#d#g#g#g#g#g#g#g#g#g#g#g#g#b#b#b#b#d#d#d#d#g#g#g#g#d#d#d#d#h#h#h#h#g#g#g#g#b#b#b#b#b#b#b#b#a#a#a#a#e#e#e#e#e#e#e#e#0#0#0#0#0#0#0#0#0#0#0#0#O.O.O.O.O.O.O.O.O.O.O.O.O.O.O.O.O.O.O.O.].].].].].].].].].].].].].].].].].].].].#+#+#+#+#+#+#+#+_ _ _ _ + + + + + + + + @ @ @ @ @ @ @ @ , , , , ) ) ) ) > > > > * * * * # # # # ] ] ] ] s.s.s.s.~ ~ ~ ~ ; ; ; ; ' ' ' ' ' ' ' ' ' ' ' ' ; ; ; ; ; ; ; ; ~ ~ ~ ~ ] ] ] ] # # # # * * * * > > > > / / / / , , , , @ @ @ @ . . . . + + + + _ _ _ _ #+#+#+#+].].].].].].].].].].].].].].].].].].].].].].].].].].].].].].].].].].].].].].].].].].].].O.O.O.O.                                        ",
"a#a#a#b#b#b#b#h#h#h#h#d#d#d#d#d#d#d#d#d#d#d#d#g#g#g#g#g#g#g#g#g#g#g#g#b#b#b#b#d#d#d#d#g#g#g#g#d#d#d#d#h#h#h#h#g#g#g#g#b#b#b#b#b#b#b#b#a#a#a#a#e#e#e#e#e#e#e#e#0#0#0#0#0#0#0#0#0#0#0#0#O.O.O.O.O.O.O.O.O.O.O.O.O.O.O.O.O.O.O.O.].].].].].].].].].].].].].].].].].].].].#+#+#+#+#+#+#+#+_ _ _ _ + + + + + + + + @ @ @ @ @ @ @ @ , , , , ) ) ) ) > > > > * * * * # # # # ] ] ] ] s.s.s.s.~ ~ ~ ~ ; ; ; ; ' ' ' ' ' ' ' ' ' ' ' ' ; ; ; ; ; ; ; ; ~ ~ ~ ~ ] ] ] ] # # # # * * * * > > > > / / / / , , , , @ @ @ @ . . . . + + + + _ _ _ _ #+#+#+#+].].].].].].].].].].].].].].].].].].].].].].].].].].].].].].].].].].].].].].].].].].].].O.O.O.O.                                        "};
