/* XPM */
static char * _NORTH__xpm[] = {
"330 330 24638 3",
"   	c #252425",
".  	c #0B0C10",
"+  	c #010206",
"@  	c #000002",
"#  	c #0C0907",
"$  	c #25160C",
"%  	c #351C09",
"&  	c #3C1C08",
"*  	c #45230C",
"=  	c #4F2A0D",
"-  	c #6C421B",
";  	c #875B33",
">  	c #936D4B",
",  	c #7A614A",
"'  	c #4E3E31",
")  	c #403329",
"!  	c #584D41",
"~  	c #7A7269",
"{  	c #827D78",
"]  	c #7C7875",
"^  	c #787670",
"/  	c #5A5753",
"(  	c #3E3A37",
"_  	c #44403B",
":  	c #3C3933",
"<  	c #1A1A16",
"[  	c #010102",
"}  	c #000000",
"|  	c #000001",
"1  	c #0F0D0F",
"2  	c #2A2727",
"3  	c #312D2C",
"4  	c #2E2926",
"5  	c #342D29",
"6  	c #3E352F",
"7  	c #3D352F",
"8  	c #2B2421",
"9  	c #171211",
"0  	c #0C0809",
"a  	c #0C0A0B",
"b  	c #0B080C",
"c  	c #171317",
"d  	c #262323",
"e  	c #282423",
"f  	c #231E1D",
"g  	c #282421",
"h  	c #26231F",
"i  	c #292721",
"j  	c #45433A",
"k  	c #58554A",
"l  	c #575044",
"m  	c #716959",
"n  	c #A69E8C",
"o  	c #C4BDAD",
"p  	c #C5BEB0",
"q  	c #C3BCAF",
"r  	c #BBB5A7",
"s  	c #B8B0A2",
"t  	c #A59F91",
"u  	c #767367",
"v  	c #5F5C54",
"w  	c #696860",
"x  	c #5D5B55",
"y  	c #45423F",
"z  	c #43403D",
"A  	c #403D3B",
"B  	c #353230",
"C  	c #312E2C",
"D  	c #32302F",
"E  	c #333232",
"F  	c #262525",
"G  	c #101011",
"H  	c #010104",
"I  	c #05050A",
"J  	c #18161B",
"K  	c #272529",
"L  	c #242123",
"M  	c #2E2B28",
"N  	c #55514A",
"O  	c #767369",
"P  	c #7B756A",
"Q  	c #757064",
"R  	c #696458",
"S  	c #645E54",
"T  	c #5A554F",
"U  	c #44433E",
"V  	c #262626",
"W  	c #201F20",
"X  	c #1A171A",
"Y  	c #1A1919",
"Z  	c #171415",
"`  	c #191716",
" . 	c #1A1716",
".. 	c #201D1C",
"+. 	c #1F1B1C",
"@. 	c #201D1E",
"#. 	c #262220",
"$. 	c #2B2724",
"%. 	c #3E3931",
"&. 	c #473F36",
"*. 	c #42382F",
"=. 	c #4E4437",
"-. 	c #695C4D",
";. 	c #736352",
">. 	c #746452",
",. 	c #746451",
"'. 	c #776754",
"). 	c #776654",
"!. 	c #776553",
"~. 	c #6C5B49",
"{. 	c #5D4D3C",
"]. 	c #574936",
"^. 	c #5F4E3B",
"/. 	c #705A43",
"(. 	c #796148",
"_. 	c #796247",
":. 	c #7A6348",
"<. 	c #796248",
"[. 	c #7A6349",
"}. 	c #796249",
"|. 	c #7A624A",
"1. 	c #78614A",
"2. 	c #76614B",
"3. 	c #6D5A45",
"4. 	c #5C4D3B",
"5. 	c #534537",
"6. 	c #53473A",
"7. 	c #504639",
"8. 	c #41372E",
"9. 	c #362D25",
"0. 	c #352E26",
"a. 	c #362F27",
"b. 	c #342E27",
"c. 	c #221D18",
"d. 	c #0A0706",
"e. 	c #050406",
"f. 	c #0B0B0B",
"g. 	c #262521",
"h. 	c #3E3A32",
"i. 	c #4E473C",
"j. 	c #534C40",
"k. 	c #5B5448",
"l. 	c #585046",
"m. 	c #514A40",
"n. 	c #453E35",
"o. 	c #433D33",
"p. 	c #464035",
"q. 	c #4F473C",
"r. 	c #605547",
"s. 	c #6B5E4E",
"t. 	c #6B5D4B",
"u. 	c #6B5C4A",
"v. 	c #655947",
"w. 	c #695E4F",
"x. 	c #696256",
"y. 	c #524D46",
"z. 	c #221E1B",
"A. 	c #0C0909",
"B. 	c #090709",
"C. 	c #0B090A",
"D. 	c #161313",
"E. 	c #252221",
"F. 	c #272424",
"G. 	c #202021",
"H. 	c #151619",
"I. 	c #131519",
"J. 	c #14161B",
"K. 	c #1D1E22",
"L. 	c #201E23",
"M. 	c #272528",
"N. 	c #262426",
"O. 	c #2A2827",
"P. 	c #292625",
"Q. 	c #393634",
"R. 	c #474542",
"S. 	c #494542",
"T. 	c #423E3B",
"U. 	c #47423D",
"V. 	c #71685F",
"W. 	c #8A7D6F",
"X. 	c #837769",
"Y. 	c #7F7464",
"Z. 	c #837A6B",
"`. 	c #867E73",
" + 	c #8C887E",
".+ 	c #83807B",
"++ 	c #50504A",
"@+ 	c #131210",
"#+ 	c #0B0B0A",
"$+ 	c #121310",
"%+ 	c #272522",
"&+ 	c #383432",
"*+ 	c #3C3733",
"=+ 	c #35312C",
"-+ 	c #504D47",
";+ 	c #5E5B54",
">+ 	c #625C55",
",+ 	c #686259",
"'+ 	c #6B6258",
")+ 	c #6D6658",
"!+ 	c #685F51",
"~+ 	c #675D4F",
"{+ 	c #665A4E",
"]+ 	c #695D51",
"^+ 	c #685D51",
"/+ 	c #645B4F",
"(+ 	c #61594F",
"_+ 	c #6E655D",
":+ 	c #79726C",
"<+ 	c #68645F",
"[+ 	c #383433",
"}+ 	c #282524",
"|+ 	c #2D2B2B",
"1+ 	c #333132",
"2+ 	c #2B2A2C",
"3+ 	c #201E21",
"4+ 	c #1A181B",
"5+ 	c #1D1C1E",
"6+ 	c #1F1D20",
"7+ 	c #141213",
"8+ 	c #100D09",
"9+ 	c #3B342B",
"0+ 	c #756B5E",
"a+ 	c #867C6C",
"b+ 	c #7C7363",
"c+ 	c #72695D",
"d+ 	c #6B6259",
"e+ 	c #69635A",
"f+ 	c #646055",
"g+ 	c #696459",
"h+ 	c #766F67",
"i+ 	c #7E786F",
"j+ 	c #79756A",
"k+ 	c #757166",
"l+ 	c #6D695F",
"m+ 	c #635E56",
"n+ 	c #514C45",
"o+ 	c #47423B",
"p+ 	c #46403B",
"q+ 	c #47423C",
"r+ 	c #413D38",
"s+ 	c #393631",
"t+ 	c #312E2B",
"u+ 	c #312D2B",
"v+ 	c #2F2B2B",
"w+ 	c #2F2C2C",
"x+ 	c #2C2928",
"y+ 	c #2C2A29",
"z+ 	c #2B2A27",
"A+ 	c #2F2C2A",
"B+ 	c #383430",
"C+ 	c #3C3632",
"D+ 	c #423C35",
"E+ 	c #463F37",
"F+ 	c #484139",
"G+ 	c #473F38",
"H+ 	c #403933",
"I+ 	c #2E2927",
"J+ 	c #232121",
"K+ 	c #212121",
"L+ 	c #292827",
"M+ 	c #2E2C2A",
"N+ 	c #2D2B29",
"O+ 	c #322F2D",
"P+ 	c #332F2E",
"Q+ 	c #292626",
"R+ 	c #0E0C0B",
"S+ 	c #020202",
"T+ 	c #0F0B0B",
"U+ 	c #524E49",
"V+ 	c #4E4945",
"W+ 	c #322F2C",
"X+ 	c #262322",
"Y+ 	c #232020",
"Z+ 	c #222021",
"`+ 	c #1A191B",
" @ 	c #171617",
".@ 	c #0E0D0E",
"+@ 	c #120F0E",
"@@ 	c #312D29",
"#@ 	c #5C5851",
"$@ 	c #68625B",
"%@ 	c #666158",
"&@ 	c #676259",
"*@ 	c #716C63",
"=@ 	c #746D64",
"-@ 	c #736D63",
";@ 	c #726C62",
">@ 	c #726B62",
",@ 	c #726C63",
"'@ 	c #716C62",
")@ 	c #716C61",
"!@ 	c #736D62",
"~@ 	c #726C61",
"{@ 	c #726D61",
"]@ 	c #716B61",
"^@ 	c #726D62",
"/@ 	c #6D675F",
"(@ 	c #66615A",
"_@ 	c #5D5A55",
":@ 	c #514E4A",
"<@ 	c #383633",
"[@ 	c #242221",
"}@ 	c #1E1C1B",
"|@ 	c #21201D",
"1@ 	c #2A2825",
"2@ 	c #46433C",
"3@ 	c #635F57",
"4@ 	c #716D65",
"5@ 	c #706C65",
"6@ 	c #67655E",
"7@ 	c #53504B",
"8@ 	c #484541",
"9@ 	c #4C4945",
"0@ 	c #595653",
"a@ 	c #63605D",
"b@ 	c #282628",
"c@ 	c #0F0F13",
"d@ 	c #010103",
"e@ 	c #0D0906",
"f@ 	c #2B180C",
"g@ 	c #422009",
"h@ 	c #492107",
"i@ 	c #4E250C",
"j@ 	c #4D260B",
"k@ 	c #4F2B10",
"l@ 	c #55351A",
"m@ 	c #614A33",
"n@ 	c #746859",
"o@ 	c #8C847B",
"p@ 	c #938C86",
"q@ 	c #9C9891",
"r@ 	c #97948C",
"s@ 	c #85827B",
"t@ 	c #7A7772",
"u@ 	c #77746F",
"v@ 	c #5B5754",
"w@ 	c #3E3A36",
"x@ 	c #433F3B",
"y@ 	c #3A3732",
"z@ 	c #191915",
"A@ 	c #020101",
"B@ 	c #0E0B0D",
"C@ 	c #231F20",
"D@ 	c #272323",
"E@ 	c #272220",
"F@ 	c #2D2523",
"G@ 	c #362D29",
"H@ 	c #362E29",
"I@ 	c #211A18",
"J@ 	c #0A0506",
"K@ 	c #030103",
"L@ 	c #020103",
"M@ 	c #030105",
"N@ 	c #120F13",
"O@ 	c #262324",
"P@ 	c #25201F",
"Q@ 	c #302B29",
"R@ 	c #312C29",
"S@ 	c #332E29",
"T@ 	c #4F4C44",
"U@ 	c #605D53",
"V@ 	c #5C564B",
"W@ 	c #71695C",
"X@ 	c #A29A8C",
"Y@ 	c #C0B8AB",
"Z@ 	c #C4BCB0",
"`@ 	c #C2BAAF",
" # 	c #BDB5AA",
".# 	c #BCB4A7",
"+# 	c #A9A397",
"@# 	c #79756B",
"## 	c #5E5A54",
"$# 	c #696660",
"%# 	c #5D5B57",
"&# 	c #45413F",
"*# 	c #423F3E",
"=# 	c #3E3B3B",
"-# 	c #242121",
";# 	c #272525",
"># 	c #272526",
",# 	c #151416",
"'# 	c #020204",
")# 	c #0D0C12",
"!# 	c #221F24",
"~# 	c #211D20",
"{# 	c #2B2726",
"]# 	c #504C47",
"^# 	c #68655D",
"/# 	c #625E56",
"(# 	c #5B574D",
"_# 	c #59544C",
":# 	c #5C564F",
"<# 	c #4F4945",
"[# 	c #32302E",
"}# 	c #191A1A",
"|# 	c #151516",
"1# 	c #1B1A1B",
"2# 	c #2F2D2C",
"3# 	c #33302F",
"4# 	c #302C2C",
"5# 	c #221F1E",
"6# 	c #0D0A0B",
"7# 	c #060406",
"8# 	c #070608",
"9# 	c #0D0B0C",
"0# 	c #110E0F",
"a# 	c #1E1B18",
"b# 	c #231F1B",
"c# 	c #231B15",
"d# 	c #372E24",
"e# 	c #605347",
"f# 	c #6E5D50",
"g# 	c #706050",
"h# 	c #705F4F",
"i# 	c #726150",
"j# 	c #746251",
"k# 	c #76614F",
"l# 	c #74614D",
"m# 	c #73604D",
"n# 	c #735F4A",
"o# 	c #735D45",
"p# 	c #755F46",
"q# 	c #766148",
"r# 	c #776149",
"s# 	c #776049",
"t# 	c #77614A",
"u# 	c #78624B",
"v# 	c #77604A",
"w# 	c #765F49",
"x# 	c #745F49",
"y# 	c #705C47",
"z# 	c #695745",
"A# 	c #655545",
"B# 	c #635544",
"C# 	c #625544",
"D# 	c #5C4F40",
"E# 	c #5A4E40",
"F# 	c #5A4F41",
"G# 	c #5B5043",
"H# 	c #5C5346",
"I# 	c #3F3930",
"J# 	c #130F0C",
"K# 	c #040304",
"L# 	c #2C2926",
"M# 	c #454038",
"N# 	c #4C4339",
"O# 	c #4D443A",
"P# 	c #50493E",
"Q# 	c #51493E",
"R# 	c #4F473D",
"S# 	c #4B433A",
"T# 	c #4C443A",
"U# 	c #4D453A",
"V# 	c #544A3E",
"W# 	c #635748",
"X# 	c #6D5E4E",
"Y# 	c #6F5D4C",
"Z# 	c #6F5D4B",
"`# 	c #645444",
" $ 	c #5F5244",
".$ 	c #534A3F",
"+$ 	c #403A32",
"@$ 	c #1D1814",
"#$ 	c #0E0A09",
"$$ 	c #110D0D",
"%$ 	c #141110",
"&$ 	c #1A1514",
"*$ 	c #24201F",
"=$ 	c #1B1A1C",
"-$ 	c #131417",
";$ 	c #101216",
">$ 	c #111318",
",$ 	c #18191E",
"'$ 	c #1C1B1F",
")$ 	c #262427",
"!$ 	c #292528",
"~$ 	c #2B2929",
"{$ 	c #272425",
"]$ 	c #2B2828",
"^$ 	c #2E2C2B",
"/$ 	c #373534",
"($ 	c #343130",
"_$ 	c #282523",
":$ 	c #312D28",
"<$ 	c #696158",
"[$ 	c #87796E",
"}$ 	c #85786C",
"|$ 	c #7E7467",
"1$ 	c #736B60",
"2$ 	c #5F5A54",
"3$ 	c #514F4B",
"4$ 	c #464542",
"5$ 	c #3D3C37",
"6$ 	c #4E4B47",
"7$ 	c #4E4A46",
"8$ 	c #4A4641",
"9$ 	c #45413C",
"0$ 	c #423D39",
"a$ 	c #48443F",
"b$ 	c #534F49",
"c$ 	c #5A564F",
"d$ 	c #5D5750",
"e$ 	c #645C54",
"f$ 	c #70665A",
"g$ 	c #7C7061",
"h$ 	c #817363",
"i$ 	c #8A7C6A",
"j$ 	c #8F806F",
"k$ 	c #928273",
"l$ 	c #8E7F71",
"m$ 	c #75695E",
"n$ 	c #5A5147",
"o$ 	c #5E554E",
"p$ 	c #645D58",
"q$ 	c #524E4B",
"r$ 	c #181516",
"s$ 	c #1A181A",
"t$ 	c #171619",
"u$ 	c #141216",
"v$ 	c #232123",
"w$ 	c #282625",
"x$ 	c #2A2522",
"y$ 	c #4A423A",
"z$ 	c #756A5D",
"A$ 	c #7F7565",
"B$ 	c #776D5E",
"C$ 	c #6A6156",
"D$ 	c #625A53",
"E$ 	c #665F58",
"F$ 	c #615D56",
"G$ 	c #57524A",
"H$ 	c #514B45",
"I$ 	c #514C47",
"J$ 	c #4B4742",
"K$ 	c #48453F",
"L$ 	c #43403B",
"M$ 	c #423E39",
"N$ 	c #403B37",
"O$ 	c #453F3B",
"P$ 	c #48433E",
"Q$ 	c #443F3B",
"R$ 	c #3C3834",
"S$ 	c #35312E",
"T$ 	c #34302E",
"U$ 	c #363231",
"V$ 	c #3B3836",
"W$ 	c #464240",
"X$ 	c #3C3A38",
"Y$ 	c #2D2A28",
"Z$ 	c #2D2A27",
"`$ 	c #342F2B",
" % 	c #423A34",
".% 	c #514941",
"+% 	c #574F47",
"@% 	c #554C46",
"#% 	c #4C443F",
"$% 	c #383130",
"%% 	c #2E2B2B",
"&% 	c #2D2C2D",
"*% 	c #2E2E2D",
"=% 	c #2A2829",
"-% 	c #282726",
";% 	c #252323",
">% 	c #292624",
",% 	c #23201E",
"'% 	c #23201F",
")% 	c #2C2828",
"!% 	c #3D3837",
"~% 	c #413C38",
"{% 	c #3B3733",
"]% 	c #2F2B2A",
"^% 	c #1A1618",
"/% 	c #131012",
"(% 	c #0F0E11",
"_% 	c #06060A",
":% 	c #040406",
"<% 	c #010002",
"[% 	c #030102",
"}% 	c #1A1714",
"|% 	c #403B36",
"1% 	c #4A4540",
"2% 	c #48433D",
"3% 	c #535048",
"4% 	c #6C665E",
"5% 	c #756D65",
"6% 	c #736C63",
"7% 	c #726B61",
"8% 	c #736C62",
"9% 	c #716B62",
"0% 	c #716B60",
"a% 	c #706A60",
"b% 	c #6F695F",
"c% 	c #6C675E",
"d% 	c #625C56",
"e% 	c #57524D",
"f% 	c #4C4946",
"g% 	c #373332",
"h% 	c #2A2726",
"i% 	c #2B2826",
"j% 	c #3A3834",
"k% 	c #484542",
"l% 	c #5A5751",
"m% 	c #615C56",
"n% 	c #615E57",
"o% 	c #625E57",
"p% 	c #615D57",
"q% 	c #595551",
"r% 	c #585550",
"s% 	c #5C5955",
"t% 	c #676460",
"u% 	c #6D6A66",
"v% 	c #2E2D2D",
"w% 	c #141417",
"x% 	c #030408",
"y% 	c #030305",
"z% 	c #120D08",
"A% 	c #321D0E",
"B% 	c #4A240A",
"C% 	c #4E2508",
"D% 	c #522C10",
"E% 	c #4E2B11",
"F% 	c #462A13",
"G% 	c #3B2511",
"H% 	c #443625",
"I% 	c #807A6C",
"J% 	c #BAB4A9",
"K% 	c #C5BFB5",
"L% 	c #C3BFB5",
"M% 	c #A9A69C",
"N% 	c #87857D",
"O% 	c #76736E",
"P% 	c #5C5854",
"Q% 	c #3F3D37",
"R% 	c #423F3B",
"S% 	c #393732",
"T% 	c #191916",
"U% 	c #1F1C1C",
"V% 	c #221E1C",
"W% 	c #292321",
"X% 	c #352E2A",
"Y% 	c #201A19",
"Z% 	c #070304",
"`% 	c #100E12",
" & 	c #282527",
".& 	c #262221",
"+& 	c #373430",
"@& 	c #3B3834",
"#& 	c #403D37",
"$& 	c #5D5B53",
"%& 	c #6E6C62",
"&& 	c #676358",
"*& 	c #777264",
"=& 	c #A49E8F",
"-& 	c #C1BCAD",
";& 	c #C6C0B3",
">& 	c #C7C1B4",
",& 	c #C2BCAF",
"'& 	c #C0BAAD",
")& 	c #B0AB9E",
"!& 	c #7F7C71",
"~& 	c #615F57",
"{& 	c #6C6B64",
"]& 	c #615F5A",
"^& 	c #474541",
"/& 	c #434240",
"(& 	c #3E3D3C",
"_& 	c #292727",
":& 	c #1F1E1E",
"<& 	c #222122",
"[& 	c #212021",
"}& 	c #0D0D0F",
"|& 	c #0A090E",
"1& 	c #201D21",
"2& 	c #1F1D1E",
"3& 	c #3A3634",
"4& 	c #403C38",
"5& 	c #36332D",
"6& 	c #36322D",
"7& 	c #4B4740",
"8& 	c #5C574F",
"9& 	c #4E4944",
"0& 	c #292826",
"a& 	c #121313",
"b& 	c #131315",
"c& 	c #1C1D1C",
"d& 	c #2B2A29",
"e& 	c #3D3B38",
"f& 	c #42403D",
"g& 	c #2A2928",
"h& 	c #050507",
"i& 	c #070504",
"j& 	c #090504",
"k& 	c #0C0603",
"l& 	c #282018",
"m& 	c #594D42",
"n& 	c #6C5C4E",
"o& 	c #6D5D4D",
"p& 	c #6E5D4C",
"q& 	c #705F4D",
"r& 	c #725F4C",
"s& 	c #78644F",
"t& 	c #7E6952",
"u& 	c #88715A",
"v& 	c #8A725B",
"w& 	c #836C55",
"x& 	c #735E46",
"y& 	c #735E47",
"z& 	c #756048",
"A& 	c #756049",
"B& 	c #77614B",
"C& 	c #77624B",
"D& 	c #76614A",
"E& 	c #745E49",
"F& 	c #735E49",
"G& 	c #705D49",
"H& 	c #6F5F4B",
"I& 	c #6D5D4A",
"J& 	c #6E5F4C",
"K& 	c #6F604E",
"L& 	c #756753",
"M& 	c #766956",
"N& 	c #796C59",
"O& 	c #796E5E",
"P& 	c #564E42",
"Q& 	c #1A1510",
"R& 	c #070505",
"S& 	c #110F0F",
"T& 	c #33302C",
"U& 	c #4D483E",
"V& 	c #4F493D",
"W& 	c #4B4339",
"X& 	c #4C453A",
"Y& 	c #50473D",
"Z& 	c #51473C",
"`& 	c #564C3F",
" * 	c #605345",
".* 	c #6E5F4E",
"+* 	c #71604D",
"@* 	c #766651",
"#* 	c #695948",
"$* 	c #605444",
"%* 	c #484035",
"&* 	c #352F27",
"** 	c #1B1510",
"=* 	c #1C1713",
"-* 	c #2C2723",
";* 	c #302B27",
">* 	c #28231F",
",* 	c #211F1E",
"'* 	c #1A1B1B",
")* 	c #121417",
"!* 	c #111319",
"~* 	c #16171C",
"{* 	c #1B1A1E",
"]* 	c #262527",
"^* 	c #252224",
"/* 	c #221F20",
"(* 	c #211F1F",
"_* 	c #1E1C1C",
":* 	c #1F1E1D",
"<* 	c #191616",
"[* 	c #110E0D",
"}* 	c #24201D",
"|* 	c #676056",
"1* 	c #8B7F72",
"2* 	c #897F72",
"3* 	c #81786D",
"4* 	c #67605A",
"5* 	c #1C1A17",
"6* 	c #151412",
"7* 	c #696460",
"8* 	c #7B746D",
"9* 	c #736C64",
"0* 	c #615B54",
"a* 	c #4C4742",
"b* 	c #46423D",
"c* 	c #48423E",
"d* 	c #4F4A44",
"e* 	c #57524C",
"f* 	c #58534C",
"g* 	c #565149",
"h* 	c #5F574F",
"i* 	c #766B5E",
"j* 	c #8B7D6D",
"k* 	c #978674",
"l* 	c #A3927C",
"m* 	c #A5957F",
"n* 	c #A99985",
"o* 	c #A59785",
"p* 	c #85796D",
"q* 	c #564E46",
"r* 	c #524B45",
"s* 	c #554F4B",
"t* 	c #110E11",
"u* 	c #121013",
"v* 	c #141315",
"w* 	c #100F12",
"x* 	c #0F0D10",
"y* 	c #0B090C",
"z* 	c #111012",
"A* 	c #242323",
"B* 	c #3C3835",
"C* 	c #49433E",
"D* 	c #5D554D",
"E* 	c #746B5D",
"F* 	c #7C7364",
"G* 	c #72695C",
"H* 	c #645C50",
"I* 	c #5D564E",
"J* 	c #656059",
"K* 	c #66625B",
"L* 	c #524E48",
"M* 	c #3B3732",
"N* 	c #2E2C28",
"O* 	c #2B2927",
"P* 	c #32302D",
"Q* 	c #3B3635",
"R* 	c #4B4741",
"S* 	c #44403C",
"T* 	c #393531",
"U* 	c #332F2C",
"V* 	c #312D2A",
"W* 	c #363230",
"X* 	c #44413D",
"Y* 	c #56524E",
"Z* 	c #595451",
"`* 	c #4B4745",
" = 	c #262320",
".= 	c #2F2A25",
"+= 	c #463E39",
"@= 	c #665E56",
"#= 	c #766D64",
"$= 	c #655F57",
"%= 	c #494540",
"&= 	c #393736",
"*= 	c #373636",
"== 	c #383736",
"-= 	c #2F2E2D",
";= 	c #232222",
">= 	c #191718",
",= 	c #191717",
"'= 	c #1C1A19",
")= 	c #2D2929",
"!= 	c #3B3736",
"~= 	c #474442",
"{= 	c #3E3B37",
"]= 	c #34312D",
"^= 	c #252120",
"/= 	c #242220",
"(= 	c #1A1717",
"_= 	c #100D0E",
":= 	c #0D0A09",
"<= 	c #2C2824",
"[= 	c #322E2A",
"}= 	c #302D27",
"|= 	c #44413A",
"1= 	c #6A655D",
"2= 	c #776F67",
"3= 	c #756E63",
"4= 	c #746C63",
"5= 	c #706B60",
"6= 	c #706A5F",
"7= 	c #716A5F",
"8= 	c #70695E",
"9= 	c #6F6A5F",
"0= 	c #6C675D",
"a= 	c #625D55",
"b= 	c #4D4A46",
"c= 	c #3C3836",
"d= 	c #322F2B",
"e= 	c #3B3833",
"f= 	c #56534E",
"g= 	c #69655F",
"h= 	c #6E6B63",
"i= 	c #5F5B53",
"j= 	c #4E4B44",
"k= 	c #4A4640",
"l= 	c #534E48",
"m= 	c #5E5954",
"n= 	c #706D67",
"o= 	c #77756E",
"p= 	c #76736D",
"q= 	c #302C2D",
"r= 	c #161518",
"s= 	c #050409",
"t= 	c #040206",
"u= 	c #160F0B",
"v= 	c #331F10",
"w= 	c #45230A",
"x= 	c #48240B",
"y= 	c #4B2C14",
"z= 	c #492D17",
"A= 	c #422B18",
"B= 	c #332212",
"C= 	c #3E3122",
"D= 	c #837A6E",
"E= 	c #BDB6A9",
"F= 	c #C3BEB0",
"G= 	c #BDB8AD",
"H= 	c #A29F95",
"I= 	c #807E76",
"J= 	c #73706A",
"K= 	c #726F6A",
"L= 	c #595651",
"M= 	c #3E3B36",
"N= 	c #413E3A",
"O= 	c #373531",
"P= 	c #191815",
"Q= 	c #010101",
"R= 	c #1C191A",
"S= 	c #1C1919",
"T= 	c #1C1918",
"U= 	c #241F1E",
"V= 	c #312A29",
"W= 	c #322B2A",
"X= 	c #1F191A",
"Y= 	c #050203",
"Z= 	c #0E0B10",
"`= 	c #262327",
" - 	c #242020",
".- 	c #43413E",
"+- 	c #64625C",
"@- 	c #727069",
"#- 	c #6C6760",
"$- 	c #787369",
"%- 	c #A19C8F",
"&- 	c #BFB9AC",
"*- 	c #C5BEB3",
"=- 	c #C7C2B6",
"-- 	c #C4BEB2",
";- 	c #C2BCB0",
">- 	c #B0ACA0",
",- 	c #7E7B71",
"'- 	c #5F5C56",
")- 	c #6C6963",
"!- 	c #615E5B",
"~- 	c #464341",
"{- 	c #3C3A3A",
"]- 	c #282626",
"^- 	c #1E1C1E",
"/- 	c #211F21",
"(- 	c #0C0D0E",
"_- 	c #07050A",
":- 	c #1C191E",
"<- 	c #1B181B",
"[- 	c #221E1F",
"}- 	c #2E2A28",
"|- 	c #2B2825",
"1- 	c #231F1C",
"2- 	c #292522",
"3- 	c #47433F",
"4- 	c #5A544F",
"5- 	c #4D4944",
"6- 	c #262522",
"7- 	c #111212",
"8- 	c #171718",
"9- 	c #1C1B1B",
"0- 	c #423D3B",
"a- 	c #474441",
"b- 	c #2F2D2D",
"c- 	c #030303",
"d- 	c #060403",
"e- 	c #0B0604",
"f- 	c #261E18",
"g- 	c #574A40",
"h- 	c #68584B",
"i- 	c #675648",
"j- 	c #695848",
"k- 	c #6C5C4A",
"l- 	c #6D5B48",
"m- 	c #75614B",
"n- 	c #7E6650",
"o- 	c #876D57",
"p- 	c #876C55",
"q- 	c #7F6750",
"r- 	c #756047",
"s- 	c #725D46",
"t- 	c #735D48",
"u- 	c #74604B",
"v- 	c #76614C",
"w- 	c #75604B",
"x- 	c #75614C",
"y- 	c #725E49",
"z- 	c #6E5B47",
"A- 	c #6D5C49",
"B- 	c #6B5B48",
"C- 	c #6C5D49",
"D- 	c #70604C",
"E- 	c #776753",
"F- 	c #786A57",
"G- 	c #786C5D",
"H- 	c #574E44",
"I- 	c #1C1611",
"J- 	c #35322E",
"K- 	c #4E4740",
"L- 	c #4E463C",
"M- 	c #4B4239",
"N- 	c #4A4239",
"O- 	c #494137",
"P- 	c #4E463B",
"Q- 	c #50463D",
"R- 	c #52483D",
"S- 	c #52473C",
"T- 	c #54493C",
"U- 	c #5A4C40",
"V- 	c #695A4A",
"W- 	c #715F4D",
"X- 	c #74634E",
"Y- 	c #675646",
"Z- 	c #5B4E41",
"`- 	c #433830",
" ; 	c #302820",
".; 	c #1B150E",
"+; 	c #27211B",
"@; 	c #433C36",
"#; 	c #433C37",
"$; 	c #111216",
"%; 	c #121419",
"&; 	c #101219",
"*; 	c #13151A",
"=; 	c #1A191D",
"-; 	c #242225",
";; 	c #201D1F",
">; 	c #222020",
",; 	c #1E1C1D",
"'; 	c #120F10",
"); 	c #0D0B0A",
"!; 	c #24201E",
"~; 	c #867C72",
"{; 	c #867D72",
"]; 	c #7E766F",
"^; 	c #625B58",
"/; 	c #312E2A",
"(; 	c #0E0D0A",
"_; 	c #141210",
":; 	c #433E3C",
"<; 	c #726B67",
"[; 	c #7F776E",
"}; 	c #7A7167",
"|; 	c #4F4742",
"1; 	c #47413D",
"2; 	c #47413C",
"3; 	c #504A44",
"4; 	c #56504A",
"5; 	c #524B44",
"6; 	c #5B5248",
"7; 	c #766A5D",
"8; 	c #8E7F70",
"9; 	c #978675",
"0; 	c #A08F7B",
"a; 	c #A2927E",
"b; 	c #A49683",
"c; 	c #A19384",
"d; 	c #81766D",
"e; 	c #554D48",
"f; 	c #4D4643",
"g; 	c #4E4847",
"h; 	c #3E3B3A",
"i; 	c #161517",
"j; 	c #100E10",
"k; 	c #0A080A",
"l; 	c #131011",
"m; 	c #262423",
"n; 	c #4E4842",
"o; 	c #5B534A",
"p; 	c #6B6156",
"q; 	c #746B5E",
"r; 	c #6B6157",
"s; 	c #585148",
"t; 	c #524C45",
"u; 	c #66615D",
"v; 	c #544E4A",
"w; 	c #3A3532",
"x; 	c #2C2A2A",
"y; 	c #322F2F",
"z; 	c #3A3837",
"A; 	c #403936",
"B; 	c #3F3A37",
"C; 	c #494442",
"D; 	c #55504D",
"E; 	c #56514E",
"F; 	c #4A4643",
"G; 	c #2E2B25",
"H; 	c #47413B",
"I; 	c #6A625C",
"J; 	c #7D756E",
"K; 	c #7A736C",
"L; 	c #69645D",
"M; 	c #4A4642",
"N; 	c #383535",
"O; 	c #363535",
"P; 	c #393636",
"Q; 	c #312F2E",
"R; 	c #262422",
"S; 	c #171414",
"T; 	c #151311",
"U; 	c #171413",
"V; 	c #2A2625",
"W; 	c #413D3A",
"X; 	c #383531",
"Y; 	c #2D2826",
"Z; 	c #201C1D",
"`; 	c #1E1A1B",
" > 	c #181415",
".> 	c #0F0D0E",
"+> 	c #272422",
"@> 	c #292622",
"#> 	c #3F3C37",
"$> 	c #756D63",
"%> 	c #726B60",
"&> 	c #736B61",
"*> 	c #746C62",
"=> 	c #736C61",
"-> 	c #6F695E",
";> 	c #6F685E",
">> 	c #6B665C",
",> 	c #635F56",
"'> 	c #524D47",
")> 	c #3A3531",
"!> 	c #342F2A",
"~> 	c #423E38",
"{> 	c #625D57",
"]> 	c #746D67",
"^> 	c #726B63",
"/> 	c #5B564E",
"(> 	c #403B35",
"_> 	c #39342E",
":> 	c #45413A",
"<> 	c #5D5853",
"[> 	c #6F6B65",
"}> 	c #77726C",
"|> 	c #7B776F",
"1> 	c #79746E",
"2> 	c #181819",
"3> 	c #06060B",
"4> 	c #060509",
"5> 	c #1A140F",
"6> 	c #36281A",
"7> 	c #412C19",
"8> 	c #422B1B",
"9> 	c #473424",
"0> 	c #473626",
"a> 	c #453526",
"b> 	c #392D1F",
"c> 	c #453B2B",
"d> 	c #898172",
"e> 	c #BFB7A8",
"f> 	c #B8B3A6",
"g> 	c #9B988D",
"h> 	c #7A776F",
"i> 	c #6E6C66",
"j> 	c #706E67",
"k> 	c #3E3C37",
"l> 	c #403D39",
"m> 	c #363430",
"n> 	c #181815",
"o> 	c #1A1718",
"p> 	c #1A1818",
"q> 	c #1F1B1B",
"r> 	c #2B2526",
"s> 	c #2F2A2A",
"t> 	c #201B1D",
"u> 	c #090708",
"v> 	c #010001",
"w> 	c #100D12",
"x> 	c #252225",
"y> 	c #252324",
"z> 	c #211E1F",
"A> 	c #3B3937",
"B> 	c #42403E",
"C> 	c #5D5B58",
"D> 	c #686662",
"E> 	c #635F5A",
"F> 	c #989389",
"G> 	c #B3ADA2",
"H> 	c #B9B1A7",
"I> 	c #BBB5A9",
"J> 	c #B3ACA2",
"K> 	c #AFA89E",
"L> 	c #9A958B",
"M> 	c #716E65",
"N> 	c #5A5752",
"O> 	c #67645F",
"P> 	c #5C5956",
"Q> 	c #433F3D",
"R> 	c #3F3C3B",
"S> 	c #3B3838",
"T> 	c #201E20",
"U> 	c #232223",
"V> 	c #242324",
"W> 	c #0F0E10",
"X> 	c #08060B",
"Y> 	c #1A181C",
"Z> 	c #1B181A",
"`> 	c #2A2624",
" , 	c #262321",
"., 	c #403D3A",
"+, 	c #54504B",
"@, 	c #494641",
"#, 	c #2C2C28",
"$, 	c #1C1E1C",
"%, 	c #21201F",
"&, 	c #252421",
"*, 	c #403C3A",
"=, 	c #464441",
"-, 	c #030304",
";, 	c #020303",
">, 	c #070605",
",, 	c #0C0705",
"', 	c #282019",
"), 	c #564A3F",
"!, 	c #675749",
"~, 	c #665546",
"{, 	c #675645",
"], 	c #6D5B49",
"^, 	c #705E4A",
"/, 	c #77634D",
"(, 	c #7D644D",
"_, 	c #80664F",
":, 	c #7F654C",
"<, 	c #7C644B",
"[, 	c #776048",
"}, 	c #76604B",
"|, 	c #77624C",
"1, 	c #76624C",
"2, 	c #78634D",
"3, 	c #77634E",
"4, 	c #73604B",
"5, 	c #715D48",
"6, 	c #705D48",
"7, 	c #6D5B46",
"8, 	c #6E5D49",
"9, 	c #6C5C47",
"0, 	c #6C5E49",
"a, 	c #6E604C",
"b, 	c #716250",
"c, 	c #6F6151",
"d, 	c #6E6353",
"e, 	c #6B6255",
"f, 	c #504940",
"g, 	c #1B1613",
"h, 	c #080607",
"i, 	c #131212",
"j, 	c #373432",
"k, 	c #4D4841",
"l, 	c #49433A",
"m, 	c #48423A",
"n, 	c #484138",
"o, 	c #4D463D",
"p, 	c #50483E",
"q, 	c #544C40",
"r, 	c #53493D",
"s, 	c #54493D",
"t, 	c #554A3D",
"u, 	c #5E5244",
"v, 	c #635546",
"w, 	c #685A49",
"x, 	c #5B4E3F",
"y, 	c #52483B",
"z, 	c #433A32",
"A, 	c #3C342C",
"B, 	c #312C23",
"C, 	c #3A342C",
"D, 	c #504840",
"E, 	c #473E37",
"F, 	c #2E2822",
"G, 	c #26211D",
"H, 	c #211F1D",
"I, 	c #19191A",
"J, 	c #121317",
"K, 	c #13151B",
"L, 	c #252226",
"M, 	c #242223",
"N, 	c #262424",
"O, 	c #1E1D1D",
"P, 	c #111111",
"Q, 	c #0E0D0D",
"R, 	c #5B5652",
"S, 	c #756E67",
"T, 	c #77716A",
"U, 	c #6D6762",
"V, 	c #57534F",
"W, 	c #312E29",
"X, 	c #1D1B17",
"Y, 	c #2C2925",
"Z, 	c #544F4A",
"`, 	c #7B746B",
" ' 	c #867E71",
".' 	c #817769",
"+' 	c #71665A",
"@' 	c #5B5148",
"#' 	c #534B43",
"$' 	c #524A42",
"%' 	c #5A534A",
"&' 	c #5E574F",
"*' 	c #5F564A",
"=' 	c #74695C",
"-' 	c #847768",
";' 	c #857766",
">' 	c #877968",
",' 	c #887A6C",
"'' 	c #8D8175",
")' 	c #8A8075",
"!' 	c #706A63",
"~' 	c #4D4845",
"{' 	c #474341",
"]' 	c #484645",
"^' 	c #3A3939",
"/' 	c #1E1E1F",
"(' 	c #141416",
"_' 	c #171719",
":' 	c #24211F",
"<' 	c #272321",
"[' 	c #3E3936",
"}' 	c #544E46",
"|' 	c #595147",
"1' 	c #5D544A",
"2' 	c #675E54",
"3' 	c #60584E",
"4' 	c #514B42",
"5' 	c #595650",
"6' 	c #33322E",
"7' 	c #353432",
"8' 	c #363533",
"9' 	c #3C3B38",
"0' 	c #403E3A",
"a' 	c #45443F",
"b' 	c #47433E",
"c' 	c #4B4641",
"d' 	c #4B4640",
"e' 	c #504B44",
"f' 	c #534E47",
"g' 	c #57524B",
"h' 	c #544E49",
"i' 	c #524D49",
"j' 	c #4C4744",
"k' 	c #45413D",
"l' 	c #393532",
"m' 	c #3A3631",
"n' 	c #413D37",
"o' 	c #4F4A42",
"p' 	c #5E5851",
"q' 	c #6A645F",
"r' 	c #5D5953",
"s' 	c #423F3C",
"t' 	c #343331",
"u' 	c #2F2E2F",
"v' 	c #3A3534",
"w' 	c #3B3633",
"x' 	c #322D2A",
"y' 	c #26221E",
"z' 	c #2B2623",
"A' 	c #383331",
"B' 	c #36312E",
"C' 	c #211E1E",
"D' 	c #1E1B1B",
"E' 	c #131112",
"F' 	c #080708",
"G' 	c #111011",
"H' 	c #2C2B29",
"I' 	c #2F2D2A",
"J' 	c #2C2B26",
"K' 	c #44423C",
"L' 	c #6C675F",
"M' 	c #797267",
"N' 	c #776F63",
"O' 	c #756C61",
"P' 	c #766E62",
"Q' 	c #756D61",
"R' 	c #756D62",
"S' 	c #746D62",
"T' 	c #6F6A5E",
"U' 	c #6F685D",
"V' 	c #6E685D",
"W' 	c #666057",
"X' 	c #413C36",
"Y' 	c #3E3933",
"Z' 	c #413A34",
"`' 	c #6A645D",
" ) 	c #766F66",
".) 	c #5A544C",
"+) 	c #403A33",
"@) 	c #38332C",
"#) 	c #454039",
"$) 	c #5F5A53",
"%) 	c #746E67",
"&) 	c #7A756D",
"*) 	c #7B766D",
"=) 	c #767168",
"-) 	c #302E2D",
";) 	c #171819",
">) 	c #05040A",
",) 	c #1B1715",
"') 	c #3B322A",
")) 	c #43382F",
"!) 	c #40352F",
"~) 	c #443C37",
"{) 	c #4B473E",
"]) 	c #4F473E",
"^) 	c #484136",
"/) 	c #524C3C",
"() 	c #8A8373",
"_) 	c #BBB3A3",
":) 	c #BEB7A9",
"<) 	c #B2ADA0",
"[) 	c #949186",
"}) 	c #727067",
"|) 	c #6A6762",
"1) 	c #6D6B65",
"2) 	c #57544F",
"3) 	c #3F3C38",
"4) 	c #34322F",
"5) 	c #171613",
"6) 	c #0A0809",
"7) 	c #141112",
"8) 	c #161314",
"9) 	c #1D191A",
"0) 	c #191517",
"a) 	c #100D0F",
"b) 	c #0C0A0C",
"c) 	c #0B0A0C",
"d) 	c #0A070A",
"e) 	c #120E12",
"f) 	c #1E1B1D",
"g) 	c #1C181A",
"h) 	c #2B2829",
"i) 	c #373333",
"j) 	c #484544",
"k) 	c #4D4A47",
"l) 	c #494541",
"m) 	c #59554F",
"n) 	c #817A72",
"o) 	c #989187",
"p) 	c #9C948B",
"q) 	c #9D958C",
"r) 	c #968E85",
"s) 	c #8D857D",
"t) 	c #78736A",
"u) 	c #59554E",
"v) 	c #4B4744",
"w) 	c #585551",
"x) 	c #4F4C49",
"y) 	c #343132",
"z) 	c #222123",
"A) 	c #232122",
"B) 	c #151415",
"C) 	c #030204",
"D) 	c #020104",
"E) 	c #0F0C10",
"F) 	c #19171A",
"G) 	c #161417",
"H) 	c #1A1819",
"I) 	c #252222",
"J) 	c #282525",
"K) 	c #2D2B2A",
"L) 	c #383632",
"M) 	c #2F2F2B",
"N) 	c #282927",
"O) 	c #292928",
"P) 	c #232322",
"Q) 	c #1C1C19",
"R) 	c #2F2D2B",
"S) 	c #030404",
"T) 	c #060605",
"U) 	c #0C0805",
"V) 	c #272019",
"W) 	c #53473D",
"X) 	c #635346",
"Y) 	c #615142",
"Z) 	c #685747",
"`) 	c #736150",
" ! 	c #776351",
".! 	c #7A634F",
"+! 	c #755B46",
"@! 	c #70563E",
"#! 	c #6E553C",
"$! 	c #735A43",
"%! 	c #7A624B",
"&! 	c #7B654F",
"*! 	c #7B6751",
"=! 	c #796550",
"-! 	c #7A6550",
";! 	c #79644E",
">! 	c #78644E",
",! 	c #76624D",
"'! 	c #74614C",
")! 	c #715E49",
"!! 	c #725F4A",
"~! 	c #715F4A",
"{! 	c #72614B",
"]! 	c #736350",
"^! 	c #6C5E4D",
"/! 	c #584C3E",
"(! 	c #493F33",
"_! 	c #463E32",
":! 	c #433D34",
"<! 	c #342F29",
"[! 	c #151110",
"}! 	c #09080A",
"|! 	c #101010",
"1! 	c #282725",
"2! 	c #383530",
"3! 	c #38352F",
"4! 	c #37332E",
"5! 	c #38342E",
"6! 	c #403B34",
"7! 	c #494238",
"8! 	c #494036",
"9! 	c #443C32",
"0! 	c #463C33",
"a! 	c #463B32",
"b! 	c #473D33",
"c! 	c #41392F",
"d! 	c #3C362D",
"e! 	c #3E3832",
"f! 	c #48423C",
"g! 	c #4B463E",
"h! 	c #544E44",
"i! 	c #5D554B",
"j! 	c #4C453C",
"k! 	c #322C25",
"l! 	c #2E2824",
"m! 	c #202020",
"n! 	c #131418",
"o! 	c #111218",
"p! 	c #12141B",
"q! 	c #13141A",
"r! 	c #19181C",
"s! 	c #232124",
"t! 	c #232022",
"u! 	c #1F1C1D",
"v! 	c #211F20",
"w! 	c #0D0E0E",
"x! 	c #08080A",
"y! 	c #141415",
"z! 	c #33312F",
"A! 	c #423C3A",
"B! 	c #44403E",
"C! 	c #403B39",
"D! 	c #3B3734",
"E! 	c #34312C",
"F! 	c #45403B",
"G! 	c #655D55",
"H! 	c #80776B",
"I! 	c #8C8172",
"J! 	c #8D806F",
"K! 	c #837667",
"L! 	c #766B5C",
"M! 	c #716659",
"N! 	c #6D6256",
"O! 	c #706859",
"P! 	c #6F6558",
"Q! 	c #716759",
"R! 	c #776B5D",
"S! 	c #74695B",
"T! 	c #64594D",
"U! 	c #5A5046",
"V! 	c #544C45",
"W! 	c #59524D",
"X! 	c #57524E",
"Y! 	c #494644",
"Z! 	c #353434",
"`! 	c #343333",
" ~ 	c #353535",
".~ 	c #2C2D2E",
"+~ 	c #17181A",
"@~ 	c #0E0F12",
"#~ 	c #101013",
"$~ 	c #272423",
"%~ 	c #534D47",
"&~ 	c #645D55",
"*~ 	c #6B645B",
"=~ 	c #6A6359",
"-~ 	c #5C564C",
";~ 	c #4F4740",
">~ 	c #4F4943",
",~ 	c #4B4743",
"'~ 	c #413F3A",
")~ 	c #34302D",
"!~ 	c #332F2B",
"~~ 	c #363534",
"{~ 	c #3C3937",
"]~ 	c #3F3E39",
"^~ 	c #423F3A",
"/~ 	c #4A463F",
"(~ 	c #544D45",
"_~ 	c #635B52",
":~ 	c #696058",
"<~ 	c #686057",
"[~ 	c #5A524B",
"}~ 	c #4C453F",
"|~ 	c #433D36",
"1~ 	c #4A443E",
"2~ 	c #544D47",
"3~ 	c #5A514B",
"4~ 	c #565047",
"5~ 	c #4A443D",
"6~ 	c #443F3A",
"7~ 	c #403A38",
"8~ 	c #2C2826",
"9~ 	c #413B34",
"0~ 	c #4E473F",
"a~ 	c #4E463E",
"b~ 	c #4C423C",
"c~ 	c #3F3630",
"d~ 	c #352D27",
"e~ 	c #2D2722",
"f~ 	c #2C2622",
"g~ 	c #2E2A27",
"h~ 	c #262222",
"i~ 	c #211D1E",
"j~ 	c #1B1819",
"k~ 	c #131013",
"l~ 	c #08080B",
"m~ 	c #000003",
"n~ 	c #151314",
"o~ 	c #6D6860",
"p~ 	c #7A7267",
"q~ 	c #776E62",
"r~ 	c #776D60",
"s~ 	c #796F62",
"t~ 	c #776E61",
"u~ 	c #70695F",
"v~ 	c #706A5E",
"w~ 	c #6E685C",
"x~ 	c #6B645A",
"y~ 	c #5B544B",
"z~ 	c #4F4840",
"A~ 	c #534B44",
"B~ 	c #5A534B",
"C~ 	c #615952",
"D~ 	c #6E665D",
"E~ 	c #726A60",
"F~ 	c #6D655B",
"G~ 	c #4A433C",
"H~ 	c #453E37",
"I~ 	c #4D4740",
"J~ 	c #5E5950",
"K~ 	c #726D63",
"L~ 	c #6E6960",
"M~ 	c #625C53",
"N~ 	c #292726",
"O~ 	c #05050B",
"P~ 	c #07070B",
"Q~ 	c #1C1A1A",
"R~ 	c #3E3935",
"S~ 	c #444241",
"T~ 	c #4E4C48",
"U~ 	c #55504A",
"V~ 	c #534C41",
"W~ 	c #5C5544",
"X~ 	c #8C8573",
"Y~ 	c #BAB2A2",
"Z~ 	c #BCB6A7",
"`~ 	c #928F83",
" { 	c #716F66",
".{ 	c #6B6862",
"+{ 	c #6E6C65",
"@{ 	c #585650",
"#{ 	c #403E39",
"${ 	c #34322E",
"%{ 	c #161511",
"&{ 	c #010000",
"*{ 	c #100C0E",
"={ 	c #120E0F",
"-{ 	c #121011",
";{ 	c #120F11",
">{ 	c #141013",
",{ 	c #171316",
"'{ 	c #181517",
"){ 	c #141114",
"!{ 	c #151214",
"~{ 	c #1C1A1B",
"{{ 	c #1D1A1D",
"]{ 	c #292628",
"^{ 	c #2F2D2E",
"/{ 	c #333032",
"({ 	c #403D3C",
"_{ 	c #403C39",
":{ 	c #78726B",
"<{ 	c #8E8880",
"[{ 	c #908981",
"}{ 	c #918A82",
"|{ 	c #89827A",
"1{ 	c #807971",
"2{ 	c #514D47",
"3{ 	c #46423F",
"4{ 	c #312E2D",
"5{ 	c #302D2D",
"6{ 	c #272426",
"7{ 	c #232224",
"8{ 	c #232324",
"9{ 	c #1A1A1B",
"0{ 	c #0A090C",
"a{ 	c #060508",
"b{ 	c #151315",
"c{ 	c #2C2A27",
"d{ 	c #31302C",
"e{ 	c #2C2D2A",
"f{ 	c #2D2D2B",
"g{ 	c #242422",
"h{ 	c #12110E",
"i{ 	c #1D1B1B",
"j{ 	c #121212",
"k{ 	c #020304",
"l{ 	c #070606",
"m{ 	c #0D0905",
"n{ 	c #53483D",
"o{ 	c #625446",
"p{ 	c #605042",
"q{ 	c #6A5A4A",
"r{ 	c #7D6B59",
"s{ 	c #836E5B",
"t{ 	c #836C57",
"u{ 	c #786048",
"v{ 	c #6E553B",
"w{ 	c #6C5338",
"x{ 	c #735942",
"y{ 	c #7D664F",
"z{ 	c #806A53",
"A{ 	c #7E6852",
"B{ 	c #7E6A53",
"C{ 	c #7E6A55",
"D{ 	c #7E6A54",
"E{ 	c #7C6751",
"F{ 	c #7C6750",
"G{ 	c #7B664F",
"H{ 	c #7A664F",
"I{ 	c #79654F",
"J{ 	c #7A6650",
"K{ 	c #7B6850",
"L{ 	c #7D6A53",
"M{ 	c #7E6B54",
"N{ 	c #7F6F5A",
"O{ 	c #6B5F4E",
"P{ 	c #403529",
"Q{ 	c #271E16",
"R{ 	c #211C15",
"S{ 	c #1D1914",
"T{ 	c #1A1613",
"U{ 	c #0E0B0C",
"V{ 	c #0A080C",
"W{ 	c #09080B",
"X{ 	c #171616",
"Y{ 	c #22201E",
"Z{ 	c #24221F",
"`{ 	c #262421",
" ] 	c #39332D",
".] 	c #3A332B",
"+] 	c #372F27",
"@] 	c #332C26",
"#] 	c #322B25",
"$] 	c #2F2B24",
"%] 	c #2F2C27",
"&] 	c #3C3731",
"*] 	c #474239",
"=] 	c #504A40",
"-] 	c #464037",
";] 	c #3B362E",
">] 	c #3D3732",
",] 	c #3A3735",
"'] 	c #16171A",
")] 	c #13151C",
"!] 	c #131319",
"~] 	c #1A191C",
"{] 	c #242224",
"]] 	c #201D1D",
"^] 	c #242122",
"/] 	c #252325",
"(] 	c #1A1A1A",
"_] 	c #0C0B0C",
":] 	c #050405",
"<] 	c #040305",
"[] 	c #050506",
"}] 	c #0E0C0C",
"|] 	c #110D0E",
"1] 	c #131010",
"2] 	c #2A2725",
"3] 	c #47443E",
"4] 	c #564E47",
"5] 	c #70685D",
"6] 	c #877D6F",
"7] 	c #938877",
"8] 	c #958875",
"9] 	c #938572",
"0] 	c #897C6B",
"a] 	c #837666",
"b] 	c #7C7060",
"c] 	c #7C7260",
"d] 	c #7C7262",
"e] 	c #7E7463",
"f] 	c #7C7161",
"g] 	c #7D7261",
"h] 	c #716859",
"i] 	c #595247",
"j] 	c #47413A",
"k] 	c #393432",
"l] 	c #3A3635",
"m] 	c #333030",
"n] 	c #292728",
"o] 	c #1C1B1E",
"p] 	c #1D1D1E",
"q] 	c #1B1B1C",
"r] 	c #0D0D10",
"s] 	c #060609",
"t] 	c #272421",
"u] 	c #58524C",
"v] 	c #696059",
"w] 	c #6F675D",
"x] 	c #71695E",
"y] 	c #766D62",
"z] 	c #645D54",
"A] 	c #49433C",
"B] 	c #443F3C",
"C] 	c #3E3B39",
"D] 	c #3E3B38",
"E] 	c #332E2B",
"F] 	c #322D29",
"G] 	c #34302C",
"H] 	c #373433",
"I] 	c #393737",
"J] 	c #3F3C3A",
"K] 	c #3F3C39",
"L] 	c #413E39",
"M] 	c #46413A",
"N] 	c #504A41",
"O] 	c #5D564C",
"P] 	c #6E645A",
"Q] 	c #73675E",
"R] 	c #70665C",
"S] 	c #61584F",
"T] 	c #4B443C",
"U] 	c #524941",
"V] 	c #5D544B",
"W] 	c #6D6257",
"X] 	c #645C51",
"Y] 	c #463E36",
"Z] 	c #2F2925",
"`] 	c #241E1E",
" ^ 	c #26221F",
".^ 	c #201C1A",
"+^ 	c #1B1716",
"@^ 	c #181513",
"#^ 	c #241F1B",
"$^ 	c #39332B",
"%^ 	c #483F37",
"&^ 	c #4B4139",
"*^ 	c #4D423A",
"=^ 	c #443933",
"-^ 	c #3A312B",
";^ 	c #2F2822",
">^ 	c #2B2520",
",^ 	c #27201F",
"'^ 	c #262120",
")^ 	c #1D1919",
"!^ 	c #161415",
"~^ 	c #161213",
"{^ 	c #1D1A1B",
"]^ 	c #1F1C1E",
"^^ 	c #171518",
"/^ 	c #030307",
"(^ 	c #010105",
"_^ 	c #191618",
":^ 	c #33312E",
"<^ 	c #302E29",
"[^ 	c #484540",
"}^ 	c #6F6A62",
"|^ 	c #7D7469",
"1^ 	c #7A7164",
"2^ 	c #7A6F62",
"3^ 	c #7D7265",
"4^ 	c #7B7164",
"5^ 	c #776F64",
"6^ 	c #766F64",
"7^ 	c #746D63",
"8^ 	c #716A60",
"9^ 	c #655E54",
"0^ 	c #5D554C",
"a^ 	c #625A52",
"b^ 	c #6C655B",
"c^ 	c #655E56",
"d^ 	c #5F5850",
"e^ 	c #5B544D",
"f^ 	c #615B53",
"g^ 	c #676359",
"h^ 	c #676159",
"i^ 	c #4F4941",
"j^ 	c #242120",
"k^ 	c #06050B",
"l^ 	c #06050A",
"m^ 	c #3C3735",
"n^ 	c #47413F",
"o^ 	c #433E3E",
"p^ 	c #444142",
"q^ 	c #4E4A49",
"r^ 	c #544D49",
"s^ 	c #52473F",
"t^ 	c #8B816F",
"u^ 	c #B8AF9E",
"v^ 	c #BAB3A4",
"w^ 	c #AEA89B",
"x^ 	c #908B81",
"y^ 	c #6B6762",
"z^ 	c #151411",
"A^ 	c #110F10",
"B^ 	c #100C0F",
"C^ 	c #120F12",
"D^ 	c #131113",
"E^ 	c #201D20",
"F^ 	c #221F23",
"G^ 	c #29282B",
"H^ 	c #2C2C2F",
"I^ 	c #313033",
"J^ 	c #3B3A3B",
"K^ 	c #3E3D3D",
"L^ 	c #3D3A3A",
"M^ 	c #514E4B",
"N^ 	c #77726D",
"O^ 	c #8B8781",
"P^ 	c #8E8882",
"Q^ 	c #8E8982",
"R^ 	c #868079",
"S^ 	c #7E7770",
"T^ 	c #69645E",
"U^ 	c #504C48",
"V^ 	c #44413E",
"W^ 	c #4A4745",
"X^ 	c #413E3E",
"Y^ 	c #312E2F",
"Z^ 	c #2E2C2C",
"`^ 	c #2D2B2C",
" / 	c #1E1C20",
"./ 	c #1F1F21",
"+/ 	c #0A090B",
"@/ 	c #030205",
"#/ 	c #0E0C0F",
"$/ 	c #161316",
"%/ 	c #141214",
"&/ 	c #171516",
"*/ 	c #252122",
"=/ 	c #211E1D",
"-/ 	c #2F2C29",
";/ 	c #32312D",
">/ 	c #2C2C29",
",/ 	c #292926",
"'/ 	c #252422",
")/ 	c #1C1B18",
"!/ 	c #0D0C09",
"~/ 	c #0B0907",
"{/ 	c #090707",
"]/ 	c #010203",
"^/ 	c #0D0805",
"// 	c #281F19",
"(/ 	c #51463C",
"_/ 	c #5F5144",
":/ 	c #5D4E41",
"</ 	c #675849",
"[/ 	c #7C6C58",
"}/ 	c #846F58",
"|/ 	c #836D54",
"1/ 	c #7C6348",
"2/ 	c #765C40",
"3/ 	c #765B3F",
"4/ 	c #7A6147",
"5/ 	c #806851",
"6/ 	c #826C55",
"7/ 	c #816C56",
"8/ 	c #806D57",
"9/ 	c #7F6C57",
"0/ 	c #7F6C56",
"a/ 	c #7F6B56",
"b/ 	c #7D6A54",
"c/ 	c #7E6B55",
"d/ 	c #7F6B55",
"e/ 	c #816E57",
"f/ 	c #806D56",
"g/ 	c #816F57",
"h/ 	c #816E58",
"i/ 	c #80705B",
"j/ 	c #695D4D",
"k/ 	c #3C3227",
"l/ 	c #201914",
"m/ 	c #1B1815",
"n/ 	c #161212",
"o/ 	c #151212",
"p/ 	c #0C090C",
"q/ 	c #08060A",
"r/ 	c #201F1F",
"s/ 	c #232221",
"t/ 	c #242321",
"u/ 	c #36302B",
"v/ 	c #37302A",
"w/ 	c #352D26",
"x/ 	c #342D25",
"y/ 	c #322B26",
"z/ 	c #302A25",
"A/ 	c #2F2B26",
"B/ 	c #2E2B27",
"C/ 	c #2C2A26",
"D/ 	c #2E2C27",
"E/ 	c #302C27",
"F/ 	c #403931",
"G/ 	c #3F3731",
"H/ 	c #3D3630",
"I/ 	c #413A36",
"J/ 	c #3C3837",
"K/ 	c #272727",
"L/ 	c #111219",
"M/ 	c #12131B",
"N/ 	c #22201F",
"O/ 	c #221F21",
"P/ 	c #231F23",
"Q/ 	c #191819",
"R/ 	c #090908",
"S/ 	c #050306",
"T/ 	c #080608",
"U/ 	c #3E3938",
"V/ 	c #4D4843",
"W/ 	c #5B544C",
"X/ 	c #70665B",
"Y/ 	c #897E6F",
"Z/ 	c #948876",
"`/ 	c #948673",
" ( 	c #948672",
".( 	c #8C7D6C",
"+( 	c #837565",
"@( 	c #7A6D5C",
"#( 	c #776D5B",
"$( 	c #786E5D",
"%( 	c #7B7060",
"&( 	c #786D5C",
"*( 	c #6D6254",
"=( 	c #5B5146",
"-( 	c #474038",
";( 	c #3C3833",
">( 	c #312E2E",
",( 	c #141316",
"'( 	c #181718",
")( 	c #0D0C0E",
"!( 	c #070607",
"~( 	c #030202",
"{( 	c #050302",
"]( 	c #2E2924",
"^( 	c #635C55",
"/( 	c #6D645C",
"(( 	c #6F665B",
"_( 	c #6E6559",
":( 	c #71685D",
"<( 	c #605851",
"[( 	c #453F3A",
"}( 	c #3E3A38",
"|( 	c #3D3935",
"1( 	c #39332F",
"2( 	c #37312B",
"3( 	c #38302A",
"4( 	c #3C342B",
"5( 	c #38332B",
"6( 	c #353130",
"7( 	c #403E3C",
"8( 	c #484442",
"9( 	c #4A4541",
"0( 	c #504C44",
"a( 	c #524C44",
"b( 	c #625950",
"c( 	c #6B6357",
"d( 	c #6E6359",
"e( 	c #6B6057",
"f( 	c #645A50",
"g( 	c #60574D",
"h( 	c #5E544C",
"i( 	c #645951",
"j( 	c #685D53",
"k( 	c #706558",
"l( 	c #72675A",
"m( 	c #6A5F56",
"n( 	c #504741",
"o( 	c #322C28",
"p( 	c #201C1B",
"q( 	c #201D1B",
"r( 	c #1C1817",
"s( 	c #191515",
"t( 	c #151211",
"u( 	c #1D1916",
"v( 	c #2A231F",
"w( 	c #342C26",
"x( 	c #352B26",
"y( 	c #3A312A",
"z( 	c #3A2F29",
"A( 	c #392F29",
"B( 	c #322824",
"C( 	c #2A221F",
"D( 	c #231C1B",
"E( 	c #1E1A19",
"F( 	c #171515",
"G( 	c #161315",
"H( 	c #1C191C",
"I( 	c #0E0E11",
"J( 	c #020308",
"K( 	c #171618",
"L( 	c #302D2B",
"M( 	c #2D2B27",
"N( 	c #7D7365",
"O( 	c #7B7061",
"P( 	c #7E7263",
"Q( 	c #7B7162",
"R( 	c #7B7364",
"S( 	c #777064",
"T( 	c #6F6960",
"U( 	c #6D675E",
"V( 	c #6B655C",
"W( 	c #6C665C",
"X( 	c #6D675D",
"Y( 	c #6E685E",
"Z( 	c #605951",
"`( 	c #554D46",
" _ 	c #585049",
"._ 	c #615B52",
"+_ 	c #676058",
"@_ 	c #6E675E",
"#_ 	c #666059",
"$_ 	c #68655B",
"%_ 	c #656159",
"&_ 	c #252220",
"*_ 	c #08070B",
"=_ 	c #3A3432",
"-_ 	c #48423F",
";_ 	c #464140",
">_ 	c #494544",
",_ 	c #544E47",
"'_ 	c #4F443A",
")_ 	c #564A3A",
"!_ 	c #897F6D",
"~_ 	c #BAB3A3",
"{_ 	c #ADA79B",
"]_ 	c #8F8B80",
"^_ 	c #726E66",
"/_ 	c #6D6A63",
"(_ 	c #726F69",
"__ 	c #5B5853",
":_ 	c #43413D",
"<_ 	c #41403D",
"[_ 	c #353431",
"}_ 	c #161512",
"|_ 	c #191617",
"1_ 	c #151213",
"2_ 	c #171314",
"3_ 	c #151114",
"4_ 	c #181618",
"5_ 	c #161416",
"6_ 	c #171519",
"7_ 	c #1C1A1E",
"8_ 	c #1C1A1F",
"9_ 	c #202023",
"0_ 	c #212227",
"a_ 	c #25262A",
"b_ 	c #2C2D31",
"c_ 	c #303033",
"d_ 	c #313132",
"e_ 	c #414040",
"f_ 	c #5C5B59",
"g_ 	c #6B6865",
"h_ 	c #6C6966",
"i_ 	c #686460",
"j_ 	c #625F5A",
"k_ 	c #54514D",
"l_ 	c #423F3D",
"m_ 	c #3C3B3A",
"n_ 	c #363434",
"o_ 	c #292729",
"p_ 	c #222023",
"q_ 	c #1B1A1D",
"r_ 	c #1B1B1D",
"s_ 	c #131215",
"t_ 	c #0B0A0D",
"u_ 	c #060507",
"v_ 	c #181417",
"w_ 	c #181617",
"x_ 	c #1B191A",
"y_ 	c #201E1E",
"z_ 	c #252223",
"A_ 	c #393832",
"B_ 	c #30302B",
"C_ 	c #2C2B27",
"D_ 	c #2A2824",
"E_ 	c #25231F",
"F_ 	c #191713",
"G_ 	c #110E0C",
"H_ 	c #0F0D0C",
"I_ 	c #060505",
"J_ 	c #0E0A05",
"K_ 	c #4E4339",
"L_ 	c #55483C",
"M_ 	c #4E4034",
"N_ 	c #5A4B3D",
"O_ 	c #705F4C",
"P_ 	c #775F45",
"Q_ 	c #775B3E",
"R_ 	c #7C5E3F",
"S_ 	c #7D5F40",
"T_ 	c #795E41",
"U_ 	c #735C44",
"V_ 	c #6E5D4A",
"W_ 	c #6B5A48",
"X_ 	c #6A5A48",
"Y_ 	c #695947",
"Z_ 	c #6C5B48",
"`_ 	c #6D5D49",
" : 	c #6E5E4A",
".: 	c #70604B",
"+: 	c #6E604D",
"@: 	c #5D5243",
"#: 	c #3C3328",
"$: 	c #251E19",
"%: 	c #211E1B",
"&: 	c #181515",
"*: 	c #0D0A0C",
"=: 	c #0B090B",
"-: 	c #212020",
";: 	c #232422",
">: 	c #222222",
",: 	c #232323",
"': 	c #2F2C28",
"): 	c #3C352D",
"!: 	c #3B332A",
"~: 	c #39322A",
"{: 	c #363029",
"]: 	c #36302A",
"^: 	c #312E28",
"/: 	c #322F2A",
"(: 	c #2F2D28",
"_: 	c #3E3830",
":: 	c #3E3730",
"<: 	c #3B352F",
"[: 	c #403A36",
"}: 	c #242425",
"|: 	c #121418",
"1: 	c #101319",
"2: 	c #11141B",
"3: 	c #11100F",
"4: 	c #0C0A09",
"5: 	c #0F0E0D",
"6: 	c #121110",
"7: 	c #100F0F",
"8: 	c #0E0C0D",
"9: 	c #343131",
"0: 	c #4D4A44",
"a: 	c #58524A",
"b: 	c #6D645A",
"c: 	c #847B6D",
"d: 	c #918775",
"e: 	c #938774",
"f: 	c #8E8370",
"g: 	c #857A68",
"h: 	c #7C7160",
"i: 	c #736857",
"j: 	c #716856",
"k: 	c #736B5B",
"l: 	c #766E5E",
"m: 	c #746B5C",
"n: 	c #4C433B",
"o: 	c #3B332F",
"p: 	c #393431",
"q: 	c #322E2E",
"r: 	c #2C292A",
"s: 	c #262524",
"t: 	c #19181A",
"u: 	c #1B1A1A",
"v: 	c #141113",
"w: 	c #131110",
"x: 	c #120F0D",
"y: 	c #6F675B",
"z: 	c #6B6358",
"A: 	c #3E3A35",
"B: 	c #3B352E",
"C: 	c #3E372D",
"D: 	c #4A3F33",
"E: 	c #55483B",
"F: 	c #54483B",
"G: 	c #473E33",
"H: 	c #37332F",
"I: 	c #42413D",
"J: 	c #56524B",
"K: 	c #5F5B51",
"L: 	c #665F55",
"M: 	c #726A5F",
"N: 	c #736A5F",
"O: 	c #665E52",
"P: 	c #62594F",
"Q: 	c #635951",
"R: 	c #665E55",
"S: 	c #665D55",
"T: 	c #6A6257",
"U: 	c #6D6558",
"V: 	c #6D6459",
"W: 	c #6C645A",
"X: 	c #59524C",
"Y: 	c #21201E",
"Z: 	c #1D1B1A",
"`: 	c #1A1817",
" < 	c #1E1C19",
".< 	c #211C1A",
"+< 	c #28211D",
"@< 	c #261D19",
"#< 	c #2B231D",
"$< 	c #352C25",
"%< 	c #3B322D",
"&< 	c #2C2421",
"*< 	c #1D1B1C",
"=< 	c #171417",
"-< 	c #1C1A1C",
";< 	c #1B191B",
">< 	c #151417",
",< 	c #111115",
"'< 	c #08080D",
")< 	c #030409",
"!< 	c #030206",
"~< 	c #2E2D2B",
"{< 	c #72695F",
"]< 	c #746A5C",
"^< 	c #6F6455",
"/< 	c #736757",
"(< 	c #756C5E",
"_< 	c #6B6458",
":< 	c #5F594F",
"<< 	c #555049",
"[< 	c #504B46",
"}< 	c #4F4A43",
"|< 	c #514C44",
"1< 	c #545047",
"2< 	c #57514A",
"3< 	c #57534C",
"4< 	c #423D37",
"5< 	c #4D4842",
"6< 	c #58534E",
"7< 	c #59534E",
"8< 	c #57534E",
"9< 	c #534F4A",
"0< 	c #55504B",
"a< 	c #57554E",
"b< 	c #53504A",
"c< 	c #4F4C45",
"d< 	c #47433D",
"e< 	c #211C1C",
"f< 	c #060409",
"g< 	c #050208",
"h< 	c #332D2C",
"i< 	c #463F3D",
"j< 	c #484141",
"k< 	c #56504C",
"l< 	c #554D47",
"m< 	c #493D34",
"n< 	c #4D3F32",
"o< 	c #857969",
"p< 	c #B6AC9C",
"q< 	c #BAB1A2",
"r< 	c #ACA599",
"s< 	c #8E887F",
"t< 	c #736D66",
"u< 	c #6E6963",
"v< 	c #736E69",
"w< 	c #363432",
"x< 	c #181614",
"y< 	c #0D090B",
"z< 	c #1C1718",
"A< 	c #1B1719",
"B< 	c #1D1A1C",
"C< 	c #0B080A",
"D< 	c #171416",
"E< 	c #0A090D",
"F< 	c #09080D",
"G< 	c #0B0B10",
"H< 	c #090910",
"I< 	c #0C0E14",
"J< 	c #0F1016",
"K< 	c #131419",
"L< 	c #131218",
"M< 	c #242326",
"N< 	c #29272A",
"O< 	c #29262A",
"P< 	c #2B292B",
"Q< 	c #292629",
"R< 	c #292627",
"S< 	c #1F1E1F",
"T< 	c #1C1A1D",
"U< 	c #1E1C1F",
"V< 	c #161519",
"W< 	c #131216",
"X< 	c #0E0D11",
"Y< 	c #0E0D10",
"Z< 	c #121012",
"`< 	c #121113",
" [ 	c #121213",
".[ 	c #221E20",
"+[ 	c #383431",
"@[ 	c #413C39",
"#[ 	c #3B3934",
"$[ 	c #32332D",
"%[ 	c #302D29",
"&[ 	c #2B2723",
"*[ 	c #1B1918",
"=[ 	c #100F10",
"-[ 	c #020203",
";[ 	c #050404",
">[ 	c #261D16",
",[ 	c #473C33",
"'[ 	c #4A3C33",
")[ 	c #3F3126",
"![ 	c #4E4032",
"~[ 	c #6D5C48",
"{[ 	c #735A44",
"][ 	c #74593C",
"^[ 	c #755739",
"/[ 	c #7C5B3C",
"([ 	c #7F5E3E",
"_[ 	c #6E5335",
":[ 	c #543E27",
"<[ 	c #4D3B2A",
"[[ 	c #483929",
"}[ 	c #47392A",
"|[ 	c #443729",
"1[ 	c #423528",
"2[ 	c #403326",
"3[ 	c #3F3225",
"4[ 	c #46392A",
"5[ 	c #473A2B",
"6[ 	c #483B2C",
"7[ 	c #4B3D2E",
"8[ 	c #4A3C2C",
"9[ 	c #4B3E2E",
"0[ 	c #473B2F",
"a[ 	c #382E25",
"b[ 	c #261E1A",
"c[ 	c #1F1A18",
"d[ 	c #181514",
"e[ 	c #0C090B",
"f[ 	c #1D1E1E",
"g[ 	c #1C1D1D",
"h[ 	c #201F1E",
"i[ 	c #2D2926",
"j[ 	c #3B3530",
"k[ 	c #3F3730",
"l[ 	c #3D352C",
"m[ 	c #3B332C",
"n[ 	c #3A322C",
"o[ 	c #38312A",
"p[ 	c #37312A",
"q[ 	c #332F29",
"r[ 	c #312F29",
"s[ 	c #33302A",
"t[ 	c #37322C",
"u[ 	c #3B342E",
"v[ 	c #3C362F",
"w[ 	c #38312D",
"x[ 	c #353131",
"y[ 	c #0F1115",
"z[ 	c #0F1118",
"A[ 	c #101116",
"B[ 	c #2A2728",
"C[ 	c #1B1A19",
"D[ 	c #1A1918",
"E[ 	c #1C1A18",
"F[ 	c #1F1B1A",
"G[ 	c #252320",
"H[ 	c #2A2623",
"I[ 	c #211E20",
"J[ 	c #333031",
"K[ 	c #3F3D3A",
"L[ 	c #44423E",
"M[ 	c #49443F",
"N[ 	c #796F5E",
"O[ 	c #6D6455",
"P[ 	c #645C4D",
"Q[ 	c #5D5547",
"R[ 	c #5D5749",
"S[ 	c #646052",
"T[ 	c #696457",
"U[ 	c #696357",
"V[ 	c #686256",
"W[ 	c #595349",
"X[ 	c #443F36",
"Y[ 	c #38332F",
"Z[ 	c #363331",
"`[ 	c #363332",
" } 	c #292828",
".} 	c #1A191A",
"+} 	c #161516",
"@} 	c #574F49",
"#} 	c #6E665F",
"$} 	c #756E62",
"%} 	c #6E6558",
"&} 	c #645B50",
"*} 	c #60584D",
"=} 	c #575047",
"-} 	c #49443D",
";} 	c #3D3836",
">} 	c #3F3A38",
",} 	c #383129",
"'} 	c #453A2F",
")} 	c #605243",
"!} 	c #736250",
"~} 	c #736252",
"{} 	c #3A3029",
"]} 	c #4E4B45",
"^} 	c #544F47",
"/} 	c #605A51",
"(} 	c #82776E",
"_} 	c #85796E",
":} 	c #786F63",
"<} 	c #5C5349",
"[} 	c #544D48",
"}} 	c #564E49",
"|} 	c #5A534C",
"1} 	c #5C544C",
"2} 	c #322E2C",
"3} 	c #1E1B1A",
"4} 	c #181616",
"5} 	c #1C1B1A",
"6} 	c #1B1513",
"7} 	c #1D1613",
"8} 	c #241D19",
"9} 	c #342B26",
"0} 	c #3A312D",
"a} 	c #362D2A",
"b} 	c #28211F",
"c} 	c #241F1D",
"d} 	c #181619",
"e} 	c #131115",
"f} 	c #19181B",
"g} 	c #151317",
"h} 	c #121216",
"i} 	c #08090E",
"j} 	c #000105",
"k} 	c #2A2929",
"l} 	c #262523",
"m} 	c #49463E",
"n} 	c #544C42",
"o} 	c #595043",
"p} 	c #5A5040",
"q} 	c #6F6254",
"r} 	c #6F6458",
"s} 	c #4A453C",
"t} 	c #38332E",
"u} 	c #302D2A",
"v} 	c #34302B",
"w} 	c #38342F",
"x} 	c #3B3632",
"y} 	c #2D2927",
"z} 	c #2F2B29",
"A} 	c #332F2D",
"B} 	c #343230",
"C} 	c #33322F",
"D} 	c #171212",
"E} 	c #040307",
"F} 	c #44403D",
"G} 	c #494344",
"H} 	c #534C4B",
"I} 	c #5E5650",
"J} 	c #5A5148",
"K} 	c #483E33",
"L} 	c #483D2E",
"M} 	c #817667",
"N} 	c #B5AB9D",
"O} 	c #B9B1A2",
"P} 	c #ABA498",
"Q} 	c #8D877E",
"R} 	c #726E68",
"S} 	c #43403E",
"T} 	c #383533",
"U} 	c #1A1916",
"V} 	c #010100",
"W} 	c #0F0C0D",
"X} 	c #1D1A1A",
"Y} 	c #191516",
"Z} 	c #1C1819",
"`} 	c #130F10",
" | 	c #000004",
".| 	c #020207",
"+| 	c #030309",
"@| 	c #07080D",
"#| 	c #0B0A0E",
"$| 	c #0D0C10",
"%| 	c #100E11",
"&| 	c #0F0C11",
"*| 	c #100E13",
"=| 	c #0F0D11",
"-| 	c #0F0F12",
";| 	c #121214",
">| 	c #121114",
",| 	c #09090D",
"'| 	c #07070A",
")| 	c #030306",
"!| 	c #191719",
"~| 	c #1D1B1D",
"{| 	c #272325",
"]| 	c #1F1D1D",
"^| 	c #1F1D1C",
"/| 	c #3D3936",
"(| 	c #403E38",
"_| 	c #373631",
":| 	c #36332E",
"<| 	c #393630",
"[| 	c #292523",
"}| 	c #0B0804",
"|| 	c #251D16",
"1| 	c #453A32",
"2| 	c #463A31",
"3| 	c #392D22",
"4| 	c #4C4032",
"5| 	c #746551",
"6| 	c #7C644C",
"7| 	c #7A5F42",
"8| 	c #7A5C3B",
"9| 	c #82623E",
"0| 	c #836240",
"a| 	c #6E5336",
"b| 	c #4A3521",
"c| 	c #3C2C1F",
"d| 	c #382B20",
"e| 	c #362B20",
"f| 	c #32281F",
"g| 	c #32281E",
"h| 	c #30261D",
"i| 	c #332920",
"j| 	c #3A3026",
"k| 	c #3D3227",
"l| 	c #3E3327",
"m| 	c #3D3226",
"n| 	c #3D3224",
"o| 	c #3D3324",
"p| 	c #403428",
"q| 	c #3B3027",
"r| 	c #1F1917",
"s| 	c #171311",
"t| 	c #171312",
"u| 	c #131111",
"v| 	c #141314",
"w| 	c #161718",
"x| 	c #161618",
"y| 	c #1F1F1D",
"z| 	c #423C34",
"A| 	c #413A31",
"B| 	c #40392F",
"C| 	c #3E362E",
"D| 	c #3E372E",
"E| 	c #35312A",
"F| 	c #333029",
"G| 	c #302F29",
"H| 	c #32302A",
"I| 	c #37332C",
"J| 	c #3A342E",
"K| 	c #393530",
"L| 	c #1F1F1F",
"M| 	c #101215",
"N| 	c #101218",
"O| 	c #0C0A0A",
"P| 	c #100F0E",
"Q| 	c #13110F",
"R| 	c #1C1916",
"S| 	c #25201E",
"T| 	c #332D29",
"U| 	c #312C2A",
"V| 	c #232021",
"W| 	c #39342C",
"X| 	c #4A443A",
"Y| 	c #51493D",
"Z| 	c #4F4639",
"`| 	c #4A4235",
" 1 	c #423A2E",
".1 	c #3B352A",
"+1 	c #373328",
"@1 	c #3B372D",
"#1 	c #413F35",
"$1 	c #46423A",
"%1 	c #46433B",
"&1 	c #3E3B34",
"*1 	c #332F2A",
"=1 	c #2F2B28",
"-1 	c #302E2C",
";1 	c #191818",
">1 	c #5D5651",
",1 	c #675F59",
"'1 	c #756C64",
")1 	c #7C7469",
"!1 	c #776F62",
"~1 	c #696154",
"{1 	c #61584C",
"]1 	c #453F38",
"^1 	c #3E3934",
"/1 	c #423D3A",
"(1 	c #423E3A",
"_1 	c #3D3833",
":1 	c #39352E",
"<1 	c #393329",
"[1 	c #4C4134",
"}1 	c #6D5E4D",
"|1 	c #82715C",
"11 	c #81715D",
"21 	c #675A4B",
"31 	c #3D342B",
"41 	c #312B26",
"51 	c #3F3B36",
"61 	c #5F5B50",
"71 	c #746E62",
"81 	c #8A7F74",
"91 	c #8F8578",
"01 	c #847B6E",
"a1 	c #5A5249",
"b1 	c #35302D",
"c1 	c #3E3732",
"d1 	c #423C36",
"e1 	c #3F3834",
"f1 	c #3E3734",
"g1 	c #35302E",
"h1 	c #141313",
"i1 	c #1A1614",
"j1 	c #1C1714",
"k1 	c #251D1A",
"l1 	c #372F29",
"m1 	c #3F3631",
"n1 	c #372F2A",
"o1 	c #29221F",
"p1 	c #231E1E",
"q1 	c #292525",
"r1 	c #110F11",
"s1 	c #141418",
"t1 	c #06070B",
"u1 	c #020205",
"v1 	c #292927",
"w1 	c #242523",
"x1 	c #2A2927",
"y1 	c #3B3932",
"z1 	c #4E473A",
"A1 	c #51473A",
"B1 	c #5F5345",
"C1 	c #6D6152",
"D1 	c #60594F",
"E1 	c #2C2825",
"F1 	c #2A2723",
"G1 	c #2E2B26",
"H1 	c #2F2D29",
"I1 	c #2C2927",
"J1 	c #282526",
"K1 	c #262325",
"L1 	c #201F21",
"M1 	c #212222",
"N1 	c #272626",
"O1 	c #14100F",
"P1 	c #0B0709",
"Q1 	c #050407",
"R1 	c #111114",
"S1 	c #2A2A2B",
"T1 	c #3D3C3C",
"U1 	c #454142",
"V1 	c #524B4A",
"W1 	c #615850",
"X1 	c #5D5347",
"Y1 	c #483C30",
"Z1 	c #463A2B",
"`1 	c #7F7365",
" 2 	c #B2A99B",
".2 	c #B7AFA3",
"+2 	c #A9A297",
"@2 	c #8B847C",
"#2 	c #706A64",
"$2 	c #6C6761",
"%2 	c #6F6A65",
"&2 	c #413E3B",
"*2 	c #413F3C",
"=2 	c #383534",
"-2 	c #1B1917",
";2 	c #231E20",
">2 	c #221E1E",
",2 	c #100D0C",
"'2 	c #020206",
")2 	c #07060A",
"!2 	c #070509",
"~2 	c #151316",
"{2 	c #121014",
"]2 	c #121115",
"^2 	c #17171A",
"/2 	c #111013",
"(2 	c #09080C",
"_2 	c #08080C",
":2 	c #1B191C",
"<2 	c #272527",
"[2 	c #433E3A",
"}2 	c #393632",
"|2 	c #3A3733",
"12 	c #3B3730",
"22 	c #352F2B",
"32 	c #2B2626",
"42 	c #262224",
"52 	c #090503",
"62 	c #231A16",
"72 	c #403530",
"82 	c #41352E",
"92 	c #352A21",
"02 	c #4B3F34",
"a2 	c #736454",
"b2 	c #79634C",
"c2 	c #7A5F43",
"d2 	c #7A5C3C",
"e2 	c #805E3C",
"f2 	c #815F3E",
"g2 	c #6E5236",
"h2 	c #483423",
"i2 	c #3B2C21",
"j2 	c #362A21",
"k2 	c #352B21",
"l2 	c #322921",
"m2 	c #342A23",
"n2 	c #312821",
"o2 	c #362D26",
"p2 	c #40362E",
"q2 	c #41372B",
"r2 	c #3F3529",
"s2 	c #41372A",
"t2 	c #403528",
"u2 	c #3F3527",
"v2 	c #42372A",
"w2 	c #2C221B",
"x2 	c #211914",
"y2 	c #1A1311",
"z2 	c #1C1614",
"A2 	c #1A1414",
"B2 	c #1A1515",
"C2 	c #151313",
"D2 	c #141414",
"E2 	c #161617",
"F2 	c #1D1D1C",
"G2 	c #2E2C29",
"H2 	c #413931",
"I2 	c #403830",
"J2 	c #3F372F",
"K2 	c #3F362E",
"L2 	c #3E342D",
"M2 	c #353029",
"N2 	c #313029",
"O2 	c #302E28",
"P2 	c #35312B",
"Q2 	c #3A342D",
"R2 	c #36312B",
"S2 	c #1D1C1D",
"T2 	c #101115",
"U2 	c #111217",
"V2 	c #110D0F",
"W2 	c #161412",
"X2 	c #1F1D17",
"Y2 	c #423A36",
"Z2 	c #342D2D",
"`2 	c #1F191B",
" 3 	c #292421",
".3 	c #34302A",
"+3 	c #373028",
"@3 	c #342C22",
"#3 	c #312920",
"$3 	c #29231A",
"%3 	c #242019",
"&3 	c #211F19",
"*3 	c #23231E",
"=3 	c #262722",
"-3 	c #292825",
";3 	c #282624",
">3 	c #282825",
",3 	c #272624",
"'3 	c #4A4542",
")3 	c #615A55",
"!3 	c #685F58",
"~3 	c #726860",
"{3 	c #797066",
"]3 	c #766D61",
"^3 	c #6E6458",
"/3 	c #6B6254",
"(3 	c #655C50",
"_3 	c #61594D",
":3 	c #564E45",
"<3 	c #4A443C",
"[3 	c #433D39",
"}3 	c #47413E",
"|3 	c #46403D",
"13 	c #44403A",
"23 	c #3F3A34",
"33 	c #3D3830",
"43 	c #3D362D",
"53 	c #4E4438",
"63 	c #685A4C",
"73 	c #786A58",
"83 	c #776957",
"93 	c #605446",
"03 	c #312C27",
"a3 	c #5B574B",
"b3 	c #80786C",
"c3 	c #887F73",
"d3 	c #80766C",
"e3 	c #5A514A",
"f3 	c #322B28",
"g3 	c #2B2725",
"h3 	c #342E2C",
"i3 	c #312C2B",
"j3 	c #2F2A29",
"k3 	c #231D1B",
"l3 	c #39302B",
"m3 	c #3E342F",
"n3 	c #27211E",
"o3 	c #201A1B",
"p3 	c #241F21",
"q3 	c #110F12",
"r3 	c #0F1014",
"s3 	c #0A0B10",
"t3 	c #282727",
"u3 	c #2B2B29",
"v3 	c #3B3935",
"w3 	c #47403A",
"x3 	c #524B40",
"y3 	c #584E42",
"z3 	c #635749",
"A3 	c #685D4E",
"B3 	c #696053",
"C3 	c #5E564E",
"D3 	c #1E1B1C",
"E3 	c #252321",
"F3 	c #2E2A2A",
"G3 	c #2D2A2A",
"H3 	c #262526",
"I3 	c #242325",
"J3 	c #222124",
"K3 	c #222225",
"L3 	c #232426",
"M3 	c #272729",
"N3 	c #272829",
"O3 	c #292A2B",
"P3 	c #28292A",
"Q3 	c #272728",
"R3 	c #1C1412",
"S3 	c #110B0B",
"T3 	c #0A0608",
"U3 	c #18191A",
"V3 	c #2E2E30",
"W3 	c #3B3B3B",
"X3 	c #403F3E",
"Y3 	c #514B47",
"Z3 	c #65584C",
"`3 	c #685945",
" 4 	c #594833",
".4 	c #5A4B36",
"+4 	c #8A7D6A",
"@4 	c #B4A99A",
"#4 	c #B7AEA2",
"$4 	c #89847A",
"%4 	c #6E6860",
"&4 	c #6A6660",
"*4 	c #6D6964",
"=4 	c #55534D",
"-4 	c #3E3C38",
";4 	c #403E3B",
">4 	c #383634",
",4 	c #020201",
"'4 	c #25221F",
")4 	c #070708",
"!4 	c #080809",
"~4 	c #080709",
"{4 	c #0D0D0E",
"]4 	c #161616",
"^4 	c #161414",
"/4 	c #464241",
"(4 	c #4C4747",
"_4 	c #4F4B4A",
":4 	c #4D4948",
"<4 	c #363333",
"[4 	c #2C2B2B",
"}4 	c #2E2D2F",
"|4 	c #2A292B",
"14 	c #0A0A0D",
"24 	c #282829",
"34 	c #282629",
"44 	c #2A282A",
"54 	c #292524",
"64 	c #282422",
"74 	c #413D36",
"84 	c #3F3C36",
"94 	c #49443B",
"04 	c #3F3933",
"a4 	c #2C292B",
"b4 	c #1D1C20",
"c4 	c #04050A",
"d4 	c #030201",
"e4 	c #070403",
"f4 	c #130D0A",
"g4 	c #271E1A",
"h4 	c #40362F",
"i4 	c #362C24",
"j4 	c #4B4136",
"k4 	c #6D6051",
"l4 	c #705940",
"m4 	c #71573B",
"n4 	c #785B3C",
"o4 	c #7A5C3D",
"p4 	c #684F35",
"q4 	c #463524",
"r4 	c #382A20",
"s4 	c #342920",
"t4 	c #352B22",
"u4 	c #332A22",
"v4 	c #342B24",
"w4 	c #322A23",
"x4 	c #423931",
"y4 	c #443A30",
"z4 	c #43392D",
"A4 	c #41362A",
"B4 	c #42382A",
"C4 	c #413628",
"D4 	c #433729",
"E4 	c #46392B",
"F4 	c #413528",
"G4 	c #342A1F",
"H4 	c #2B2219",
"I4 	c #29221E",
"J4 	c #251E1C",
"K4 	c #241E1C",
"L4 	c #1F1B19",
"M4 	c #1E1B19",
"N4 	c #191919",
"O4 	c #1D1C1C",
"P4 	c #222220",
"Q4 	c #36312C",
"R4 	c #3D352D",
"S4 	c #423730",
"T4 	c #41362F",
"U4 	c #3D342C",
"V4 	c #322E29",
"W4 	c #302F28",
"X4 	c #34312B",
"Y4 	c #38322C",
"Z4 	c #3A352D",
"`4 	c #1E1E1E",
" 5 	c #11131A",
".5 	c #13151D",
"+5 	c #121319",
"@5 	c #0C0C0E",
"#5 	c #0B0A09",
"$5 	c #080706",
"%5 	c #080806",
"&5 	c #0B0A0A",
"*5 	c #292724",
"=5 	c #312E27",
"-5 	c #342F28",
";5 	c #3F3831",
">5 	c #393230",
",5 	c #211B1C",
"'5 	c #201B1C",
")5 	c #282627",
"!5 	c #242322",
"~5 	c #322E2B",
"{5 	c #332D27",
"]5 	c #312922",
"^5 	c #302921",
"/5 	c #2A241E",
"(5 	c #29251F",
"_5 	c #262420",
":5 	c #262824",
"<5 	c #262926",
"[5 	c #282929",
"}5 	c #282828",
"|5 	c #2D2A2B",
"15 	c #2E2A2B",
"25 	c #383635",
"35 	c #3C3939",
"45 	c #141211",
"55 	c #625B51",
"65 	c #6A6158",
"75 	c #72695E",
"85 	c #756C5D",
"95 	c #736A5C",
"05 	c #73695C",
"a5 	c #696155",
"b5 	c #565147",
"c5 	c #4B4642",
"d5 	c #4B473F",
"e5 	c #4B463C",
"f5 	c #4F493E",
"g5 	c #52493E",
"h5 	c #564B40",
"i5 	c #534A3E",
"j5 	c #443C33",
"k5 	c #2F2823",
"l5 	c #2F2A27",
"m5 	c #5B554D",
"n5 	c #575148",
"o5 	c #524E45",
"p5 	c #575249",
"q5 	c #666056",
"r5 	c #6D665D",
"s5 	c #6A625A",
"t5 	c #504A43",
"u5 	c #3B3634",
"v5 	c #45403E",
"w5 	c #2A2826",
"x5 	c #2B2A28",
"y5 	c #2A2926",
"z5 	c #2C2B28",
"A5 	c #2B2926",
"B5 	c #362F29",
"C5 	c #413830",
"D5 	c #453B34",
"E5 	c #3B312B",
"F5 	c #2A221E",
"G5 	c #221B1A",
"H5 	c #252020",
"I5 	c #181518",
"J5 	c #211E21",
"K5 	c #1C1C1F",
"L5 	c #151519",
"M5 	c #2C2B2A",
"N5 	c #262625",
"O5 	c #3C3A37",
"P5 	c #544C44",
"Q5 	c #594F44",
"R5 	c #61574A",
"S5 	c #60574A",
"T5 	c #645C4F",
"U5 	c #46413B",
"V5 	c #1F1D1F",
"W5 	c #2E2D29",
"X5 	c #33312D",
"Y5 	c #35332F",
"Z5 	c #363431",
"`5 	c #33302E",
" 6 	c #302C2B",
".6 	c #242527",
"+6 	c #252628",
"@6 	c #262729",
"#6 	c #292B2C",
"$6 	c #292B2B",
"%6 	c #292C2C",
"&6 	c #292C2D",
"*6 	c #2C2E2F",
"=6 	c #261914",
"-6 	c #170D0B",
";6 	c #0C0405",
">6 	c #0D080A",
",6 	c #353233",
"'6 	c #3C3938",
")6 	c #4A433A",
"!6 	c #66553F",
"~6 	c #786141",
"{6 	c #7D6546",
"]6 	c #8D785C",
"^6 	c #A5927F",
"/6 	c #B6AA9A",
"(6 	c #B5AB9E",
"_6 	c #A79D94",
":6 	c #867E76",
"<6 	c #6A635D",
"[6 	c #68615C",
"}6 	c #6B6561",
"|6 	c #524D4A",
"16 	c #3B3835",
"26 	c #373533",
"36 	c #1A1616",
"46 	c #25211F",
"56 	c #050607",
"66 	c #0A0A0C",
"76 	c #353430",
"86 	c #514C46",
"96 	c #817C75",
"06 	c #A19A93",
"a6 	c #A9A29B",
"b6 	c #ADA79F",
"c6 	c #A9A29C",
"d6 	c #96908B",
"e6 	c #696560",
"f6 	c #4C4947",
"g6 	c #494646",
"h6 	c #4C4B4A",
"i6 	c #434142",
"j6 	c #2C2A2B",
"k6 	c #1E1D1F",
"l6 	c #0E0D0F",
"m6 	c #2B292A",
"n6 	c #3D3835",
"o6 	c #3A3431",
"p6 	c #433D37",
"q6 	c #463E37",
"r6 	c #443E35",
"s6 	c #4C473E",
"t6 	c #5F5851",
"u6 	c #6A6259",
"v6 	c #665F54",
"w6 	c #524B43",
"x6 	c #3D3734",
"y6 	c #302C2F",
"z6 	c #201F24",
"A6 	c #07080E",
"B6 	c #000103",
"C6 	c #1E1919",
"D6 	c #27201D",
"E6 	c #2E2521",
"F6 	c #38302C",
"G6 	c #3A322D",
"H6 	c #342B29",
"I6 	c #3E362F",
"J6 	c #4E453A",
"K6 	c #4E3F31",
"L6 	c #51402D",
"M6 	c #543F2B",
"N6 	c #5D452E",
"O6 	c #5F462F",
"P6 	c #55412C",
"Q6 	c #3E3022",
"R6 	c #32261D",
"S6 	c #30261F",
"T6 	c #322922",
"U6 	c #332B24",
"V6 	c #342C25",
"W6 	c #383029",
"X6 	c #453A30",
"Y6 	c #43392C",
"Z6 	c #42362A",
"`6 	c #43372A",
" 7 	c #423627",
".7 	c #433626",
"+7 	c #463727",
"@7 	c #453727",
"#7 	c #3A2E21",
"$7 	c #372E27",
"%7 	c #302723",
"&7 	c #28211E",
"*7 	c #252322",
"=7 	c #2F2A26",
"-7 	c #29241E",
";7 	c #261F19",
">7 	c #2C241E",
",7 	c #40352E",
"'7 	c #373129",
")7 	c #322F29",
"!7 	c #2F2E28",
"~7 	c #322E28",
"{7 	c #3E3836",
"]7 	c #10121A",
"^7 	c #12141D",
"/7 	c #090808",
"(7 	c #0A0A09",
"_7 	c #0C0D0C",
":7 	c #403935",
"<7 	c #453E36",
"[7 	c #48403A",
"}7 	c #362F2D",
"|7 	c #201A1C",
"17 	c #1D181A",
"27 	c #252124",
"37 	c #262326",
"47 	c #242423",
"57 	c #2E2B2A",
"67 	c #332E28",
"77 	c #312A23",
"87 	c #302A22",
"97 	c #2E2821",
"07 	c #2B2822",
"a7 	c #272723",
"b7 	c #282A26",
"c7 	c #282B2A",
"d7 	c #2A2C2D",
"e7 	c #2B2B2D",
"f7 	c #2B2C2D",
"g7 	c #2D2C2E",
"h7 	c #2E2C2D",
"i7 	c #302F2F",
"j7 	c #302D2E",
"k7 	c #464444",
"l7 	c #4E4C4C",
"m7 	c #1F1F1E",
"n7 	c #151312",
"o7 	c #302C2A",
"p7 	c #615A57",
"q7 	c #706863",
"r7 	c #5F5750",
"s7 	c #443D33",
"t7 	c #443D34",
"u7 	c #5C5449",
"v7 	c #72685D",
"w7 	c #7F7567",
"x7 	c #827867",
"y7 	c #837969",
"z7 	c #786F61",
"A7 	c #5F574D",
"B7 	c #4E493F",
"C7 	c #5B5548",
"D7 	c #675E51",
"E7 	c #675D52",
"F7 	c #3D352E",
"G7 	c #2C2621",
"H7 	c #25201D",
"I7 	c #1C1717",
"J7 	c #48443E",
"K7 	c #444039",
"L7 	c #3A3731",
"M7 	c #3F3936",
"N7 	c #36322F",
"O7 	c #504B48",
"P7 	c #58534F",
"Q7 	c #45403D",
"R7 	c #2B2827",
"S7 	c #2D2B28",
"T7 	c #2D2C2B",
"U7 	c #302F2D",
"V7 	c #2F2F2C",
"W7 	c #32312E",
"X7 	c #32302C",
"Y7 	c #39322B",
"Z7 	c #473C34",
"`7 	c #4D4239",
" 8 	c #342B25",
".8 	c #28201E",
"+8 	c #292221",
"@8 	c #282424",
"#8 	c #1E1B1E",
"$8 	c #221F22",
"%8 	c #1D1C1F",
"&8 	c #1B1B1E",
"*8 	c #19191D",
"=8 	c #191A1E",
"-8 	c #15161A",
";8 	c #151518",
">8 	c #2D2C2C",
",8 	c #373735",
"'8 	c #3F3B37",
")8 	c #4F463C",
"!8 	c #3C3732",
"~8 	c #222121",
"{8 	c #212022",
"]8 	c #282827",
"^8 	c #2E2E2B",
"/8 	c #31322E",
"(8 	c #32312F",
"_8 	c #302F2C",
":8 	c #312F2C",
"<8 	c #3D3834",
"[8 	c #302D2C",
"}8 	c #282729",
"|8 	c #212225",
"18 	c #202224",
"28 	c #242628",
"38 	c #2C2F2F",
"48 	c #303333",
"58 	c #313434",
"68 	c #343737",
"78 	c #363737",
"88 	c #2C1C16",
"98 	c #1C100C",
"08 	c #0D0404",
"a8 	c #0F0809",
"b8 	c #3D3736",
"c8 	c #474034",
"d8 	c #665639",
"e8 	c #836B43",
"f8 	c #9A805B",
"g8 	c #B59F80",
"h8 	c #BDAC97",
"i8 	c #BDB2A2",
"j8 	c #B5AC9F",
"k8 	c #A79C94",
"l8 	c #877D76",
"m8 	c #68615D",
"n8 	c #514C49",
"o8 	c #3C3736",
"p8 	c #1D1A18",
"q8 	c #030101",
"r8 	c #1B1717",
"s8 	c #25211E",
"t8 	c #37322D",
"u8 	c #35312D",
"v8 	c #040506",
"w8 	c #090A0C",
"x8 	c #21211F",
"y8 	c #1E1F1C",
"z8 	c #464440",
"A8 	c #44413B",
"B8 	c #3F3B32",
"C8 	c #686258",
"D8 	c #A8A097",
"E8 	c #CBC3B9",
"F8 	c #D0C9BF",
"G8 	c #D4CCC3",
"H8 	c #CDC5BC",
"I8 	c #B3ACA4",
"J8 	c #78746D",
"K8 	c #534F4C",
"L8 	c #504D4B",
"M8 	c #545150",
"N8 	c #4A4747",
"O8 	c #201E1F",
"P8 	c #0D0C0D",
"Q8 	c #030203",
"R8 	c #4A4440",
"S8 	c #433C35",
"T8 	c #49423A",
"U8 	c #494038",
"V8 	c #474036",
"W8 	c #534C43",
"X8 	c #776D61",
"Y8 	c #736A5D",
"Z8 	c #423B38",
"`8 	c #332F31",
" 9 	c #252429",
".9 	c #0C0D13",
"+9 	c #020309",
"@9 	c #05060A",
"#9 	c #0E0C10",
"$9 	c #272120",
"%9 	c #29211F",
"&9 	c #2D2522",
"*9 	c #2D2421",
"=9 	c #312A27",
"-9 	c #322B2C",
";9 	c #322C2A",
">9 	c #32271F",
",9 	c #372A1F",
"'9 	c #403021",
")9 	c #473322",
"!9 	c #483322",
"~9 	c #453323",
"{9 	c #35281D",
"]9 	c #2A2018",
"^9 	c #261E17",
"/9 	c #28201B",
"(9 	c #352C26",
"_9 	c #393029",
":9 	c #423830",
"<9 	c #45392F",
"[9 	c #44392C",
"}9 	c #473929",
"|9 	c #473827",
"19 	c #473826",
"29 	c #493A27",
"39 	c #443727",
"49 	c #3C3024",
"59 	c #382D24",
"69 	c #2E251E",
"79 	c #241D18",
"89 	c #2B2420",
"99 	c #3A342F",
"09 	c #3A3530",
"a9 	c #2D2A26",
"b9 	c #25201C",
"c9 	c #221A16",
"d9 	c #29211C",
"e9 	c #3B312C",
"f9 	c #453933",
"g9 	c #42362F",
"h9 	c #3D332B",
"i9 	c #343029",
"j9 	c #312F28",
"k9 	c #2F2D27",
"l9 	c #322F27",
"m9 	c #36322B",
"n9 	c #423B36",
"o9 	c #101217",
"p9 	c #11141C",
"q9 	c #131314",
"r9 	c #151414",
"s9 	c #131312",
"t9 	c #0D0C0C",
"u9 	c #12100E",
"v9 	c #211E1A",
"w9 	c #3A332E",
"x9 	c #473E38",
"y9 	c #4A423B",
"z9 	c #49423B",
"A9 	c #37302E",
"B9 	c #231F22",
"C9 	c #272627",
"D9 	c #2B2B2B",
"E9 	c #2B2A2A",
"F9 	c #2F2C25",
"G9 	c #2F2A22",
"H9 	c #2F2921",
"I9 	c #2E2921",
"J9 	c #2B2821",
"K9 	c #272823",
"L9 	c #272B2A",
"M9 	c #2B2C2C",
"N9 	c #312F2F",
"O9 	c #363334",
"P9 	c #494647",
"Q9 	c #555353",
"R9 	c #34312E",
"S9 	c #655F5B",
"T9 	c #746C66",
"U9 	c #3B332B",
"V9 	c #4B453A",
"W9 	c #857A6C",
"X9 	c #877C6C",
"Y9 	c #8A7F6E",
"Z9 	c #817767",
"`9 	c #655B50",
" 0 	c #48413C",
".0 	c #48433C",
"+0 	c #655F51",
"@0 	c #72695B",
"#0 	c #352F29",
"$0 	c #201B1A",
"%0 	c #211D1C",
"&0 	c #231F1D",
"*0 	c #282522",
"=0 	c #292623",
"-0 	c #3E3937",
";0 	c #504D49",
">0 	c #595450",
",0 	c #272524",
"'0 	c #2A2627",
")0 	c #2F2B27",
"!0 	c #2F2E2C",
"~0 	c #30302E",
"{0 	c #32322F",
"]0 	c #31302D",
"^0 	c #3E352E",
"/0 	c #50443B",
"(0 	c #584C41",
"_0 	c #51463B",
":0 	c #433930",
"<0 	c #352C27",
"[0 	c #332C28",
"}0 	c #322C2B",
"|0 	c #1E1D21",
"10 	c #1C1C21",
"20 	c #1E1F23",
"30 	c #1C1C20",
"40 	c #2F2F2D",
"50 	c #2C2C2B",
"60 	c #2A2A2A",
"70 	c #2E2D2E",
"80 	c #333231",
"90 	c #35322F",
"00 	c #39342F",
"a0 	c #3A332D",
"b0 	c #382F28",
"c0 	c #312A24",
"d0 	c #18181A",
"e0 	c #1C1C1E",
"f0 	c #252626",
"g0 	c #30312E",
"h0 	c #2E2F2C",
"i0 	c #2A2B27",
"j0 	c #33322D",
"k0 	c #423F39",
"l0 	c #4B463F",
"m0 	c #443F39",
"n0 	c #1B1C1E",
"o0 	c #181A1C",
"p0 	c #1C1F20",
"q0 	c #252728",
"r0 	c #2D2F30",
"s0 	c #333635",
"t0 	c #353938",
"u0 	c #383A3A",
"v0 	c #393A3A",
"w0 	c #2C1D17",
"x0 	c #1A0F0D",
"y0 	c #0A0404",
"z0 	c #0B0708",
"A0 	c #3D3937",
"B0 	c #65553B",
"C0 	c #7D6843",
"D0 	c #957F5B",
"E0 	c #B19F82",
"F0 	c #BFB29F",
"G0 	c #BEB6A8",
"H0 	c #B8AFA5",
"I0 	c #AAA298",
"J0 	c #867F78",
"K0 	c #6A645E",
"L0 	c #67615C",
"M0 	c #4F4C48",
"N0 	c #3A3734",
"O0 	c #3D3B39",
"P0 	c #1D1C1A",
"Q0 	c #040202",
"R0 	c #36302C",
"S0 	c #3B3631",
"T0 	c #131415",
"U0 	c #1D1D1B",
"V0 	c #1B1A18",
"W0 	c #2E2D2A",
"X0 	c #413E38",
"Y0 	c #3C3730",
"Z0 	c #696359",
"`0 	c #A6A095",
" a 	c #C5C0B5",
".a 	c #C8C2B8",
"+a 	c #CAC4BA",
"@a 	c #C4BEB4",
"#a 	c #ABA59C",
"$a 	c #726E67",
"%a 	c #4C4845",
"&a 	c #4B4746",
"*a 	c #4F4D4C",
"=a 	c #454343",
"-a 	c #484036",
";a 	c #514940",
">a 	c #665D54",
",a 	c #72685C",
"'a 	c #5C534A",
")a 	c #413937",
"!a 	c #322F31",
"~a 	c #242429",
"{a 	c #0E0E15",
"]a 	c #04050C",
"^a 	c #06070D",
"/a 	c #1E1819",
"(a 	c #261E1C",
"_a 	c #2A211D",
":a 	c #2C2220",
"<a 	c #322A28",
"[a 	c #322D2D",
"}a 	c #352F31",
"|a 	c #312D2D",
"1a 	c #2B231F",
"2a 	c #322820",
"3a 	c #3F3226",
"4a 	c #453426",
"5a 	c #443224",
"6a 	c #403124",
"7a 	c #33271E",
"8a 	c #271E17",
"9a 	c #201811",
"0a 	c #231C16",
"aa 	c #2E2721",
"ba 	c #362D27",
"ca 	c #383027",
"da 	c #40362D",
"ea 	c #44392E",
"fa 	c #44392B",
"ga 	c #433829",
"ha 	c #483A2A",
"ia 	c #4A3B28",
"ja 	c #483824",
"ka 	c #4B3B26",
"la 	c #4A3927",
"ma 	c #483828",
"na 	c #3E3123",
"oa 	c #33291E",
"pa 	c #261E16",
"qa 	c #1E1611",
"ra 	c #403934",
"sa 	c #413B35",
"ta 	c #312F2D",
"ua 	c #241F1C",
"va 	c #201916",
"wa 	c #28201D",
"xa 	c #3B302D",
"ya 	c #443832",
"za 	c #3C322A",
"Aa 	c #322E26",
"Ba 	c #353129",
"Ca 	c #423C37",
"Da 	c #322F2E",
"Ea 	c #0F1117",
"Fa 	c #0F1119",
"Ga 	c #0F111A",
"Ha 	c #111113",
"Ia 	c #161514",
"Ja 	c #191615",
"Ka 	c #1F1D1A",
"La 	c #23201A",
"Ma 	c #332F26",
"Na 	c #463C37",
"Oa 	c #474039",
"Pa 	c #342E2B",
"Qa 	c #1D1719",
"Ra 	c #1B1617",
"Sa 	c #2D2B2D",
"Ta 	c #2D2C2A",
"Ua 	c #2C2822",
"Va 	c #2E2820",
"Wa 	c #2D2720",
"Xa 	c #2A2720",
"Ya 	c #272926",
"Za 	c #272B29",
"`a 	c #2A2B2C",
" b 	c #2C2B2C",
".b 	c #2F2C2D",
"+b 	c #343031",
"@b 	c #474546",
"#b 	c #464545",
"$b 	c #171514",
"%b 	c #33302D",
"&b 	c #726A63",
"*b 	c #4A4039",
"=b 	c #3E362D",
"-b 	c #4D463B",
";b 	c #675F53",
">b 	c #7E7466",
",b 	c #85796B",
"'b 	c #897E6E",
")b 	c #7F7466",
"!b 	c #443E39",
"~b 	c #453F39",
"{b 	c #6E665A",
"]b 	c #312B27",
"^b 	c #241F1F",
"/b 	c #100D0D",
"(b 	c #1A1715",
"_b 	c #282321",
":b 	c #292521",
"<b 	c #2B2624",
"[b 	c #2D2825",
"}b 	c #2D2925",
"|b 	c #302C29",
"1b 	c #413C3B",
"2b 	c #46403F",
"3b 	c #2F2929",
"4b 	c #3A3330",
"5b 	c #3A332C",
"6b 	c #31302E",
"7b 	c #36312A",
"8b 	c #3F362D",
"9b 	c #53473B",
"0b 	c #5E5044",
"ab 	c #5B4F42",
"bb 	c #4F4339",
"cb 	c #3F352E",
"db 	c #3C342D",
"eb 	c #352D2B",
"fb 	c #292526",
"gb 	c #242022",
"hb 	c #1B191D",
"ib 	c #1F1E22",
"jb 	c #1D1D22",
"kb 	c #1D1D20",
"lb 	c #2E2D2C",
"mb 	c #353231",
"nb 	c #3D3631",
"ob 	c #403731",
"pb 	c #302720",
"qb 	c #28211C",
"rb 	c #27211F",
"sb 	c #262223",
"tb 	c #2E2E2E",
"ub 	c #323231",
"vb 	c #333331",
"wb 	c #292A28",
"xb 	c #282924",
"yb 	c #33312C",
"zb 	c #433C34",
"Ab 	c #1D1D1D",
"Bb 	c #181919",
"Cb 	c #1B1D1D",
"Db 	c #242626",
"Eb 	c #2D302F",
"Fb 	c #333634",
"Gb 	c #353737",
"Hb 	c #393B3A",
"Ib 	c #393A39",
"Jb 	c #2F231C",
"Kb 	c #1A120F",
"Lb 	c #0A0507",
"Mb 	c #09070A",
"Nb 	c #3D3D3B",
"Ob 	c #464541",
"Pb 	c #695D46",
"Qb 	c #776747",
"Rb 	c #806F51",
"Sb 	c #9C8C76",
"Tb 	c #B6AB9D",
"Ub 	c #BDB4AB",
"Vb 	c #B6AEA7",
"Wb 	c #837D78",
"Xb 	c #635D59",
"Yb 	c #5D5854",
"Zb 	c #45413E",
"`b 	c #363433",
" c 	c #181816",
".c 	c #1C1B1C",
"+c 	c #181717",
"@c 	c #24211E",
"#c 	c #3D3832",
"$c 	c #393430",
"%c 	c #0A0B0C",
"&c 	c #0A0B0D",
"*c 	c #141516",
"=c 	c #373733",
"-c 	c #4E4E47",
";c 	c #4C4A43",
">c 	c #4C4740",
",c 	c #756F67",
"'c 	c #AAA49A",
")c 	c #C3BEB3",
"!c 	c #C4BEB5",
"~c 	c #C6C0B8",
"{c 	c #C3BDB4",
"]c 	c #ACA69E",
"^c 	c #514E4C",
"/c 	c #565453",
"(c 	c #4C4A4A",
"_c 	c #2A2729",
":c 	c #3C3630",
"<c 	c #4C453D",
"[c 	c #494237",
"}c 	c #4E473D",
"|c 	c #6A6055",
"1c 	c #6A6054",
"2c 	c #322E30",
"3c 	c #252428",
"4c 	c #101117",
"5c 	c #201A1A",
"6c 	c #29201D",
"7c 	c #2B201B",
"8c 	c #2E231E",
"9c 	c #302421",
"0c 	c #342C2B",
"ac 	c #353031",
"bc 	c #363233",
"cc 	c #2E261D",
"dc 	c #463729",
"ec 	c #433426",
"fc 	c #3F3326",
"gc 	c #352B23",
"hc 	c #29221A",
"ic 	c #39302A",
"jc 	c #3A3129",
"kc 	c #3A3128",
"lc 	c #3B3227",
"mc 	c #41372C",
"nc 	c #45392D",
"oc 	c #463A2A",
"pc 	c #463B2B",
"qc 	c #473B29",
"rc 	c #493B28",
"sc 	c #493A25",
"tc 	c #4B3B25",
"uc 	c #4B3A26",
"vc 	c #4A3A28",
"wc 	c #3F3223",
"xc 	c #352A1F",
"yc 	c #1E1712",
"zc 	c #3F3A36",
"Ac 	c #443E38",
"Bc 	c #282420",
"Cc 	c #282724",
"Dc 	c #221D1B",
"Ec 	c #1E1816",
"Fc 	c #251E1B",
"Gc 	c #362B29",
"Hc 	c #3F3430",
"Ic 	c #3E332D",
"Jc 	c #3B3029",
"Kc 	c #372F26",
"Lc 	c #393128",
"Mc 	c #363028",
"Nc 	c #363128",
"Oc 	c #343027",
"Pc 	c #373127",
"Qc 	c #39332A",
"Rc 	c #3F3932",
"Sc 	c #0E1018",
"Tc 	c #0E0F14",
"Uc 	c #211C18",
"Vc 	c #47423A",
"Wc 	c #403B30",
"Xc 	c #3E352C",
"Yc 	c #463D35",
"Zc 	c #473F39",
"`c 	c #352F2C",
" d 	c #1E1A1A",
".d 	c #262628",
"+d 	c #2F2A24",
"@d 	c #322A22",
"#d 	c #2C2821",
"$d 	c #282822",
"%d 	c #282C29",
"&d 	c #2A2B2B",
"*d 	c #2B2B2C",
"=d 	c #4D4A4A",
"-d 	c #41403F",
";d 	c #222322",
">d 	c #181615",
",d 	c #645D57",
"'d 	c #756C63",
")d 	c #6E655B",
"!d 	c #645950",
"~d 	c #61574D",
"{d 	c #6A6354",
"]d 	c #746C5D",
"^d 	c #797062",
"/d 	c #7E7567",
"(d 	c #766D5F",
"_d 	c #5D564A",
":d 	c #474139",
"<d 	c #45403A",
"[d 	c #565248",
"}d 	c #4D4940",
"|d 	c #3B3731",
"1d 	c #2A2523",
"2d 	c #252121",
"3d 	c #1C1818",
"4d 	c #191614",
"5d 	c #201D1A",
"6d 	c #3D3731",
"7d 	c #3B342F",
"8d 	c #322C26",
"9d 	c #221D1D",
"0d 	c #282324",
"ad 	c #2C2727",
"bd 	c #342E2D",
"cd 	c #403833",
"dd 	c #443B31",
"ed 	c #423B33",
"fd 	c #302F2B",
"gd 	c #2D2E2A",
"hd 	c #30312D",
"id 	c #37342F",
"jd 	c #38322B",
"kd 	c #3F382E",
"ld 	c #594E41",
"md 	c #594D40",
"nd 	c #50453A",
"od 	c #433A31",
"pd 	c #3F362F",
"qd 	c #36322E",
"rd 	c #1F1B1D",
"sd 	c #1C1B1D",
"td 	c #1F1E21",
"ud 	c #1F1E23",
"vd 	c #202125",
"wd 	c #1D1E21",
"xd 	c #1D1D1F",
"yd 	c #302E2E",
"zd 	c #2D2D2D",
"Ad 	c #3A3737",
"Bd 	c #433D38",
"Cd 	c #443D37",
"Dd 	c #29231E",
"Ed 	c #2B2522",
"Fd 	c #1F1E20",
"Gd 	c #303130",
"Hd 	c #333332",
"Id 	c #343533",
"Jd 	c #30312F",
"Kd 	c #2C2E2A",
"Ld 	c #2C2E27",
"Md 	c #37352F",
"Nd 	c #443E37",
"Od 	c #494239",
"Pd 	c #463F36",
"Qd 	c #423A31",
"Rd 	c #39332C",
"Sd 	c #222221",
"Td 	c #232423",
"Ud 	c #2A2C2A",
"Vd 	c #323432",
"Wd 	c #363936",
"Xd 	c #363937",
"Yd 	c #373A38",
"Zd 	c #363736",
"`d 	c #30251F",
" e 	c #1B1311",
".e 	c #090406",
"+e 	c #080609",
"@e 	c #1E1E20",
"#e 	c #3D3E3D",
"$e 	c #474745",
"%e 	c #464442",
"&e 	c #524D45",
"*e 	c #6A604D",
"=e 	c #73664C",
"-e 	c #75664E",
";e 	c #8E7F6E",
">e 	c #B3A89D",
",e 	c #C2BAB2",
"'e 	c #BCB6AF",
")e 	c #ACA7A1",
"!e 	c #807A78",
"~e 	c #5A5552",
"{e 	c #524D4B",
"]e 	c #0D0E10",
"^e 	c #1B1C1D",
"/e 	c #2E2E2C",
"(e 	c #333330",
"_e 	c #4C4C47",
":e 	c #64655D",
"<e 	c #65645B",
"[e 	c #68635B",
"}e 	c #BAB5AA",
"|e 	c #CEC9BD",
"1e 	c #CFC9BF",
"2e 	c #CCC6BC",
"3e 	c #B8B2A7",
"4e 	c #847F77",
"5e 	c #5F5B57",
"6e 	c #5F5C5A",
"7e 	c #656361",
"8e 	c #5B5A59",
"9e 	c #413F40",
"0e 	c #343234",
"ae 	c #333133",
"be 	c #2C2A2D",
"ce 	c #403A37",
"de 	c #4C443D",
"ee 	c #4D443C",
"fe 	c #4A4339",
"ge 	c #564D44",
"he 	c #62584C",
"ie 	c #62574B",
"je 	c #534A41",
"ke 	c #3D3633",
"le 	c #2E2B2D",
"me 	c #232327",
"ne 	c #111118",
"oe 	c #0C0C12",
"pe 	c #0D0D12",
"qe 	c #2F2420",
"re 	c #332621",
"se 	c #342823",
"te 	c #322623",
"ue 	c #312928",
"ve 	c #322B2E",
"we 	c #312D2F",
"xe 	c #262425",
"ye 	c #181715",
"ze 	c #14100D",
"Ae 	c #241E16",
"Be 	c #3B3126",
"Ce 	c #372C22",
"De 	c #332A21",
"Ee 	c #332C25",
"Fe 	c #372F28",
"Ge 	c #3A3229",
"He 	c #40372D",
"Ie 	c #41372D",
"Je 	c #42362C",
"Ke 	c #41352A",
"Le 	c #43382B",
"Me 	c #45382A",
"Ne 	c #473B2A",
"Oe 	c #463928",
"Pe 	c #483A27",
"Qe 	c #493924",
"Re 	c #4B3A24",
"Se 	c #493824",
"Te 	c #483926",
"Ue 	c #403223",
"Ve 	c #392E23",
"We 	c #211915",
"Xe 	c #241F1A",
"Ye 	c #3A3430",
"Ze 	c #433B37",
"`e 	c #1F1C19",
" f 	c #1D1818",
".f 	c #1A1413",
"+f 	c #1F1716",
"@f 	c #29201E",
"#f 	c #312724",
"$f 	c #342925",
"%f 	c #362B25",
"&f 	c #3E362C",
"*f 	c #473F35",
"=f 	c #494035",
"-f 	c #433A30",
";f 	c #0D0F16",
">f 	c #211C1B",
",f 	c #383028",
"'f 	c #625C51",
")f 	c #716961",
"!f 	c #6D655C",
"~f 	c #564D42",
"{f 	c #42392F",
"]f 	c #423930",
"^f 	c #433A34",
"/f 	c #38312E",
"(f 	c #282222",
"_f 	c #0F0F10",
":f 	c #100E0E",
"<f 	c #302821",
"[f 	c #2C2721",
"}f 	c #282925",
"|f 	c #292B28",
"1f 	c #2B2C2B",
"2f 	c #2E2928",
"3f 	c #2C2726",
"4f 	c #2B2625",
"5f 	c #322E2D",
"6f 	c #191817",
"7f 	c #120E0E",
"8f 	c #2F2927",
"9f 	c #605852",
"0f 	c #726960",
"af 	c #75695F",
"bf 	c #776B60",
"cf 	c #766A5F",
"df 	c #766B60",
"ef 	c #60584B",
"ff 	c #5C5448",
"gf 	c #5F584D",
"hf 	c #423C38",
"if 	c #292422",
"jf 	c #221E1D",
"kf 	c #201B1B",
"lf 	c #1F1918",
"mf 	c #201B19",
"nf 	c #26211E",
"of 	c #2E2925",
"pf 	c #3C3631",
"qf 	c #423B35",
"rf 	c #4A433B",
"sf 	c #4B423A",
"tf 	c #4D433C",
"uf 	c #463C36",
"vf 	c #2F2825",
"wf 	c #241F22",
"xf 	c #2E2A2C",
"yf 	c #2C2728",
"zf 	c #322C29",
"Af 	c #413831",
"Bf 	c #4C4136",
"Cf 	c #4E4337",
"Df 	c #3C3832",
"Ef 	c #2C2E28",
"Ff 	c #2E2F2B",
"Gf 	c #38322D",
"Hf 	c #3B352C",
"If 	c #40382F",
"Jf 	c #443C31",
"Kf 	c #3A322B",
"Lf 	c #37302C",
"Mf 	c #241F20",
"Nf 	c #222022",
"Of 	c #1E1D20",
"Pf 	c #212125",
"Qf 	c #1E1E22",
"Rf 	c #323232",
"Sf 	c #333131",
"Tf 	c #302A24",
"Uf 	c #2C251F",
"Vf 	c #27211D",
"Wf 	c #2B2523",
"Xf 	c #29282A",
"Yf 	c #2F2F2F",
"Zf 	c #323230",
"`f 	c #2F302E",
" g 	c #3F382F",
".g 	c #3C352E",
"+g 	c #2D2E2C",
"@g 	c #353634",
"#g 	c #363834",
"$g 	c #333433",
"%g 	c #2F2F2E",
"&g 	c #322924",
"*g 	c #1C1613",
"=g 	c #0A0606",
"-g 	c #1E1F1F",
";g 	c #3E3F3E",
">g 	c #494A47",
",g 	c #484945",
"'g 	c #545249",
")g 	c #6A6451",
"!g 	c #746B51",
"~g 	c #71684F",
"{g 	c #867E69",
"]g 	c #ABA597",
"^g 	c #C2BDB5",
"/g 	c #B0ACA7",
"(g 	c #807C78",
"_g 	c #56524F",
":g 	c #4E4B48",
"<g 	c #393533",
"[g 	c #272523",
"}g 	c #0F0F0D",
"|g 	c #35302A",
"1g 	c #3B3831",
"2g 	c #121215",
"3g 	c #111215",
"4g 	c #1C1D1E",
"5g 	c #2C2D2B",
"6g 	c #33332F",
"7g 	c #393A35",
"8g 	c #555550",
"9g 	c #6E6E66",
"0g 	c #6E6C63",
"ag 	c #958F83",
"bg 	c #BEB9AD",
"cg 	c #D1CCC0",
"dg 	c #D2CBC1",
"eg 	c #D3CDC3",
"fg 	c #CDC6BC",
"gg 	c #BBB5AA",
"hg 	c #89847B",
"ig 	c #646059",
"jg 	c #635F5C",
"kg 	c #696764",
"lg 	c #5D5B5A",
"mg 	c #434041",
"ng 	c #363435",
"og 	c #353335",
"pg 	c #2F2D2F",
"qg 	c #4E463D",
"rg 	c #484137",
"sg 	c #524A40",
"tg 	c #5A5146",
"ug 	c #5C5246",
"vg 	c #3A332F",
"wg 	c #2D292A",
"xg 	c #232325",
"yg 	c #141319",
"zg 	c #101016",
"Ag 	c #161214",
"Bg 	c #352A24",
"Cg 	c #3A2C25",
"Dg 	c #392D26",
"Eg 	c #342924",
"Fg 	c #312A26",
"Gg 	c #2A2526",
"Hg 	c #171411",
"Ig 	c #14100B",
"Jg 	c #201A13",
"Kg 	c #2A241B",
"Lg 	c #2A221A",
"Mg 	c #241D15",
"Ng 	c #201B14",
"Og 	c #2A251F",
"Pg 	c #3F362C",
"Qg 	c #443A2F",
"Rg 	c #44392D",
"Sg 	c #453A2D",
"Tg 	c #44382A",
"Ug 	c #45392A",
"Vg 	c #473A29",
"Wg 	c #483B29",
"Xg 	c #473B28",
"Yg 	c #483B26",
"Zg 	c #4B3B24",
"`g 	c #483823",
" h 	c #433527",
".h 	c #3B3026",
"+h 	c #2E241F",
"@h 	c #251D18",
"#h 	c #251F19",
"$h 	c #221C18",
"%h 	c #1B1817",
"&h 	c #1C1616",
"*h 	c #1A1313",
"=h 	c #2D2220",
"-h 	c #332923",
";h 	c #352C24",
">h 	c #3D352A",
",h 	c #473F33",
"'h 	c #564F42",
")h 	c #5E5649",
"!h 	c #4D4438",
"~h 	c #38312B",
"{h 	c #36302D",
"]h 	c #2D2A29",
"^h 	c #0F0F15",
"/h 	c #4E4943",
"(h 	c #62594C",
"_h 	c #6E6656",
":h 	c #7C7568",
"<h 	c #433B31",
"[h 	c #413930",
"}h 	c #413A33",
"|h 	c #2B2727",
"1h 	c #111010",
"2h 	c #040303",
"3h 	c #322B23",
"4h 	c #332A23",
"5h 	c #312822",
"6h 	c #2E2922",
"7h 	c #2A2923",
"8h 	c #2A2A25",
"9h 	c #2B2B28",
"0h 	c #2C2C2A",
"ah 	c #2D2C29",
"bh 	c #2D2C28",
"ch 	c #2C2725",
"dh 	c #141311",
"eh 	c #100D0B",
"fh 	c #2D2923",
"gh 	c #5D574F",
"hh 	c #716960",
"ih 	c #73685F",
"jh 	c #786C60",
"kh 	c #776C5F",
"lh 	c #756C5F",
"mh 	c #665D52",
"nh 	c #514A3F",
"oh 	c #453F34",
"ph 	c #464137",
"qh 	c #464038",
"rh 	c #403C36",
"sh 	c #2C2A24",
"th 	c #1C1816",
"uh 	c #151111",
"vh 	c #110E0E",
"wh 	c #0C080A",
"xh 	c #211A19",
"yh 	c #2A2421",
"zh 	c #332F28",
"Ah 	c #443C36",
"Bh 	c #4D463C",
"Ch 	c #584F43",
"Dh 	c #50463E",
"Eh 	c #312E30",
"Fh 	c #3F3832",
"Gh 	c #4A4038",
"Hh 	c #2C2D29",
"Ih 	c #30302C",
"Jh 	c #33332E",
"Kh 	c #38342D",
"Lh 	c #342E26",
"Mh 	c #322D26",
"Nh 	c #37312D",
"Oh 	c #312C28",
"Ph 	c #2C2729",
"Qh 	c #282426",
"Rh 	c #1F2023",
"Sh 	c #2F2E2E",
"Th 	c #313031",
"Uh 	c #302F31",
"Vh 	c #211E1C",
"Wh 	c #221C19",
"Xh 	c #241E1B",
"Yh 	c #251F1D",
"Zh 	c #282322",
"`h 	c #2D2D2E",
" i 	c #2F3030",
".i 	c #313130",
"+i 	c #333432",
"@i 	c #313230",
"#i 	c #343532",
"$i 	c #383734",
"%i 	c #3D3B36",
"&i 	c #403C35",
"*i 	c #423E35",
"=i 	c #413B33",
"-i 	c #3D3A35",
";i 	c #383733",
">i 	c #353531",
",i 	c #343531",
"'i 	c #383935",
")i 	c #393C37",
"!i 	c #363835",
"~i 	c #313331",
"{i 	c #2B2C2A",
"]i 	c #2C2623",
"^i 	c #080507",
"/i 	c #39393A",
"(i 	c #444745",
"_i 	c #434442",
":i 	c #4C4B45",
"<i 	c #5F5B4F",
"[i 	c #696250",
"}i 	c #635C4A",
"|i 	c #6F6859",
"1i 	c #908A81",
"2i 	c #B0AAA3",
"3i 	c #B4AEA9",
"4i 	c #9E9B98",
"5i 	c #6E6B68",
"6i 	c #22211F",
"7i 	c #2D2924",
"8i 	c #3B3531",
"9i 	c #34332F",
"0i 	c #3A3A36",
"ai 	c #575652",
"bi 	c #6F6D67",
"ci 	c #706A61",
"di 	c #938D82",
"ei 	c #BDB6AB",
"fi 	c #D1CABF",
"gi 	c #D3CBC1",
"hi 	c #CCC5BB",
"ii 	c #BBB4AA",
"ji 	c #67615B",
"ki 	c #645F5D",
"li 	c #696664",
"mi 	c #5D5A5A",
"ni 	c #423E40",
"oi 	c #020102",
"pi 	c #373330",
"qi 	c #4C463F",
"ri 	c #4D453D",
"si 	c #484037",
"ti 	c #544A40",
"ui 	c #222224",
"vi 	c #141419",
"wi 	c #121117",
"xi 	c #141317",
"yi 	c #261E1B",
"zi 	c #372B25",
"Ai 	c #3C2E26",
"Bi 	c #392C25",
"Ci 	c #2F2723",
"Di 	c #292322",
"Ei 	c #282221",
"Fi 	c #221E18",
"Gi 	c #272119",
"Hi 	c #28231B",
"Ii 	c #231D16",
"Ji 	c #19140E",
"Ki 	c #15110E",
"Li 	c #23201C",
"Mi 	c #37322F",
"Ni 	c #3D3530",
"Oi 	c #3D362E",
"Pi 	c #45382C",
"Qi 	c #46392C",
"Ri 	c #45372A",
"Si 	c #463829",
"Ti 	c #473928",
"Ui 	c #493A29",
"Vi 	c #473823",
"Wi 	c #483925",
"Xi 	c #463827",
"Yi 	c #3E3126",
"Zi 	c #352A23",
"`i 	c #2B221D",
" j 	c #221916",
".j 	c #221B17",
"+j 	c #322C27",
"@j 	c #3C3530",
"#j 	c #261F1D",
"$j 	c #1C1715",
"%j 	c #191414",
"&j 	c #1B1415",
"*j 	c #1D1616",
"=j 	c #1C1515",
"-j 	c #1B1515",
";j 	c #1D1716",
">j 	c #231B1B",
",j 	c #291F1E",
"'j 	c #342C23",
")j 	c #483F34",
"!j 	c #574F43",
"~j 	c #5B5244",
"{j 	c #4C4438",
"]j 	c #0A0C12",
"^j 	c #0E0E13",
"/j 	c #3E3A3B",
"(j 	c #6B645C",
"_j 	c #74685A",
":j 	c #766B5B",
"<j 	c #6B6457",
"[j 	c #554D43",
"}j 	c #3E3630",
"|j 	c #2A2424",
"1j 	c #2B2627",
"2j 	c #242021",
"3j 	c #131211",
"4j 	c #040302",
"5j 	c #050301",
"6j 	c #181512",
"7j 	c #332B25",
"8j 	c #322823",
"9j 	c #302924",
"0j 	c #302A26",
"aj 	c #1F1C1B",
"bj 	c #0D0A06",
"cj 	c #29241F",
"dj 	c #5B534D",
"ej 	c #746960",
"fj 	c #786D62",
"gj 	c #756A5F",
"hj 	c #71685B",
"ij 	c #60574C",
"jj 	c #3D372F",
"kj 	c #403A34",
"lj 	c #3F3934",
"mj 	c #413C37",
"nj 	c #1A1615",
"oj 	c #161111",
"pj 	c #100B0C",
"qj 	c #090506",
"rj 	c #070404",
"sj 	c #150F0E",
"tj 	c #241C1B",
"uj 	c #2E2623",
"vj 	c #332B27",
"wj 	c #39322C",
"xj 	c #353028",
"yj 	c #453D36",
"zj 	c #493E36",
"Aj 	c #2F2926",
"Bj 	c #2E2C2E",
"Cj 	c #2B2A2B",
"Dj 	c #302B2B",
"Ej 	c #39352F",
"Fj 	c #31302B",
"Gj 	c #2F302D",
"Hj 	c #36332F",
"Ij 	c #36312D",
"Jj 	c #312D27",
"Kj 	c #342E29",
"Lj 	c #362F2A",
"Mj 	c #332B28",
"Nj 	c #282121",
"Oj 	c #1E1F22",
"Pj 	c #1B1C1F",
"Qj 	c #323130",
"Rj 	c #323233",
"Sj 	c #312F32",
"Tj 	c #1D1918",
"Uj 	c #222024",
"Vj 	c #2D2C30",
"Wj 	c #2F3031",
"Xj 	c #2D2E2F",
"Yj 	c #2E2E2F",
"Zj 	c #313231",
"`j 	c #363734",
" k 	c #393835",
".k 	c #3C3B36",
"+k 	c #3D3B35",
"@k 	c #433E37",
"#k 	c #3D3B37",
"$k 	c #363632",
"%k 	c #363633",
"&k 	c #373734",
"*k 	c #393936",
"=k 	c #383936",
"-k 	c #0D0B0D",
";k 	c #19191B",
">k 	c #2C2D2F",
",k 	c #343738",
"'k 	c #343638",
")k 	c #3B3C3C",
"!k 	c #484743",
"~k 	c #4F4B44",
"{k 	c #595750",
"]k 	c #6E6B67",
"^k 	c #716E6C",
"/k 	c #61605E",
"(k 	c #3C3C3A",
"_k 	c #0A0A0A",
":k 	c #100F11",
"<k 	c #181716",
"[k 	c #201E1B",
"}k 	c #2A2722",
"|k 	c #302B26",
"1k 	c #121316",
"2k 	c #111316",
"3k 	c #1D1E20",
"4k 	c #3B3C37",
"5k 	c #585853",
"6k 	c #6D6B62",
"7k 	c #8C877C",
"8k 	c #B2ABA0",
"9k 	c #C5BCB2",
"0k 	c #C7C0B4",
"ak 	c #C2BBAF",
"bk 	c #B6AFA4",
"ck 	c #8F8A80",
"dk 	c #6B655E",
"ek 	c #67635F",
"fk 	c #6A6764",
"gk 	c #5D5A59",
"hk 	c #323032",
"ik 	c #2C2B2D",
"jk 	c #1E1D1E",
"kk 	c #221F1F",
"lk 	c #2C2827",
"mk 	c #4C443C",
"nk 	c #443E34",
"ok 	c #554B3F",
"pk 	c #494037",
"qk 	c #352F2A",
"rk 	c #15151A",
"sk 	c #121218",
"tk 	c #151419",
"uk 	c #171315",
"vk 	c #271F1C",
"wk 	c #382C24",
"xk 	c #3C2E25",
"yk 	c #3B2F26",
"zk 	c #2A2420",
"Ak 	c #302A21",
"Bk 	c #332C22",
"Ck 	c #363024",
"Dk 	c #302A20",
"Ek 	c #28231C",
"Fk 	c #1E1A15",
"Gk 	c #1B1814",
"Hk 	c #3C332A",
"Ik 	c #473A2D",
"Jk 	c #46382A",
"Kk 	c #473829",
"Lk 	c #473A28",
"Mk 	c #473927",
"Nk 	c #4A3B2A",
"Ok 	c #4A3B29",
"Pk 	c #483A25",
"Qk 	c #463823",
"Rk 	c #463824",
"Sk 	c #493C29",
"Tk 	c #342A20",
"Uk 	c #281E18",
"Vk 	c #201815",
"Wk 	c #191513",
"Xk 	c #231D1C",
"Yk 	c #1B1615",
"Zk 	c #181213",
"`k 	c #1E1717",
" l 	c #1B1616",
".l 	c #1A1516",
"+l 	c #1D1718",
"@l 	c #211B1A",
"#l 	c #352D25",
"$l 	c #3C352A",
"%l 	c #4A4237",
"&l 	c #494135",
"*l 	c #3F372D",
"=l 	c #373128",
"-l 	c #332C27",
";l 	c #332D2A",
">l 	c #0F1116",
",l 	c #080B12",
"'l 	c #373434",
")l 	c #676059",
"!l 	c #71675B",
"~l 	c #6E6255",
"{l 	c #6B6252",
"]l 	c #655C4E",
"^l 	c #615A4E",
"/l 	c #595246",
"(l 	c #191715",
"_l 	c #1B1713",
":l 	c #37312C",
"<l 	c #342D26",
"[l 	c #332A24",
"}l 	c #332925",
"|l 	c #322A26",
"1l 	c #2B2622",
"2l 	c #27221F",
"3l 	c #0D0C0A",
"4l 	c #0C0906",
"5l 	c #25211B",
"6l 	c #645B53",
"7l 	c #685E55",
"8l 	c #696055",
"9l 	c #665F52",
"0l 	c #575045",
"al 	c #474137",
"bl 	c #423D36",
"cl 	c #433F38",
"dl 	c #413C35",
"el 	c #45423C",
"fl 	c #45423D",
"gl 	c #1C1917",
"hl 	c #181312",
"il 	c #100A09",
"jl 	c #110A09",
"kl 	c #150E0C",
"ll 	c #201816",
"ml 	c #2F2722",
"nl 	c #423A32",
"ol 	c #483F36",
"pl 	c #474035",
"ql 	c #433D32",
"rl 	c #453E33",
"sl 	c #50463C",
"tl 	c #50443A",
"ul 	c #4A3E35",
"vl 	c #2D2723",
"wl 	c #1C191B",
"xl 	c #292A2A",
"yl 	c #323330",
"zl 	c #343430",
"Al 	c #363530",
"Bl 	c #383631",
"Cl 	c #37342E",
"Dl 	c #35332C",
"El 	c #38302B",
"Fl 	c #262123",
"Gl 	c #1E1C21",
"Hl 	c #18191C",
"Il 	c #363634",
"Jl 	c #363636",
"Kl 	c #2C2C2E",
"Ll 	c #131316",
"Ml 	c #1D1B1F",
"Nl 	c #2E2D31",
"Ol 	c #313133",
"Pl 	c #323333",
"Ql 	c #343534",
"Rl 	c #353635",
"Sl 	c #323331",
"Tl 	c #413D39",
"Ul 	c #3B3936",
"Vl 	c #353533",
"Wl 	c #30302D",
"Xl 	c #0B0C0D",
"Yl 	c #0C0D11",
"Zl 	c #1B1E22",
"`l 	c #1F2328",
" m 	c #20232A",
".m 	c #24272D",
"+m 	c #292B2F",
"@m 	c #2D2E30",
"#m 	c #29292A",
"$m 	c #272628",
"%m 	c #313232",
"&m 	c #282A2B",
"*m 	c #16181A",
"=m 	c #0D0F11",
"-m 	c #0F1011",
";m 	c #121414",
">m 	c #0E0E0F",
",m 	c #0A0A0B",
"'m 	c #070808",
")m 	c #070707",
"!m 	c #060606",
"~m 	c #343330",
"{m 	c #565752",
"]m 	c #6C6B65",
"^m 	c #68675F",
"/m 	c #66625A",
"(m 	c #7C786F",
"_m 	c #979187",
":m 	c #A49D92",
"<m 	c #A69D93",
"[m 	c #ABA398",
"}m 	c #ABA397",
"|m 	c #8E887E",
"1m 	c #696663",
"2m 	c #5A5856",
"3m 	c #302E2F",
"4m 	c #2B2823",
"5m 	c #433C33",
"6m 	c #423B32",
"7m 	c #4F463B",
"8m 	c #51483C",
"9m 	c #463E34",
"0m 	c #211F22",
"am 	c #131217",
"bm 	c #261E19",
"cm 	c #362A22",
"dm 	c #3A2D23",
"em 	c #3A2D24",
"fm 	c #352B24",
"gm 	c #312924",
"hm 	c #29221D",
"im 	c #2D261E",
"jm 	c #383024",
"km 	c #3C3327",
"lm 	c #2D2823",
"mm 	c #322D27",
"nm 	c #47392B",
"om 	c #473828",
"pm 	c #483A28",
"qm 	c #493A28",
"rm 	c #493B29",
"sm 	c #493B27",
"tm 	c #453723",
"um 	c #463926",
"vm 	c #3F3429",
"wm 	c #140D0B",
"xm 	c #0E080A",
"ym 	c #0A080B",
"zm 	c #0D0A0D",
"Am 	c #120E10",
"Bm 	c #0F0C0E",
"Cm 	c #130E11",
"Dm 	c #181314",
"Em 	c #191415",
"Fm 	c #1E1918",
"Gm 	c #302A23",
"Hm 	c #342F26",
"Im 	c #332E25",
"Jm 	c #342E25",
"Km 	c #312B23",
"Lm 	c #312B25",
"Mm 	c #322B29",
"Nm 	c #0E1015",
"Om 	c #04070F",
"Pm 	c #4B453F",
"Qm 	c #554D44",
"Rm 	c #524A3F",
"Sm 	c #4F493C",
"Tm 	c #443E36",
"Um 	c #3C362E",
"Vm 	c #312B28",
"Wm 	c #2A2524",
"Xm 	c #282323",
"Ym 	c #292424",
"Zm 	c #231F1E",
"`m 	c #1E1917",
" n 	c #231E1B",
".n 	c #332B26",
"+n 	c #312825",
"@n 	c #302926",
"#n 	c #433F39",
"$n 	c #3C3A33",
"%n 	c #35332D",
"&n 	c #3A3934",
"*n 	c #393734",
"=n 	c #161110",
"-n 	c #1C1513",
";n 	c #211815",
">n 	c #261D1A",
",n 	c #2A201D",
"'n 	c #2F2521",
")n 	c #2E231F",
"!n 	c #2A221D",
"~n 	c #302922",
"{n 	c #463D34",
"]n 	c #5A5145",
"^n 	c #5B5246",
"/n 	c #4B4037",
"(n 	c #493E35",
"_n 	c #493E34",
":n 	c #473C32",
"<n 	c #322B27",
"[n 	c #232425",
"}n 	c #2A2A2C",
"|n 	c #343432",
"1n 	c #353633",
"2n 	c #353632",
"3n 	c #363531",
"4n 	c #37322A",
"5n 	c #453C33",
"6n 	c #453C34",
"7n 	c #3C322D",
"8n 	c #312925",
"9n 	c #131518",
"0n 	c #151517",
"an 	c #252524",
"bn 	c #383838",
"cn 	c #353536",
"dn 	c #2D2C2F",
"en 	c #191B1C",
"fn 	c #111112",
"gn 	c #101112",
"hn 	c #0B0B0E",
"in 	c #050509",
"jn 	c #100F13",
"kn 	c #26262B",
"ln 	c #2D2E2E",
"mn 	c #2F302F",
"nn 	c #2D2D2C",
"on 	c #302F2E",
"pn 	c #353332",
"qn 	c #393735",
"rn 	c #3A3836",
"sn 	c #2B2A26",
"tn 	c #05070A",
"un 	c #0A0B0F",
"vn 	c #14151A",
"wn 	c #17191E",
"xn 	c #1C1D24",
"yn 	c #1F2126",
"zn 	c #222326",
"An 	c #201F23",
"Bn 	c #1F2022",
"Cn 	c #1B1D1F",
"Dn 	c #17191C",
"En 	c #0D0F12",
"Fn 	c #0A0B0E",
"Gn 	c #0B0C0E",
"Hn 	c #0D0E0F",
"In 	c #090809",
"Jn 	c #0E0E0E",
"Kn 	c #0F0E0F",
"Ln 	c #2A2521",
"Mn 	c #1D1E1F",
"Nn 	c #353530",
"On 	c #3A3B36",
"Pn 	c #6B6B64",
"Qn 	c #67665E",
"Rn 	c #615E56",
"Sn 	c #8A847A",
"Tn 	c #948E83",
"Un 	c #968E84",
"Vn 	c #9B9388",
"Wn 	c #9E958A",
"Xn 	c #A49C90",
"Yn 	c #8F887D",
"Zn 	c #6D6861",
"`n 	c #66635E",
" o 	c #676461",
".o 	c #585754",
"+o 	c #3B3938",
"@o 	c #302E30",
"#o 	c #010204",
"$o 	c #272320",
"%o 	c #27231F",
"&o 	c #2F2C26",
"*o 	c #3C3831",
"=o 	c #423B31",
"-o 	c #131317",
";o 	c #111116",
">o 	c #231C17",
",o 	c #362B22",
"'o 	c #3B2E23",
")o 	c #392D24",
"!o 	c #372C24",
"~o 	c #2B231C",
"{o 	c #30291F",
"]o 	c #3D3428",
"^o 	c #41392C",
"/o 	c #3B3329",
"(o 	c #362F2B",
"_o 	c #312F2B",
":o 	c #2C2823",
"<o 	c #42372D",
"[o 	c #483B2F",
"}o 	c #463828",
"|o 	c #4A3C2A",
"1o 	c #483A29",
"2o 	c #4A3D2A",
"3o 	c #483B2A",
"4o 	c #473C2F",
"5o 	c #3B3128",
"6o 	c #201813",
"7o 	c #0C0607",
"8o 	c #070307",
"9o 	c #080509",
"0o 	c #050308",
"ao 	c #030207",
"bo 	c #050307",
"co 	c #0C090D",
"do 	c #141011",
"eo 	c #050609",
"fo 	c #020306",
"go 	c #2E2A24",
"ho 	c #363129",
"io 	c #312C24",
"jo 	c #2C2921",
"ko 	c #29261F",
"lo 	c #2B2820",
"mo 	c #181719",
"no 	c #0C0E13",
"oo 	c #03060D",
"po 	c #000104",
"qo 	c #0B0A0B",
"ro 	c #26211C",
"so 	c #2E2A26",
"to 	c #302B28",
"uo 	c #292323",
"vo 	c #272222",
"wo 	c #272322",
"xo 	c #332D28",
"yo 	c #342B28",
"zo 	c #322927",
"Ao 	c #322A27",
"Bo 	c #302C28",
"Co 	c #090909",
"Do 	c #0A090A",
"Eo 	c #080505",
"Fo 	c #070303",
"Go 	c #130C09",
"Ho 	c #453D35",
"Io 	c #363027",
"Jo 	c #2E2A23",
"Ko 	c #35302B",
"Lo 	c #232220",
"Mo 	c #0F0D0D",
"No 	c #0D0909",
"Oo 	c #241B19",
"Po 	c #2F2421",
"Qo 	c #352A26",
"Ro 	c #362B27",
"So 	c #382D28",
"To 	c #312723",
"Uo 	c #2F2821",
"Vo 	c #4A4138",
"Wo 	c #665D50",
"Xo 	c #6D6456",
"Yo 	c #5E5549",
"Zo 	c #4B4137",
"`o 	c #42372F",
" p 	c #3D342D",
".p 	c #302E2B",
"+p 	c #272827",
"@p 	c #252726",
"#p 	c #363735",
"$p 	c #383836",
"%p 	c #383835",
"&p 	c #383834",
"*p 	c #373530",
"=p 	c #453D34",
"-p 	c #413832",
";p 	c #352C28",
">p 	c #26201D",
",p 	c #413F3D",
"'p 	c #434341",
")p 	c #3E3E3E",
"!p 	c #393939",
"~p 	c #2D2D2F",
"{p 	c #262627",
"]p 	c #1A1B1C",
"^p 	c #09090A",
"/p 	c #08090A",
"(p 	c #09090C",
"_p 	c #212024",
":p 	c #343332",
"<p 	c #343433",
"[p 	c #201D19",
"}p 	c #1E1A18",
"|p 	c #0E0F10",
"1p 	c #18181B",
"2p 	c #202022",
"3p 	c #2B282B",
"4p 	c #35302C",
"5p 	c #242222",
"6p 	c #121010",
"7p 	c #131213",
"8p 	c #121111",
"9p 	c #161413",
"0p 	c #1B1816",
"ap 	c #292420",
"bp 	c #35342F",
"cp 	c #393934",
"dp 	c #6B6A63",
"ep 	c #65635C",
"fp 	c #706B63",
"gp 	c #8A837A",
"hp 	c #948E84",
"ip 	c #9C9489",
"jp 	c #9E968A",
"kp 	c #A39B8F",
"lp 	c #8D867C",
"mp 	c #66625C",
"np 	c #64625D",
"op 	c #565451",
"pp 	c #221F1D",
"qp 	c #292520",
"rp 	c #302C25",
"sp 	c #453D32",
"tp 	c #4B4236",
"up 	c #53483A",
"vp 	c #55493B",
"wp 	c #0F0E13",
"xp 	c #1F1815",
"yp 	c #342922",
"zp 	c #382C23",
"Ap 	c #2D251E",
"Bp 	c #2D251D",
"Cp 	c #31291F",
"Dp 	c #3D3328",
"Ep 	c #42382C",
"Fp 	c #3E3529",
"Gp 	c #373026",
"Hp 	c #352E27",
"Ip 	c #41362D",
"Jp 	c #483B2E",
"Kp 	c #473727",
"Lp 	c #483C2A",
"Mp 	c #4B3F2E",
"Np 	c #493C2C",
"Op 	c #493C2E",
"Pp 	c #4A4034",
"Qp 	c #3B3229",
"Rp 	c #0D0708",
"Sp 	c #0A0609",
"Tp 	c #070508",
"Up 	c #050408",
"Vp 	c #040306",
"Wp 	c #0C080B",
"Xp 	c #161112",
"Yp 	c #0D0A0A",
"Zp 	c #040405",
"`p 	c #060506",
" q 	c #191514",
".q 	c #332D25",
"+q 	c #2E2A22",
"@q 	c #2D2922",
"#q 	c #2E2923",
"$q 	c #090A10",
"%q 	c #03050B",
"&q 	c #060405",
"*q 	c #1A1612",
"=q 	c #26211A",
"-q 	c #27211C",
";q 	c #28241E",
">q 	c #262121",
",q 	c #272221",
"'q 	c #251F1E",
")q 	c #362E2B",
"!q 	c #362E2C",
"~q 	c #342C29",
"{q 	c #302A27",
"]q 	c #0C0C0D",
"^q 	c #070405",
"/q 	c #16100F",
"(q 	c #2B2620",
"_q 	c #211D1B",
":q 	c #151413",
"<q 	c #0C0808",
"[q 	c #231B1A",
"}q 	c #2E2321",
"|q 	c #322825",
"1q 	c #342926",
"2q 	c #2E2620",
"3q 	c #665D51",
"4q 	c #71685A",
"5q 	c #6C6254",
"6q 	c #483E34",
"7q 	c #3E352D",
"8q 	c #37312E",
"9q 	c #363635",
"0q 	c #393834",
"aq 	c #38332D",
"bq 	c #423832",
"cq 	c #3B322C",
"dq 	c #322A24",
"eq 	c #2C2420",
"fq 	c #231C1A",
"gq 	c #0E0F13",
"hq 	c #0F1012",
"iq 	c #202121",
"jq 	c #373835",
"kq 	c #444340",
"lq 	c #454543",
"mq 	c #414141",
"nq 	c #252625",
"oq 	c #1E1F1E",
"pq 	c #191A19",
"qq 	c #0F0F0F",
"rq 	c #090A09",
"sq 	c #0C0C0C",
"tq 	c #29292B",
"uq 	c #2C2D2D",
"vq 	c #2C2C2C",
"wq 	c #323332",
"xq 	c #313030",
"yq 	c #282826",
"zq 	c #282320",
"Aq 	c #48433F",
"Bq 	c #4D4742",
"Cq 	c #4D4541",
"Dq 	c #524942",
"Eq 	c #584D43",
"Fq 	c #625547",
"Gq 	c #68594B",
"Hq 	c #706254",
"Iq 	c #73655A",
"Jq 	c #766A61",
"Kq 	c #766C63",
"Lq 	c #756B64",
"Mq 	c #6C645E",
"Nq 	c #665F59",
"Oq 	c #605B56",
"Pq 	c #5E5955",
"Qq 	c #34302F",
"Rq 	c #2A2626",
"Sq 	c #161515",
"Tq 	c #191A1D",
"Uq 	c #383731",
"Vq 	c #3A3A34",
"Wq 	c #6C6A63",
"Xq 	c #66645C",
"Yq 	c #736E65",
"Zq 	c #908A7F",
"`q 	c #9D968B",
" r 	c #9F988C",
".r 	c #A29B8F",
"+r 	c #A29B8E",
"@r 	c #A59D90",
"#r 	c #8F887C",
"$r 	c #6F685F",
"%r 	c #67635C",
"&r 	c #66645D",
"*r 	c #575551",
"=r 	c #302F30",
"-r 	c #101012",
";r 	c #25221E",
">r 	c #312D26",
",r 	c #37322B",
"'r 	c #423D33",
")r 	c #473F34",
"!r 	c #4B4336",
"~r 	c #4C4436",
"{r 	c #51483A",
"]r 	c #574C3D",
"^r 	c #5A4E3F",
"/r 	c #4D4237",
"(r 	c #362E27",
"_r 	c #0E0E12",
":r 	c #1F1916",
"<r 	c #392E25",
"[r 	c #332922",
"}r 	c #372F23",
"|r 	c #42392D",
"1r 	c #3A3327",
"2r 	c #2F291F",
"3r 	c #2C2620",
"4r 	c #2D2928",
"5r 	c #2C2929",
"6r 	c #2A2620",
"7r 	c #43392F",
"8r 	c #493D2F",
"9r 	c #493B2B",
"0r 	c #473726",
"ar 	c #483827",
"br 	c #4A3E2D",
"cr 	c #3B3123",
"dr 	c #3F3327",
"er 	c #42372E",
"fr 	c #393028",
"gr 	c #221B16",
"hr 	c #141010",
"ir 	c #130F0F",
"jr 	c #0D0C0B",
"kr 	c #0D0B0B",
"lr 	c #201A17",
"mr 	c #27201B",
"nr 	c #231C18",
"or 	c #171310",
"pr 	c #0E0B09",
"qr 	c #211B19",
"rr 	c #3C372D",
"sr 	c #353127",
"tr 	c #322E25",
"ur 	c #332E26",
"vr 	c #353027",
"wr 	c #2D2724",
"xr 	c #03060B",
"yr 	c #1F1C18",
"zr 	c #332F2F",
"Ar 	c #342E2F",
"Br 	c #1D1815",
"Cr 	c #1E1916",
"Dr 	c #2E2624",
"Er 	c #302827",
"Fr 	c #2E2726",
"Gr 	c #302825",
"Hr 	c #302824",
"Ir 	c #171614",
"Jr 	c #100F0D",
"Kr 	c #10100E",
"Lr 	c #10100F",
"Mr 	c #111110",
"Nr 	c #181412",
"Or 	c #464036",
"Pr 	c #120F0F",
"Qr 	c #120E0D",
"Rr 	c #211917",
"Sr 	c #221B19",
"Tr 	c #2C2320",
"Ur 	c #3E3831",
"Vr 	c #504740",
"Wr 	c #5C5347",
"Xr 	c #5F584A",
"Yr 	c #5A5144",
"Zr 	c #41382F",
"`r 	c #3D342E",
" s 	c #2C2D2C",
".s 	c #3B3A36",
"+s 	c #3D3A34",
"@s 	c #2C241F",
"#s 	c #211916",
"$s 	c #201A18",
"%s 	c #1A1617",
"&s 	c #0C0D12",
"*s 	c #0E0F11",
"=s 	c #1D1F1E",
"-s 	c #444342",
";s 	c #3D3D3C",
">s 	c #393938",
",s 	c #2A2B2A",
"'s 	c #161614",
")s 	c #171715",
"!s 	c #2D2E2D",
"~s 	c #242524",
"{s 	c #201E1D",
"]s 	c #23211F",
"^s 	c #403B38",
"/s 	c #504843",
"(s 	c #615650",
"_s 	c #675C53",
":s 	c #66574D",
"<s 	c #6C5B4D",
"[s 	c #786450",
"}s 	c #856E54",
"|s 	c #8E745C",
"1s 	c #977D65",
"2s 	c #9A816B",
"3s 	c #9E8975",
"4s 	c #9F8B7A",
"5s 	c #A08E7E",
"6s 	c #9A8A7D",
"7s 	c #98897D",
"8s 	c #93867C",
"9s 	c #91877F",
"0s 	c #817973",
"as 	c #6B6560",
"bs 	c #585451",
"cs 	c #504C4B",
"ds 	c #423E3E",
"es 	c #393535",
"fs 	c #161513",
"gs 	c #342D2A",
"hs 	c #1C1D21",
"is 	c #1C1D20",
"js 	c #393933",
"ks 	c #54544E",
"ls 	c #65625B",
"ms 	c #5E5A52",
"ns 	c #958E83",
"os 	c #A29B90",
"ps 	c #A59D92",
"qs 	c #A7A094",
"rs 	c #A39C90",
"ss 	c #A49D91",
"ts 	c #68635C",
"us 	c #585552",
"vs 	c #000102",
"ws 	c #010205",
"xs 	c #37332D",
"ys 	c #403B33",
"zs 	c #4E4539",
"As 	c #52483A",
"Bs 	c #53483B",
"Cs 	c #594C3E",
"Ds 	c #5B4D3F",
"Es 	c #4E4236",
"Fs 	c #251E1D",
"Gs 	c #191512",
"Hs 	c #2D2620",
"Is 	c #2E251F",
"Js 	c #2F261F",
"Ks 	c #3A3028",
"Ls 	c #3D332A",
"Ms 	c #3C3228",
"Ns 	c #3E3428",
"Os 	c #362E24",
"Ps 	c #2B241C",
"Qs 	c #26201A",
"Rs 	c #493D31",
"Ss 	c #493B2D",
"Ts 	c #48392A",
"Us 	c #4A3A29",
"Vs 	c #483928",
"Ws 	c #473926",
"Xs 	c #332B1E",
"Ys 	c #292013",
"Zs 	c #291E14",
"`s 	c #30251E",
" t 	c #241B17",
".t 	c #201814",
"+t 	c #211A16",
"@t 	c #191613",
"#t 	c #14110F",
"$t 	c #15120F",
"%t 	c #1C1612",
"&t 	c #2C231C",
"*t 	c #372D25",
"=t 	c #2A211B",
"-t 	c #1F1914",
";t 	c #1E1815",
">t 	c #27201C",
",t 	c #362E25",
"'t 	c #3F372C",
")t 	c #3C362B",
"!t 	c #3A342A",
"~t 	c #3A322A",
"{t 	c #3C342A",
"]t 	c #393027",
"^t 	c #2F2724",
"/t 	c #010004",
"(t 	c #2A2724",
"_t 	c #282722",
":t 	c #2E2B29",
"<t 	c #2B2928",
"[t 	c #3B3738",
"}t 	c #413C3D",
"|t 	c #3E3939",
"1t 	c #1D1917",
"2t 	c #1A1512",
"3t 	c #1C1815",
"4t 	c #1D1715",
"5t 	c #201919",
"6t 	c #28201C",
"7t 	c #161411",
"8t 	c #050305",
"9t 	c #39332E",
"0t 	c #484239",
"at 	c #2F2922",
"bt 	c #2F2B25",
"ct 	c #191413",
"dt 	c #130D0C",
"et 	c #0E0A0A",
"ft 	c #0E0A0B",
"gt 	c #221D1C",
"ht 	c #403A35",
"it 	c #4C453E",
"jt 	c #4D453C",
"kt 	c #4B4337",
"lt 	c #453C31",
"mt 	c #3C342F",
"nt 	c #38322E",
"ot 	c #30302F",
"pt 	c #31312F",
"qt 	c #363532",
"rt 	c #373633",
"st 	c #524841",
"tt 	c #544941",
"ut 	c #51463F",
"vt 	c #4A3F38",
"wt 	c #423932",
"xt 	c #362E2A",
"yt 	c #312926",
"zt 	c #2C2521",
"At 	c #251D1B",
"Bt 	c #241D1A",
"Ct 	c #1D1817",
"Dt 	c #0C0B0F",
"Et 	c #3F3E3D",
"Ft 	c #393837",
"Gt 	c #383735",
"Ht 	c #3B3A38",
"It 	c #393836",
"Jt 	c #23221F",
"Kt 	c #1B1B1A",
"Lt 	c #1D1A19",
"Mt 	c #453E39",
"Nt 	c #504841",
"Ot 	c #655A53",
"Pt 	c #6A5D55",
"Qt 	c #66574C",
"Rt 	c #6C5A4B",
"St 	c #7B674F",
"Tt 	c #897054",
"Ut 	c #907457",
"Vt 	c #987C5F",
"Wt 	c #977C62",
"Xt 	c #9B8369",
"Yt 	c #9B846E",
"Zt 	c #9A8672",
"`t 	c #93806F",
" u 	c #8F8070",
".u 	c #8B7E70",
"+u 	c #78706A",
"@u 	c #565150",
"#u 	c #4C4948",
"$u 	c #3C393A",
"%u 	c #323030",
"&u 	c #141412",
"*u 	c #151310",
"=u 	c #39322D",
"-u 	c #212124",
";u 	c #1E2022",
">u 	c #2B2B2A",
",u 	c #3B3933",
"'u 	c #6B6A62",
")u 	c #5E5B53",
"!u 	c #77736A",
"~u 	c #9A9489",
"{u 	c #A9A196",
"]u 	c #ACA598",
"^u 	c #A8A295",
"/u 	c #918B7F",
"(u 	c #706B61",
"_u 	c #69655E",
":u 	c #38342C",
"<u 	c #433F36",
"[u 	c #4E483E",
"}u 	c #534A3D",
"|u 	c #524739",
"1u 	c #54493A",
"2u 	c #544839",
"3u 	c #564839",
"4u 	c #010003",
"5u 	c #211B17",
"6u 	c #241F19",
"7u 	c #28221C",
"8u 	c #3B312A",
"9u 	c #40352C",
"0u 	c #3E3528",
"au 	c #3F3629",
"bu 	c #373124",
"cu 	c #2D251C",
"du 	c #28211B",
"eu 	c #26201C",
"fu 	c #2D2721",
"gu 	c #302923",
"hu 	c #463B2F",
"iu 	c #473B2D",
"ju 	c #493C2D",
"ku 	c #473A2A",
"lu 	c #483D2A",
"mu 	c #463A29",
"nu 	c #453B2C",
"ou 	c #322A20",
"pu 	c #271F15",
"qu 	c #241B13",
"ru 	c #2B221B",
"su 	c #2C221C",
"tu 	c #2B221C",
"uu 	c #271E18",
"vu 	c #271F19",
"wu 	c #25201A",
"xu 	c #181411",
"yu 	c #151210",
"zu 	c #171511",
"Au 	c #211B15",
"Bu 	c #342B23",
"Cu 	c #44392F",
"Du 	c #42352B",
"Eu 	c #2E241E",
"Fu 	c #342B22",
"Gu 	c #40372C",
"Hu 	c #423A2D",
"Iu 	c #40382C",
"Ju 	c #41382D",
"Ku 	c #3F362B",
"Lu 	c #3E342B",
"Mu 	c #302925",
"Nu 	c #07080C",
"Ou 	c #03040A",
"Pu 	c #0C0B0A",
"Qu 	c #383630",
"Ru 	c #2A2A24",
"Su 	c #272725",
"Tu 	c #262624",
"Uu 	c #323031",
"Vu 	c #3E3C3C",
"Wu 	c #3D3A39",
"Xu 	c #1F1B18",
"Yu 	c #221D1A",
"Zu 	c #1B1512",
"`u 	c #181210",
" v 	c #1B1514",
".v 	c #1D1615",
"+v 	c #231B17",
"@v 	c #271F1A",
"#v 	c #2F2923",
"$v 	c #272420",
"%v 	c #26221D",
"&v 	c #27231C",
"*v 	c #2B2721",
"=v 	c #050304",
"-v 	c #140F0E",
";v 	c #2B251F",
">v 	c #171313",
",v 	c #1A1415",
"'v 	c #110C0C",
")v 	c #0A0708",
"!v 	c #070506",
"~v 	c #463F35",
"{v 	c #423B2F",
"]v 	c #3E352B",
"^v 	c #3B332E",
"/v 	c #31312E",
"(v 	c #373634",
"_v 	c #3A3A37",
":v 	c #50483F",
"<v 	c #594F46",
"[v 	c #5A4F45",
"}v 	c #564B42",
"|v 	c #0A0A0E",
"1v 	c #08090D",
"2v 	c #171918",
"3v 	c #3C3A39",
"4v 	c #3F3E3C",
"5v 	c #454440",
"6v 	c #373632",
"7v 	c #363836",
"8v 	c #212120",
"9v 	c #1C1D1B",
"0v 	c #1C1C1B",
"av 	c #1E1D1C",
"bv 	c #3D3A36",
"cv 	c #59504A",
"dv 	c #5D534C",
"ev 	c #584C43",
"fv 	c #605144",
"gv 	c #725E4A",
"hv 	c #7D654D",
"iv 	c #82674E",
"jv 	c #876C52",
"kv 	c #886E55",
"lv 	c #8C735A",
"mv 	c #8A725E",
"nv 	c #897461",
"ov 	c #816D5D",
"pv 	c #7B6A5B",
"qv 	c #77695C",
"rv 	c #746860",
"sv 	c #605754",
"tv 	c #514B48",
"uv 	c #433D3E",
"vv 	c #3A3637",
"wv 	c #272427",
"xv 	c #060709",
"yv 	c #050608",
"zv 	c #090A0A",
"Av 	c #1C1915",
"Bv 	c #222226",
"Cv 	c #2A2A29",
"Dv 	c #393731",
"Ev 	c #393733",
"Fv 	c #53524E",
"Gv 	c #6C6A64",
"Hv 	c #65645C",
"Iv 	c #79756D",
"Jv 	c #9C968C",
"Kv 	c #AAA498",
"Lv 	c #ABA499",
"Mv 	c #928C81",
"Nv 	c #6A655F",
"Ov 	c #0B0C0F",
"Pv 	c #37342C",
"Qv 	c #4C463C",
"Rv 	c #51473B",
"Sv 	c #504538",
"Tv 	c #4C4033",
"Uv 	c #4D4133",
"Vv 	c #4B3E2F",
"Wv 	c #4D3F31",
"Xv 	c #070406",
"Yv 	c #1B1614",
"Zv 	c #382F26",
"`v 	c #372D23",
" w 	c #3A3126",
".w 	c #3A3127",
"+w 	c #2F271F",
"@w 	c #29211B",
"#w 	c #43382D",
"$w 	c #443A2C",
"%w 	c #42392B",
"&w 	c #40382B",
"*w 	c #3E362B",
"=w 	c #2A2119",
"-w 	c #2D231C",
";w 	c #322621",
">w 	c #342822",
",w 	c #31251E",
"'w 	c #2C231D",
")w 	c #191412",
"!w 	c #191714",
"~w 	c #221E19",
"{w 	c #322923",
"]w 	c #32261E",
"^w 	c #322620",
"/w 	c #2D231E",
"(w 	c #291F18",
"_w 	c #32271E",
":w 	c #463A2E",
"<w 	c #463B2E",
"[w 	c #40342B",
"}w 	c #312923",
"|w 	c #23221E",
"1w 	c #2E2A2D",
"2w 	c #383434",
"3w 	c #25211D",
"4w 	c #211B18",
"5w 	c #1A1411",
"6w 	c #2D241F",
"7w 	c #302B25",
"8w 	c #2C2724",
"9w 	c #2B2524",
"0w 	c #373029",
"aw 	c #544E43",
"bw 	c #403730",
"cw 	c #201B18",
"dw 	c #1D1816",
"ew 	c #1F1A19",
"fw 	c #110C0D",
"gw 	c #171112",
"hw 	c #141212",
"iw 	c #201C1C",
"jw 	c #433D35",
"kw 	c #473E32",
"lw 	c #43392E",
"mw 	c #38302D",
"nw 	c #31302F",
"ow 	c #2E2F2D",
"pw 	c #2A2B29",
"qw 	c #3D3932",
"rw 	c #54483F",
"sw 	c #4A3F37",
"tw 	c #332A25",
"uw 	c #312927",
"vw 	c #2E2827",
"ww 	c #0D0B0E",
"xw 	c #0C0A0D",
"yw 	c #080A0E",
"zw 	c #090B0D",
"Aw 	c #151716",
"Bw 	c #3F3D3B",
"Cw 	c #313131",
"Dw 	c #373737",
"Ew 	c #383939",
"Fw 	c #353636",
"Gw 	c #252424",
"Hw 	c #131214",
"Iw 	c #47403E",
"Jw 	c #4B4542",
"Kw 	c #47403B",
"Lw 	c #554B42",
"Mw 	c #66594B",
"Nw 	c #695A47",
"Ow 	c #675743",
"Pw 	c #6C5945",
"Qw 	c #6F5C48",
"Rw 	c #75634F",
"Sw 	c #756352",
"Tw 	c #766555",
"Uw 	c #706152",
"Vw 	c #6F6153",
"Ww 	c #70645A",
"Xw 	c #675D56",
"Yw 	c #514A47",
"Zw 	c #232225",
"`w 	c #11100E",
" x 	c #25211C",
".x 	c #252529",
"+x 	c #222325",
"@x 	c #3A3830",
"#x 	c #51504B",
"$x 	c #7C7872",
"%x 	c #A09C92",
"&x 	c #AEA89C",
"*x 	c #B0AA9D",
"=x 	c #AFAA9C",
"-x 	c #AFA99C",
";x 	c #958F84",
">x 	c #736D65",
",x 	c #6B6761",
"'x 	c #6A6862",
")x 	c #565551",
"!x 	c #343231",
"~x 	c #292829",
"{x 	c #2C2C2D",
"]x 	c #3D3934",
"^x 	c #38352E",
"/x 	c #39352D",
"(x 	c #4C463B",
"_x 	c #4B4135",
":x 	c #493F31",
"<x 	c #483C2D",
"[x 	c #493D2E",
"}x 	c #493B2C",
"|x 	c #4B3C2E",
"1x 	c #241D1B",
"2x 	c #342A22",
"3x 	c #31281D",
"4x 	c #3A3125",
"5x 	c #29221B",
"6x 	c #2A231C",
"7x 	c #312B22",
"8x 	c #342F27",
"9x 	c #38322A",
"0x 	c #403A2F",
"ax 	c #3F3A2F",
"bx 	c #3E382F",
"cx 	c #352E25",
"dx 	c #2C241C",
"ex 	c #31281F",
"fx 	c #3B2F28",
"gx 	c #40342D",
"hx 	c #3F332B",
"ix 	c #3F342B",
"jx 	c #372E26",
"kx 	c #1D1915",
"lx 	c #171410",
"mx 	c #171412",
"nx 	c #251F1B",
"ox 	c #2C2219",
"px 	c #30241C",
"qx 	c #362922",
"rx 	c #2F231D",
"sx 	c #291E17",
"tx 	c #31261B",
"ux 	c #493C2F",
"vx 	c #463B2D",
"wx 	c #463A2D",
"xx 	c #43362A",
"yx 	c #423628",
"zx 	c #413427",
"Ax 	c #43362B",
"Bx 	c #040407",
"Cx 	c #010106",
"Dx 	c #131311",
"Ex 	c #1A1816",
"Fx 	c #1B1A16",
"Gx 	c #2D2824",
"Hx 	c #2E2722",
"Ix 	c #2D2621",
"Jx 	c #372D27",
"Kx 	c #38312C",
"Lx 	c #3C352F",
"Mx 	c #4F4638",
"Nx 	c #675D4D",
"Ox 	c #7B7363",
"Px 	c #7D7769",
"Qx 	c #655F55",
"Rx 	c #453F36",
"Sx 	c #433B33",
"Tx 	c #231E19",
"Ux 	c #231E1C",
"Vx 	c #100C0C",
"Wx 	c #1F1919",
"Xx 	c #282622",
"Yx 	c #33312B",
"Zx 	c #574C3F",
"`x 	c #3C3B39",
" y 	c #222323",
".y 	c #202120",
"+y 	c #272521",
"@y 	c #3A352E",
"#y 	c #4B3F37",
"$y 	c #281F18",
"%y 	c #1F1813",
"&y 	c #211A1A",
"*y 	c #2B2425",
"=y 	c #07080B",
"-y 	c #090B0F",
";y 	c #080A0C",
">y 	c #131515",
",y 	c #343232",
"'y 	c #373A39",
")y 	c #303231",
"!y 	c #383837",
"~y 	c #161816",
"{y 	c #222120",
"]y 	c #3F3B39",
"^y 	c #504944",
"/y 	c #5E564D",
"(y 	c #4C4437",
"_y 	c #4D4336",
":y 	c #4F4539",
"<y 	c #544B3E",
"[y 	c #564C41",
"}y 	c #595045",
"|y 	c #564D43",
"1y 	c #5B5249",
"2y 	c #605952",
"3y 	c #18171B",
"4y 	c #090A0D",
"5y 	c #38322F",
"6y 	c #212226",
"7y 	c #4A4943",
"8y 	c #6A6963",
"9y 	c #66645E",
"0y 	c #5E5B56",
"ay 	c #7D7A75",
"by 	c #A39F97",
"cy 	c #B1ACA1",
"dy 	c #B0AAA0",
"ey 	c #B4AEA2",
"fy 	c #B1AC9F",
"gy 	c #B0AB9F",
"hy 	c #948E85",
"iy 	c #716B64",
"jy 	c #686761",
"ky 	c #54534F",
"ly 	c #3A3730",
"my 	c #39362E",
"ny 	c #423D34",
"oy 	c #463D31",
"py 	c #4D3E30",
"qy 	c #372C25",
"ry 	c #251C1B",
"sy 	c #0A0709",
"ty 	c #0E0B0B",
"uy 	c #2F251C",
"vy 	c #382E24",
"wy 	c #30281F",
"xy 	c #2C251C",
"yy 	c #393026",
"zy 	c #473C31",
"Ay 	c #302D28",
"By 	c #36322C",
"Cy 	c #3E3B32",
"Dy 	c #3E3A31",
"Ey 	c #2B251D",
"Fy 	c #2A221B",
"Gy 	c #312720",
"Hy 	c #3F342C",
"Iy 	c #463A32",
"Jy 	c #453A31",
"Ky 	c #1F1B16",
"Ly 	c #191612",
"My 	c #201F1D",
"Ny 	c #1B1612",
"Oy 	c #2F231E",
"Py 	c #342821",
"Qy 	c #2E221C",
"Ry 	c #30241A",
"Sy 	c #403327",
"Ty 	c #4A3E2E",
"Uy 	c #473A2C",
"Vy 	c #433528",
"Wy 	c #423426",
"Xy 	c #413325",
"Yy 	c #43352A",
"Zy 	c #110C0A",
"`y 	c #110F0E",
" z 	c #1F1E1B",
".z 	c #262622",
"+z 	c #242420",
"@z 	c #242320",
"#z 	c #2F2C2B",
"$z 	c #302823",
"%z 	c #372E2B",
"&z 	c #39312C",
"*z 	c #3F352C",
"=z 	c #3F352A",
"-z 	c #3F372E",
";z 	c #3D362F",
">z 	c #3C332C",
",z 	c #52483E",
"'z 	c #5B4E3E",
")z 	c #706350",
"!z 	c #807461",
"~z 	c #817868",
"{z 	c #686055",
"]z 	c #3B322E",
"^z 	c #1F1817",
"/z 	c #3E3932",
"(z 	c #221C16",
"_z 	c #1E1915",
":z 	c #1B1718",
"<z 	c #130F11",
"[z 	c #0F0A0B",
"}z 	c #1D1819",
"|z 	c #34312F",
"1z 	c #211F1C",
"2z 	c #2D2A24",
"3z 	c #574D41",
"4z 	c #635648",
"5z 	c #353331",
"6z 	c #333230",
"7z 	c #4D4139",
"8z 	c #473B34",
"9z 	c #382D27",
"0z 	c #221914",
"az 	c #160F0D",
"bz 	c #191314",
"cz 	c #251F21",
"dz 	c #110F13",
"ez 	c #040509",
"fz 	c #080A0D",
"gz 	c #08090C",
"hz 	c #09090B",
"iz 	c #131414",
"jz 	c #282928",
"kz 	c #383636",
"lz 	c #383536",
"mz 	c #343435",
"nz 	c #373939",
"oz 	c #383B3A",
"pz 	c #363939",
"qz 	c #2E3130",
"rz 	c #272928",
"sz 	c #292929",
"tz 	c #383738",
"uz 	c #0C0C11",
"vz 	c #0E0D12",
"wz 	c #161615",
"xz 	c #454340",
"yz 	c #605A50",
"zz 	c #524D42",
"Az 	c #474238",
"Bz 	c #504B47",
"Cz 	c #161418",
"Dz 	c #19191C",
"Ez 	c #1F2020",
"Fz 	c #373027",
"Gz 	c #2D2921",
"Hz 	c #45433D",
"Iz 	c #67655F",
"Jz 	c #5F5D57",
"Kz 	c #807E77",
"Lz 	c #A8A49C",
"Mz 	c #B6B2A7",
"Nz 	c #B6B1A7",
"Oz 	c #B8B4A9",
"Pz 	c #B5B1A5",
"Qz 	c #928D84",
"Rz 	c #696761",
"Sz 	c #0C0C0F",
"Tz 	c #3C3931",
"Uz 	c #433E35",
"Vz 	c #43382A",
"Wz 	c #443829",
"Xz 	c #4A3D2F",
"Yz 	c #4E3F32",
"Zz 	c #514335",
"`z 	c #4A3E32",
" A 	c #261E1D",
".A 	c #42372C",
"+A 	c #3B3327",
"@A 	c #322A1F",
"#A 	c #352C23",
"$A 	c #483D30",
"%A 	c #453F35",
"&A 	c #2B2C2E",
"*A 	c #2E2F31",
"=A 	c #272726",
"-A 	c #322D24",
";A 	c #443831",
">A 	c #3B322B",
",A 	c #27231E",
"'A 	c #201D18",
")A 	c #2F2622",
"!A 	c #312721",
"~A 	c #332822",
"{A 	c #2E221D",
"]A 	c #2B1F19",
"^A 	c #31251B",
"/A 	c #4D3F2F",
"(A 	c #453628",
"_A 	c #433425",
":A 	c #443526",
"<A 	c #47392C",
"[A 	c #120E0C",
"}A 	c #252423",
"|A 	c #2B2C27",
"1A 	c #22221F",
"2A 	c #20201D",
"3A 	c #29221C",
"4A 	c #382E2A",
"5A 	c #41362B",
"6A 	c #40362A",
"7A 	c #40362B",
"8A 	c #3E332C",
"9A 	c #4C4237",
"0A 	c #5E5247",
"aA 	c #5C4F43",
"bA 	c #5E503F",
"cA 	c #685C48",
"dA 	c #776C5A",
"eA 	c #776E5F",
"fA 	c #61584E",
"gA 	c #372F2B",
"hA 	c #2F2924",
"iA 	c #241E17",
"jA 	c #211A15",
"kA 	c #231E1A",
"lA 	c #0D090A",
"mA 	c #2A2822",
"nA 	c #3F3931",
"oA 	c #544C3F",
"pA 	c #625648",
"qA 	c #665A4C",
"rA 	c #584F44",
"sA 	c #373532",
"tA 	c #24211D",
"uA 	c #483F38",
"vA 	c #4E453D",
"wA 	c #483E37",
"xA 	c #171110",
"yA 	c #181313",
"zA 	c #231D1E",
"AA 	c #221D1F",
"BA 	c #050508",
"CA 	c #151515",
"DA 	c #383737",
"EA 	c #353333",
"FA 	c #363938",
"GA 	c #343736",
"HA 	c #282A29",
"IA 	c #3A3839",
"JA 	c #42403F",
"KA 	c #171517",
"LA 	c #141215",
"MA 	c #18171A",
"NA 	c #1A1A19",
"OA 	c #494744",
"PA 	c #57514D",
"QA 	c #635E54",
"RA 	c #5B564A",
"SA 	c #524B42",
"TA 	c #564F46",
"UA 	c #595249",
"VA 	c #5E584F",
"WA 	c #5C564E",
"XA 	c #56514A",
"YA 	c #4A443F",
"ZA 	c #4F4C47",
"`A 	c #232120",
" B 	c #0E0F0E",
".B 	c #110F0D",
"+B 	c #342E2A",
"@B 	c #1A1B1D",
"#B 	c #393227",
"$B 	c #312A21",
"%B 	c #48453D",
"&B 	c #65635E",
"*B 	c #5E5C55",
"=B 	c #838078",
"-B 	c #ADA89E",
";B 	c #BCB7AA",
">B 	c #BCB6AB",
",B 	c #BEBAAF",
"'B 	c #B9B5AC",
")B 	c #AFACA3",
"!B 	c #8B8880",
"~B 	c #69665F",
"{B 	c #66635F",
"]B 	c #686763",
"^B 	c #545350",
"/B 	c #262629",
"(B 	c #0C0C10",
"_B 	c #454034",
":B 	c #433A2D",
"<B 	c #4F4134",
"[B 	c #524436",
"}B 	c #4A3E33",
"|B 	c #3A302A",
"1B 	c #241D1C",
"2B 	c #352D29",
"3B 	c #33291F",
"4B 	c #3B3025",
"5B 	c #392F23",
"6B 	c #382E23",
"7B 	c #382D23",
"8B 	c #3A2F25",
"9B 	c #3B3125",
"0B 	c #403729",
"aB 	c #292A2C",
"bB 	c #2B2C30",
"cB 	c #2A2B2D",
"dB 	c #21211E",
"eB 	c #3B372E",
"fB 	c #322C23",
"gB 	c #3F342D",
"hB 	c #3C322B",
"iB 	c #1B1919",
"jB 	c #221C1A",
"kB 	c #2E2621",
"lB 	c #302621",
"mB 	c #2D211C",
"nB 	c #31241B",
"oB 	c #3F3125",
"pB 	c #493A2C",
"qB 	c #4E3F2F",
"rB 	c #4B3D2D",
"sB 	c #4A3C2D",
"tB 	c #47372A",
"uB 	c #473728",
"vB 	c #443426",
"wB 	c #47392D",
"xB 	c #130F0D",
"yB 	c #2A2525",
"zB 	c #2D241E",
"AB 	c #3E332E",
"BB 	c #40352D",
"CB 	c #403429",
"DB 	c #3E3225",
"EB 	c #3E3328",
"FB 	c #3D3329",
"GB 	c #3D332C",
"HB 	c #3B3228",
"IB 	c #493F35",
"JB 	c #574D44",
"KB 	c #544A3F",
"LB 	c #504536",
"MB 	c #514738",
"NB 	c #5E554A",
"OB 	c #4E473E",
"PB 	c #2B2423",
"QB 	c #201913",
"RB 	c #302722",
"SB 	c #2C231F",
"TB 	c #27201A",
"UB 	c #211B16",
"VB 	c #151011",
"WB 	c #100C0D",
"XB 	c #292621",
"YB 	c #5A4F43",
"ZB 	c #4F473F",
"`B 	c #4A453D",
" C 	c #26201E",
".C 	c #191416",
"+C 	c #08070A",
"@C 	c #07090C",
"#C 	c #333333",
"$C 	c #343334",
"%C 	c #383638",
"&C 	c #3A3739",
"*C 	c #393838",
"=C 	c #333435",
"-C 	c #323435",
";C 	c #303332",
">C 	c #2B2D2D",
",C 	c #272929",
"'C 	c #282425",
")C 	c #121112",
"!C 	c #232321",
"~C 	c #544F4B",
"{C 	c #5F5953",
"]C 	c #716A5E",
"^C 	c #787062",
"/C 	c #7F7569",
"(C 	c #8B8376",
"_C 	c #938A7E",
":C 	c #999084",
"<C 	c #978F84",
"[C 	c #827D74",
"}C 	c #605B54",
"|C 	c #5C5852",
"1C 	c #4A4742",
"2C 	c #0E0F0F",
"3C 	c #24201C",
"4C 	c #202124",
"5C 	c #282521",
"6C 	c #3C362C",
"7C 	c #443C2F",
"8C 	c #41392E",
"9C 	c #534F46",
"0C 	c #706F65",
"aC 	c #6B685E",
"bC 	c #867D71",
"cC 	c #A49A8C",
"dC 	c #ABA191",
"eC 	c #A79D8F",
"fC 	c #A7A39A",
"gC 	c #A3A29A",
"hC 	c #82837C",
"iC 	c #666660",
"jC 	c #656460",
"kC 	c #676763",
"lC 	c #535452",
"mC 	c #252629",
"nC 	c #484339",
"oC 	c #4E483C",
"pC 	c #4C4235",
"qC 	c #4A3E30",
"rC 	c #4A3C2F",
"sC 	c #43372C",
"tC 	c #262021",
"uC 	c #372E2A",
"vC 	c #504437",
"wC 	c #514638",
"xC 	c #4C4132",
"yC 	c #493C30",
"zC 	c #403629",
"AC 	c #403628",
"BC 	c #292A2D",
"CC 	c #272625",
"DC 	c #292824",
"EC 	c #403D33",
"FC 	c #433F34",
"GC 	c #3E382E",
"HC 	c #3F352D",
"IC 	c #1E1C1A",
"JC 	c #2B211D",
"KC 	c #302520",
"LC 	c #2D211D",
"MC 	c #2D211B",
"NC 	c #3E2F23",
"OC 	c #4C3E2E",
"PC 	c #4D4032",
"QC 	c #493A2E",
"RC 	c #46372B",
"SC 	c #413428",
"TC 	c #44382E",
"UC 	c #35312F",
"VC 	c #3D312C",
"WC 	c #3D302A",
"XC 	c #403427",
"YC 	c #3E3429",
"ZC 	c #3C332B",
"`C 	c #4B433B",
" D 	c #2F2826",
".D 	c #2A241C",
"+D 	c #473D35",
"@D 	c #4A4037",
"#D 	c #3D342A",
"$D 	c #2E2720",
"%D 	c #2C261F",
"&D 	c #25201B",
"*D 	c #181414",
"=D 	c #2E2A25",
"-D 	c #473F32",
";D 	c #2A2828",
">D 	c #292725",
",D 	c #191619",
"'D 	c #07090B",
")D 	c #050709",
"!D 	c #070809",
"~D 	c #282528",
"{D 	c #303232",
"]D 	c #323534",
"^D 	c #2F3131",
"/D 	c #2C2E2E",
"(D 	c #292925",
"_D 	c #615B58",
":D 	c #5B5350",
"<D 	c #625B54",
"[D 	c #7E7569",
"}D 	c #978D7E",
"|D 	c #ABA092",
"1D 	c #BFB5A6",
"2D 	c #C7BEB0",
"3D 	c #CDC4B7",
"4D 	c #C9BFB5",
"5D 	c #A8A099",
"6D 	c #716E66",
"7D 	c #625D56",
"8D 	c #67625D",
"9D 	c #55514D",
"0D 	c #332E2A",
"aD 	c #1F1F23",
"bD 	c #40382E",
"cD 	c #4C3F34",
"dD 	c #595148",
"eD 	c #716C60",
"fD 	c #70675A",
"gD 	c #7E6756",
"hD 	c #816755",
"iD 	c #78614D",
"jD 	c #6A5445",
"kD 	c #695C50",
"lD 	c #85837D",
"mD 	c #797976",
"nD 	c #636361",
"oD 	c #626360",
"pD 	c #656663",
"qD 	c #525352",
"rD 	c #303132",
"sD 	c #282A2D",
"tD 	c #242529",
"uD 	c #0B0D11",
"vD 	c #34322C",
"wD 	c #3A362F",
"xD 	c #4D473E",
"yD 	c #5B5449",
"zD 	c #5E5347",
"AD 	c #52463A",
"BD 	c #34281D",
"CD 	c #35291E",
"DD 	c #2B231E",
"ED 	c #090607",
"FD 	c #0A0607",
"GD 	c #080606",
"HD 	c #352B28",
"ID 	c #322822",
"JD 	c #31251D",
"KD 	c #413429",
"LD 	c #54473A",
"MD 	c #574B3C",
"ND 	c #55483A",
"OD 	c #544739",
"PD 	c #514436",
"QD 	c #4E4235",
"RD 	c #473E30",
"SD 	c #483E31",
"TD 	c #262728",
"UD 	c #48443B",
"VD 	c #4B463B",
"WD 	c #494438",
"XD 	c #443D32",
"YD 	c #413731",
"ZD 	c #3A302B",
"`D 	c #342B27",
" E 	c #372F2C",
".E 	c #413B37",
"+E 	c #413B39",
"@E 	c #342F2D",
"#E 	c #221C1B",
"$E 	c #271F1B",
"%E 	c #2B221E",
"&E 	c #2B1F1C",
"*E 	c #2F221B",
"=E 	c #382A1F",
"-E 	c #3D2F23",
";E 	c #45382B",
">E 	c #473B2E",
",E 	c #483C32",
"'E 	c #382E26",
")E 	c #2F2620",
"!E 	c #040408",
"~E 	c #040309",
"{E 	c #020106",
"]E 	c #2F2A28",
"^E 	c #3C3734",
"/E 	c #403B3A",
"(E 	c #322D2C",
"_E 	c #2D2622",
":E 	c #2A231E",
"<E 	c #251E18",
"[E 	c #2A211C",
"}E 	c #312823",
"|E 	c #392E28",
"1E 	c #3D3028",
"2E 	c #3C3026",
"3E 	c #3D3228",
"4E 	c #2E2828",
"5E 	c #2D2829",
"6E 	c #4F453D",
"7E 	c #4C4238",
"8E 	c #453B33",
"9E 	c #443B34",
"0E 	c #433E39",
"aE 	c #3D3931",
"bE 	c #463D33",
"cE 	c #453C30",
"dE 	c #3C3830",
"eE 	c #32312C",
"fE 	c #060608",
"gE 	c #070709",
"hE 	c #0E0C0E",
"iE 	c #201C1F",
"jE 	c #161215",
"kE 	c #0B0B0D",
"lE 	c #0E0E10",
"mE 	c #030407",
"nE 	c #302D31",
"oE 	c #2E2C2F",
"pE 	c #2F2C2E",
"qE 	c #2E2F30",
"rE 	c #373838",
"sE 	c #383839",
"tE 	c #1C1719",
"uE 	c #100D10",
"vE 	c #423E3C",
"wE 	c #3F3C35",
"xE 	c #49433D",
"yE 	c #5C5651",
"zE 	c #655F5A",
"AE 	c #635D54",
"BE 	c #827C6E",
"CE 	c #A2998B",
"DE 	c #BBB0A3",
"EE 	c #D0C8B8",
"FE 	c #D5CFC1",
"GE 	c #DBD5C7",
"HE 	c #D6CEC3",
"IE 	c #75736C",
"JE 	c #64615B",
"KE 	c #6A6662",
"LE 	c #575450",
"ME 	c #3C3838",
"NE 	c #0F1010",
"OE 	c #221F1B",
"PE 	c #1F1F22",
"QE 	c #4F4436",
"RE 	c #4F4337",
"SE 	c #706C5D",
"TE 	c #746957",
"UE 	c #715B46",
"VE 	c #76573D",
"WE 	c #69462C",
"XE 	c #5C381F",
"YE 	c #4B2A17",
"ZE 	c #422F1F",
"`E 	c #484034",
" F 	c #757674",
".F 	c #616561",
"+F 	c #636461",
"@F 	c #515352",
"#F 	c #242629",
"$F 	c #242528",
"%F 	c #0C0E12",
"&F 	c #010306",
"*F 	c #36332C",
"=F 	c #4D493F",
"-F 	c #605B4E",
";F 	c #675F51",
">F 	c #675E50",
",F 	c #564D41",
"'F 	c #2A2016",
")F 	c #2E241B",
"!F 	c #2C241D",
"~F 	c #28221E",
"{F 	c #1C1716",
"]F 	c #2D2624",
"^F 	c #33271F",
"/F 	c #403328",
"(F 	c #514437",
"_F 	c #4B3F31",
":F 	c #483E32",
"<F 	c #474138",
"[F 	c #48443C",
"}F 	c #3D3A33",
"|F 	c #444038",
"1F 	c #4F4A40",
"2F 	c #514C3F",
"3F 	c #4D473B",
"4F 	c #453E32",
"5F 	c #393126",
"6F 	c #40372F",
"7F 	c #443A34",
"8F 	c #3C332E",
"9F 	c #342C28",
"0F 	c #413B38",
"aF 	c #26211F",
"bF 	c #241E1D",
"cF 	c #261F1B",
"dF 	c #281F1C",
"eF 	c #2A201E",
"fF 	c #2B211E",
"gF 	c #2A201A",
"hF 	c #2F231B",
"iF 	c #35281E",
"jF 	c #3F3428",
"kF 	c #41382E",
"lF 	c #030308",
"mF 	c #4C4846",
"nF 	c #4A4544",
"oF 	c #403C3B",
"pF 	c #28231E",
"qF 	c #26201B",
"rF 	c #2B241F",
"sF 	c #372E29",
"tF 	c #3B342C",
"uF 	c #39342D",
"vF 	c #3B3630",
"wF 	c #35322B",
"xF 	c #3A3835",
"yF 	c #494139",
"zF 	c #413A30",
"AF 	c #413A2F",
"BF 	c #4E443C",
"CF 	c #1F1A1A",
"DF 	c #423E34",
"EF 	c #3C382F",
"FF 	c #4C4338",
"GF 	c #2C2A28",
"HF 	c #020305",
"IF 	c #312F31",
"JF 	c #2C2A2C",
"KF 	c #343233",
"LF 	c #3D3D3E",
"MF 	c #343535",
"NF 	c #1D191B",
"OF 	c #201C1E",
"PF 	c #4E4845",
"QF 	c #4B4541",
"RF 	c #3E3530",
"SF 	c #453D38",
"TF 	c #58514D",
"UF 	c #5A5450",
"VF 	c #5F5951",
"WF 	c #999184",
"XF 	c #AEA69A",
"YF 	c #BFBBAD",
"ZF 	c #C4C0B4",
"`F 	c #CBC6B9",
" G 	c #C6C0B6",
".G 	c #A3A099",
"+G 	c #6F6E69",
"@G 	c #605F5A",
"#G 	c #64625E",
"$G 	c #52504D",
"%G 	c #1F1F20",
"&G 	c #040508",
"*G 	c #1E1E21",
"=G 	c #4C4034",
"-G 	c #4B3E34",
";G 	c #554E43",
">G 	c #6B6556",
",G 	c #6E503A",
"'G 	c #6B4327",
")G 	c #603317",
"!G 	c #57290D",
"~G 	c #471F09",
"{G 	c #3B2314",
"]G 	c #6A665F",
"^G 	c #737371",
"/G 	c #636463",
"(G 	c #5F6260",
"_G 	c #616361",
":G 	c #505151",
"<G 	c #2E3031",
"[G 	c #010207",
"}G 	c #2B2824",
"|G 	c #5C574B",
"1G 	c #635C4F",
"2G 	c #60584C",
"3G 	c #50493D",
"4G 	c #29211A",
"5G 	c #211B1B",
"6G 	c #221B1B",
"7G 	c #302726",
"8G 	c #352A27",
"9G 	c #342722",
"0G 	c #34261E",
"aG 	c #403228",
"bG 	c #504136",
"cG 	c #4C3F32",
"dG 	c #44372A",
"eG 	c #42362B",
"fG 	c #40352B",
"gG 	c #403932",
"hG 	c #282728",
"iG 	c #443F37",
"jG 	c #4D473D",
"kG 	c #4F483C",
"lG 	c #4A4337",
"mG 	c #413A2E",
"nG 	c #403630",
"oG 	c #443A35",
"pG 	c #3B3532",
"qG 	c #3B3432",
"rG 	c #302A28",
"sG 	c #241D1D",
"tG 	c #261D1C",
"uG 	c #271E1C",
"vG 	c #281F1D",
"wG 	c #2A1F19",
"xG 	c #2D221C",
"yG 	c #121015",
"zG 	c #121116",
"AG 	c #0B0B0F",
"BG 	c #020307",
"CG 	c #231F1F",
"DG 	c #3A3636",
"EG 	c #4B4747",
"FG 	c #4A4746",
"GG 	c #39362F",
"HG 	c #373431",
"IG 	c #3A3632",
"JG 	c #312B29",
"KG 	c #4F4741",
"LG 	c #574F48",
"MG 	c #585249",
"NG 	c #4C4641",
"OG 	c #36302E",
"PG 	c #221C1D",
"QG 	c #49433F",
"RG 	c #4E453F",
"SG 	c #393429",
"TG 	c #3B352B",
"UG 	c #4C433A",
"VG 	c #141111",
"WG 	c #211E22",
"XG 	c #2B292C",
"YG 	c #353334",
"ZG 	c #3A3A3A",
"`G 	c #1E1A1D",
" H 	c #383332",
".H 	c #4A4442",
"+H 	c #4C4643",
"@H 	c #49423F",
"#H 	c #342E28",
"$H 	c #494340",
"%H 	c #4D4745",
"&H 	c #534B47",
"*H 	c #7E776C",
"=H 	c #898379",
"-H 	c #969388",
";H 	c #9B968E",
">H 	c #A59F97",
",H 	c #A29D95",
"'H 	c #878580",
")H 	c #5E5E5A",
"!H 	c #51504F",
"~H 	c #535350",
"{H 	c #444442",
"]H 	c #0F1112",
"^H 	c #121211",
"/H 	c #282623",
"(H 	c #615A4D",
"_H 	c #6A4B32",
":H 	c #61381C",
"<H 	c #52250B",
"[H 	c #4F1F05",
"}H 	c #491E06",
"|H 	c #533521",
"1H 	c #685A4A",
"2H 	c #807A72",
"3H 	c #787876",
"4H 	c #636563",
"5H 	c #5F6361",
"6H 	c #4F5151",
"7H 	c #252729",
"8H 	c #292B2D",
"9H 	c #010307",
"0H 	c #464138",
"aH 	c #575247",
"bH 	c #585146",
"cH 	c #221C14",
"dH 	c #17110D",
"eH 	c #251D1C",
"fH 	c #251E1E",
"gH 	c #332A29",
"hH 	c #382D29",
"iH 	c #352923",
"jH 	c #352820",
"kH 	c #413329",
"lH 	c #504236",
"mH 	c #3C3127",
"nH 	c #2F2B2C",
"oH 	c #474037",
"pH 	c #433C2F",
"qH 	c #3C3529",
"rH 	c #3B3328",
"sH 	c #2C2524",
"tH 	c #2C2624",
"uH 	c #2C2523",
"vH 	c #28201F",
"wH 	c #271E1D",
"xH 	c #261D1B",
"yH 	c #271F1D",
"zH 	c #271E19",
"AH 	c #121217",
"BH 	c #131318",
"CH 	c #040409",
"DH 	c #040205",
"EH 	c #1F1D1B",
"FH 	c #32302B",
"GH 	c #282325",
"HH 	c #2D2828",
"IH 	c #342D27",
"JH 	c #332E2D",
"KH 	c #262020",
"LH 	c #4E443D",
"MH 	c #3D372B",
"NH 	c #3F382D",
"OH 	c #302F2A",
"PH 	c #2F2E29",
"QH 	c #302E2A",
"RH 	c #111014",
"SH 	c #070609",
"TH 	c #070507",
"UH 	c #231D1A",
"VH 	c #282220",
"WH 	c #0A0808",
"XH 	c #2A282B",
"YH 	c #474240",
"ZH 	c #484340",
"`H 	c #3B3737",
" I 	c #433F3F",
".I 	c #47403F",
"+I 	c #5B554F",
"@I 	c #69635C",
"#I 	c #6D6761",
"$I 	c #757069",
"%I 	c #78736E",
"&I 	c #827D77",
"*I 	c #847E7A",
"=I 	c #4E4D4D",
"-I 	c #424142",
";I 	c #444343",
">I 	c #514C41",
",I 	c #5C4D3F",
"'I 	c #563B28",
")I 	c #4A2812",
"!I 	c #3C1604",
"~I 	c #3A1102",
"{I 	c #4A200A",
"]I 	c #74533B",
"^I 	c #958471",
"/I 	c #878782",
"(I 	c #616462",
"_I 	c #5E6260",
":I 	c #606261",
"<I 	c #2E3030",
"[I 	c #292B2E",
"}I 	c #413C34",
"|I 	c #514D43",
"1I 	c #554F46",
"2I 	c #534C44",
"3I 	c #0F0B07",
"4I 	c #352C2B",
"5I 	c #392E2C",
"6I 	c #352924",
"7I 	c #342720",
"8I 	c #3F3229",
"9I 	c #4E4037",
"0I 	c #493C32",
"aI 	c #3F342A",
"bI 	c #3E3834",
"cI 	c #343133",
"dI 	c #37322E",
"eI 	c #3A352F",
"fI 	c #3E372C",
"gI 	c #383127",
"hI 	c #362F28",
"iI 	c #251E1F",
"jI 	c #251F1F",
"kI 	c #292222",
"lI 	c #2A2221",
"mI 	c #281F1E",
"nI 	c #2A211F",
"oI 	c #231C19",
"pI 	c #2F2824",
"qI 	c #12100F",
"rI 	c #0F0C0C",
"sI 	c #090706",
"tI 	c #0E0D0B",
"uI 	c #0F0E0E",
"vI 	c #272724",
"wI 	c #303031",
"xI 	c #2F3232",
"yI 	c #373637",
"zI 	c #0F1013",
"AI 	c #0B0D12",
"BI 	c #1B181D",
"CI 	c #2B2422",
"DI 	c #2D2726",
"EI 	c #292423",
"FI 	c #2A2422",
"GI 	c #362F2C",
"HI 	c #3C3531",
"II 	c #463E33",
"JI 	c #3F362A",
"KI 	c #2B2A2D",
"LI 	c #2F2E30",
"MI 	c #0A080D",
"NI 	c #1B1818",
"OI 	c #0B0809",
"PI 	c #3B383A",
"QI 	c #040204",
"RI 	c #0B080B",
"SI 	c #151215",
"TI 	c #332E2C",
"UI 	c #3D3A3D",
"VI 	c #3B383B",
"WI 	c #413E3D",
"XI 	c #686360",
"YI 	c #6B6763",
"ZI 	c #6C6864",
"`I 	c #76726D",
" J 	c #797573",
".J 	c #676565",
"+J 	c #464646",
"@J 	c #3C3B3C",
"#J 	c #333334",
"$J 	c #111213",
"%J 	c #48463E",
"&J 	c #433023",
"*J 	c #351C0C",
"=J 	c #280C01",
"-J 	c #310F01",
";J 	c #502811",
">J 	c #866449",
",J 	c #A89580",
"'J 	c #B2AA9C",
")J 	c #8D8D86",
"!J 	c #616563",
"~J 	c #5E6261",
"{J 	c #4E5050",
"]J 	c #25272A",
"^J 	c #242729",
"/J 	c #4E4B42",
"(J 	c #100E0F",
"_J 	c #231D1D",
":J 	c #282020",
"<J 	c #362D2C",
"[J 	c #3A2F2D",
"}J 	c #352A25",
"|J 	c #3E312B",
"1J 	c #493D37",
"2J 	c #453A33",
"3J 	c #363234",
"4J 	c #373435",
"5J 	c #393331",
"6J 	c #3B352D",
"7J 	c #393229",
"8J 	c #292120",
"9J 	c #2B2221",
"0J 	c #2B2322",
"aJ 	c #2A2120",
"bJ 	c #271F1E",
"cJ 	c #09070B",
"dJ 	c #0C0908",
"eJ 	c #0B0908",
"fJ 	c #191816",
"gJ 	c #303133",
"hJ 	c #353537",
"iJ 	c #2E2F2F",
"jJ 	c #0D0E11",
"kJ 	c #05070C",
"lJ 	c #03070C",
"mJ 	c #02050B",
"nJ 	c #1A181E",
"oJ 	c #2A2425",
"pJ 	c #2B2628",
"qJ 	c #3F3935",
"rJ 	c #3E372B",
"sJ 	c #463D2F",
"tJ 	c #4A4032",
"uJ 	c #3A3226",
"vJ 	c #343026",
"wJ 	c #312F2A",
"xJ 	c #2A292A",
"yJ 	c #0C0B10",
"zJ 	c #0A0A0F",
"AJ 	c #141318",
"BJ 	c #2D2827",
"CJ 	c #312B2A",
"DJ 	c #39322E",
"EJ 	c #3C3634",
"FJ 	c #262528",
"GJ 	c #2D2A2C",
"HJ 	c #383637",
"IJ 	c #434141",
"JJ 	c #444243",
"KJ 	c #3B3939",
"LJ 	c #303030",
"MJ 	c #060607",
"NJ 	c #131114",
"OJ 	c #3D3938",
"PJ 	c #393534",
"QJ 	c #36363A",
"RJ 	c #343437",
"SJ 	c #4C4B49",
"TJ 	c #5B5957",
"UJ 	c #5B5958",
"VJ 	c #5A5A58",
"WJ 	c #636260",
"XJ 	c #656464",
"YJ 	c #555656",
"ZJ 	c #373839",
"`J 	c #1C1C1D",
" K 	c #1A1A1C",
".K 	c #3C3A36",
"+K 	c #474742",
"@K 	c #372617",
"#K 	c #371F10",
"$K 	c #40220E",
"%K 	c #563118",
"&K 	c #846347",
"*K 	c #A6937C",
"=K 	c #ADA495",
"-K 	c #8B8A84",
";K 	c #606362",
">K 	c #5D6160",
",K 	c #5F6160",
"'K 	c #4D4E4F",
")K 	c #413F39",
"!K 	c #47453E",
"~K 	c #15120D",
"{K 	c #120F0C",
"]K 	c #392F2D",
"^K 	c #372C27",
"/K 	c #302A2C",
"(K 	c #2D292B",
"_K 	c #2E2B2C",
":K 	c #322D2B",
"<K 	c #221C1C",
"[K 	c #161619",
"}K 	c #09060A",
"|K 	c #363031",
"1K 	c #161311",
"2K 	c #080605",
"3K 	c #2F3032",
"4K 	c #363536",
"5K 	c #0F0E12",
"6K 	c #06070A",
"7K 	c #131118",
"8K 	c #201D22",
"9K 	c #1F1B1F",
"0K 	c #1D191E",
"aK 	c #3A3227",
"bK 	c #433A2B",
"cK 	c #443B2B",
"dK 	c #453B2E",
"eK 	c #3D3429",
"fK 	c #352D23",
"gK 	c #232526",
"hK 	c #252527",
"iK 	c #252427",
"jK 	c #252528",
"kK 	c #0D0D11",
"lK 	c #030208",
"mK 	c #06060C",
"nK 	c #08080F",
"oK 	c #16151A",
"pK 	c #2A2320",
"qK 	c #262428",
"rK 	c #252326",
"sK 	c #3C3A3B",
"tK 	c #3E3C3D",
"uK 	c #151717",
"vK 	c #040507",
"wK 	c #060407",
"xK 	c #353132",
"yK 	c #272324",
"zK 	c #1D1D21",
"AK 	c #28282B",
"BK 	c #26272A",
"CK 	c #232527",
"DK 	c #28292B",
"EK 	c #111315",
"FK 	c #151617",
"GK 	c #111214",
"HK 	c #020001",
"IK 	c #060404",
"JK 	c #3C3935",
"KK 	c #4E504C",
"LK 	c #4B4C47",
"MK 	c #685C4D",
"NK 	c #7D6A57",
"OK 	c #816850",
"PK 	c #75573C",
"QK 	c #795E42",
"RK 	c #8E7B65",
"SK 	c #9D9386",
"TK 	c #87857F",
"UK 	c #626462",
"VK 	c #5D615F",
"WK 	c #4C4D4D",
"XK 	c #2C2E2D",
"YK 	c #211E19",
"ZK 	c #221A19",
"`K 	c #362C29",
" L 	c #302623",
".L 	c #2E2420",
"+L 	c #271E1B",
"@L 	c #1E1714",
"#L 	c #140E0F",
"$L 	c #151013",
"%L 	c #1E1A1C",
"&L 	c #161010",
"*L 	c #161011",
"=L 	c #140F10",
"-L 	c #151012",
";L 	c #080808",
">L 	c #18181C",
",L 	c #3C3839",
"'L 	c #3A3536",
")L 	c #0F0D0B",
"!L 	c #333335",
"~L 	c #09060D",
"{L 	c #141016",
"]L 	c #181418",
"^L 	c #241E1F",
"/L 	c #1D1617",
"(L 	c #1C181C",
"_L 	c #1C191D",
":L 	c #443B2C",
"<L 	c #423829",
"[L 	c #342B21",
"}L 	c #1B1C21",
"|L 	c #18191D",
"1L 	c #0F0F14",
"2L 	c #09090E",
"3L 	c #06050C",
"4L 	c #08070E",
"5L 	c #17171C",
"6L 	c #211C19",
"7L 	c #18161A",
"8L 	c #19161A",
"9L 	c #2B282A",
"0L 	c #060809",
"aL 	c #060708",
"bL 	c #0B0C0C",
"cL 	c #0C0B0D",
"dL 	c #393536",
"eL 	c #0A0A10",
"fL 	c #0A0C13",
"gL 	c #07070F",
"hL 	c #030405",
"iL 	c #464644",
"jL 	c #515553",
"kL 	c #4E514F",
"lL 	c #938C80",
"mL 	c #B8A998",
"nL 	c #BCA692",
"oL 	c #9C826D",
"pL 	c #765E48",
"qL 	c #776653",
"rL 	c #8E8477",
"sL 	c #827F79",
"tL 	c #616260",
"uL 	c #5D5F5E",
"vL 	c #5F615F",
"wL 	c #4B4C4B",
"xL 	c #232427",
"yL 	c #0B0C12",
"zL 	c #010107",
"AL 	c #0C0A0F",
"BL 	c #0B0A0F",
"CL 	c #0D0B11",
"DL 	c #423E3D",
"EL 	c #514B4B",
"FL 	c #0D0C0F",
"GL 	c #201918",
"HL 	c #261F1E",
"IL 	c #332B2A",
"JL 	c #372E2C",
"KL 	c #342A28",
"LL 	c #2F2524",
"ML 	c #1F1616",
"NL 	c #0B0606",
"OL 	c #090507",
"PL 	c #090609",
"QL 	c #161113",
"RL 	c #15100F",
"SL 	c #14100E",
"TL 	c #080707",
"UL 	c #0A0909",
"VL 	c #0F0B0C",
"WL 	c #0F0B0D",
"XL 	c #201E22",
"YL 	c #1A191E",
"ZL 	c #0D0C11",
"`L 	c #060408",
" M 	c #1D191C",
".M 	c #383436",
"+M 	c #383335",
"@M 	c #221E21",
"#M 	c #333234",
"$M 	c #373536",
"%M 	c #383537",
"&M 	c #07040A",
"*M 	c #131016",
"=M 	c #161217",
"-M 	c #1E191C",
";M 	c #161216",
">M 	c #171419",
",M 	c #141117",
"'M 	c #100B0F",
")M 	c #191211",
"!M 	c #2B2320",
"~M 	c #453C2E",
"{M 	c #453B2D",
"]M 	c #443A2D",
"^M 	c #3C3329",
"/M 	c #212326",
"(M 	c #1B1C22",
"_M 	c #191A1F",
":M 	c #16171B",
"<M 	c #03030A",
"[M 	c #020208",
"}M 	c #06060D",
"|M 	c #17171D",
"1M 	c #242329",
"2M 	c #1F1E24",
"3M 	c #151319",
"4M 	c #161419",
"5M 	c #211F24",
"6M 	c #2F2E31",
"7M 	c #100D11",
"8M 	c #0E0B0E",
"9M 	c #1A1719",
"0M 	c #252123",
"aM 	c #2C292C",
"bM 	c #0C0D0D",
"cM 	c #484846",
"dM 	c #545856",
"eM 	c #515555",
"fM 	c #5C5E5B",
"gM 	c #9E9B92",
"hM 	c #CAC0B1",
"iM 	c #CFC0AD",
"jM 	c #B9A493",
"kM 	c #917F6D",
"lM 	c #867867",
"mM 	c #968B80",
"nM 	c #898680",
"oM 	c #666663",
"pM 	c #5E5F5D",
"qM 	c #5F625E",
"rM 	c #4B4D4A",
"sM 	c #232528",
"tM 	c #000206",
"uM 	c #100F14",
"vM 	c #110F15",
"wM 	c #121016",
"xM 	c #111015",
"yM 	c #474543",
"zM 	c #0C0B0E",
"AM 	c #030406",
"BM 	c #1E1817",
"CM 	c #302929",
"DM 	c #342D2C",
"EM 	c #1C1617",
"FM 	c #191518",
"GM 	c #030506",
"HM 	c #2F2B2D",
"IM 	c #050303",
"JM 	c #353435",
"KM 	c #373537",
"LM 	c #0A080F",
"MM 	c #17141A",
"NM 	c #1E191B",
"OM 	c #191519",
"PM 	c #110F14",
"QM 	c #131014",
"RM 	c #3A342B",
"SM 	c #3F382C",
"TM 	c #1C1F22",
"UM 	c #1A1D22",
"VM 	c #1B1D22",
"WM 	c #1B1C20",
"XM 	c #05060B",
"YM 	c #08080E",
"ZM 	c #07070D",
"`M 	c #06070C",
" N 	c #08090F",
".N 	c #18181E",
"+N 	c #232328",
"@N 	c #16151B",
"#N 	c #1E1D22",
"$N 	c #2A292D",
"%N 	c #302F33",
"&N 	c #2F2D30",
"*N 	c #2C2B2E",
"=N 	c #0C0C0B",
"-N 	c #232226",
";N 	c #4B4643",
">N 	c #4B4947",
",N 	c #484747",
"'N 	c #4C4B4B",
")N 	c #4B484B",
"!N 	c #444345",
"~N 	c #222223",
"{N 	c #131313",
"]N 	c #373635",
"^N 	c #393635",
"/N 	c #464544",
"(N 	c #525556",
"_N 	c #5C5D5C",
":N 	c #9B9993",
"<N 	c #C9C1B5",
"[N 	c #D1C5B6",
"}N 	c #CBBCAD",
"|N 	c #BEB0A1",
"1N 	c #B7AB9D",
"2N 	c #BBB1A7",
"3N 	c #9E9B95",
"4N 	c #686864",
"5N 	c #5D5D5A",
"6N 	c #5F605C",
"7N 	c #4A4B48",
"8N 	c #28292C",
"9N 	c #0C0B11",
"0N 	c #0A0B0B",
"aN 	c #0B0909",
"bN 	c #191312",
"cN 	c #272223",
"dN 	c #1B1B1F",
"eN 	c #1D1B1E",
"fN 	c #1E1A1E",
"gN 	c #28282A",
"hN 	c #29292C",
"iN 	c #2A2A2D",
"jN 	c #2C2B2F",
"kN 	c #2A292C",
"lN 	c #242327",
"mN 	c #090811",
"nN 	c #131219",
"oN 	c #131116",
"pN 	c #151216",
"qN 	c #23201B",
"rN 	c #27241D",
"sN 	c #221F1C",
"tN 	c #15171D",
"uN 	c #15171C",
"vN 	c #171A1D",
"wN 	c #141519",
"xN 	c #090A0F",
"yN 	c #0D0E14",
"zN 	c #0D0D13",
"AN 	c #19191E",
"BN 	c #16161C",
"CN 	c #0F0F16",
"DN 	c #14141A",
"EN 	c #1C1B20",
"FN 	c #0B0B0C",
"GN 	c #201E1C",
"HN 	c #333033",
"IN 	c #4B433D",
"JN 	c #504333",
"KN 	c #64523F",
"LN 	c #827161",
"MN 	c #91847A",
"NN 	c #928C84",
"ON 	c #918D87",
"PN 	c #99938F",
"QN 	c #9A9493",
"RN 	c #8E8C8B",
"SN 	c #5C5D5D",
"TN 	c #3C3E3F",
"UN 	c #3D3E3F",
"VN 	c #3D3E3E",
"WN 	c #060303",
"XN 	c #565957",
"YN 	c #545858",
"ZN 	c #5D5F5C",
"`N 	c #95948D",
" O 	c #C6BFB2",
".O 	c #D5CBBC",
"+O 	c #D6CABD",
"@O 	c #D7CBBE",
"#O 	c #D5CABD",
"$O 	c #D2CABF",
"%O 	c #ABA8A0",
"&O 	c #6C6C66",
"*O 	c #5F5E59",
"=O 	c #61615C",
"-O 	c #4B4A47",
";O 	c #0C0807",
">O 	c #0D0807",
",O 	c #0F090A",
"'O 	c #030104",
")O 	c #141115",
"!O 	c #101014",
"~O 	c #232023",
"{O 	c #212023",
"]O 	c #07070C",
"^O 	c #09080F",
"/O 	c #08070C",
"(O 	c #09070C",
"_O 	c #0E0A0D",
":O 	c #0E0D0C",
"<O 	c #12100D",
"[O 	c #121318",
"}O 	c #0B0C11",
"|O 	c #101015",
"1O 	c #353234",
"2O 	c #4A4443",
"3O 	c #53473C",
"4O 	c #59452F",
"5O 	c #72593C",
"6O 	c #977F65",
"7O 	c #A69584",
"8O 	c #A59C8E",
"9O 	c #ADA499",
"0O 	c #B2A69F",
"aO 	c #A5A09A",
"bO 	c #6E6F6D",
"cO 	c #494A4C",
"dO 	c #4B4C4E",
"eO 	c #4A4C4D",
"fO 	c #181413",
"gO 	c #040404",
"hO 	c #444341",
"iO 	c #565856",
"jO 	c #545657",
"kO 	c #595A57",
"lO 	c #87857E",
"mO 	c #BEB5AA",
"nO 	c #D4C9BB",
"oO 	c #D6CBBE",
"pO 	c #D9CFC2",
"qO 	c #D8CDC1",
"rO 	c #D1C9BE",
"sO 	c #AAA79F",
"tO 	c #5F5C58",
"uO 	c #61605B",
"vO 	c #4A4845",
"wO 	c #252426",
"xO 	c #050102",
"yO 	c #080406",
"zO 	c #1A171B",
"AO 	c #141014",
"BO 	c #120E11",
"CO 	c #1A181D",
"DO 	c #19181D",
"EO 	c #161317",
"FO 	c #201C21",
"GO 	c #1F1C20",
"HO 	c #1B181C",
"IO 	c #1E1B1F",
"JO 	c #0D0A0E",
"KO 	c #1B171B",
"LO 	c #151318",
"MO 	c #0A090F",
"NO 	c #09070D",
"OO 	c #07060B",
"PO 	c #0C0A10",
"QO 	c #08060C",
"RO 	c #0B070A",
"SO 	c #0E0A0C",
"TO 	c #0E0B0A",
"UO 	c #0F0C0A",
"VO 	c #0F0C0B",
"WO 	c #474241",
"XO 	c #54463A",
"YO 	c #5A4329",
"ZO 	c #735534",
"`O 	c #997D5E",
" P 	c #A4907B",
".P 	c #A09383",
"+P 	c #9C9283",
"@P 	c #A69A8C",
"#P 	c #AE9E92",
"$P 	c #73736F",
"%P 	c #4F4F52",
"&P 	c #515255",
"*P 	c #515455",
"=P 	c #110C0B",
"-P 	c #040101",
";P 	c #090807",
">P 	c #41403E",
",P 	c #565755",
"'P 	c #575958",
")P 	c #5B5C57",
"!P 	c #7D7C72",
"~P 	c #AFA69A",
"{P 	c #CCBFB2",
"]P 	c #D3C6B9",
"^P 	c #D6CCBE",
"/P 	c #D2C8BB",
"(P 	c #CBC3B7",
"_P 	c #6D6A64",
":P 	c #605D58",
"<P 	c #0D0B0F",
"[P 	c #141218",
"}P 	c #16161A",
"|P 	c #19171C",
"1P 	c #1B191F",
"2P 	c #1D1B20",
"3P 	c #1B1A1F",
"4P 	c #1B191E",
"5P 	c #1D1A1E",
"6P 	c #1D1A1F",
"7P 	c #1E1B20",
"8P 	c #232125",
"9P 	c #1F1D21",
"0P 	c #151418",
"aP 	c #141217",
"bP 	c #131015",
"cP 	c #100E14",
"dP 	c #0F0D12",
"eP 	c #0B090F",
"fP 	c #0D0B10",
"gP 	c #0C0A0E",
"hP 	c #0D0B09",
"iP 	c #0C0A08",
"jP 	c #0C0B09",
"kP 	c #0B0808",
"lP 	c #18191B",
"mP 	c #050505",
"nP 	c #514234",
"oP 	c #5A4125",
"pP 	c #735530",
"qP 	c #977A58",
"rP 	c #A08B75",
"sP 	c #9D8E7E",
"tP 	c #9B8D7D",
"uP 	c #A69484",
"vP 	c #B19D8B",
"wP 	c #AA9C8C",
"xP 	c #75706A",
"yP 	c #504D50",
"zP 	c #525155",
"AP 	c #525355",
"BP 	c #2A2321",
"CP 	c #2D2521",
"DP 	c #1E1610",
"EP 	c #120A06",
"FP 	c #0E0805",
"GP 	c #0F0907",
"HP 	c #0B0605",
"IP 	c #0B0807",
"JP 	c #0A0807",
"KP 	c #595B58",
"LP 	c #626361",
"MP 	c #666562",
"NP 	c #78746C",
"OP 	c #999085",
"PP 	c #B5A99B",
"QP 	c #BDB0A2",
"RP 	c #C1B6A8",
"SP 	c #BBB1A4",
"TP 	c #A19B91",
"UP 	c #6D6862",
"VP 	c #5E5A55",
"WP 	c #5D5C56",
"XP 	c #17171B",
"YP 	c #1A1B1F",
"ZP 	c #1A1B20",
"`P 	c #1C1D22",
" Q 	c #1E1E23",
".Q 	c #202025",
"+Q 	c #212025",
"@Q 	c #222125",
"#Q 	c #15171B",
"$Q 	c #17181C",
"%Q 	c #1B1B20",
"&Q 	c #1F1D22",
"*Q 	c #222025",
"=Q 	c #2B282C",
"-Q 	c #2A272B",
";Q 	c #2B2A2E",
">Q 	c #28272B",
",Q 	c #211F23",
"'Q 	c #1A1A20",
")Q 	c #1C1C22",
"!Q 	c #141312",
"~Q 	c #0C0D0F",
"{Q 	c #121315",
"]Q 	c #161719",
"^Q 	c #151618",
"/Q 	c #554737",
"(Q 	c #5D4625",
"_Q 	c #765A30",
":Q 	c #9A8159",
"<Q 	c #A69378",
"[Q 	c #A89985",
"}Q 	c #A99A88",
"|Q 	c #B7A28E",
"1Q 	c #C1A991",
"2Q 	c #B6A68F",
"3Q 	c #7F796B",
"4Q 	c #53514D",
"5Q 	c #515151",
"6Q 	c #545555",
"7Q 	c #392B20",
"8Q 	c #332417",
"9Q 	c #322113",
"0Q 	c #2F2014",
"aQ 	c #2E2117",
"bQ 	c #211911",
"cQ 	c #15110C",
"dQ 	c #4D4D49",
"eQ 	c #60635E",
"fQ 	c #6B6E69",
"gQ 	c #6E6D69",
"hQ 	c #78746B",
"iQ 	c #8F8679",
"jQ 	c #A59A8A",
"kQ 	c #AC9F90",
"lQ 	c #B0A595",
"mQ 	c #AFA494",
"nQ 	c #B1A698",
"oQ 	c #9F998D",
"pQ 	c #6F6961",
"qQ 	c #5E5A53",
"rQ 	c #5B5B53",
"sQ 	c #41413D",
"tQ 	c #15161B",
"uQ 	c #17181D",
"vQ 	c #17191F",
"wQ 	c #171920",
"xQ 	c #191B23",
"yQ 	c #1A1C24",
"zQ 	c #1B1D25",
"AQ 	c #1C1E25",
"BQ 	c #1E1E25",
"CQ 	c #201F26",
"DQ 	c #1F1F25",
"EQ 	c #1E1D23",
"FQ 	c #1C1B21",
"GQ 	c #1A1A1F",
"HQ 	c #14161C",
"IQ 	c #16191E",
"JQ 	c #181A1F",
"KQ 	c #1F1F24",
"LQ 	c #222126",
"MQ 	c #232227",
"NQ 	c #212126",
"OQ 	c #212026",
"PQ 	c #202026",
"QQ 	c #201F25",
"RQ 	c #232429",
"SQ 	c #24252A",
"TQ 	c #27282C",
"UQ 	c #2A2A2E",
"VQ 	c #2E2E31",
"WQ 	c #2E2E32",
"XQ 	c #2F2F32",
"YQ 	c #302F32",
"ZQ 	c #2F2E32",
"`Q 	c #2B2B2E",
" R 	c #2A2B2E",
".R 	c #292A2E",
"+R 	c #2A2B2F",
"@R 	c #29292E",
"#R 	c #27282D",
"$R 	c #242428",
"%R 	c #262529",
"&R 	c #27262A",
"*R 	c #26252A",
"=R 	c #24242A",
"-R 	c #222329",
";R 	c #212229",
">R 	c #202228",
",R 	c #23242A",
"'R 	c #222228",
")R 	c #060707",
"!R 	c #0F0F11",
"~R 	c #101113",
"{R 	c #040505",
"]R 	c #332F33",
"^R 	c #494342",
"/R 	c #57483A",
"(R 	c #5D4628",
"_R 	c #6F532D",
":R 	c #927954",
"<R 	c #A49175",
"[R 	c #A99C86",
"}R 	c #AD9D8B",
"|R 	c #C1AB93",
"1R 	c #CFB296",
"2R 	c #C1AB92",
"3R 	c #837767",
"4R 	c #514B46",
"5R 	c #555253",
"6R 	c #443D3C",
"7R 	c #322722",
"8R 	c #36251B",
"9R 	c #402A1A",
"0R 	c #412612",
"aR 	c #4D2E15",
"bR 	c #4F3118",
"cR 	c #4C341F",
"dR 	c #332418",
"eR 	c #1A120C",
"fR 	c #4D4844",
"gR 	c #4F4E4B",
"hR 	c #5E5F5C",
"iR 	c #686A66",
"jR 	c #6C6A66",
"kR 	c #736F67",
"lR 	c #A49889",
"mR 	c #AB9E8F",
"nR 	c #AFA292",
"oR 	c #B1A596",
"pR 	c #A1998D",
"qR 	c #6F6860",
"rR 	c #5E5953",
"sR 	c #5D5C54",
"tR 	c #41413C",
"uR 	c #020100",
"vR 	c #242328",
"wR 	c #242228",
"xR 	c #201E24",
"yR 	c #18171C",
"zR 	c #18191F",
"AR 	c #181A22",
"BR 	c #1D1E25",
"CR 	c #1D1D24",
"DR 	c #1D1C22",
"ER 	c #1D1C21",
"FR 	c #16161B",
"GR 	c #201F22",
"HR 	c #1B181E",
"IR 	c #1A171D",
"JR 	c #2A272A",
"KR 	c #282529",
"LR 	c #26262A",
"MR 	c #27272B",
"NR 	c #242124",
"OR 	c #242125",
"PR 	c #242226",
"QR 	c #221F25",
"RR 	c #211F26",
"SR 	c #232128",
"TR 	c #242127",
"UR 	c #242126",
"VR 	c #000101",
"WR 	c #070706",
"XR 	c #050504",
"YR 	c #484342",
"ZR 	c #56493D",
"`R 	c #58452B",
" S 	c #644E2B",
".S 	c #846F4D",
"+S 	c #917F67",
"@S 	c #948773",
"#S 	c #9A8C78",
"$S 	c #AE9B84",
"%S 	c #BFA287",
"&S 	c #B8A085",
"*S 	c #887867",
"=S 	c #625850",
"-S 	c #605B57",
";S 	c #605D5A",
">S 	c #544A46",
",S 	c #48382E",
"'S 	c #483020",
")S 	c #4E3017",
"!S 	c #4D290B",
"~S 	c #59300E",
"{S 	c #5B3211",
"]S 	c #59381C",
"^S 	c #3B2717",
"/S 	c #1E150D",
"(S 	c #1B1611",
"_S 	c #564D45",
":S 	c #5D534A",
"<S 	c #594F48",
"[S 	c #4D4D4A",
"}S 	c #5C5D5A",
"|S 	c #62645F",
"1S 	c #64645E",
"2S 	c #6F6D63",
"3S 	c #8F8879",
"4S 	c #ABA08F",
"5S 	c #B2A694",
"6S 	c #B4A896",
"7S 	c #B3A795",
"8S 	c #B4A998",
"9S 	c #A49C8E",
"0S 	c #746C61",
"aS 	c #65635A",
"bS 	c #454540",
"cS 	c #2B2A2F",
"dS 	c #2D2B30",
"eS 	c #453E38",
"fS 	c #443C35",
"gS 	c #443B35",
"hS 	c #463E38",
"iS 	c #3B393A",
"jS 	c #3C393C",
"kS 	c #3E3B3D",
"lS 	c #3D3A3C",
"mS 	c #3E393B",
"nS 	c #3B3739",
"oS 	c #3B3837",
"pS 	c #2E292A",
"qS 	c #343030",
"rS 	c #363232",
"sS 	c #373334",
"tS 	c #443E3C",
"uS 	c #443F3D",
"vS 	c #474443",
"wS 	c #423C39",
"xS 	c #433D3A",
"yS 	c #443E3A",
"zS 	c #44403F",
"AS 	c #484444",
"BS 	c #494545",
"CS 	c #46423E",
"DS 	c #050403",
"ES 	c #030302",
"FS 	c #0D0D0D",
"GS 	c #050201",
"HS 	c #050101",
"IS 	c #050100",
"JS 	c #030100",
"KS 	c #030000",
"LS 	c #020000",
"MS 	c #060205",
"NS 	c #090404",
"OS 	c #080302",
"PS 	c #070301",
"QS 	c #080402",
"RS 	c #0B0805",
"SS 	c #0D0B07",
"TS 	c #0D0A07",
"US 	c #0C0A06",
"VS 	c #0A0604",
"WS 	c #0A0704",
"XS 	c #090705",
"YS 	c #040201",
"ZS 	c #040203",
"`S 	c #453725",
" T 	c #514023",
".T 	c #6F5C40",
"+T 	c #806D5A",
"@T 	c #807163",
"#T 	c #817161",
"$T 	c #937D69",
"%T 	c #A2846B",
"&T 	c #A3896D",
"*T 	c #8F7B67",
"=T 	c #82736B",
"-T 	c #807873",
";T 	c #75716A",
">T 	c #625750",
",T 	c #5E4A3D",
"'T 	c #5F402D",
")T 	c #643D1E",
"!T 	c #633710",
"~T 	c #704114",
"{T 	c #72441B",
"]T 	c #694626",
"^T 	c #45301E",
"/T 	c #1B100B",
"(T 	c #19120F",
"_T 	c #6A5E53",
":T 	c #74675C",
"<T 	c #72655C",
"[T 	c #453E3C",
"}T 	c #2C2829",
"|T 	c #565653",
"1T 	c #595955",
"2T 	c #5A5852",
"3T 	c #68655A",
"4T 	c #908979",
"5T 	c #AFA491",
"6T 	c #B7AB97",
"7T 	c #B7AC98",
"8T 	c #B5AA97",
"9T 	c #756C60",
"0T 	c #696259",
"aT 	c #6D6961",
"bT 	c #110D0C",
"cT 	c #16120F",
"dT 	c #1F1B17",
"eT 	c #2D2A2D",
"fT 	c #383330",
"gT 	c #60574B",
"hT 	c #827663",
"iT 	c #8C7D68",
"jT 	c #877663",
"kT 	c #806F5C",
"lT 	c #796957",
"mT 	c #7A6B59",
"nT 	c #776858",
"oT 	c #796B5A",
"pT 	c #786A5B",
"qT 	c #7C6D5F",
"rT 	c #807463",
"sT 	c #817568",
"tT 	c #80756A",
"uT 	c #7E746C",
"vT 	c #80756D",
"wT 	c #80746C",
"xT 	c #82776D",
"yT 	c #7D7166",
"zT 	c #786A60",
"AT 	c #71665D",
"BT 	c #6E635B",
"CT 	c #6F645D",
"DT 	c #70655F",
"ET 	c #746962",
"FT 	c #766C64",
"GT 	c #7C7269",
"HT 	c #82786E",
"IT 	c #8A8176",
"JT 	c #91897E",
"KT 	c #A29A8F",
"LT 	c #A79F95",
"MT 	c #9E978C",
"NT 	c #847C72",
"OT 	c #6A625B",
"PT 	c #625B55",
"QT 	c #5D5851",
"RT 	c #5A554E",
"ST 	c #5F5852",
"TT 	c #6F6861",
"UT 	c #787167",
"VT 	c #7C756A",
"WT 	c #7F766C",
"XT 	c #83796F",
"YT 	c #837B71",
"ZT 	c #857C72",
"`T 	c #857D73",
" U 	c #827A6F",
".U 	c #817A6E",
"+U 	c #7F776C",
"@U 	c #7C7569",
"#U 	c #787266",
"$U 	c #716B5F",
"%U 	c #6F685C",
"&U 	c #6D675B",
"*U 	c #6E675C",
"=U 	c #726B5F",
"-U 	c #746D60",
";U 	c #736C60",
">U 	c #726A5E",
",U 	c #6B6257",
"'U 	c #685F55",
")U 	c #685E53",
"!U 	c #675B50",
"~U 	c #665A4D",
"{U 	c #6F6453",
"]U 	c #766A59",
"^U 	c #7A6F5D",
"/U 	c #7A6E5D",
"(U 	c #7A6F5E",
"_U 	c #796E5F",
":U 	c #797060",
"<U 	c #797061",
"[U 	c #7B7163",
"}U 	c #7C7365",
"|U 	c #82796A",
"1U 	c #877E6E",
"2U 	c #8D8475",
"3U 	c #8C8275",
"4U 	c #857B6F",
"5U 	c #82776C",
"6U 	c #837A6F",
"7U 	c #8A8378",
"8U 	c #8B8478",
"9U 	c #8B8579",
"0U 	c #8C857A",
"aU 	c #8C8478",
"bU 	c #847A6F",
"cU 	c #81766B",
"dU 	c #807669",
"eU 	c #837A6C",
"fU 	c #82796B",
"gU 	c #807769",
"hU 	c #807668",
"iU 	c #807768",
"jU 	c #7E766A",
"kU 	c #776F66",
"lU 	c #6B655F",
"mU 	c #767063",
"nU 	c #554E48",
"oU 	c #1A1815",
"pU 	c #181612",
"qU 	c #0E0C0A",
"rU 	c #1B1C1C",
"sU 	c #221D19",
"tU 	c #2D261D",
"uU 	c #31281E",
"vU 	c #342921",
"wU 	c #322720",
"xU 	c #31261F",
"yU 	c #291F19",
"zU 	c #1B130F",
"AU 	c #110A07",
"BU 	c #0F0A08",
"CU 	c #100B09",
"DU 	c #110D0A",
"EU 	c #0D0A08",
"FU 	c #090605",
"GU 	c #050202",
"HU 	c #181311",
"IU 	c #130E0D",
"JU 	c #1B1412",
"KU 	c #271D1A",
"LU 	c #261C16",
"MU 	c #231B13",
"NU 	c #383128",
"OU 	c #423A33",
"PU 	c #28221B",
"QU 	c #171210",
"RU 	c #0F0A0A",
"SU 	c #0C090A",
"TU 	c #342B1F",
"UU 	c #42361F",
"VU 	c #67563E",
"WU 	c #7E6C5A",
"XU 	c #7F6F61",
"YU 	c #7D6B5E",
"ZU 	c #8B7461",
"`U 	c #95775F",
" V 	c #9B8162",
".V 	c #958068",
"+V 	c #99887C",
"@V 	c #9A8E86",
"#V 	c #867E75",
"$V 	c #63584E",
"%V 	c #5C483A",
"&V 	c #63402B",
"*V 	c #704420",
"=V 	c #794819",
"-V 	c #8C5922",
";V 	c #8F602E",
">V 	c #805E39",
",V 	c #503E2A",
"'V 	c #1F1610",
")V 	c #51483D",
"!V 	c #8E8270",
"~V 	c #9F917D",
"{V 	c #9E9180",
"]V 	c #90877A",
"^V 	c #5D5850",
"/V 	c #373436",
"(V 	c #474744",
"_V 	c #51534E",
":V 	c #54554F",
"<V 	c #54544B",
"[V 	c #666358",
"}V 	c #918B7A",
"|V 	c #B1A794",
"1V 	c #B7AB98",
"2V 	c #B8AC99",
"3V 	c #B6AA97",
"4V 	c #B5AA99",
"5V 	c #A59D8F",
"6V 	c #726D65",
"7V 	c #4D4B47",
"8V 	c #413B32",
"9V 	c #4C473C",
"0V 	c #4F483F",
"aV 	c #49443A",
"bV 	c #726754",
"cV 	c #A29274",
"dV 	c #A89577",
"eV 	c #98846A",
"fV 	c #86745C",
"gV 	c #7E6E58",
"hV 	c #80715D",
"iV 	c #7C6E5E",
"jV 	c #7B6E5E",
"kV 	c #786C5B",
"lV 	c #7E705F",
"mV 	c #958773",
"nV 	c #A29580",
"oV 	c #A29280",
"pV 	c #A19280",
"qV 	c #9F8F80",
"rV 	c #9D8B7A",
"sV 	c #9D8976",
"tV 	c #907B67",
"uV 	c #826D5A",
"vV 	c #7B6757",
"wV 	c #7E6D5E",
"xV 	c #7C6C5F",
"yV 	c #7E7063",
"zV 	c #85766A",
"AV 	c #8F8072",
"BV 	c #978879",
"CV 	c #A29482",
"DV 	c #AC9D8C",
"EV 	c #B7A996",
"FV 	c #BEB19F",
"GV 	c #C5B9A7",
"HV 	c #C8BCAB",
"IV 	c #C9BEAD",
"JV 	c #B9AD9E",
"KV 	c #8E8376",
"LV 	c #696054",
"MV 	c #625A50",
"NV 	c #6A6256",
"OV 	c #877D70",
"PV 	c #9C9180",
"QV 	c #A29683",
"RV 	c #A69986",
"SV 	c #AB9E8B",
"TV 	c #AD9F8C",
"UV 	c #AEA08D",
"VV 	c #AB9D8A",
"WV 	c #A79A87",
"XV 	c #A39784",
"YV 	c #9E9380",
"ZV 	c #9B917D",
"`V 	c #978D7A",
" W 	c #958B77",
".W 	c #928975",
"+W 	c #918774",
"@W 	c #908673",
"#W 	c #908773",
"$W 	c #938976",
"%W 	c #958B78",
"&W 	c #8D826F",
"*W 	c #847967",
"=W 	c #7F7363",
"-W 	c #827566",
";W 	c #867767",
">W 	c #857462",
",W 	c #8D7B63",
"'W 	c #A49075",
")W 	c #B09C80",
"!W 	c #B39F83",
"~W 	c #B29E82",
"{W 	c #B29F84",
"]W 	c #B09E84",
"^W 	c #AE9E86",
"/W 	c #AC9D86",
"(W 	c #AC9D87",
"_W 	c #B0A28B",
":W 	c #B2A48E",
"<W 	c #B5A792",
"[W 	c #B3A491",
"}W 	c #AB9C8B",
"|W 	c #9D907F",
"1W 	c #988C7A",
"2W 	c #998D7E",
"3W 	c #A19586",
"4W 	c #A29685",
"5W 	c #A19784",
"6W 	c #A09582",
"7W 	c #A19481",
"8W 	c #9E927F",
"9W 	c #938675",
"0W 	c #8F8170",
"aW 	c #908371",
"bW 	c #978A77",
"cW 	c #968B78",
"dW 	c #968C78",
"eW 	c #928775",
"fW 	c #8F8472",
"gW 	c #8B7F6D",
"hW 	c #8A7F6D",
"iW 	c #857C6D",
"jW 	c #7B7468",
"kW 	c #706960",
"lW 	c #6A645C",
"mW 	c #6E685F",
"nW 	c #716A5D",
"oW 	c #70695B",
"pW 	c #5F5950",
"qW 	c #36342F",
"rW 	c #2C2722",
"sW 	c #221E1A",
"tW 	c #13110E",
"uW 	c #171615",
"vW 	c #232424",
"wW 	c #685D4F",
"xW 	c #746555",
"yW 	c #786957",
"zW 	c #796959",
"AW 	c #7B6C5C",
"BW 	c #7A6B5C",
"CW 	c #796C5D",
"DW 	c #6A5D52",
"EW 	c #4B4035",
"FW 	c #2E2723",
"GW 	c #16100C",
"HW 	c #100A07",
"IW 	c #17100D",
"JW 	c #201915",
"KW 	c #342A26",
"LW 	c #4B3D37",
"MW 	c #493A31",
"NW 	c #44372B",
"OW 	c #544639",
"PW 	c #6B6051",
"QW 	c #766C5E",
"RW 	c #786E62",
"SW 	c #6F655A",
"TW 	c #5C5247",
"UW 	c #443A31",
"VW 	c #443B33",
"WW 	c #403831",
"XW 	c #1B1A17",
"YW 	c #4A453E",
"ZW 	c #2D261F",
"`W 	c #392F1E",
" X 	c #5E503C",
".X 	c #7A6A58",
"+X 	c #7E6C5E",
"@X 	c #8B7360",
"#X 	c #907159",
"$X 	c #917455",
"%X 	c #8F765C",
"&X 	c #9D8779",
"*X 	c #A08F85",
"=X 	c #8B7E74",
"-X 	c #65574C",
";X 	c #594434",
">X 	c #62422B",
",X 	c #734925",
"'X 	c #804F23",
")X 	c #976533",
"!X 	c #996D3E",
"~X 	c #876846",
"{X 	c #524131",
"]X 	c #1C1411",
"^X 	c #594E42",
"/X 	c #9F907C",
"(X 	c #B2A28A",
"_X 	c #9C9081",
":X 	c #3D3A3B",
"<X 	c #3A383A",
"[X 	c #302E31",
"}X 	c #484744",
"|X 	c #50504C",
"1X 	c #51524D",
"2X 	c #515049",
"3X 	c #646156",
"4X 	c #918A7A",
"5X 	c #B8AC98",
"6X 	c #B6AA96",
"7X 	c #B5AA98",
"8X 	c #A69D8E",
"9X 	c #726F66",
"0X 	c #4D4C48",
"aX 	c #181416",
"bX 	c #5D5346",
"cX 	c #3B362F",
"dX 	c #6F634D",
"eX 	c #9D8B6B",
"fX 	c #998666",
"gX 	c #7C6B51",
"hX 	c #62553E",
"iX 	c #564B3A",
"jX 	c #574F41",
"kX 	c #514D42",
"lX 	c #49463C",
"mX 	c #534D41",
"nX 	c #8B8071",
"oX 	c #AA9C8A",
"pX 	c #A79786",
"qX 	c #A59684",
"rX 	c #A09280",
"sX 	c #9F8F7C",
"tX 	c #9B8974",
"uX 	c #99856C",
"vX 	c #897258",
"wX 	c #6A5542",
"xX 	c #715F50",
"yX 	c #716153",
"zX 	c #736557",
"AX 	c #7D6F61",
"BX 	c #988875",
"CX 	c #A4957F",
"DX 	c #AD9F88",
"EX 	c #B6A991",
"FX 	c #BDB099",
"GX 	c #C3B6A0",
"HX 	c #C2B7A0",
"IX 	c #C1B6A1",
"JX 	c #AEA391",
"KX 	c #7C7162",
"LX 	c #4B4234",
"MX 	c #433A2F",
"NX 	c #574D42",
"OX 	c #62584A",
"PX 	c #847968",
"QX 	c #9B8D79",
"RX 	c #A3957E",
"SX 	c #A6977F",
"TX 	c #AB9B84",
"UX 	c #AD9D85",
"VX 	c #AD9C85",
"WX 	c #A79881",
"XX 	c #A2957E",
"YX 	c #9E927C",
"ZX 	c #9C907A",
"`X 	c #998E78",
" Y 	c #988C76",
".Y 	c #968B75",
"+Y 	c #968B74",
"@Y 	c #958B74",
"#Y 	c #988D76",
"$Y 	c #9A8F78",
"%Y 	c #9C9079",
"&Y 	c #90846E",
"*Y 	c #7D725D",
"=Y 	c #6B614F",
"-Y 	c #695D4E",
";Y 	c #716455",
">Y 	c #716050",
",Y 	c #86735B",
"'Y 	c #AE977A",
")Y 	c #BBA484",
"!Y 	c #BAA484",
"~Y 	c #B8A283",
"{Y 	c #B4A083",
"]Y 	c #B2A083",
"^Y 	c #B09D83",
"/Y 	c #AF9E83",
"(Y 	c #AF9E84",
"_Y 	c #B1A087",
":Y 	c #B4A48D",
"<Y 	c #B2A28D",
"[Y 	c #A79886",
"}Y 	c #988C79",
"|Y 	c #918573",
"1Y 	c #928776",
"2Y 	c #9B8F7E",
"3Y 	c #A0917C",
"4Y 	c #9F9079",
"5Y 	c #9D8C75",
"6Y 	c #A28F77",
"7Y 	c #A38E78",
"8Y 	c #8A7A65",
"9Y 	c #80725C",
"0Y 	c #837561",
"aY 	c #91836F",
"bY 	c #948873",
"cY 	c #948A74",
"dY 	c #918673",
"eY 	c #8D8370",
"fY 	c #867B69",
"gY 	c #837967",
"hY 	c #7F7665",
"iY 	c #7D7566",
"jY 	c #746E63",
"kY 	c #67625B",
"lY 	c #5F5B55",
"mY 	c #5F584F",
"nY 	c #4E4641",
"oY 	c #3C3B37",
"pY 	c #403C37",
"qY 	c #3F3B35",
"rY 	c #1C1B19",
"sY 	c #1D1C1B",
"tY 	c #1B1B19",
"uY 	c #1F2021",
"vY 	c #222324",
"wY 	c #7C6E5D",
"xY 	c #897763",
"yY 	c #8B7964",
"zY 	c #8B7965",
"AY 	c #8D7C68",
"BY 	c #8B7B68",
"CY 	c #7B6D61",
"DY 	c #40362C",
"EY 	c #473E36",
"FY 	c #1C160F",
"GY 	c #241D17",
"HY 	c #392F2A",
"IY 	c #1C1514",
"JY 	c #211814",
"KY 	c #473830",
"LY 	c #47362A",
"MY 	c #463627",
"NY 	c #5B4B3C",
"OY 	c #776958",
"PY 	c #807464",
"QY 	c #7F7465",
"RY 	c #766B5D",
"SY 	c #605649",
"TY 	c #4D4236",
"UY 	c #483D33",
"VY 	c #4B4138",
"WY 	c #453C35",
"XY 	c #221A1A",
"YY 	c #1A1517",
"ZY 	c #1D1B19",
"`Y 	c #201C19",
" Z 	c #2B2722",
".Z 	c #574E43",
"+Z 	c #5D5448",
"@Z 	c #5F544A",
"#Z 	c #3C3425",
"$Z 	c #584D3B",
"%Z 	c #6C5D4E",
"&Z 	c #6F6356",
"*Z 	c #726456",
"=Z 	c #7E6857",
"-Z 	c #84654F",
";Z 	c #886A49",
">Z 	c #8A704F",
",Z 	c #977F68",
"'Z 	c #9E8777",
")Z 	c #917E70",
"!Z 	c #796658",
"~Z 	c #76604C",
"{Z 	c #7D6046",
"]Z 	c #886442",
"^Z 	c #8E663F",
"/Z 	c #9A7148",
"(Z 	c #9A7951",
"_Z 	c #887254",
":Z 	c #524738",
"<Z 	c #1E1814",
"[Z 	c #1E1813",
"}Z 	c #A29481",
"|Z 	c #AF9E88",
"1Z 	c #AA9A86",
"2Z 	c #9D9080",
"3Z 	c #3E3C3E",
"4Z 	c #2E2B2E",
"5Z 	c #484845",
"6Z 	c #53544F",
"7Z 	c #52534E",
"8Z 	c #515048",
"9Z 	c #928B7B",
"0Z 	c #B1A894",
"aZ 	c #B6AB98",
"bZ 	c #A79E8E",
"cZ 	c #4D4E48",
"dZ 	c #222428",
"eZ 	c #171213",
"fZ 	c #151112",
"gZ 	c #44392A",
"hZ 	c #514536",
"iZ 	c #655A45",
"jZ 	c #8A785B",
"kZ 	c #7D6C4F",
"lZ 	c #5C4D38",
"mZ 	c #413527",
"nZ 	c #1E1E1A",
"oZ 	c #1B1D19",
"pZ 	c #171917",
"qZ 	c #80796D",
"rZ 	c #ACA18F",
"sZ 	c #A19381",
"tZ 	c #9C8D7B",
"uZ 	c #9C8D77",
"vZ 	c #98846D",
"wZ 	c #988165",
"xZ 	c #876F52",
"yZ 	c #6D563B",
"zZ 	c #634E3A",
"AZ 	c #6D5C4C",
"BZ 	c #6D5F50",
"CZ 	c #6E5F52",
"DZ 	c #7C6E5F",
"EZ 	c #8D7E6C",
"FZ 	c #9B8B77",
"GZ 	c #A89982",
"HZ 	c #AFA189",
"IZ 	c #B9AB92",
"JZ 	c #BEB199",
"KZ 	c #C2B59D",
"LZ 	c #C1B59E",
"MZ 	c #BFB39D",
"NZ 	c #ABA08C",
"OZ 	c #4A4133",
"PZ 	c #4B4439",
"QZ 	c #544B41",
"RZ 	c #63594B",
"SZ 	c #837866",
"TZ 	c #998B76",
"UZ 	c #A1937B",
"VZ 	c #A4947C",
"WZ 	c #AA9A82",
"XZ 	c #AB9B83",
"YZ 	c #AB9A83",
"ZZ 	c #A69780",
"`Z 	c #A1947D",
" ` 	c #9B8F79",
".` 	c #998D77",
"+` 	c #978B75",
"@` 	c #978C75",
"#` 	c #998E76",
"$` 	c #9B8F77",
"%` 	c #9C9078",
"&` 	c #9D9179",
"*` 	c #9C8F78",
"=` 	c #91846D",
"-` 	c #7B705C",
";` 	c #605546",
">` 	c #544B3F",
",` 	c #52473D",
"'` 	c #514438",
")` 	c #746250",
"!` 	c #AE9880",
"~` 	c #BFAA8B",
"{` 	c #BEA98A",
"]` 	c #BAA486",
"^` 	c #B8A384",
"/` 	c #B49F82",
"(` 	c #B3A084",
"_` 	c #B09D82",
":` 	c #AF9D82",
"<` 	c #AF9D83",
"[` 	c #B1A088",
"}` 	c #B2A18A",
"|` 	c #B2A28B",
"1` 	c #AD9D88",
"2` 	c #A39481",
"3` 	c #958876",
"4` 	c #8E8171",
"5` 	c #8D8171",
"6` 	c #948675",
"7` 	c #9A8671",
"8` 	c #9D886F",
"9` 	c #9E856B",
"0` 	c #A2866B",
"a` 	c #9E8067",
"b` 	c #917760",
"c` 	c #6B5A44",
"d` 	c #72634D",
"e` 	c #877863",
"f` 	c #92846F",
"g` 	c #948772",
"h` 	c #8F836E",
"i` 	c #8A7E6B",
"j` 	c #847866",
"k` 	c #7F7562",
"l` 	c #7A705F",
"m` 	c #776F60",
"n` 	c #645E58",
"o` 	c #5B5751",
"p` 	c #5B5750",
"q` 	c #58544C",
"r` 	c #343335",
"s` 	c #312F33",
"t` 	c #343434",
"u` 	c #212122",
"v` 	c #252521",
"w` 	c #4D463A",
"x` 	c #7D6F5C",
"y` 	c #887661",
"z` 	c #8A7862",
"A` 	c #897762",
"B` 	c #8B7A65",
"C` 	c #897A65",
"D` 	c #8C7D6B",
"E` 	c #7D6F60",
"F` 	c #473E35",
"G` 	c #4A4139",
"H` 	c #473F37",
"I` 	c #342C27",
"J` 	c #272018",
"K` 	c #443A33",
"L` 	c #433A33",
"M` 	c #32251F",
"N` 	c #3D2E25",
"O` 	c #3E2D20",
"P` 	c #433122",
"Q` 	c #5D4B3B",
"R` 	c #796A59",
"S` 	c #817463",
"T` 	c #817565",
"U` 	c #5F5447",
"V` 	c #4C4236",
"W` 	c #413933",
"X` 	c #231B1C",
"Y` 	c #211B1D",
"Z` 	c #1A1619",
"`` 	c #5A4D42",
"  .	c #615448",
". .	c #645649",
"+ .	c #514639",
"@ .	c #615348",
"# .	c #61554C",
"$ .	c #5F5349",
"% .	c #6B584A",
"& .	c #795B45",
"* .	c #7E5D3B",
"= .	c #896A4C",
"- .	c #8F7158",
"; .	c #917862",
"> .	c #9A8471",
", .	c #A5907B",
"' .	c #A78D75",
") .	c #A78B6E",
"! .	c #9D8061",
"~ .	c #997E5E",
"{ .	c #8F785C",
"] .	c #7F705C",
"^ .	c #1A1412",
"/ .	c #9F9382",
"( .	c #AFA28B",
"_ .	c #A79885",
": .	c #998E7E",
"< .	c #635C53",
"[ .	c #3F3C3D",
"} .	c #3C393B",
"| .	c #535450",
"1 .	c #52524D",
"2 .	c #504F47",
"3 .	c #636054",
"4 .	c #B7AA96",
"5 .	c #B6A997",
"6 .	c #A79D8D",
"7 .	c #786E61",
"8 .	c #70685F",
"9 .	c #737067",
"0 .	c #4E4E48",
"a .	c #222327",
"b .	c #232629",
"c .	c #3E352A",
"d .	c #524637",
"e .	c #5D5041",
"f .	c #6A6051",
"g .	c #544B40",
"h .	c #27272A",
"i .	c #1E2024",
"j .	c #1D1F21",
"k .	c #594E3C",
"l .	c #76664A",
"m .	c #69583D",
"n .	c #504130",
"o .	c #42362D",
"p .	c #1F1E19",
"q .	c #0C0E0D",
"r .	c #080D0D",
"s .	c #06090B",
"t .	c #20211F",
"u .	c #757066",
"v .	c #A09585",
"w .	c #9E8E7B",
"x .	c #9A8A75",
"y .	c #92806C",
"z .	c #948069",
"A .	c #967E64",
"B .	c #967C5D",
"C .	c #876D4D",
"D .	c #6D5438",
"E .	c #634D37",
"F .	c #70604E",
"G .	c #766554",
"H .	c #887765",
"I .	c #988773",
"J .	c #A4937C",
"K .	c #AF9E85",
"L .	c #B5A58B",
"M .	c #BBAC92",
"N .	c #BDAF95",
"O .	c #BFB198",
"P .	c #C0B299",
"Q .	c #BCAF97",
"R .	c #ADA18B",
"S .	c #887D6A",
"T .	c #645A4A",
"U .	c #5B5346",
"V .	c #696051",
"W .	c #958872",
"X .	c #9D8E77",
"Y .	c #A1917A",
"Z .	c #A6957E",
"` .	c #A99982",
" ..	c #AC9B85",
"...	c #AC9C85",
"+..	c #A99983",
"@..	c #9F927B",
"#..	c #998E77",
"$..	c #978C76",
"%..	c #9B8E78",
"&..	c #9D8F79",
"*..	c #9D9079",
"=..	c #9B8D76",
"-..	c #92856E",
";..	c #837663",
">..	c #6D6155",
",..	c #5B544A",
"'..	c #39312A",
")..	c #998A79",
"!..	c #AD9C82",
"~..	c #AB987B",
"{..	c #B29E80",
"]..	c #B39F82",
"^..	c #B09C82",
"/..	c #B09C83",
"(..	c #AF9C84",
"_..	c #B09E86",
":..	c #AF9D87",
"<..	c #AF9D88",
"[..	c #A99884",
"}..	c #928372",
"|..	c #8F7F72",
"1..	c #8E7E70",
"2..	c #91806D",
"3..	c #947D66",
"4..	c #997D63",
"5..	c #9B7B5F",
"6..	c #9D795C",
"7..	c #967256",
"8..	c #87684D",
"9..	c #725942",
"0..	c #69543E",
"a..	c #736049",
"b..	c #87765E",
"c..	c #91836C",
"d..	c #93856E",
"e..	c #90826C",
"f..	c #8C7E69",
"g..	c #857864",
"h..	c #817561",
"i..	c #7C725F",
"j..	c #7B7160",
"k..	c #71695D",
"l..	c #665F57",
"m..	c #5B554E",
"n..	c #58544B",
"o..	c #494440",
"p..	c #262623",
"q..	c #363538",
"r..	c #36383A",
"s..	c #333438",
"t..	c #453D37",
"u..	c #1F1C1A",
"v..	c #1E1B17",
"w..	c #1B1714",
"x..	c #181511",
"y..	c #4A4236",
"z..	c #736652",
"A..	c #7A6955",
"B..	c #7D6C57",
"C..	c #7C6B57",
"D..	c #7F6F5B",
"E..	c #7E6F5C",
"F..	c #7F705E",
"G..	c #746756",
"H..	c #584C3F",
"I..	c #443930",
"J..	c #493F37",
"K..	c #2F2721",
"L..	c #251D17",
"M..	c #221A13",
"N..	c #292018",
"O..	c #3F342E",
"P..	c #443932",
"Q..	c #3C332D",
"R..	c #352D2A",
"S..	c #40332C",
"T..	c #4A3B2F",
"U..	c #4C3B2D",
"V..	c #534231",
"W..	c #675545",
"X..	c #7C6C5B",
"Y..	c #807261",
"Z..	c #7D6F5F",
"`..	c #726557",
" +.	c #5B4F43",
".+.	c #483D32",
"++.	c #20191C",
"@+.	c #211B1E",
"#+.	c #1C171B",
"$+.	c #574C40",
"%+.	c #635549",
"&+.	c #66584B",
"*+.	c #645548",
"=+.	c #373232",
"-+.	c #5C5046",
";+.	c #5C514A",
">+.	c #584D46",
",+.	c #625145",
"'+.	c #745740",
")+.	c #805D39",
"!+.	c #805C34",
"~+.	c #805D37",
"{+.	c #7C5A3B",
"]+.	c #896D52",
"^+.	c #A48D77",
"/+.	c #B4A08B",
"(+.	c #B39C87",
"_+.	c #AE977F",
":+.	c #9C876D",
"<+.	c #958167",
"[+.	c #8D7D67",
"}+.	c #796E60",
"|+.	c #9A9080",
"1+.	c #ADA28B",
"2+.	c #A59986",
"3+.	c #948A7B",
"4+.	c #615A52",
"5+.	c #403E3F",
"6+.	c #393739",
"7+.	c #474844",
"8+.	c #52534D",
"9+.	c #636053",
"0+.	c #928C7A",
"a+.	c #A79D8C",
"b+.	c #747066",
"c+.	c #504F4A",
"d+.	c #212327",
"e+.	c #23262A",
"f+.	c #3A3331",
"g+.	c #383231",
"h+.	c #2D2725",
"i+.	c #584F42",
"j+.	c #665B4C",
"k+.	c #716453",
"l+.	c #746755",
"m+.	c #7B6E5C",
"n+.	c #756B5C",
"o+.	c #1A1C20",
"p+.	c #544B39",
"q+.	c #6F6144",
"r+.	c #64553A",
"s+.	c #544634",
"t+.	c #2A2921",
"u+.	c #10110E",
"v+.	c #0A0D0A",
"w+.	c #070908",
"x+.	c #20201C",
"y+.	c #6E695D",
"z+.	c #948A78",
"A+.	c #8F806B",
"B+.	c #907E67",
"C+.	c #907C64",
"D+.	c #937C64",
"E+.	c #967B60",
"F+.	c #9B7E5E",
"G+.	c #907453",
"H+.	c #7A6042",
"I+.	c #725C42",
"J+.	c #84735B",
"K+.	c #8C7C64",
"L+.	c #9F8E77",
"M+.	c #AF9D86",
"N+.	c #B6A589",
"O+.	c #BCAA8D",
"P+.	c #BDAC90",
"Q+.	c #C0B094",
"R+.	c #C0B096",
"S+.	c #C0B298",
"T+.	c #BFB197",
"U+.	c #BDB096",
"V+.	c #B3A68F",
"W+.	c #9F927D",
"X+.	c #897D6B",
"Y+.	c #79715E",
"Z+.	c #6D6553",
"`+.	c #6B6352",
" @.	c #79705E",
".@.	c #978A73",
"+@.	c #9C8E76",
"@@.	c #A09078",
"#@.	c #A7977F",
"$@.	c #A99981",
"%@.	c #A99A83",
"&@.	c #9F927A",
"*@.	c #9B8F78",
"=@.	c #978B74",
"-@.	c #988C75",
";@.	c #9A8E77",
">@.	c #9E9079",
",@.	c #9C8D76",
"'@.	c #968771",
")@.	c #8E806D",
"!@.	c #84796B",
"~@.	c #473B31",
"{@.	c #4E4232",
"]@.	c #6C5C46",
"^@.	c #A38F75",
"/@.	c #B7A488",
"(@.	c #B7A38A",
"_@.	c #B6A289",
":@.	c #B4A188",
"<@.	c #B4A28A",
"[@.	c #B2A08A",
"}@.	c #B2A08B",
"|@.	c #AD9B87",
"1@.	c #A4937F",
"2@.	c #9B8B78",
"3@.	c #978778",
"4@.	c #938374",
"5@.	c #94826F",
"6@.	c #947B64",
"7@.	c #9A7D62",
"8@.	c #9A785D",
"9@.	c #997458",
"0@.	c #936E51",
"a@.	c #8A6A4D",
"b@.	c #83694F",
"c@.	c #887059",
"d@.	c #907B64",
"e@.	c #9B896F",
"f@.	c #9F8F75",
"g@.	c #A29278",
"h@.	c #A08F76",
"i@.	c #9E8E75",
"j@.	c #998971",
"k@.	c #97876F",
"l@.	c #93856F",
"m@.	c #928671",
"n@.	c #726A5C",
"o@.	c #645D51",
"p@.	c #5E584A",
"q@.	c #171512",
"r@.	c #3B3C3E",
"s@.	c #3D3F41",
"t@.	c #383B3C",
"u@.	c #333436",
"v@.	c #3C3932",
"w@.	c #49433B",
"x@.	c #62594D",
"y@.	c #675F56",
"z@.	c #423D35",
"A@.	c #302C26",
"B@.	c #212223",
"C@.	c #685B47",
"D@.	c #685743",
"E@.	c #695945",
"F@.	c #695845",
"G@.	c #6C5B4A",
"H@.	c #6B5D4D",
"I@.	c #62564B",
"J@.	c #483E36",
"K@.	c #2F2820",
"L@.	c #2E261F",
"M@.	c #41372F",
"N@.	c #413B36",
"O@.	c #5E4F43",
"P@.	c #645344",
"Q@.	c #6B5A49",
"R@.	c #776755",
"S@.	c #827462",
"T@.	c #847765",
"U@.	c #7E7161",
"V@.	c #5A4E42",
"W@.	c #473D32",
"X@.	c #1D181B",
"Y@.	c #171418",
"Z@.	c #54514B",
"`@.	c #564E43",
" #.	c #5A5143",
".#.	c #65594C",
"+#.	c #6B5C4F",
"@#.	c #6C5D4F",
"##.	c #665749",
"$#.	c #2F2A2E",
"%#.	c #423A35",
"&#.	c #524944",
"*#.	c #554B49",
"=#.	c #554C48",
"-#.	c #65554C",
";#.	c #7A5E46",
">#.	c #815D39",
",#.	c #7C562E",
"'#.	c #77502A",
")#.	c #724E2D",
"!#.	c #806347",
"~#.	c #9F8771",
"{#.	c #AC9785",
"]#.	c #A99382",
"^#.	c #A28F7A",
"/#.	c #95846E",
"(#.	c #8B7867",
"_#.	c #867868",
":#.	c #352E28",
"<#.	c #756D5F",
"[#.	c #8C8070",
"}#.	c #887C6D",
"|#.	c #7A7365",
"1#.	c #333233",
"2#.	c #535550",
"3#.	c #51524C",
"4#.	c #4F4E47",
"5#.	c #625E52",
"6#.	c #928B7A",
"7#.	c #B0A693",
"8#.	c #B5A794",
"9#.	c #B5A897",
"0#.	c #A69A8B",
"a#.	c #796C5F",
"b#.	c #736A5E",
"c#.	c #736F65",
"d#.	c #504E49",
"e#.	c #232529",
"f#.	c #393130",
"g#.	c #48403C",
"h#.	c #4A413E",
"i#.	c #463E3C",
"j#.	c #685E51",
"k#.	c #827562",
"l#.	c #7A7062",
"m#.	c #625A51",
"n#.	c #312A25",
"o#.	c #191A20",
"p#.	c #514838",
"q#.	c #6F6047",
"r#.	c #695A41",
"s#.	c #594A3A",
"t#.	c #2A2820",
"u#.	c #23231A",
"v#.	c #191813",
"w#.	c #292620",
"x#.	c #696255",
"y#.	c #867562",
"z#.	c #88745F",
"A#.	c #8D7760",
"B#.	c #967F67",
"C#.	c #9B8165",
"D#.	c #A18564",
"E#.	c #9C805E",
"F#.	c #8C7253",
"G#.	c #846E53",
"H#.	c #8E7B62",
"I#.	c #948168",
"J#.	c #9A886E",
"K#.	c #AC9980",
"L#.	c #BAA88E",
"M#.	c #BFAD90",
"N#.	c #C2B091",
"O#.	c #C1AF92",
"P#.	c #C1B195",
"Q#.	c #C0AF95",
"R#.	c #BFB097",
"S#.	c #BDAE95",
"T#.	c #BCAE94",
"U#.	c #B7A991",
"V#.	c #AE9F8A",
"W#.	c #9F917E",
"X#.	c #7C7261",
"Y#.	c #786D5D",
"Z#.	c #908471",
"`#.	c #958873",
" $.	c #9C8E77",
".$.	c #9E8F78",
"+$.	c #A69680",
"@$.	c #A89983",
"#$.	c #AB9C87",
"$$.	c #AB9C86",
"%$.	c #A89984",
"&$.	c #A2947F",
"*$.	c #9D917C",
"=$.	c #9A8E79",
"-$.	c #978C77",
";$.	c #968B76",
">$.	c #9A8E78",
",$.	c #9D8F7A",
"'$.	c #9E8F7A",
")$.	c #9F907B",
"!$.	c #9E8E79",
"~$.	c #968671",
"{$.	c #8F816F",
"]$.	c #8B7F73",
"^$.	c #726B65",
"/$.	c #443E3F",
"($.	c #1D171B",
"_$.	c #0E080C",
":$.	c #0F0808",
"<$.	c #0E0604",
"[$.	c #1B0F07",
"}$.	c #534332",
"|$.	c #A5917A",
"1$.	c #BDAA90",
"2$.	c #BBA890",
"3$.	c #B9A68E",
"4$.	c #B8A58E",
"5$.	c #B8A58F",
"6$.	c #B6A38F",
"7$.	c #B5A48F",
"8$.	c #B09F8C",
"9$.	c #A99886",
"0$.	c #9D8D7C",
"a$.	c #948576",
"b$.	c #8E7C6D",
"c$.	c #8E7864",
"d$.	c #93765D",
"e$.	c #95755B",
"f$.	c #917156",
"g$.	c #8F7358",
"h$.	c #947C63",
"i$.	c #A28C74",
"j$.	c #AA957E",
"k$.	c #B19F84",
"l$.	c #B19F86",
"m$.	c #B3A287",
"n$.	c #B3A085",
"o$.	c #AF9B80",
"p$.	c #AD9A81",
"q$.	c #AA9B81",
"r$.	c #92866F",
"s$.	c #796E5B",
"t$.	c #5B4F41",
"u$.	c #362E23",
"v$.	c #0D0806",
"w$.	c #3A3B3F",
"x$.	c #3C3E40",
"y$.	c #323235",
"z$.	c #49423C",
"A$.	c #52493F",
"B$.	c #73675A",
"C$.	c #897D6D",
"D$.	c #938875",
"E$.	c #8F8272",
"F$.	c #887C6E",
"G$.	c #73695E",
"H$.	c #333130",
"I$.	c #433E38",
"J$.	c #675F54",
"K$.	c #686056",
"L$.	c #4B453E",
"M$.	c #3D3831",
"N$.	c #3F3A35",
"O$.	c #212123",
"P$.	c #625443",
"Q$.	c #60503D",
"R$.	c #61513E",
"S$.	c #62513F",
"T$.	c #665544",
"U$.	c #695A49",
"V$.	c #6C5F4F",
"W$.	c #776B5B",
"X$.	c #7C7164",
"Y$.	c #817669",
"Z$.	c #756B5F",
"`$.	c #60564B",
" %.	c #504942",
".%.	c #574E48",
"+%.	c #4F463F",
"@%.	c #372E28",
"#%.	c #342D28",
"$%.	c #3B3533",
"%%.	c #413932",
"&%.	c #625348",
"*%.	c #6B5B4D",
"=%.	c #756555",
"-%.	c #807465",
";%.	c #7B6F61",
">%.	c #665B4F",
",%.	c #171318",
"'%.	c #19161B",
")%.	c #5A564E",
"!%.	c #635B51",
"~%.	c #645A4E",
"{%.	c #6C6052",
"]%.	c #6A5B4E",
"^%.	c #352F2E",
"/%.	c #4A4341",
"(%.	c #564F4D",
"_%.	c #675950",
":%.	c #7B6149",
"<%.	c #84633D",
"[%.	c #7D592E",
"}%.	c #754F28",
"|%.	c #714F2B",
"1%.	c #7F6245",
"2%.	c #9B856C",
"3%.	c #A7937D",
"4%.	c #9F8B78",
"5%.	c #998872",
"6%.	c #8F7F6A",
"7%.	c #8A7968",
"8%.	c #524A3E",
"9%.	c #6B6054",
"0%.	c #6D6156",
"a%.	c #60594D",
"b%.	c #50524C",
"c%.	c #615E52",
"d%.	c #908878",
"e%.	c #AEA491",
"f%.	c #B4A894",
"g%.	c #B5A893",
"h%.	c #B3A692",
"i%.	c #B4A694",
"j%.	c #A29786",
"k%.	c #726D64",
"l%.	c #504E4A",
"m%.	c #222529",
"n%.	c #202226",
"o%.	c #37302D",
"p%.	c #4A423D",
"q%.	c #4D453F",
"r%.	c #4A433E",
"s%.	c #3B3431",
"t%.	c #6C6153",
"u%.	c #7D7160",
"v%.	c #847865",
"w%.	c #827565",
"x%.	c #847969",
"y%.	c #7F7669",
"z%.	c #191B20",
"A%.	c #20201F",
"B%.	c #514A3A",
"C%.	c #72664D",
"D%.	c #71624A",
"E%.	c #5B4E3D",
"F%.	c #42382D",
"G%.	c #5B5349",
"H%.	c #595447",
"I%.	c #4D483D",
"J%.	c #4E493E",
"K%.	c #847766",
"L%.	c #837461",
"M%.	c #857560",
"N%.	c #8A7863",
"O%.	c #96846C",
"P%.	c #9A846B",
"Q%.	c #9E876B",
"R%.	c #9B8466",
"S%.	c #907A5E",
"T%.	c #87745D",
"U%.	c #8E7D67",
"V%.	c #93826C",
"W%.	c #988870",
"X%.	c #A4947D",
"Y%.	c #B0A189",
"Z%.	c #B5A68C",
"`%.	c #BAAB8F",
" &.	c #BBAB91",
".&.	c #BDAF94",
"+&.	c #BCAF96",
"@&.	c #BDB098",
"#&.	c #BBAE96",
"$&.	c #B9AD94",
"%&.	c #B5A991",
"&&.	c #B0A48C",
"*&.	c #A79A85",
"=&.	c #998D79",
"-&.	c #958A76",
";&.	c #978A75",
">&.	c #A0937C",
",&.	c #A69882",
"'&.	c #A99B86",
")&.	c #AC9E89",
"!&.	c #AB9D89",
"~&.	c #A1937F",
"{&.	c #9D907C",
"]&.	c #9A8E7A",
"^&.	c #988D79",
"/&.	c #988D78",
"(&.	c #978B78",
"_&.	c #968B77",
":&.	c #968C76",
"<&.	c #978B76",
"[&.	c #988C77",
"}&.	c #9C8F7A",
"|&.	c #9E907C",
"1&.	c #9F907D",
"2&.	c #A0907C",
"3&.	c #998975",
"4&.	c #918270",
"5&.	c #726A65",
"6&.	c #3D3839",
"7&.	c #1A130F",
"8&.	c #292016",
"9&.	c #5E513F",
"0&.	c #A6957D",
"a&.	c #BBAA91",
"b&.	c #BBAB93",
"c&.	c #BAAA93",
"d&.	c #B9A992",
"e&.	c #B8A791",
"f&.	c #B8A792",
"g&.	c #B4A491",
"h&.	c #B2A38F",
"i&.	c #AF9F8E",
"j&.	c #AB9A8A",
"k&.	c #A09081",
"l&.	c #938576",
"m&.	c #877A6C",
"n&.	c #867869",
"o&.	c #8A7965",
"p&.	c #8B7963",
"q&.	c #8A775F",
"r&.	c #8C765E",
"s&.	c #8B745C",
"t&.	c #8A765F",
"u&.	c #927F69",
"v&.	c #A29079",
"w&.	c #AB9983",
"x&.	c #B4A38A",
"y&.	c #B5A48C",
"z&.	c #B6A68C",
"A&.	c #B5A38A",
"B&.	c #B4A388",
"C&.	c #B1A085",
"D&.	c #B09E82",
"E&.	c #AE9B81",
"F&.	c #A8997E",
"G&.	c #8E8069",
"H&.	c #796C56",
"I&.	c #695B46",
"J&.	c #594E3A",
"K&.	c #332B1D",
"L&.	c #120B06",
"M&.	c #120D0A",
"N&.	c #393A3C",
"O&.	c #3D3E40",
"P&.	c #313234",
"Q&.	c #534B41",
"R&.	c #867A6B",
"S&.	c #938975",
"T&.	c #8B7E6E",
"U&.	c #332E2E",
"V&.	c #5B5048",
"W&.	c #696157",
"X&.	c #3D3A38",
"Y&.	c #615543",
"Z&.	c #60523F",
"`&.	c #615340",
" *.	c #615240",
".*.	c #635543",
"+*.	c #655745",
"@*.	c #6B5E4C",
"#*.	c #716454",
"$*.	c #7D7262",
"%*.	c #443B32",
"&*.	c #3C352C",
"**.	c #464039",
"=*.	c #554F48",
"-*.	c #575149",
";*.	c #352E29",
">*.	c #3C3934",
",*.	c #64584B",
"'*.	c #6B5D50",
")*.	c #746557",
"!*.	c #796B5D",
"~*.	c #7D7363",
"{*.	c #766C5F",
"]*.	c #6B6356",
"^*.	c #161318",
"/*.	c #17151A",
"(*.	c #19171B",
"_*.	c #59564D",
":*.	c #60594E",
"<*.	c #655B4F",
"[*.	c #64584C",
"}*.	c #695D4F",
"|*.	c #65594B",
"1*.	c #5C5041",
"2*.	c #1F1C1F",
"3*.	c #241F24",
"4*.	c #403A3D",
"5*.	c #4B4649",
"6*.	c #4E4748",
"7*.	c #5F514C",
"8*.	c #725945",
"9*.	c #795A36",
"0*.	c #77532A",
"a*.	c #734E26",
"b*.	c #6D4B29",
"c*.	c #775B3F",
"d*.	c #8C7660",
"e*.	c #95816D",
"f*.	c #907C6B",
"g*.	c #8B7967",
"h*.	c #857463",
"i*.	c #847364",
"j*.	c #6C645C",
"k*.	c #090608",
"l*.	c #64594E",
"m*.	c #434441",
"n*.	c #51524E",
"o*.	c #50514C",
"p*.	c #4E4C46",
"q*.	c #5F5C51",
"r*.	c #8C8374",
"s*.	c #A89E8B",
"t*.	c #ADA08D",
"u*.	c #AB9C8A",
"v*.	c #A89B89",
"w*.	c #948978",
"x*.	c #6F655C",
"y*.	c #4C4B47",
"z*.	c #202327",
"A*.	c #1F2125",
"B*.	c #473E39",
"C*.	c #4B423D",
"D*.	c #453E3B",
"E*.	c #231B19",
"F*.	c #221B18",
"G*.	c #615649",
"H*.	c #6D6153",
"I*.	c #6C6152",
"J*.	c #675D50",
"K*.	c #6C6357",
"L*.	c #696258",
"M*.	c #5E5951",
"N*.	c #1A1A1D",
"O*.	c #71654F",
"P*.	c #72624E",
"Q*.	c #5B4D3E",
"R*.	c #362C21",
"S*.	c #291E15",
"T*.	c #4F4437",
"U*.	c #847869",
"V*.	c #8E8372",
"W*.	c #7F7667",
"X*.	c #726A5B",
"Y*.	c #7A7061",
"Z*.	c #776A5B",
"`*.	c #7A6E5C",
" =.	c #7F7160",
".=.	c #8D7E6B",
"+=.	c #91816D",
"@=.	c #94846E",
"#=.	c #8F7E67",
"$=.	c #877761",
"%=.	c #7E6F5E",
"&=.	c #827665",
"*=.	c #857968",
"==.	c #8B7F6C",
"-=.	c #928675",
";=.	c #9B917F",
">=.	c #A29785",
",=.	c #AA9E8A",
"'=.	c #AEA28F",
")=.	c #B3A894",
"!=.	c #B3A996",
"~=.	c #B4AA98",
"{=.	c #B3A896",
"]=.	c #ACA28F",
"^=.	c #A79E8A",
"/=.	c #9E9381",
"(=.	c #837867",
"_=.	c #857B6A",
":=.	c #8B806E",
"<=.	c #8C816F",
"[=.	c #968A79",
"}=.	c #9C907F",
"|=.	c #9F9383",
"1=.	c #A39787",
"2=.	c #A39887",
"3=.	c #A19585",
"4=.	c #988D7B",
"5=.	c #958A79",
"6=.	c #928876",
"7=.	c #918674",
"8=.	c #908774",
"9=.	c #958978",
"0=.	c #978A79",
"a=.	c #998D7A",
"b=.	c #9A8C7B",
"c=.	c #9B8C7B",
"d=.	c #968775",
"e=.	c #908272",
"f=.	c #897F73",
"g=.	c #6E6761",
"h=.	c #35302F",
"i=.	c #161114",
"j=.	c #211D19",
"k=.	c #241D16",
"l=.	c #342A1E",
"m=.	c #615341",
"n=.	c #A1917B",
"o=.	c #B8A992",
"p=.	c #B8AA94",
"q=.	c #B5A693",
"r=.	c #B3A592",
"s=.	c #AFA18F",
"t=.	c #ADA08F",
"u=.	c #A99D8D",
"v=.	c #A79A8B",
"w=.	c #9E9183",
"x=.	c #908477",
"y=.	c #83786C",
"z=.	c #7E7261",
"A=.	c #7B6C5B",
"B=.	c #7B6B5A",
"C=.	c #7C6D5C",
"D=.	c #8B7E6B",
"E=.	c #958774",
"F=.	c #A0927C",
"G=.	c #A3947F",
"H=.	c #A49680",
"I=.	c #A4957E",
"J=.	c #A3967E",
"K=.	c #A0937B",
"L=.	c #9F9077",
"M=.	c #9C8A72",
"N=.	c #9B8A6E",
"O=.	c #87745B",
"P=.	c #77644B",
"Q=.	c #65513B",
"R=.	c #372A1C",
"S=.	c #2A1F16",
"T=.	c #2C2924",
"U=.	c #363639",
"V=.	c #282A2C",
"W=.	c #46403A",
"X=.	c #7C7264",
"Y=.	c #887F6D",
"Z=.	c #73675C",
"`=.	c #6A6157",
" -.	c #565049",
".-.	c #544B42",
"+-.	c #5A4F47",
"@-.	c #645A51",
"#-.	c #1C1D1F",
"$-.	c #423B30",
"%-.	c #5A4F3F",
"&-.	c #5C4E3D",
"*-.	c #5D4F3D",
"=-.	c #5D4F3E",
"--.	c #615442",
";-.	c #675848",
">-.	c #6E5F51",
",-.	c #7C6F61",
"'-.	c #7A7163",
")-.	c #645A4F",
"!-.	c #4F453C",
"~-.	c #4B4842",
"{-.	c #3E3833",
"]-.	c #63584D",
"^-.	c #685C50",
"/-.	c #6A5E54",
"(-.	c #6B6155",
"_-.	c #625A4E",
":-.	c #544D42",
"<-.	c #312C25",
"[-.	c #554F45",
"}-.	c #5D5449",
"|-.	c #665C50",
"1-.	c #5E5346",
"2-.	c #232024",
"3-.	c #474446",
"4-.	c #494446",
"5-.	c #514745",
"6-.	c #5F4A3A",
"7-.	c #694F2F",
"8-.	c #6A4B27",
"9-.	c #6C4C29",
"0-.	c #664A2C",
"a-.	c #6A543B",
"b-.	c #73634F",
"c-.	c #7A6C59",
"d-.	c #7A6A5A",
"e-.	c #77695A",
"f-.	c #7A6C5E",
"g-.	c #796E61",
"h-.	c #696257",
"i-.	c #373535",
"j-.	c #2F2E2B",
"k-.	c #3F403D",
"l-.	c #50514D",
"m-.	c #4F4D47",
"n-.	c #5D5A4F",
"o-.	c #837C6C",
"p-.	c #998F7C",
"q-.	c #9A8C79",
"r-.	c #988976",
"s-.	c #938270",
"t-.	c #756A59",
"u-.	c #5A4D41",
"v-.	c #635850",
"w-.	c #605A53",
"x-.	c #1F2225",
"y-.	c #48413A",
"z-.	c #4C443E",
"A-.	c #3F3835",
"B-.	c #29231F",
"C-.	c #29211D",
"D-.	c #584D40",
"E-.	c #4A453F",
"F-.	c #6E6450",
"G-.	c #71644F",
"H-.	c #5C4F3F",
"I-.	c #33281E",
"J-.	c #23180E",
"K-.	c #8F816D",
"L-.	c #786F62",
"M-.	c #6C6358",
"N-.	c #635A4E",
"O-.	c #574E42",
"P-.	c #695E52",
"Q-.	c #695F52",
"R-.	c #5A5245",
"S-.	c #524940",
"T-.	c #524C43",
"U-.	c #5D574D",
"V-.	c #6C655A",
"W-.	c #756F63",
"X-.	c #7A756A",
"Y-.	c #7D786D",
"Z-.	c #7D786E",
"`-.	c #7B766C",
" ;.	c #777268",
".;.	c #726E62",
"+;.	c #6A6459",
"@;.	c #605B4F",
"#;.	c #524B41",
"$;.	c #564F45",
"%;.	c #585147",
"&;.	c #5B5549",
"*;.	c #5E574D",
"=;.	c #635C51",
"-;.	c #686157",
";;.	c #686158",
">;.	c #665F56",
",;.	c #5E584D",
"';.	c #595348",
");.	c #585145",
"!;.	c #585144",
"~;.	c #595145",
"{;.	c #595245",
"];.	c #5B5347",
"^;.	c #61564B",
"/;.	c #5D5247",
"(;.	c #292117",
"_;.	c #413729",
":;.	c #6B6150",
"<;.	c #7D7464",
"[;.	c #746C5E",
"};.	c #6E6659",
"|;.	c #6A6358",
"1;.	c #676156",
"2;.	c #5A554B",
"3;.	c #575145",
"4;.	c #554F42",
"5;.	c #544D41",
"6;.	c #524B3F",
"7;.	c #524B3E",
"8;.	c #5C5345",
"9;.	c #625849",
"0;.	c #685E4D",
"a;.	c #695F4E",
"b;.	c #6A6150",
"c;.	c #665C4D",
"d;.	c #635847",
"e;.	c #685A45",
"f;.	c #806F54",
"g;.	c #846F51",
"h;.	c #7D6646",
"i;.	c #634C31",
"j;.	c #4B3620",
"k;.	c #3E2C1A",
"l;.	c #483728",
"m;.	c #3B342A",
"n;.	c #383532",
"o;.	c #3E3C3A",
"p;.	c #1F2122",
"q;.	c #574F44",
"r;.	c #635A4D",
"s;.	c #695E50",
"t;.	c #756B5B",
"u;.	c #786D5F",
"v;.	c #676158",
"w;.	c #4D4741",
"x;.	c #46413C",
"y;.	c #645B51",
"z;.	c #5F564C",
"A;.	c #5A5149",
"B;.	c #554E46",
"C;.	c #4F4942",
"D;.	c #342D24",
"E;.	c #42382B",
"F;.	c #514333",
"G;.	c #544637",
"H;.	c #5C4E3E",
"I;.	c #615345",
"J;.	c #6A5E4F",
"K;.	c #6B5F52",
"L;.	c #554C41",
"M;.	c #473E34",
"N;.	c #433B32",
"O;.	c #4D4840",
"P;.	c #42403A",
"Q;.	c #403F3A",
"R;.	c #3F3E3A",
"S;.	c #393633",
"T;.	c #3D3933",
"U;.	c #595146",
"V;.	c #51473F",
"W;.	c #19181E",
"X;.	c #17161C",
"Y;.	c #17161A",
"Z;.	c #3E3930",
"`;.	c #453E34",
" >.	c #5C544A",
".>.	c #5F5649",
"+>.	c #5D5447",
"@>.	c #382F30",
"#>.	c #443328",
"$>.	c #503B23",
"%>.	c #543D20",
"&>.	c #553E25",
"*>.	c #533F2A",
"=>.	c #524231",
"->.	c #54493F",
";>.	c #554942",
">>.	c #584E45",
",>.	c #584E44",
"'>.	c #5C544B",
")>.	c #46433F",
"!>.	c #4F504C",
"~>.	c #4E4D47",
"{>.	c #5B574E",
"]>.	c #7D7466",
"^>.	c #857361",
"/>.	c #7D6A59",
"(>.	c #7B6858",
"_>.	c #625244",
":>.	c #4B3C31",
"<>.	c #564942",
"[>.	c #534A44",
"}>.	c #202024",
"|>.	c #1F2024",
"1>.	c #2D2623",
"2>.	c #49413A",
"3>.	c #201B17",
"4>.	c #64594F",
"5>.	c #73685C",
"6>.	c #6E6356",
"7>.	c #47433A",
"8>.	c #696150",
"9>.	c #6C604E",
"0>.	c #5B4F40",
"a>.	c #1E120A",
"b>.	c #4A3A2D",
"c>.	c #8D7C69",
"d>.	c #9C8E7A",
"e>.	c #8D8272",
"f>.	c #655D53",
"g>.	c #1D1B18",
"h>.	c #1B1916",
"i>.	c #171513",
"j>.	c #14120F",
"k>.	c #13110D",
"l>.	c #15110D",
"m>.	c #15120C",
"n>.	c #16120D",
"o>.	c #16120E",
"p>.	c #15130E",
"q>.	c #17130F",
"r>.	c #191310",
"s>.	c #1A1511",
"t>.	c #0C0B0B",
"u>.	c #0F0C08",
"v>.	c #1B1811",
"w>.	c #1F1C15",
"x>.	c #1C1A15",
"y>.	c #171611",
"z>.	c #181611",
"A>.	c #1D1A16",
"B>.	c #1E1B16",
"C>.	c #211E18",
"D>.	c #1A1912",
"E>.	c #191811",
"F>.	c #171710",
"G>.	c #171610",
"H>.	c #191711",
"I>.	c #1C1912",
"J>.	c #201C15",
"K>.	c #221D16",
"L>.	c #231F18",
"M>.	c #231F17",
"N>.	c #221F19",
"O>.	c #211D17",
"P>.	c #372D20",
"Q>.	c #6C5B46",
"R>.	c #7E674B",
"S>.	c #7A5E41",
"T>.	c #5A4026",
"U>.	c #351F0D",
"V>.	c #321F0F",
"W>.	c #4F3A2A",
"X>.	c #514032",
"Y>.	c #41362C",
"Z>.	c #73685D",
"`>.	c #6A635A",
" ,.	c #6A6058",
".,.	c #433B36",
"+,.	c #2E251C",
"@,.	c #2B2017",
"#,.	c #2D2218",
"$,.	c #382D20",
"%,.	c #514B43",
"&,.	c #3E372F",
"*,.	c #544A45",
"=,.	c #6A615A",
"-,.	c #6F665F",
";,.	c #635D55",
">,.	c #3F3B33",
",,.	c #413E36",
"',.	c #3A3832",
"),.	c #17161B",
"!,.	c #1D1A14",
"~,.	c #252119",
"{,.	c #4D473F",
"],.	c #60584F",
"^,.	c #5F564B",
"/,.	c #242024",
"(,.	c #231F24",
"_,.	c #272023",
":,.	c #312621",
"<,.	c #45392E",
"[,.	c #3F3837",
"},.	c #413A37",
"|,.	c #53534E",
"1,.	c #504F49",
"2,.	c #5C584F",
"3,.	c #887866",
"4,.	c #806E5C",
"5,.	c #7B6756",
"6,.	c #7E6959",
"7,.	c #655346",
"8,.	c #51433B",
"9,.	c #4E453E",
"0,.	c #494039",
"a,.	c #2A231D",
"b,.	c #110B07",
"c,.	c #2A231B",
"d,.	c #6A6052",
"e,.	c #564E44",
"f,.	c #2E2A29",
"g,.	c #44423A",
"h,.	c #665F4F",
"i,.	c #5D5143",
"j,.	c #1F1309",
"k,.	c #897965",
"l,.	c #998B77",
"m,.	c #837A6A",
"n,.	c #1D1813",
"o,.	c #060302",
"p,.	c #0C0B08",
"q,.	c #090A0E",
"r,.	c #070807",
"s,.	c #050606",
"t,.	c #020302",
"u,.	c #080807",
"v,.	c #615545",
"w,.	c #77644C",
"x,.	c #745B41",
"y,.	c #4F3721",
"z,.	c #231004",
"A,.	c #221307",
"B,.	c #493729",
"C,.	c #514236",
"D,.	c #212224",
"E,.	c #323131",
"F,.	c #635A51",
"G,.	c #574F46",
"H,.	c #655C54",
"I,.	c #70665F",
"J,.	c #59514B",
"K,.	c #2C251D",
"L,.	c #2A2219",
"M,.	c #4A3D31",
"N,.	c #3F3328",
"O,.	c #392F27",
"P,.	c #564F44",
"Q,.	c #59534A",
"R,.	c #685E58",
"S,.	c #716862",
"T,.	c #48433B",
"U,.	c #464238",
"V,.	c #433F35",
"W,.	c #464339",
"X,.	c #0B0806",
"Y,.	c #16130E",
"Z,.	c #2E2725",
"`,.	c #423D38",
" '.	c #3C3737",
".'.	c #302E32",
"+'.	c #302F35",
"@'.	c #28272F",
"#'.	c #232329",
"$'.	c #1D1C23",
"%'.	c #52524E",
"&'.	c #4F4E49",
"*'.	c #5A574E",
"='.	c #7C7266",
"-'.	c #897B68",
";'.	c #857461",
">'.	c #816E5C",
",'.	c #877464",
"''.	c #69584B",
")'.	c #46362C",
"!'.	c #484039",
"~'.	c #202123",
"{'.	c #281F17",
"]'.	c #0E0602",
"^'.	c #110905",
"/'.	c #2C231B",
"('.	c #665A4F",
"_'.	c #61574C",
":'.	c #1A1B1E",
"<'.	c #605C4F",
"['.	c #5D5144",
"}'.	c #3A2E23",
"|'.	c #271A0E",
"1'.	c #7C6D59",
"2'.	c #010202",
"3'.	c #040504",
"4'.	c #685947",
"5'.	c #65523F",
"6'.	c #483524",
"7'.	c #24160C",
"8'.	c #23170E",
"9'.	c #3F3127",
"0'.	c #3A3833",
"a'.	c #58534A",
"b'.	c #655D54",
"c'.	c #676055",
"d'.	c #5E564A",
"e'.	c #595044",
"f'.	c #554C42",
"g'.	c #5B5247",
"h'.	c #686059",
"i'.	c #312A28",
"j'.	c #463F3A",
"k'.	c #211D1A",
"l'.	c #28221D",
"m'.	c #453B2F",
"n'.	c #3D3128",
"o'.	c #3A2F27",
"p'.	c #382E27",
"q'.	c #4D463F",
"r'.	c #373738",
"s'.	c #313233",
"t'.	c #3E3D3A",
"u'.	c #4D473C",
"v'.	c #564F47",
"w'.	c #5E5751",
"x'.	c #56504B",
"y'.	c #2D2B24",
"z'.	c #464239",
"A'.	c #423E36",
"B'.	c #5C5750",
"C'.	c #5A5449",
"D'.	c #171716",
"E'.	c #2C2A2F",
"F'.	c #28272E",
"G'.	c #18181F",
"H'.	c #13131A",
"I'.	c #3E3E3B",
"J'.	c #59574E",
"K'.	c #7B7367",
"L'.	c #8F8475",
"M'.	c #8F8271",
"N'.	c #8D7E6D",
"O'.	c #897969",
"P'.	c #89796B",
"Q'.	c #685B4E",
"R'.	c #44372D",
"S'.	c #241E1A",
"T'.	c #362E26",
"U'.	c #2D241A",
"V'.	c #30281D",
"W'.	c #6C6154",
"X'.	c #776A5F",
"Y'.	c #443D36",
"Z'.	c #16191D",
"`'.	c #1A1C1E",
" ).	c #5C584E",
".).	c #625C4E",
"+).	c #5E5447",
"@).	c #6C6457",
"#).	c #161510",
"$).	c #5E5546",
"%).	c #4E4133",
"&).	c #44372F",
"*).	c #3D362C",
"=).	c #1E1F21",
"-).	c #272828",
";).	c #48423B",
">).	c #4C463D",
",).	c #5A5044",
"').	c #6B6053",
")).	c #695F53",
"!).	c #595046",
"~).	c #2E2826",
"{).	c #5C554C",
"]).	c #645C53",
"^).	c #686058",
"/).	c #211C17",
"().	c #3B3127",
"_).	c #434342",
":).	c #3A3C3C",
"<).	c #3C3C3B",
"[).	c #434340",
"}).	c #41403B",
"|).	c #3C372F",
"1).	c #433C31",
"2).	c #444139",
"3).	c #434037",
"4).	c #5F5B52",
"5).	c #5C554B",
"6).	c #0B080D",
"7).	c #302D2F",
"8).	c #0F0B0E",
"9).	c #252127",
"0).	c #26232B",
"a).	c #1F1D25",
"b).	c #100F18",
"c).	c #08070F",
"d).	c #04030B",
"e).	c #040208",
"f).	c #3F3F3C",
"g).	c #58554D",
"h).	c #958E7E",
"i).	c #998E7F",
"j).	c #988D7E",
"k).	c #908577",
"l).	c #897E71",
"m).	c #40342C",
"n).	c #1F1915",
"o).	c #2C241B",
"p).	c #4F453B",
"q).	c #817768",
"r).	c #867B70",
"s).	c #5F554D",
"t).	c #2E2520",
"u).	c #16181C",
"v).	c #191B1D",
"w).	c #57534B",
"x).	c #5C564A",
"y).	c #675B4D",
"z).	c #6F6152",
"A).	c #675A49",
"B).	c #655B4B",
"C).	c #655E52",
"D).	c #46423B",
"E).	c #161410",
"F).	c #070408",
"G).	c #554F43",
"H).	c #534A40",
"I).	c #544B43",
"J).	c #4E463F",
"K).	c #4B443B",
"L).	c #3B3735",
"M).	c #27282B",
"N).	c #252627",
"O).	c #3A3736",
"P).	c #463E35",
"Q).	c #645A4D",
"R).	c #6A5F52",
"S).	c #6A5F55",
"T).	c #534A43",
"U).	c #463D37",
"V).	c #6B6056",
"W).	c #786C61",
"X).	c #7B6F65",
"Y).	c #696159",
"Z).	c #1D1A17",
"`).	c #19130F",
" !.	c #362D24",
".!.	c #29231D",
"+!.	c #1F1A17",
"@!.	c #413E3F",
"#!.	c #404040",
"$!.	c #3D3F3E",
"%!.	c #3B3D3E",
"&!.	c #3A3C3D",
"*!.	c #414242",
"=!.	c #42413C",
"-!.	c #433B30",
";!.	c #584D42",
">!.	c #645B4E",
",!.	c #2B2729",
"'!.	c #282327",
")!.	c #272326",
"!!.	c #605A52",
"~!.	c #5E554B",
"{!.	c #60554A",
"]!.	c #252329",
"^!.	c #28262D",
"/!.	c #212027",
"(!.	c #111017",
"_!.	c #52544F",
":!.	c #555651",
"<!.	c #51504A",
"[!.	c #5B5A51",
"}!.	c #7C786D",
"|!.	c #979082",
"1!.	c #9C9486",
"2!.	c #9D9486",
"3!.	c #958D80",
"4!.	c #8E887B",
"5!.	c #676155",
"6!.	c #45433C",
"7!.	c #201A15",
"8!.	c #2B231A",
"9!.	c #524A3D",
"0!.	c #786E60",
"a!.	c #817869",
"b!.	c #8A8275",
"c!.	c #5F574E",
"d!.	c #191411",
"e!.	c #3B3A37",
"f!.	c #545149",
"g!.	c #585348",
"h!.	c #585043",
"i!.	c #746655",
"j!.	c #726655",
"k!.	c #655A4A",
"l!.	c #635A4A",
"m!.	c #645F52",
"n!.	c #4E4941",
"o!.	c #595347",
"p!.	c #514840",
"q!.	c #534B42",
"r!.	c #504941",
"s!.	c #171818",
"t!.	c #27282A",
"u!.	c #373736",
"v!.	c #574F45",
"w!.	c #6D6358",
"x!.	c #7B6F63",
"y!.	c #7F7368",
"z!.	c #110C09",
"A!.	c #1D1610",
"B!.	c #2B231B",
"C!.	c #2D231B",
"D!.	c #2A2423",
"E!.	c #454240",
"F!.	c #3F3F3D",
"G!.	c #3B3D3C",
"H!.	c #3A3D3C",
"I!.	c #3C3D3E",
"J!.	c #444444",
"K!.	c #494946",
"L!.	c #45443E",
"M!.	c #3F3B31",
"N!.	c #463F32",
"O!.	c #645D4E",
"P!.	c #2A2628",
"Q!.	c #47443F",
"R!.	c #655A4E",
"S!.	c #1E1E24",
"T!.	c #4A4A47",
"U!.	c #565652",
"V!.	c #575753",
"W!.	c #52514C",
"X!.	c #5C5A53",
"Y!.	c #7E796F",
"Z!.	c #969184",
"`!.	c #9B9488",
" ~.	c #9B9588",
".~.	c #989286",
"+~.	c #908C81",
"@~.	c #6A665D",
"#~.	c #4F4B46",
"$~.	c #6E655A",
"%~.	c #74695D",
"&~.	c #776D62",
"*~.	c #554C45",
"=~.	c #1D1612",
"-~.	c #1E1A16",
";~.	c #16181B",
">~.	c #504C46",
",~.	c #544F45",
"'~.	c #554D41",
")~.	c #685E4F",
"!~.	c #716555",
"~~.	c #645B4D",
"{~.	c #635E52",
"]~.	c #0B090D",
"^~.	c #050402",
"/~.	c #090806",
"(~.	c #0A0906",
"_~.	c #030301",
":~.	c #060306",
"<~.	c #5A5248",
"[~.	c #665E57",
"}~.	c #3A3936",
"|~.	c #3A3935",
"1~.	c #413D35",
"2~.	c #655D51",
"3~.	c #645C52",
"4~.	c #7C7064",
"5~.	c #7E7368",
"6~.	c #17120E",
"7~.	c #221B14",
"8~.	c #31271F",
"9~.	c #2E251D",
"0~.	c #3A3A38",
"a~.	c #393B3B",
"b~.	c #3A3B3B",
"c~.	c #45433E",
"d~.	c #574F42",
"e~.	c #605A4C",
"f~.	c #4B453D",
"g~.	c #1A1513",
"h~.	c #272123",
"i~.	c #292426",
"j~.	c #272224",
"k~.	c #231F21",
"l~.	c #060201",
"m~.	c #16110D",
"n~.	c #5E554C",
"o~.	c #605449",
"p~.	c #2A2622",
"q~.	c #4F4F4B",
"r~.	c #5A5A56",
"s~.	c #595A55",
"t~.	c #55544E",
"u~.	c #5F5D56",
"v~.	c #7F7B71",
"w~.	c #969185",
"x~.	c #9B9689",
"y~.	c #9D988B",
"z~.	c #9A9589",
"A~.	c #949086",
"B~.	c #706E65",
"C~.	c #555450",
"D~.	c #483F35",
"E~.	c #61594E",
"F~.	c #635B50",
"G~.	c #5D554A",
"H~.	c #675F57",
"I~.	c #292320",
"J~.	c #2B2521",
"K~.	c #534E44",
"L~.	c #554D42",
"M~.	c #6B6152",
"N~.	c #796C5A",
"O~.	c #766A58",
"P~.	c #6B6050",
"Q~.	c #6A6252",
"R~.	c #49473F",
"S~.	c #040301",
"T~.	c #5A5349",
"U~.	c #6C6458",
"V~.	c #6C6356",
"W~.	c #7D7568",
"X~.	c #7F776D",
"Y~.	c #3C3C38",
"Z~.	c #3B3B36",
"`~.	c #3E3C35",
" {.	c #4A463E",
".{.	c #534D45",
"+{.	c #575048",
"@{.	c #7F7366",
"#{.	c #807569",
"${.	c #27211A",
"%{.	c #2F281F",
"&{.	c #3C3428",
"*{.	c #393024",
"={.	c #22201D",
"-{.	c #3A3A39",
";{.	c #3C3E3D",
">{.	c #40413F",
",{.	c #454542",
"'{.	c #44423D",
"){.	c #3F3C33",
"!{.	c #5A5549",
"~{.	c #555045",
"{{.	c #454139",
"]{.	c #191313",
"^{.	c #1B1516",
"/{.	c #201A1D",
"({.	c #211C1E",
"_{.	c #15100D",
":{.	c #140E08",
"<{.	c #201810",
"[{.	c #53473E",
"}{.	c #51453A",
"|{.	c #020002",
"1{.	c #060305",
"2{.	c #3A3937",
"3{.	c #353330",
"4{.	c #504F4B",
"5{.	c #5C5C57",
"6{.	c #5B5A55",
"7{.	c #56544E",
"8{.	c #807C71",
"9{.	c #959084",
"0{.	c #9B968A",
"a{.	c #9D978C",
"b{.	c #979389",
"c{.	c #747169",
"d{.	c #55534F",
"e{.	c #575653",
"f{.	c #28221F",
"g{.	c #403834",
"h{.	c #2E2825",
"i{.	c #352E2B",
"j{.	c #15171A",
"k{.	c #4D4943",
"l{.	c #514A42",
"m{.	c #6F6556",
"n{.	c #7C705E",
"o{.	c #796D5B",
"p{.	c #716655",
"q{.	c #706757",
"r{.	c #4E4C43",
"s{.	c #181712",
"t{.	c #100F16",
"u{.	c #121118",
"v{.	c #111016",
"w{.	c #0A0C0F",
"x{.	c #151719",
"y{.	c #141619",
"z{.	c #141518",
"A{.	c #090C0E",
"B{.	c #8C8475",
"C{.	c #8C8373",
"D{.	c #877D6E",
"E{.	c #847B6C",
"F{.	c #8F877A",
"G{.	c #8A8377",
"H{.	c #252526",
"I{.	c #3D3C39",
"J{.	c #7E7367",
"K{.	c #312B24",
"L{.	c #3E3427",
"M{.	c #362D23",
"N{.	c #3C3D3D",
"O{.	c #3F403F",
"P{.	c #3E3F3D",
"Q{.	c #3F403C",
"R{.	c #3D3D38",
"S{.	c #3E3B31",
"T{.	c #444136",
"U{.	c #48453B",
"V{.	c #444138",
"W{.	c #141012",
"X{.	c #0D090D",
"Y{.	c #0C080C",
"Z{.	c #120D11",
"`{.	c #130E12",
" ].	c #2F261D",
".].	c #3D3229",
"+].	c #3F332A",
"@].	c #392C23",
"#].	c #34261C",
"$].	c #3B3B38",
"%].	c #3E3D39",
"&].	c #53524D",
"*].	c #5D5C57",
"=].	c #58564F",
"-].	c #646158",
";].	c #827D72",
">].	c #969084",
",].	c #9C978A",
"'].	c #9E988D",
")].	c #9E998D",
"!].	c #99948B",
"~].	c #54504A",
"{].	c #5A5955",
"]].	c #232428",
"^].	c #2C2520",
"/].	c #867A69",
"(].	c #837664",
"_].	c #7B7669",
":].	c #56544B",
"<].	c #1B1B15",
"[].	c #0D0B08",
"}].	c #131416",
"|].	c #070705",
"1].	c #060402",
"2].	c #070402",
"3].	c #0A0605",
"4].	c #756E64",
"5].	c #9B9181",
"6].	c #938876",
"7].	c #938978",
"8].	c #9F9687",
"9].	c #958E82",
"0].	c #4A463D",
"a].	c #393935",
"b].	c #393833",
"c].	c #80776C",
"d].	c #6D6760",
"e].	c #3A3228",
"f].	c #3D3327",
"g].	c #483C2C",
"h].	c #3E3E3C",
"i].	c #414341",
"j].	c #3F4140",
"k].	c #3E403E",
"l].	c #3B3D39",
"m].	c #383730",
"n].	c #39382F",
"o].	c #393830",
"p].	c #36342E",
"q].	c #242424",
"r].	c #252525",
"s].	c #080408",
"t].	c #0B060A",
"u].	c #22201A",
"v].	c #39352C",
"w].	c #251911",
"x].	c #1E2023",
"y].	c #3D3D39",
"z].	c #53534D",
"A].	c #5C5C56",
"B].	c #585750",
"C].	c #65625A",
"D].	c #827E74",
"E].	c #969285",
"F].	c #9A958A",
"G].	c #9E998E",
"H].	c #9A958C",
"I].	c #5B5A56",
"J].	c #474846",
"K].	c #2E2724",
"L].	c #191A1C",
"M].	c #4D4A43",
"N].	c #585045",
"O].	c #7C7265",
"P].	c #8C806F",
"Q].	c #8E8474",
"R].	c #878275",
"S].	c #5E5D53",
"T].	c #1E1D17",
"U].	c #161312",
"V].	c #26231E",
"W].	c #26221C",
"X].	c #27231D",
"Y].	c #3D3634",
"Z].	c #23211E",
"`].	c #322D28",
" ^.	c #3A3633",
".^.	c #27221D",
"+^.	c #998F7F",
"@^.	c #9A8F7D",
"#^.	c #968977",
"$^.	c #978C7A",
"%^.	c #A39989",
"&^.	c #9B9387",
"*^.	c #49453C",
"=^.	c #41403C",
"-^.	c #3E3E39",
";^.	c #3C3C37",
">^.	c #3A3A35",
",^.	c #3B3A35",
"'^.	c #7A7166",
")^.	c #7B7369",
"!^.	c #3F3224",
"~^.	c #4C3D2B",
"{^.	c #4A3C2B",
"]^.	c #3E3F3C",
"^^.	c #414240",
"/^.	c #404140",
"(^.	c #3A3C39",
"_^.	c #383832",
":^.	c #383831",
"<^.	c #363630",
"[^.	c #353630",
"}^.	c #090508",
"|^.	c #373329",
"1^.	c #3F352B",
"2^.	c #382F25",
"3^.	c #2C211B",
"4^.	c #251A14",
"5^.	c #211610",
"6^.	c #383937",
"7^.	c #5D5E58",
"8^.	c #5C5D57",
"9^.	c #595852",
"0^.	c #827E75",
"a^.	c #969387",
"b^.	c #9B968B",
"c^.	c #9E9A8E",
"d^.	c #9E9A8F",
"e^.	c #9B978E",
"f^.	c #7D7971",
"g^.	c #5A5652",
"h^.	c #4A4A48",
"i^.	c #2F2F30",
"j^.	c #26272B",
"k^.	c #26282C",
"l^.	c #25262B",
"m^.	c #3D3632",
"n^.	c #504B41",
"o^.	c #7B7263",
"p^.	c #8D8270",
"q^.	c #9D9583",
"r^.	c #959082",
"s^.	c #66655B",
"t^.	c #21211A",
"u^.	c #050502",
"v^.	c #4E4741",
"w^.	c #514A41",
"x^.	c #51493F",
"y^.	c #50473B",
"z^.	c #4F473B",
"A^.	c #4D453B",
"B^.	c #554D45",
"C^.	c #615852",
"D^.	c #635952",
"E^.	c #5F554B",
"F^.	c #5F5449",
"G^.	c #62594B",
"H^.	c #63594C",
"I^.	c #6F665D",
"J^.	c #6F675E",
"K^.	c #544D46",
"L^.	c #4B433E",
"M^.	c #514B44",
"N^.	c #4D483F",
"O^.	c #58534D",
"P^.	c #564F49",
"Q^.	c #5C5446",
"R^.	c #615749",
"S^.	c #655A4D",
"T^.	c #61584D",
"U^.	c #675E55",
"V^.	c #6B6359",
"W^.	c #615A51",
"X^.	c #5F584E",
"Y^.	c #5D564D",
"Z^.	c #5A544D",
"`^.	c #59534D",
" /.	c #5B564F",
"./.	c #58514A",
"+/.	c #4E4840",
"@/.	c #998F7E",
"#/.	c #978C79",
"$/.	c #958977",
"%/.	c #998E7C",
"&/.	c #9F988A",
"*/.	c #2C2A25",
"=/.	c #262726",
"-/.	c #141517",
";/.	c #3F3D39",
">/.	c #43413C",
",/.	c #40403A",
"'/.	c #3D3D37",
")/.	c #3F3F39",
"!/.	c #5F564D",
"~/.	c #615A50",
"{/.	c #423729",
"]/.	c #493B2A",
"^/.	c #4F402E",
"//.	c #4D3F2D",
"(/.	c #483E2D",
"_/.	c #3F413E",
":/.	c #3C3E3A",
"</.	c #3C3E38",
"[/.	c #3C3D36",
"}/.	c #3D3E37",
"|/.	c #3B3B35",
"1/.	c #3A3B35",
"2/.	c #130F0E",
"3/.	c #151113",
"4/.	c #1E1C16",
"5/.	c #383026",
"6/.	c #392F25",
"7/.	c #2E261E",
"8/.	c #201812",
"9/.	c #1C1E20",
"0/.	c #51514D",
"a/.	c #595751",
"b/.	c #66635B",
"c/.	c #837E74",
"d/.	c #A19B8F",
"e/.	c #9F9A8F",
"f/.	c #9A968D",
"g/.	c #7F7A73",
"h/.	c #5B5752",
"i/.	c #5E5C58",
"j/.	c #4B4B49",
"k/.	c #433C39",
"l/.	c #463F3C",
"m/.	c #433C3A",
"n/.	c #16110F",
"o/.	c #261F1A",
"p/.	c #1D1717",
"q/.	c #17191B",
"r/.	c #4D4A45",
"s/.	c #504A42",
"t/.	c #72685A",
"u/.	c #857A69",
"v/.	c #968B79",
"w/.	c #9D917F",
"x/.	c #9F9584",
"y/.	c #9A9486",
"z/.	c #6B685F",
"A/.	c #23211B",
"B/.	c #57504A",
"C/.	c #675D53",
"D/.	c #675C51",
"E/.	c #5B5147",
"F/.	c #5C5148",
"G/.	c #5C5249",
"H/.	c #60574E",
"I/.	c #665C55",
"J/.	c #6B615A",
"K/.	c #6C6059",
"L/.	c #675C52",
"M/.	c #685B4F",
"N/.	c #695C4E",
"O/.	c #6E6253",
"P/.	c #706354",
"Q/.	c #6E6152",
"R/.	c #6F6253",
"S/.	c #716457",
"T/.	c #796D63",
"U/.	c #786E64",
"V/.	c #736760",
"W/.	c #6B6059",
"X/.	c #625851",
"Y/.	c #5E544D",
"Z/.	c #5C534C",
"`/.	c #5E554D",
" (.	c #584F47",
".(.	c #5C544D",
"+(.	c #62574C",
"@(.	c #64594B",
"#(.	c #6C5F51",
"$(.	c #6D6053",
"%(.	c #6E6155",
"&(.	c #71665B",
"*(.	c #70655A",
"=(.	c #6C6257",
"-(.	c #685E54",
";(.	c #675E53",
">(.	c #665C53",
",(.	c #675D54",
"'(.	c #655B54",
")(.	c #655C55",
"!(.	c #625A54",
"~(.	c #645D56",
"{(.	c #635B53",
"](.	c #5E564F",
"^(.	c #5C544E",
"/(.	c #59514A",
"((.	c #544C46",
"_(.	c #423D3D",
":(.	c #988E7D",
"<(.	c #9A8E7D",
"[(.	c #948775",
"}(.	c #998D7C",
"|(.	c #A59B8A",
"1(.	c #9F978B",
"2(.	c #43413B",
"3(.	c #43403A",
"4(.	c #403F39",
"5(.	c #3E3D37",
"6(.	c #3D3C36",
"7(.	c #3C3C36",
"8(.	c #3E3E37",
"9(.	c #3F3F38",
"0(.	c #2F2E2A",
"a(.	c #46392D",
"b(.	c #4B3E2D",
"c(.	c #2A251E",
"d(.	c #2B241E",
"e(.	c #39302C",
"f(.	c #3A322E",
"g(.	c #3F3F3B",
"h(.	c #403F38",
"i(.	c #3E3C39",
"j(.	c #231E1F",
"k(.	c #1A1812",
"l(.	c #312B20",
"m(.	c #352D21",
"n(.	c #2F2720",
"o(.	c #241C16",
"p(.	c #1C140F",
"q(.	c #1B1D20",
"r(.	c #1E2021",
"s(.	c #1E1F20",
"t(.	c #353532",
"u(.	c #373732",
"v(.	c #4C4D48",
"w(.	c #55554F",
"x(.	c #53524A",
"y(.	c #8F8978",
"z(.	c #968F7F",
"A(.	c #9C9587",
"B(.	c #9E988C",
"C(.	c #807D74",
"D(.	c #4C4C4A",
"E(.	c #303032",
"F(.	c #27292D",
"G(.	c #3B332D",
"H(.	c #171214",
"I(.	c #161819",
"J(.	c #4D4B45",
"K(.	c #504B43",
"L(.	c #544D43",
"M(.	c #6A6253",
"N(.	c #A09786",
"O(.	c #9C9687",
"P(.	c #6E6B61",
"Q(.	c #23221B",
"R(.	c #040402",
"S(.	c #4C4540",
"T(.	c #524B46",
"U(.	c #564D48",
"V(.	c #574E45",
"W(.	c #4A433D",
"X(.	c #4D4640",
"Y(.	c #504945",
"Z(.	c #544D4A",
"`(.	c #534A45",
" _.	c #564C42",
"._.	c #5A5048",
"+_.	c #5B534C",
"@_.	c #574F4A",
"#_.	c #524A45",
"$_.	c #4C463E",
"%_.	c #48423D",
"&_.	c #50473E",
"*_.	c #5C534B",
"=_.	c #5F564E",
"-_.	c #554E47",
";_.	c #514A44",
">_.	c #504A45",
",_.	c #4E4942",
"'_.	c #453F3C",
")_.	c #383334",
"!_.	c #9A907F",
"~_.	c #9B907E",
"{_.	c #948976",
"]_.	c #928674",
"^_.	c #9D9589",
"/_.	c #4C473F",
"(_.	c #414039",
"__.	c #3F3E38",
":_.	c #404039",
"<_.	c #404139",
"[_.	c #41413A",
"}_.	c #343431",
"|_.	c #4B443D",
"1_.	c #413629",
"2_.	c #2F2A23",
"3_.	c #332C23",
"4_.	c #43433C",
"5_.	c #43413A",
"6_.	c #424039",
"7_.	c #28231D",
"8_.	c #020407",
"9_.	c #12100C",
"0_.	c #1F1B14",
"a_.	c #201A11",
"b_.	c #231D13",
"c_.	c #2A201C",
"d_.	c #221A14",
"e_.	c #1C130D",
"f_.	c #191B1E",
"g_.	c #312F30",
"h_.	c #1B1B1B",
"i_.	c #272623",
"j_.	c #45433F",
"k_.	c #403A31",
"l_.	c #5F5243",
"m_.	c #6C5E4B",
"n_.	c #716350",
"o_.	c #978E80",
"p_.	c #989188",
"q_.	c #605953",
"r_.	c #5D5852",
"s_.	c #5F5C57",
"t_.	c #26292E",
"u_.	c #26282D",
"v_.	c #40372E",
"w_.	c #453B31",
"x_.	c #473B32",
"y_.	c #181011",
"z_.	c #130E10",
"A_.	c #746A5B",
"B_.	c #9C907E",
"C_.	c #9D9282",
"D_.	c #9B9585",
"E_.	c #27221E",
"F_.	c #28221A",
"G_.	c #262018",
"H_.	c #241F18",
"I_.	c #23201D",
"J_.	c #22201B",
"K_.	c #1F1E18",
"L_.	c #1F1E17",
"M_.	c #1E1C14",
"N_.	c #1E1B15",
"O_.	c #1F1C17",
"P_.	c #25231E",
"Q_.	c #24221C",
"R_.	c #222019",
"S_.	c #201D17",
"T_.	c #2D2A23",
"U_.	c #938776",
"V_.	c #8B806F",
"W_.	c #8A7F6F",
"X_.	c #988F80",
"Y_.	c #928A7F",
"Z_.	c #413F38",
"`_.	c #41403A",
" :.	c #414139",
".:.	c #42423B",
"+:.	c #31312C",
"@:.	c #36352E",
"#:.	c #2C2720",
"$:.	c #43372F",
"%:.	c #41362E",
"&:.	c #49453D",
"*:.	c #3D342F",
"=:.	c #140F11",
"-:.	c #16120C",
";:.	c #160F08",
">:.	c #18110A",
",:.	c #1B130D",
"':.	c #241A17",
"):.	c #2A201B",
"!:.	c #242526",
"~:.	c #292A29",
"{:.	c #3F3D3D",
"]:.	c #35332E",
"^:.	c #37352E",
"/:.	c #372E21",
"(:.	c #463725",
"_:.	c #513C29",
"::.	c #59442D",
"<:.	c #5C4831",
"[:.	c #786853",
"}:.	c #968A7B",
"|:.	c #989086",
"1:.	c #827D73",
"2:.	c #645E55",
"3:.	c #605E59",
"4:.	c #4C4D4B",
"5:.	c #26292C",
"6:.	c #262A2F",
"7:.	c #14161A",
"8:.	c #191918",
"9:.	c #4A3F34",
"0:.	c #524536",
"a:.	c #504235",
"b:.	c #564738",
"c:.	c #514233",
"d:.	c #4F4132",
"e:.	c #170F0F",
"f:.	c #110C0F",
"g:.	c #110D11",
"h:.	c #131517",
"i:.	c #4F4B43",
"j:.	c #625B4F",
"k:.	c #72695A",
"l:.	c #9A8F7C",
"m:.	c #9D9381",
"n:.	c #9A9383",
"o:.	c #6D695E",
"p:.	c #201E18",
"q:.	c #060301",
"r:.	c #040403",
"s:.	c #030200",
"t:.	c #232326",
"u:.	c #9A9180",
"v:.	c #9B917E",
"w:.	c #877D6B",
"x:.	c #898173",
"y:.	c #7E786E",
"z:.	c #423F37",
"A:.	c #414038",
"B:.	c #43423A",
"C:.	c #42423A",
"D:.	c #43433B",
"E:.	c #32322E",
"F:.	c #373834",
"G:.	c #37362F",
"H:.	c #4F4B41",
"I:.	c #443F38",
"J:.	c #261F1C",
"K:.	c #332E27",
"L:.	c #423A30",
"M:.	c #4A3E31",
"N:.	c #483B30",
"O:.	c #463A2F",
"P:.	c #403930",
"Q:.	c #524C42",
"R:.	c #534C42",
"S:.	c #41342C",
"T:.	c #372923",
"U:.	c #2D1F1B",
"V:.	c #201413",
"W:.	c #1B1212",
"X:.	c #1B1619",
"Y:.	c #181519",
"Z:.	c #1E1818",
"`:.	c #171113",
" <.	c #0A0907",
".<.	c #16140D",
"+<.	c #1B160F",
"@<.	c #1D1711",
"#<.	c #1C1510",
"$<.	c #1F1812",
"%<.	c #362C26",
"&<.	c #413D3D",
"*<.	c #322E2F",
"=<.	c #37281B",
"-<.	c #4A3520",
";<.	c #533821",
"><.	c #583E22",
",<.	c #5C4329",
"'<.	c #7C6853",
")<.	c #998C7C",
"!<.	c #989186",
"~<.	c #817B70",
"{<.	c #5F5853",
"]<.	c #605C58",
"^<.	c #4D4C4B",
"/<.	c #26292D",
"(<.	c #27292F",
"_<.	c #27282E",
":<.	c #4C3E31",
"<<.	c #4E3E2D",
"[<.	c #4E3E2B",
"}<.	c #4F3E2D",
"|<.	c #544332",
"1<.	c #554434",
"2<.	c #554332",
"3<.	c #503F2E",
"4<.	c #4B3B2A",
"5<.	c #2D231D",
"6<.	c #140B0D",
"7<.	c #0E090D",
"8<.	c #100C10",
"9<.	c #4C4943",
"0<.	c #4E4A42",
"a<.	c #4F4841",
"b<.	c #8E826F",
"c<.	c #978A76",
"d<.	c #9F927F",
"e<.	c #211F17",
"f<.	c #17161D",
"g<.	c #99907F",
"h<.	c #9A907D",
"i<.	c #867B6B",
"j<.	c #786F64",
"k<.	c #6A645B",
"l<.	c #42413A",
"m<.	c #43423B",
"n<.	c #45443C",
"o<.	c #44443B",
"p<.	c #43433A",
"q<.	c #44443C",
"r<.	c #34332E",
"s<.	c #36352F",
"t<.	c #514B41",
"u<.	c #45392C",
"v<.	c #493B2F",
"w<.	c #493B30",
"x<.	c #3F3329",
"y<.	c #554B40",
"z<.	c #4B3E35",
"A<.	c #413128",
"B<.	c #36251F",
"C<.	c #2D1C18",
"D<.	c #1E0F0E",
"E<.	c #170C0D",
"F<.	c #170E11",
"G<.	c #181115",
"H<.	c #171216",
"I<.	c #151115",
"J<.	c #0F0A0E",
"K<.	c #0E090C",
"L<.	c #100A0B",
"M<.	c #2B241D",
"N<.	c #0A0806",
"O<.	c #18140F",
"P<.	c #1F1711",
"Q<.	c #1B130E",
"R<.	c #1B120D",
"S<.	c #231913",
"T<.	c #443830",
"U<.	c #232525",
"V<.	c #484441",
"W<.	c #595552",
"X<.	c #5E5956",
"Y<.	c #575351",
"Z<.	c #3B2A1B",
"`<.	c #4B311B",
" [.	c #513319",
".[.	c #513318",
"+[.	c #573B20",
"@[.	c #79614B",
"#[.	c #98897A",
"$[.	c #968F83",
"%[.	c #80796E",
"&[.	c #5C5751",
"*[.	c #292A2F",
"=[.	c #251F18",
"-[.	c #352B20",
";[.	c #4B3E30",
">[.	c #4C3B28",
",[.	c #513F2D",
"'[.	c #594837",
")[.	c #584634",
"![.	c #4F3E2A",
"~[.	c #120B0C",
"{[.	c #0B070B",
"][.	c #0E0A0E",
"^[.	c #4E4A41",
"/[.	c #8D836F",
"([.	c #988B76",
"_[.	c #A0937F",
":[.	c #706A5D",
"<[.	c #242118",
"[[.	c #040200",
"}[.	c #050200",
"|[.	c #222127",
"1[.	c #9A917E",
"2[.	c #9F9381",
"3[.	c #696156",
"4[.	c #44433B",
"5[.	c #46453D",
"6[.	c #45453C",
"7[.	c #3F3F37",
"8[.	c #35352F",
"9[.	c #403D35",
"0[.	c #4C493F",
"a[.	c #524C41",
"b[.	c #514B40",
"c[.	c #443C2E",
"d[.	c #4E4033",
"e[.	c #4D4034",
"f[.	c #3E382C",
"g[.	c #493D32",
"h[.	c #413228",
"i[.	c #382720",
"j[.	c #32211C",
"k[.	c #241514",
"l[.	c #1C1111",
"m[.	c #1A1012",
"n[.	c #1D1518",
"o[.	c #181317",
"p[.	c #0F0A0C",
"q[.	c #130D0D",
"r[.	c #382F27",
"s[.	c #100E0B",
"t[.	c #392E27",
"u[.	c #41352C",
"v[.	c #17181B",
"w[.	c #282A2A",
"x[.	c #54504C",
"y[.	c #534E4A",
"z[.	c #88837C",
"A[.	c #7F7B74",
"B[.	c #585553",
"C[.	c #4E4C4B",
"D[.	c #4C4642",
"E[.	c #4E453B",
"F[.	c #463423",
"G[.	c #4B2C17",
"H[.	c #523016",
"I[.	c #4A290E",
"J[.	c #4D2F15",
"K[.	c #705640",
"L[.	c #918272",
"M[.	c #91897F",
"N[.	c #7C766C",
"O[.	c #4D463E",
"P[.	c #241E18",
"Q[.	c #332A20",
"R[.	c #4E3E2C",
"S[.	c #503F2D",
"T[.	c #584836",
"U[.	c #564535",
"V[.	c #574533",
"W[.	c #4D3C28",
"X[.	c #493825",
"Y[.	c #413426",
"Z[.	c #251C17",
"`[.	c #0D0609",
" }.	c #050207",
".}.	c #0B060B",
"+}.	c #141618",
"@}.	c #4A4741",
"#}.	c #6F6659",
"$}.	c #8D8371",
"%}.	c #9A907E",
"&}.	c #70695D",
"*}.	c #020200",
"=}.	c #0A0C10",
"-}.	c #101114",
";}.	c #06080C",
">}.	c #19181F",
",}.	c #29292F",
"'}.	c #292930",
")}.	c #9D9482",
"!}.	c #A89D8A",
"~}.	c #A69B8A",
"{}.	c #898073",
"]}.	c #625A4F",
"^}.	c #534D44",
"/}.	c #48443D",
"(}.	c #17181E",
"_}.	c #3C3936",
":}.	c #44443D",
"<}.	c #45463D",
"[}.	c #43443C",
"}}.	c #3E3E38",
"|}.	c #343530",
"1}.	c #393B38",
"2}.	c #373A36",
"3}.	c #333531",
"4}.	c #403F37",
"5}.	c #4E4B41",
"6}.	c #565045",
"7}.	c #443B2E",
"8}.	c #554738",
"9}.	c #57493C",
"0}.	c #534539",
"a}.	c #4B3E33",
"b}.	c #393228",
"c}.	c #3A2C24",
"d}.	c #35251F",
"e}.	c #33221F",
"f}.	c #2A1B1A",
"g}.	c #241818",
"h}.	c #201718",
"i}.	c #221A1C",
"j}.	c #161115",
"k}.	c #100A0D",
"l}.	c #140E10",
"m}.	c #2E2522",
"n}.	c #2B2220",
"o}.	c #27201E",
"p}.	c #3C302B",
"q}.	c #41352D",
"r}.	c #202221",
"s}.	c #969086",
"t}.	c #8D897F",
"u}.	c #76726A",
"v}.	c #625F58",
"w}.	c #5C5A56",
"x}.	c #514F4C",
"y}.	c #6E6A63",
"z}.	c #53412D",
"A}.	c #513118",
"B}.	c #543015",
"C}.	c #4B280D",
"D}.	c #4B2D12",
"E}.	c #6D543D",
"F}.	c #938C82",
"G}.	c #7F7A70",
"H}.	c #464139",
"I}.	c #202225",
"J}.	c #473C2D",
"K}.	c #4C3D2A",
"L}.	c #4D3D29",
"M}.	c #4F3F2D",
"N}.	c #564735",
"O}.	c #574636",
"P}.	c #544230",
"Q}.	c #4D3C27",
"R}.	c #493925",
"S}.	c #413425",
"T}.	c #090305",
"U}.	c #4C4940",
"V}.	c #5A554A",
"W}.	c #958A77",
"X}.	c #9D927E",
"Y}.	c #98907E",
"Z}.	c #25221B",
"`}.	c #100E0D",
" |.	c #07080A",
".|.	c #030505",
"+|.	c #1B1A21",
"@|.	c #2B2C32",
"#|.	c #2B2C33",
"$|.	c #28292E",
"%|.	c #787367",
"&|.	c #A19986",
"*|.	c #AEA591",
"=|.	c #ACA491",
"-|.	c #878073",
";|.	c #534D43",
">|.	c #1A1C1F",
",|.	c #44453D",
"'|.	c #46473E",
")|.	c #3E3F38",
"!|.	c #323533",
"~|.	c #323431",
"{|.	c #383833",
"]|.	c #5A574C",
"^|.	c #625C50",
"/|.	c #645E52",
"(|.	c #2A2520",
"_|.	c #463F34",
":|.	c #463B2C",
"<|.	c #514334",
"[|.	c #5D5043",
"}|.	c #55493E",
"||.	c #332E24",
"1|.	c #332F25",
"2|.	c #332D24",
"3|.	c #362F26",
"4|.	c #352D24",
"5|.	c #352A22",
"6|.	c #352823",
"7|.	c #302423",
"8|.	c #2D2422",
"9|.	c #100B0E",
"0|.	c #150F11",
"a|.	c #352D2C",
"b|.	c #352F2D",
"c|.	c #493E32",
"d|.	c #42362E",
"e|.	c #1E2020",
"f|.	c #272A2A",
"g|.	c #262727",
"h|.	c #524C46",
"i|.	c #6E665B",
"j|.	c #918A7E",
"k|.	c #5D5A56",
"l|.	c #504E4B",
"m|.	c #110E13",
"n|.	c #6E6C67",
"o|.	c #6B635C",
"p|.	c #5A4634",
"q|.	c #552D13",
"r|.	c #4E290E",
"s|.	c #4B2A10",
"t|.	c #6D543E",
"u|.	c #908274",
"v|.	c #928B84",
"w|.	c #191A1B",
"x|.	c #1C1E1F",
"y|.	c #4A3B27",
"z|.	c #4D3E2C",
"A|.	c #4F402F",
"B|.	c #503E2D",
"C|.	c #4A3824",
"D|.	c #473623",
"E|.	c #3E3224",
"F|.	c #211913",
"G|.	c #020105",
"H|.	c #070407",
"I|.	c #575147",
"J|.	c #9B8F7C",
"K|.	c #958B7B",
"L|.	c #6D665B",
"M|.	c #24221A",
"N|.	c #242426",
"O|.	c #06080B",
"P|.	c #050204",
"Q|.	c #17151C",
"R|.	c #282830",
"S|.	c #2B2B34",
"T|.	c #26262C",
"U|.	c #777367",
"V|.	c #A29988",
"W|.	c #ADA290",
"X|.	c #A89F8E",
"Y|.	c #7F786B",
"Z|.	c #15161C",
"`|.	c #3F3C34",
" 1.	c #403E36",
".1.	c #444239",
"+1.	c #45433B",
"@1.	c #46443C",
"#1.	c #3E3D36",
"$1.	c #5D5A50",
"%1.	c #423B2E",
"&1.	c #504336",
"*1.	c #5F5446",
"=1.	c #5C5245",
"-1.	c #53493F",
";1.	c #36322A",
">1.	c #302E27",
",1.	c #2C2423",
"'1.	c #1C181B",
")1.	c #130F14",
"!1.	c #0D090E",
"~1.	c #110C10",
"{1.	c #28241F",
"]1.	c #484238",
"^1.	c #504337",
"/1.	c #473A30",
"(1.	c #3C2F28",
"_1.	c #3B2D27",
":1.	c #40332A",
"<1.	c #191C21",
"[1.	c #282B2B",
"}1.	c #262827",
"|1.	c #4D4B46",
"11.	c #70685B",
"21.	c #968E7F",
"31.	c #959083",
"41.	c #7E7A6F",
"51.	c #69665D",
"61.	c #605D57",
"71.	c #52504C",
"81.	c #39322F",
"91.	c #6A6A67",
"01.	c #604B39",
"a1.	c #583417",
"b1.	c #5A3114",
"c1.	c #532C0F",
"d1.	c #533114",
"e1.	c #735B43",
"f1.	c #938777",
"g1.	c #98938A",
"h1.	c #848277",
"i1.	c #605A4D",
"j1.	c #3A372F",
"k1.	c #1A1C1C",
"l1.	c #171717",
"m1.	c #0A0908",
"n1.	c #25211A",
"o1.	c #473D2E",
"p1.	c #4C3D29",
"q1.	c #4C3C2A",
"r1.	c #50402F",
"s1.	c #4F3E2C",
"t1.	c #4A3A26",
"u1.	c #403426",
"v1.	c #241C17",
"w1.	c #070305",
"x1.	c #544F44",
"y1.	c #655C4F",
"z1.	c #8D806D",
"A1.	c #978B77",
"B1.	c #8F8675",
"C1.	c #676255",
"D1.	c #232119",
"E1.	c #000100",
"F1.	c #0B0705",
"G1.	c #0E0A08",
"H1.	c #060504",
"I1.	c #161218",
"J1.	c #2B2D34",
"K1.	c #28282D",
"L1.	c #787467",
"M1.	c #A19884",
"N1.	c #ABA18D",
"O1.	c #A19987",
"P1.	c #797364",
"Q1.	c #454036",
"R1.	c #272826",
"S1.	c #494439",
"T1.	c #49453A",
"U1.	c #474338",
"V1.	c #464237",
"W1.	c #3A382F",
"X1.	c #39372E",
"Y1.	c #413E34",
"Z1.	c #625D52",
"`1.	c #6A6559",
" 2.	c #5A554D",
".2.	c #3E332A",
"+2.	c #4C4137",
"@2.	c #34322D",
"#2.	c #3E3733",
"$2.	c #3F3B38",
"%2.	c #373231",
"&2.	c #4B463A",
"*2.	c #4B3F33",
"=2.	c #3A2E25",
"-2.	c #191B21",
";2.	c #4B4944",
">2.	c #978E7F",
",2.	c #A1988A",
"'2.	c #969083",
")2.	c #7F7A6F",
"!2.	c #6A665E",
"~2.	c #625F59",
"{2.	c #615E58",
"]2.	c #54524E",
"^2.	c #0D090C",
"/2.	c #3D3531",
"(2.	c #5C5754",
"_2.	c #6C6A69",
":2.	c #726B64",
"<2.	c #644E3C",
"[2.	c #5B371A",
"}2.	c #5B3112",
"|2.	c #532A0C",
"12.	c #563117",
"22.	c #775E49",
"32.	c #96897C",
"42.	c #97908B",
"52.	c #858079",
"62.	c #473B30",
"72.	c #27221C",
"82.	c #352E24",
"92.	c #463C2E",
"02.	c #4C3E2D",
"a2.	c #4C3D2C",
"b2.	c #4D3F2E",
"c2.	c #4C3D2D",
"d2.	c #493724",
"e2.	c #0C090F",
"f2.	c #100C11",
"g2.	c #5D5246",
"h2.	c #7E6D5D",
"i2.	c #887A68",
"j2.	c #211E17",
"k2.	c #070604",
"l2.	c #060503",
"m2.	c #312C26",
"n2.	c #26211B",
"o2.	c #16140F",
"p2.	c #14110C",
"q2.	c #15110A",
"r2.	c #15100A",
"s2.	c #2E2622",
"t2.	c #39312E",
"u2.	c #15130D",
"v2.	c #16110B",
"w2.	c #18130C",
"x2.	c #18140D",
"y2.	c #19140F",
"z2.	c #18130E",
"A2.	c #18130F",
"B2.	c #16100B",
"C2.	c #140E09",
"D2.	c #140D08",
"E2.	c #15100C",
"F2.	c #191410",
"G2.	c #2E2823",
"H2.	c #322B24",
"I2.	c #1B1511",
"J2.	c #24201A",
"K2.	c #181510",
"L2.	c #16130F",
"M2.	c #161310",
"N2.	c #282428",
"O2.	c #2A2930",
"P2.	c #2A2A32",
"Q2.	c #28272D",
"R2.	c #777166",
"S2.	c #99907E",
"T2.	c #A09683",
"U2.	c #3F3830",
"V2.	c #27241F",
"W2.	c #2A2A28",
"X2.	c #4D4639",
"Y2.	c #584E40",
"Z2.	c #574B3E",
"`2.	c #55493C",
" 3.	c #4E4336",
".3.	c #4D4436",
"+3.	c #544B3C",
"@3.	c #54483D",
"#3.	c #4B4033",
"$3.	c #494032",
"%3.	c #494339",
"&3.	c #504D48",
"*3.	c #4C3E32",
"=3.	c #4C3F33",
"-3.	c #463B34",
";3.	c #3A322F",
">3.	c #3A3533",
",3.	c #373130",
"'3.	c #302B2A",
")3.	c #29251D",
"!3.	c #494338",
"~3.	c #534639",
"{3.	c #42352C",
"]3.	c #372B23",
"^3.	c #34291F",
"/3.	c #34281F",
"(3.	c #181B21",
"_3.	c #1E2121",
":3.	c #282C2C",
"<3.	c #50473C",
"[3.	c #A1998A",
"}3.	c #979084",
"|3.	c #6B675F",
"13.	c #64615A",
"23.	c #312B2C",
"33.	c #332D2B",
"43.	c #3F3733",
"53.	c #777672",
"63.	c #7C736B",
"73.	c #6F5945",
"83.	c #654020",
"93.	c #613615",
"03.	c #5A3210",
"a3.	c #5C3A1E",
"b3.	c #7C6651",
"c3.	c #9A8F84",
"d3.	c #9D9791",
"e3.	c #8B857C",
"f3.	c #6B6052",
"g3.	c #534536",
"h3.	c #54483A",
"i3.	c #201B15",
"j3.	c #13100D",
"k3.	c #272520",
"l3.	c #393328",
"m3.	c #4C3F2D",
"n3.	c #4E402D",
"o3.	c #4E402E",
"p3.	c #4D3E2E",
"q3.	c #4C3C28",
"r3.	c #1A161A",
"s3.	c #14121A",
"t3.	c #15131A",
"u3.	c #161319",
"v3.	c #4B463D",
"w3.	c #70614E",
"x3.	c #7F6F5C",
"y3.	c #7D7162",
"z3.	c #5D564B",
"A3.	c #211F18",
"B3.	c #0E0C09",
"C3.	c #666055",
"D3.	c #615B4F",
"E3.	c #5C554A",
"F3.	c #5C5649",
"G3.	c #5A5246",
"H3.	c #5A5243",
"I3.	c #6D6255",
"J3.	c #756A5E",
"K3.	c #706559",
"L3.	c #675C50",
"M3.	c #564E41",
"N3.	c #575041",
"O3.	c #584F41",
"P3.	c #5B5345",
"Q3.	c #5E5648",
"R3.	c #60594C",
"S3.	c #635D53",
"T3.	c #4A4035",
"U3.	c #4B4237",
"V3.	c #4B4238",
"W3.	c #625C54",
"X3.	c #7A7165",
"Y3.	c #766E60",
"Z3.	c #706758",
"`3.	c #6C6355",
" 4.	c #6F675A",
".4.	c #6D6559",
"+4.	c #6A6357",
"@4.	c #6E675B",
"#4.	c #71685E",
"$4.	c #665E54",
"%4.	c #59524A",
"&4.	c #484344",
"*4.	c #312E33",
"=4.	c #2B2B31",
"-4.	c #797569",
";4.	c #968E7A",
">4.	c #988F7A",
",4.	c #908674",
"'4.	c #726959",
")4.	c #564D40",
"!4.	c #2D2821",
"~4.	c #423C31",
"{4.	c #574E40",
"]4.	c #685B4A",
"^4.	c #6B5E4B",
"/4.	c #5E4F3D",
"(4.	c #534634",
"_4.	c #4F4232",
":4.	c #534535",
"<4.	c #5E4E3E",
"[4.	c #594839",
"}4.	c #4D4439",
"|4.	c #4B4338",
"14.	c #504636",
"24.	c #514534",
"34.	c #504334",
"44.	c #35322D",
"54.	c #2A251D",
"64.	c #534739",
"74.	c #3A2E27",
"84.	c #352921",
"94.	c #31261C",
"04.	c #292D2D",
"a4.	c #958D7E",
"b4.	c #9E9789",
"c4.	c #938E81",
"d4.	c #7D7A6E",
"e4.	c #65625C",
"f4.	c #595854",
"g4.	c #2F2928",
"h4.	c #2A2323",
"i4.	c #0E090B",
"j4.	c #0B0607",
"k4.	c #181211",
"l4.	c #413834",
"m4.	c #67635D",
"n4.	c #73736E",
"o4.	c #797168",
"p4.	c #735B45",
"q4.	c #684020",
"r4.	c #673918",
"s4.	c #603717",
"t4.	c #5E3E24",
"u4.	c #7A6755",
"v4.	c #958E85",
"w4.	c #9C9992",
"x4.	c #5E4A39",
"y4.	c #5D4D3B",
"z4.	c #1C160E",
"A4.	c #110E0B",
"B4.	c #3C352B",
"C4.	c #453D2F",
"D4.	c #4A3E2C",
"E4.	c #4D402D",
"F4.	c #4E402F",
"G4.	c #4E3E2E",
"H4.	c #4D3C2C",
"I4.	c #473723",
"J4.	c #423728",
"K4.	c #1C181E",
"L4.	c #18161E",
"M4.	c #17151D",
"N4.	c #19171D",
"O4.	c #18151A",
"P4.	c #4A4439",
"Q4.	c #4A4135",
"R4.	c #52493D",
"S4.	c #4C4139",
"T4.	c #6B5647",
"U4.	c #746152",
"V4.	c #75685A",
"W4.	c #080603",
"X4.	c #1C1913",
"Y4.	c #5E5348",
"Z4.	c #6F6459",
"`4.	c #796F63",
" 5.	c #7E7468",
".5.	c #7D7366",
"+5.	c #7D7263",
"@5.	c #7C705F",
"#5.	c #7F7262",
"$5.	c #8C7E6C",
"%5.	c #8A7B6A",
"&5.	c #877869",
"*5.	c #7D715F",
"=5.	c #7A6F5C",
"-5.	c #7E7361",
";5.	c #837968",
">5.	c #877D6D",
",5.	c #877D6C",
"'5.	c #877C6D",
")5.	c #887D6F",
"!5.	c #877C6E",
"~5.	c #807568",
"{5.	c #74695A",
"]5.	c #695E4E",
"^5.	c #6A5D4E",
"/5.	c #6B5E51",
"(5.	c #675C4E",
"_5.	c #685E50",
":5.	c #887F74",
"<5.	c #8C8075",
"[5.	c #8A7F70",
"}5.	c #827666",
"|5.	c #877A69",
"15.	c #948874",
"25.	c #938773",
"35.	c #908370",
"45.	c #918672",
"55.	c #908672",
"65.	c #8F8572",
"75.	c #8C8170",
"85.	c #8B8171",
"95.	c #887E6F",
"05.	c #867D70",
"a5.	c #857C6F",
"b5.	c #857C6E",
"c5.	c #867C6F",
"d5.	c #857A6D",
"e5.	c #7B7265",
"f5.	c #686054",
"g5.	c #655C51",
"h5.	c #7E746A",
"i5.	c #7B7064",
"j5.	c #7A6F63",
"k5.	c #72675D",
"l5.	c #6C6259",
"m5.	c #615853",
"n5.	c #5C5451",
"o5.	c #4B4545",
"p5.	c #302A31",
"q5.	c #2A292F",
"r5.	c #28272C",
"s5.	c #777165",
"t5.	c #948B77",
"u5.	c #938A74",
"v5.	c #847A67",
"w5.	c #6D6352",
"x5.	c #645949",
"y5.	c #332B22",
"z5.	c #252624",
"A5.	c #39362D",
"B5.	c #443D31",
"C5.	c #5D5142",
"D5.	c #71624D",
"E5.	c #6B5B46",
"F5.	c #60503C",
"G5.	c #544532",
"H5.	c #514230",
"I5.	c #544535",
"J5.	c #5F4D3D",
"K5.	c #604F3D",
"L5.	c #5C4A38",
"M5.	c #554430",
"N5.	c #574632",
"O5.	c #58493A",
"P5.	c #51463D",
"Q5.	c #4B4437",
"R5.	c #504535",
"S5.	c #4E4231",
"T5.	c #37342D",
"U5.	c #33302B",
"V5.	c #3D3733",
"W5.	c #393330",
"X5.	c #4B4134",
"Y5.	c #463B30",
"Z5.	c #12161B",
"`5.	c #181C21",
" 6.	c #2A2E2F",
".6.	c #4C4439",
"+6.	c #908779",
"@6.	c #9A9385",
"#6.	c #928E80",
"$6.	c #7C796E",
"%6.	c #6D6A61",
"&6.	c #6B6863",
"*6.	c #302927",
"=6.	c #2A2322",
"-6.	c #15100E",
";6.	c #4E443B",
">6.	c #6A6865",
",6.	c #6D553E",
"'6.	c #69401F",
")6.	c #6C3E1C",
"!6.	c #633B1D",
"~6.	c #60452C",
"{6.	c #7A6C5A",
"]6.	c #928C82",
"^6.	c #969088",
"/6.	c #85796C",
"(6.	c #6C5944",
"_6.	c #583F2A",
":6.	c #553F29",
"<6.	c #3D2D1D",
"[6.	c #1C1208",
"}6.	c #110C06",
"|6.	c #130F0B",
"16.	c #14110E",
"26.	c #3D372C",
"36.	c #473F30",
"46.	c #4A3F2E",
"56.	c #4B3F2C",
"66.	c #4D402E",
"76.	c #4F4130",
"86.	c #4D3D2C",
"96.	c #41331E",
"06.	c #3D3122",
"a6.	c #1F1A20",
"b6.	c #1A1821",
"c6.	c #191720",
"d6.	c #1A171C",
"e6.	c #4F453A",
"f6.	c #514439",
"g6.	c #675345",
"h6.	c #6C5B4C",
"i6.	c #6F6355",
"j6.	c #544E45",
"k6.	c #201F19",
"l6.	c #060603",
"m6.	c #090703",
"n6.	c #1E1A14",
"o6.	c #726659",
"p6.	c #7A6E62",
"q6.	c #7F7469",
"r6.	c #7D7267",
"s6.	c #7F7468",
"t6.	c #81766A",
"u6.	c #81786A",
"v6.	c #827667",
"w6.	c #7F7263",
"x6.	c #827465",
"y6.	c #847566",
"z6.	c #827364",
"A6.	c #7E6F60",
"B6.	c #7C6F5F",
"C6.	c #796C5B",
"D6.	c #796D5A",
"E6.	c #807462",
"F6.	c #897E6D",
"G6.	c #8D8373",
"H6.	c #8B8070",
"I6.	c #867B6D",
"J6.	c #857B6C",
"K6.	c #7E7364",
"L6.	c #76695A",
"M6.	c #6D6050",
"N6.	c #6E6051",
"O6.	c #6B5E50",
"P6.	c #6A5E50",
"Q6.	c #796F61",
"R6.	c #908578",
"S6.	c #908576",
"T6.	c #8A7E6D",
"U6.	c #8C7F6D",
"V6.	c #918370",
"W6.	c #968974",
"X6.	c #958973",
"Y6.	c #928571",
"Z6.	c #918571",
"`6.	c #8E8470",
" 7.	c #8A806F",
".7.	c #887E6E",
"+7.	c #83796C",
"@7.	c #81786C",
"#7.	c #7F776B",
"$7.	c #81796D",
"%7.	c #7F766B",
"&7.	c #80776A",
"*7.	c #746A5E",
"=7.	c #635A50",
"-7.	c #80786F",
";7.	c #867C70",
">7.	c #83786B",
",7.	c #827769",
"'7.	c #7F7467",
")7.	c #786E63",
"!7.	c #73695F",
"~7.	c #68605A",
"{7.	c #4C4645",
"]7.	c #322D30",
"^7.	c #746F61",
"/7.	c #8E826E",
"(7.	c #887B65",
"_7.	c #786B57",
":7.	c #6A5E4B",
"<7.	c #736554",
"[7.	c #877767",
"}7.	c #3E3B35",
"|7.	c #15151B",
"17.	c #3A372E",
"27.	c #5C5042",
"37.	c #6E5F4D",
"47.	c #70614D",
"57.	c #6A5A46",
"67.	c #554634",
"77.	c #514332",
"87.	c #544636",
"97.	c #61503F",
"07.	c #5F4D3C",
"a7.	c #5B4A37",
"b7.	c #5C4C38",
"c7.	c #5D5040",
"d7.	c #554C43",
"e7.	c #4D4333",
"f7.	c #473D2D",
"g7.	c #362C23",
"h7.	c #494643",
"i7.	c #484741",
"j7.	c #3B3931",
"k7.	c #36332B",
"l7.	c #33312A",
"m7.	c #2B2924",
"n7.	c #291F17",
"o7.	c #12151B",
"p7.	c #2B2E2F",
"q7.	c #4A3C2E",
"r7.	c #655646",
"s7.	c #978D7F",
"t7.	c #90897C",
"u7.	c #6F6C63",
"v7.	c #6A6761",
"w7.	c #6E6A64",
"x7.	c #0F0807",
"y7.	c #5F5955",
"z7.	c #646160",
"A7.	c #685F56",
"B7.	c #624934",
"C7.	c #62391A",
"D7.	c #60391D",
"E7.	c #5D422D",
"F7.	c #756758",
"G7.	c #8C857B",
"H7.	c #8C7F74",
"I7.	c #6A5343",
"J7.	c #4E2F19",
"K7.	c #431F08",
"L7.	c #41220A",
"M7.	c #321806",
"N7.	c #1F0D03",
"O7.	c #170B05",
"P7.	c #4C402D",
"Q7.	c #4E3F2E",
"R7.	c #443522",
"S7.	c #3F301D",
"T7.	c #3A2F21",
"U7.	c #1E191E",
"V7.	c #19161F",
"W7.	c #1A1820",
"X7.	c #19161D",
"Y7.	c #4A4134",
"Z7.	c #4C4131",
"`7.	c #554639",
" 8.	c #554438",
".8.	c #58493C",
"+8.	c #5F5549",
"@8.	c #1C1C16",
"#8.	c #050503",
"$8.	c #060502",
"%8.	c #191611",
"&8.	c #6A6056",
"*8.	c #6C6459",
"=8.	c #6C635A",
"-8.	c #6D665C",
";8.	c #71695F",
">8.	c #736B62",
",8.	c #767065",
"'8.	c #787066",
")8.	c #72675B",
"!8.	c #776C60",
"~8.	c #73685B",
"{8.	c #6F6357",
"]8.	c #6C6253",
"^8.	c #685E4E",
"/8.	c #776E60",
"(8.	c #7C7466",
"_8.	c #7B7366",
":8.	c #7A7265",
"<8.	c #766D60",
"[8.	c #746B5F",
"}8.	c #665B4E",
"|8.	c #62574A",
"18.	c #605548",
"28.	c #62584B",
"38.	c #665C51",
"48.	c #7D766A",
"58.	c #7F7769",
"68.	c #7A7162",
"78.	c #817765",
"88.	c #807663",
"98.	c #817664",
"08.	c #807765",
"a8.	c #7C7565",
"b8.	c #787264",
"c8.	c #746F65",
"d8.	c #756F66",
"e8.	c #7A736A",
"f8.	c #7B746A",
"g8.	c #787166",
"h8.	c #787065",
"i8.	c #595248",
"j8.	c #565048",
"k8.	c #6E6861",
"l8.	c #716A61",
"m8.	c #6D6458",
"n8.	c #70675B",
"o8.	c #675F55",
"p8.	c #474140",
"q8.	c #2F2A2D",
"r8.	c #6F6658",
"s8.	c #807259",
"t8.	c #70624A",
"u8.	c #6D5E49",
"v8.	c #958371",
"w8.	c #7F7060",
"x8.	c #2D2D2A",
"y8.	c #3B372F",
"z8.	c #665A49",
"A8.	c #615443",
"B8.	c #5A4D3D",
"C8.	c #4F4334",
"D8.	c #514637",
"E8.	c #584D3D",
"F8.	c #5F4F40",
"G8.	c #5E4E3D",
"H8.	c #5E503E",
"I8.	c #5B5143",
"J8.	c #18171D",
"K8.	c #483F30",
"L8.	c #4D4C45",
"M8.	c #45423B",
"N8.	c #3C3A31",
"O8.	c #343228",
"P8.	c #302D25",
"Q8.	c #1D1A15",
"R8.	c #2A241F",
"S8.	c #2D251F",
"T8.	c #281F1A",
"U8.	c #241A15",
"V8.	c #13161A",
"W8.	c #202222",
"X8.	c #4E4439",
"Y8.	c #4D3E31",
"Z8.	c #4B3A2A",
"`8.	c #604E3D",
" 9.	c #837463",
".9.	c #948979",
"+9.	c #8F877B",
"@9.	c #7F7B70",
"#9.	c #757269",
"$9.	c #6F6D65",
"%9.	c #736F68",
"&9.	c #615E59",
"*9.	c #151514",
"=9.	c #2A2220",
"-9.	c #0A0707",
";9.	c #0D0605",
">9.	c #2F2621",
",9.	c #433931",
"'9.	c #4C4037",
")9.	c #564C43",
"!9.	c #645F59",
"~9.	c #666460",
"{9.	c #655C53",
"]9.	c #5E4630",
"^9.	c #5E3616",
"/9.	c #623715",
"(9.	c #603F22",
"_9.	c #614B38",
":9.	c #786D61",
"<9.	c #89776A",
"[9.	c #61402E",
"}9.	c #411604",
"|9.	c #3F1101",
"19.	c #3F1501",
"29.	c #331101",
"39.	c #281003",
"49.	c #1E0E06",
"59.	c #1D120B",
"69.	c #1B140F",
"79.	c #0E0A07",
"89.	c #484131",
"99.	c #4B402E",
"09.	c #4E3D2C",
"a9.	c #4A3A27",
"b9.	c #463623",
"c9.	c #3F3425",
"d9.	c #1F1A1F",
"e9.	c #1A171F",
"f9.	c #1A1921",
"g9.	c #1A171E",
"h9.	c #2C241A",
"i9.	c #251C15",
"j9.	c #33261F",
"k9.	c #3C2C23",
"l9.	c #46392E",
"m9.	c #534941",
"n9.	c #141310",
"o9.	c #030403",
"p9.	c #343129",
"q9.	c #312D25",
"r9.	c #312D24",
"s9.	c #363229",
"t9.	c #403D34",
"u9.	c #302B23",
"v9.	c #433C32",
"w9.	c #433D31",
"x9.	c #443E32",
"y9.	c #443F34",
"z9.	c #454136",
"A9.	c #454238",
"B9.	c #434038",
"C9.	c #423F38",
"D9.	c #4B4942",
"E9.	c #4B4840",
"F9.	c #4C4840",
"G9.	c #453F37",
"H9.	c #403B32",
"I9.	c #3C3A34",
"J9.	c #3A352C",
"K9.	c #3D372E",
"L9.	c #413B31",
"M9.	c #332E2F",
"N9.	c #2A2528",
"O9.	c #8A7A62",
"P9.	c #87755A",
"Q9.	c #7F6E55",
"R9.	c #806F59",
"S9.	c #8D7C67",
"T9.	c #8A7B68",
"U9.	c #483E30",
"V9.	c #2E2E2A",
"W9.	c #2D2E2B",
"X9.	c #3F3A31",
"Y9.	c #554A3E",
"Z9.	c #584E41",
"`9.	c #564D3E",
" 0.	c #554B3D",
".0.	c #4F4739",
"+0.	c #544D3D",
"@0.	c #5B5044",
"#0.	c #5C5243",
"$0.	c #524E46",
"%0.	c #18181D",
"&0.	c #423C30",
"*0.	c #443D2D",
"=0.	c #413A2C",
"-0.	c #36342B",
";0.	c #322F25",
">0.	c #312E25",
",0.	c #2B2925",
"'0.	c #342F2C",
")0.	c #352F28",
"!0.	c #4F4237",
"~0.	c #4F3C2F",
"{0.	c #4B3727",
"]0.	c #5C4838",
"^0.	c #7E6E5D",
"/0.	c #8C8072",
"(0.	c #898275",
"_0.	c #75726B",
":0.	c #74716A",
"<0.	c #5F5B56",
"[0.	c #332927",
"}0.	c #2F2623",
"|0.	c #2B221F",
"10.	c #090606",
"20.	c #0A0403",
"30.	c #302522",
"40.	c #483C35",
"50.	c #544942",
"60.	c #5F5956",
"70.	c #625F5E",
"80.	c #5F554F",
"90.	c #573E2B",
"00.	c #593214",
"a0.	c #5D3819",
"b0.	c #5F432D",
"c0.	c #685549",
"d0.	c #7E736E",
"e0.	c #928982",
"f0.	c #8F7A70",
"g0.	c #694631",
"h0.	c #481905",
"i0.	c #461301",
"j0.	c #461701",
"k0.	c #3A1301",
"l0.	c #2C1002",
"m0.	c #220E04",
"n0.	c #23130B",
"o0.	c #1E140E",
"p0.	c #4A4031",
"q0.	c #4B3C2C",
"r0.	c #4B3A28",
"s0.	c #493826",
"t0.	c #423629",
"u0.	c #1D191D",
"v0.	c #18151E",
"w0.	c #1B1922",
"x0.	c #1C1920",
"y0.	c #17141B",
"z0.	c #1C181D",
"A0.	c #4D4232",
"B0.	c #16110E",
"C0.	c #1E1511",
"D0.	c #32251E",
"E0.	c #43362E",
"F0.	c #534942",
"G0.	c #0E0E0C",
"H0.	c #090704",
"I0.	c #0A0805",
"J0.	c #0B0906",
"K0.	c #100F0C",
"L0.	c #11100D",
"M0.	c #141413",
"N0.	c #110F0B",
"O0.	c #0B0A07",
"P0.	c #0F0E0C",
"Q0.	c #100D0A",
"R0.	c #0F0B08",
"S0.	c #110D09",
"T0.	c #0E0E0D",
"U0.	c #736958",
"V0.	c #928167",
"W0.	c #948064",
"X0.	c #917C63",
"Y0.	c #917D66",
"Z0.	c #928069",
"`0.	c #998771",
" a.	c #8F7E6C",
".a.	c #4D4235",
"+a.	c #3C3A35",
"@a.	c #2A2C2C",
"#a.	c #3B3832",
"$a.	c #4F483D",
"%a.	c #504B3E",
"&a.	c #544C41",
"*a.	c #534E45",
"=a.	c #4C4944",
"-a.	c #3D382D",
";a.	c #3C3628",
">a.	c #3C362A",
",a.	c #2D2B22",
"'a.	c #312E24",
")a.	c #26231D",
"!a.	c #1A1518",
"~a.	c #302828",
"{a.	c #181A1E",
"]a.	c #504439",
"^a.	c #503E31",
"/a.	c #4D3A2A",
"(a.	c #5B4739",
"_a.	c #7D6E5E",
":a.	c #8A8071",
"<a.	c #898475",
"[a.	c #7D796F",
"}a.	c #7B7870",
"|a.	c #7A7871",
"1a.	c #77756F",
"2a.	c #5D5A54",
"3a.	c #332A27",
"4a.	c #5C5A57",
"5a.	c #5B5149",
"6a.	c #553C28",
"7a.	c #583517",
"8a.	c #624329",
"9a.	c #655141",
"0a.	c #6F615A",
"aa.	c #857C77",
"ba.	c #968D86",
"ca.	c #937F73",
"da.	c #6F4E37",
"ea.	c #512309",
"fa.	c #4D1901",
"ga.	c #4E1B02",
"ha.	c #421803",
"ia.	c #321403",
"ja.	c #271105",
"ka.	c #27170E",
"la.	c #201610",
"ma.	c #34312A",
"na.	c #433C30",
"oa.	c #4B4132",
"pa.	c #4B402D",
"qa.	c #493E2A",
"ra.	c #483D2B",
"sa.	c #4D402F",
"ta.	c #4E3F30",
"ua.	c #4F3F2F",
"va.	c #18151D",
"wa.	c #1C1921",
"xa.	c #1F1C21",
"ya.	c #17151B",
"za.	c #584F3E",
"Aa.	c #594D3A",
"Ba.	c #554A3C",
"Ca.	c #372D26",
"Da.	c #0F110D",
"Ea.	c #010201",
"Fa.	c #010303",
"Ga.	c #070A0C",
"Ha.	c #746A57",
"Ia.	c #928166",
"Ja.	c #968164",
"Ka.	c #947F64",
"La.	c #937F66",
"Ma.	c #928068",
"Na.	c #988771",
"Oa.	c #90816E",
"Pa.	c #504539",
"Qa.	c #2A2C2B",
"Ra.	c #272927",
"Sa.	c #413C33",
"Ta.	c #565145",
"Ua.	c #4F4A41",
"Va.	c #4B4844",
"Wa.	c #3B372C",
"Xa.	c #393427",
"Ya.	c #353025",
"Za.	c #2A2621",
"`a.	c #292723",
" b.	c #2D2A22",
".b.	c #343227",
"+b.	c #39352B",
"@b.	c #17191D",
"#b.	c #50453D",
"$b.	c #4F3E35",
"%b.	c #49372B",
"&b.	c #5A4A3E",
"*b.	c #7A6D62",
"=b.	c #8D847A",
"-b.	c #878379",
";b.	c #76736B",
">b.	c #72706A",
",b.	c #72706B",
"'b.	c #54514E",
")b.	c #2B201A",
"!b.	c #504946",
"~b.	c #51453D",
"{b.	c #4F341F",
"]b.	c #563318",
"^b.	c #654835",
"/b.	c #6D5B51",
"(b.	c #70645E",
"_b.	c #7E726B",
":b.	c #897971",
"<b.	c #846D5F",
"[b.	c #68452E",
"}b.	c #512208",
"|b.	c #4D1A02",
"1b.	c #4F1C03",
"2b.	c #451A06",
"3b.	c #351607",
"4b.	c #291409",
"5b.	c #271610",
"6b.	c #211612",
"7b.	c #0E0908",
"8b.	c #322E27",
"9b.	c #423A2F",
"0b.	c #494031",
"ab.	c #493E2C",
"bb.	c #473C2A",
"cb.	c #1A151A",
"db.	c #16141B",
"eb.	c #15131B",
"fb.	c #5A5041",
"gb.	c #5F5441",
"hb.	c #181713",
"ib.	c #39312B",
"jb.	c #645D53",
"kb.	c #11110E",
"lb.	c #0B0E11",
"mb.	c #39342B",
"nb.	c #756A57",
"ob.	c #958063",
"pb.	c #937D63",
"qb.	c #927E65",
"rb.	c #917E68",
"sb.	c #96846F",
"tb.	c #8C7E6D",
"ub.	c #3E3A34",
"vb.	c #3E3731",
"wb.	c #635D50",
"xb.	c #666155",
"yb.	c #575248",
"zb.	c #4A4740",
"Ab.	c #363126",
"Bb.	c #2D281F",
"Cb.	c #1F1A1C",
"Db.	c #211C1D",
"Eb.	c #3A362D",
"Fb.	c #3C392E",
"Gb.	c #2E2929",
"Hb.	c #0C0708",
"Ib.	c #121416",
"Jb.	c #1C1E1E",
"Kb.	c #50453C",
"Lb.	c #483C33",
"Mb.	c #5C5149",
"Nb.	c #7F766F",
"Ob.	c #958F88",
"Pb.	c #8C8883",
"Qb.	c #73726D",
"Rb.	c #60605B",
"Sb.	c #5A5956",
"Tb.	c #413E3C",
"Ub.	c #0C0402",
"Vb.	c #140905",
"Wb.	c #120501",
"Xb.	c #150B03",
"Yb.	c #2F241C",
"Zb.	c #463A33",
"`b.	c #4B3C2F",
" c.	c #4C3119",
".c.	c #533418",
"+c.	c #624634",
"@c.	c #6A554A",
"#c.	c #665449",
"$c.	c #655143",
"%c.	c #664C3C",
"&c.	c #63432F",
"*c.	c #572E16",
"=c.	c #4D1F07",
"-c.	c #4C1D05",
";c.	c #4E1F08",
">c.	c #441C0A",
",c.	c #381D0E",
"'c.	c #2B190F",
")c.	c #261913",
"!c.	c #0F0A09",
"~c.	c #433B2F",
"{c.	c #4A4131",
"]c.	c #312820",
"^c.	c #151218",
"/c.	c #110F16",
"(c.	c #5D5445",
"_c.	c #5C5141",
":c.	c #37332B",
"<c.	c #6F675C",
"[c.	c #504C45",
"}c.	c #151410",
"|c.	c #0D0E13",
"1c.	c #0A0B11",
"2c.	c #08090B",
"3c.	c #0F1316",
"4c.	c #111418",
"5c.	c #746956",
"6c.	c #938166",
"7c.	c #948063",
"8c.	c #927E63",
"9c.	c #95846F",
"0c.	c #0D0F17",
"ac.	c #322C24",
"bc.	c #686254",
"cc.	c #6D685B",
"dc.	c #5B564C",
"ec.	c #3D3A32",
"fc.	c #3B362D",
"gc.	c #363025",
"hc.	c #2C271D",
"ic.	c #4C483F",
"jc.	c #2F2B22",
"kc.	c #20191A",
"lc.	c #2D2A25",
"mc.	c #3D3A30",
"nc.	c #403D32",
"oc.	c #262828",
"pc.	c #504842",
"qc.	c #605955",
"rc.	c #817C7A",
"sc.	c #969491",
"tc.	c #8D8C8B",
"uc.	c #6C6C6C",
"vc.	c #464647",
"wc.	c #2B2321",
"xc.	c #040000",
"yc.	c #0A0100",
"zc.	c #100400",
"Ac.	c #2D1E12",
"Bc.	c #443124",
"Cc.	c #47311F",
"Dc.	c #482910",
"Ec.	c #4F2D12",
"Fc.	c #593A24",
"Gc.	c #5C402F",
"Hc.	c #583B2A",
"Ic.	c #55341E",
"Jc.	c #532D16",
"Kc.	c #522810",
"Lc.	c #4E2009",
"Mc.	c #4B1E07",
"Nc.	c #471B05",
"Oc.	c #461C07",
"Pc.	c #401C0C",
"Qc.	c #381F12",
"Rc.	c #2A1B13",
"Sc.	c #100B0B",
"Tc.	c #463D30",
"Uc.	c #4A4130",
"Vc.	c #493D2C",
"Wc.	c #4A3D2E",
"Xc.	c #120E13",
"Yc.	c #504638",
"Zc.	c #474033",
"`c.	c #6A6152",
" d.	c #59544A",
".d.	c #171510",
"+d.	c #101017",
"@d.	c #0E0F16",
"#d.	c #0C0D15",
"$d.	c #0C0C13",
"%d.	c #0E0D14",
"&d.	c #1E1C22",
"*d.	c #131619",
"=d.	c #16181E",
"-d.	c #0E1017",
";d.	c #09090F",
">d.	c #373229",
",d.	c #746855",
"'d.	c #938066",
")d.	c #947F62",
"!d.	c #917D62",
"~d.	c #917D64",
"{d.	c #92816D",
"]d.	c #0C0E17",
"^d.	c #252725",
"/d.	c #433B35",
"(d.	c #322B22",
"_d.	c #666054",
":d.	c #3A352B",
"<d.	c #383227",
"[d.	c #4E483D",
"}d.	c #443F33",
"|d.	c #2F2A21",
"1d.	c #332D26",
"2d.	c #26201F",
"3d.	c #322F28",
"4d.	c #403C32",
"5d.	c #070202",
"6d.	c #252828",
"7d.	c #524C48",
"8d.	c #6A6562",
"9d.	c #878482",
"0d.	c #999895",
"ad.	c #8F908E",
"bd.	c #646666",
"cd.	c #383A3C",
"dd.	c #362C2A",
"ed.	c #302724",
"fd.	c #090100",
"gd.	c #0E0300",
"hd.	c #2D1B0D",
"id.	c #452D19",
"jd.	c #492E17",
"kd.	c #4A280E",
"ld.	c #4F290D",
"md.	c #532E13",
"nd.	c #543118",
"od.	c #522C13",
"pd.	c #53290E",
"qd.	c #522308",
"rd.	c #502208",
"sd.	c #4E220B",
"td.	c #461E09",
"ud.	c #401E0A",
"vd.	c #381B0C",
"wd.	c #321E14",
"xd.	c #4D4231",
"yd.	c #483C2E",
"zd.	c #554C3E",
"Ad.	c #4E4535",
"Bd.	c #474136",
"Cd.	c #7B6F5F",
"Dd.	c #857B6B",
"Ed.	c #635D52",
"Fd.	c #1B1813",
"Gd.	c #121314",
"Hd.	c #101119",
"Id.	c #0B0D15",
"Jd.	c #0B0C14",
"Kd.	c #0C0C14",
"Ld.	c #1C1A21",
"Md.	c #2B292E",
"Nd.	c #29272E",
"Od.	c #211E23",
"Pd.	c #1A1A21",
"Qd.	c #14161E",
"Rd.	c #0C0E16",
"Sd.	c #080A12",
"Td.	c #05060D",
"Ud.	c #201E1A",
"Vd.	c #957F62",
"Wd.	c #927E62",
"Xd.	c #927D65",
"Yd.	c #927F68",
"Zd.	c #887B6A",
"`d.	c #0D1018",
" e.	c #423E37",
".e.	c #5C5548",
"+e.	c #5A564B",
"@e.	c #434039",
"#e.	c #423D32",
"$e.	c #423C2F",
"%e.	c #4A4238",
"&e.	c #484135",
"*e.	c #352F23",
"=e.	c #322B20",
"-e.	c #282120",
";e.	c #120D0C",
">e.	c #140E0D",
",e.	c #150E0D",
"'e.	c #1A1210",
")e.	c #4E4E4B",
"!e.	c #514D4B",
"~e.	c #534D4B",
"{e.	c #706B68",
"]e.	c #8C8885",
"^e.	c #999694",
"/e.	c #8E8D8B",
"(e.	c #616261",
"_e.	c #353638",
":e.	c #2F2F31",
"<e.	c #2B2424",
"[e.	c #070000",
"}e.	c #271407",
"|e.	c #422712",
"1e.	c #472710",
"2e.	c #47240B",
"3e.	c #4F280C",
"4e.	c #4E250A",
"5e.	c #4F250A",
"6e.	c #4F2408",
"7e.	c #4F2307",
"8e.	c #4E2309",
"9e.	c #4A210D",
"0e.	c #442010",
"ae.	c #3E2213",
"be.	c #341F15",
"ce.	c #2E211A",
"de.	c #282427",
"ee.	c #4B4031",
"fe.	c #110E10",
"ge.	c #130F12",
"he.	c #534B3D",
"ie.	c #514837",
"je.	c #7A7366",
"ke.	c #81796C",
"le.	c #897C6D",
"me.	c #918471",
"ne.	c #908573",
"oe.	c #181A20",
"pe.	c #15161D",
"qe.	c #0B0E16",
"re.	c #0C0D16",
"se.	c #12121B",
"te.	c #1B1B23",
"ue.	c #25252B",
"ve.	c #24242B",
"we.	c #0D0F15",
"xe.	c #1D2027",
"ye.	c #1F2127",
"ze.	c #1E1F26",
"Ae.	c #1C1E23",
"Be.	c #211D21",
"Ce.	c #1A1B24",
"De.	c #12151F",
"Ee.	c #090C15",
"Fe.	c #040710",
"Ge.	c #02050C",
"He.	c #000107",
"Ie.	c #363127",
"Je.	c #746955",
"Ke.	c #927F66",
"Le.	c #907F68",
"Me.	c #91816C",
"Ne.	c #887B6B",
"Oe.	c #0D1017",
"Pe.	c #5A5045",
"Qe.	c #61564A",
"Re.	c #5B5145",
"Se.	c #514A3D",
"Te.	c #494136",
"Ue.	c #473E31",
"Ve.	c #453D2E",
"We.	c #3D3427",
"Xe.	c #393125",
"Ye.	c #383126",
"Ze.	c #251F1C",
"`e.	c #262829",
" f.	c #313333",
".f.	c #4E4E4C",
"+f.	c #746E69",
"@f.	c #928C86",
"#f.	c #9D9892",
"$f.	c #908F89",
"%f.	c #62635F",
"&f.	c #3B3C3B",
"*f.	c #2B2525",
"=f.	c #362D2B",
"-f.	c #241306",
";f.	c #422610",
">f.	c #47270D",
",f.	c #462309",
"'f.	c #492508",
")f.	c #4D260A",
"!f.	c #4F280B",
"~f.	c #4C2509",
"{f.	c #4B2207",
"]f.	c #4C2208",
"^f.	c #4A2209",
"/f.	c #482712",
"(f.	c #442B1C",
"_f.	c #453329",
":f.	c #3E312C",
"<f.	c #353438",
"[f.	c #221D1E",
"}f.	c #19151A",
"|f.	c #554F3F",
"1f.	c #574E3C",
"2f.	c #756C5C",
"3f.	c #989181",
"4f.	c #A09785",
"5f.	c #A49985",
"6f.	c #A0927E",
"7f.	c #9E907B",
"8f.	c #968C77",
"9f.	c #6C6558",
"0f.	c #1D1B15",
"af.	c #1B1D21",
"bf.	c #1A1C21",
"cf.	c #1A1C22",
"df.	c #16181F",
"ef.	c #13151E",
"ff.	c #11131C",
"gf.	c #10121B",
"hf.	c #161820",
"if.	c #1B1D24",
"jf.	c #1E1F25",
"kf.	c #14151B",
"lf.	c #06080E",
"mf.	c #1D2024",
"nf.	c #191C1F",
"of.	c #040609",
"pf.	c #191B1F",
"qf.	c #15181E",
"rf.	c #181B22",
"sf.	c #191D24",
"tf.	c #21242B",
"uf.	c #23242B",
"vf.	c #202227",
"wf.	c #211D1F",
"xf.	c #202127",
"yf.	c #1B1F26",
"zf.	c #131821",
"Af.	c #0A0F18",
"Bf.	c #060A12",
"Cf.	c #04080F",
"Df.	c #03060C",
"Ef.	c #1F1E1A",
"Ff.	c #353026",
"Gf.	c #736855",
"Hf.	c #937F65",
"If.	c #938068",
"Jf.	c #8F7F69",
"Kf.	c #91826D",
"Lf.	c #63594E",
"Mf.	c #605648",
"Nf.	c #48433A",
"Of.	c #494337",
"Pf.	c #484236",
"Qf.	c #494138",
"Rf.	c #504637",
"Sf.	c #554A39",
"Tf.	c #534738",
"Uf.	c #4C4234",
"Vf.	c #2D2727",
"Wf.	c #1E191A",
"Xf.	c #22201C",
"Yf.	c #302523",
"Zf.	c #2F3132",
"`f.	c #766E66",
" g.	c #958B82",
".g.	c #9F968C",
"+g.	c #414140",
"@g.	c #2F2624",
"#g.	c #231E21",
"$g.	c #220F03",
"%g.	c #40230D",
"&g.	c #46240A",
"*g.	c #472207",
"=g.	c #492407",
"-g.	c #4A2509",
";g.	c #4B260A",
">g.	c #4B2409",
",g.	c #4A2207",
"'g.	c #482006",
")g.	c #481E05",
"!g.	c #451E06",
"~g.	c #422613",
"{g.	c #412F25",
"]g.	c #4B3F3A",
"^g.	c #4A4243",
"/g.	c #323237",
"(g.	c #36373D",
"_g.	c #313238",
":g.	c #3D332D",
"<g.	c #141118",
"[g.	c #574C3B",
"}g.	c #716657",
"|g.	c #938A79",
"1g.	c #9E8E7A",
"2g.	c #978873",
"3g.	c #1C1813",
"4g.	c #15151D",
"5g.	c #13131C",
"6g.	c #13141B",
"7g.	c #121219",
"8g.	c #0B0B11",
"9g.	c #19191F",
"0g.	c #090C13",
"ag.	c #06080F",
"bg.	c #04060C",
"cg.	c #04040A",
"dg.	c #1F1D19",
"eg.	c #342F25",
"fg.	c #726855",
"gg.	c #918167",
"hg.	c #8E816D",
"ig.	c #8F8270",
"jg.	c #0D0E16",
"kg.	c #665C52",
"lg.	c #6F6457",
"mg.	c #6F6456",
"ng.	c #0F0C0F",
"og.	c #423C33",
"pg.	c #423C32",
"qg.	c #594B3C",
"rg.	c #635542",
"sg.	c #655645",
"tg.	c #5E5142",
"ug.	c #2C2522",
"vg.	c #2D2728",
"wg.	c #2D2627",
"xg.	c #262122",
"yg.	c #281E1B",
"zg.	c #2E2421",
"Ag.	c #322724",
"Bg.	c #1E1D1B",
"Cg.	c #292B2A",
"Dg.	c #A09687",
"Eg.	c #938D80",
"Fg.	c #6C6961",
"Gg.	c #4E4D49",
"Hg.	c #494A48",
"Ig.	c #4A4C49",
"Jg.	c #2C2625",
"Kg.	c #302725",
"Lg.	c #060100",
"Mg.	c #080100",
"Ng.	c #0E0200",
"Og.	c #2C1503",
"Pg.	c #45240C",
"Qg.	c #4A250A",
"Rg.	c #4A2407",
"Sg.	c #4E2608",
"Tg.	c #4E2709",
"Ug.	c #4F280A",
"Vg.	c #4E2609",
"Wg.	c #4B2307",
"Xg.	c #492106",
"Yg.	c #45220A",
"Zg.	c #493222",
"`g.	c #574E4E",
" h.	c #544F51",
".h.	c #414144",
"+h.	c #34353A",
"@h.	c #36383F",
"#h.	c #323339",
"$h.	c #3E3632",
"%h.	c #5C5344",
"&h.	c #5E5341",
"*h.	c #726856",
"=h.	c #9C8C78",
"-h.	c #93826F",
";h.	c #8E7E6A",
">h.	c #887C69",
",h.	c #655F52",
"'h.	c #1A1813",
")h.	c #181410",
"!h.	c #1D1713",
"~h.	c #252021",
"{h.	c #120E0B",
"]h.	c #150F0D",
"^h.	c #130C0B",
"/h.	c #100907",
"(h.	c #343025",
"_h.	c #6F6654",
":h.	c #8B7C65",
"<h.	c #8A7A61",
"[h.	c #81725E",
"}h.	c #796E5C",
"|h.	c #786D5E",
"1h.	c #363330",
"2h.	c #0D0E15",
"3h.	c #111117",
"4h.	c #232524",
"5h.	c #4B453C",
"6h.	c #60523E",
"7h.	c #655642",
"8h.	c #2F2522",
"9h.	c #2E2727",
"0h.	c #2C2422",
"ah.	c #100F0B",
"bh.	c #231B18",
"ch.	c #291F1C",
"dh.	c #291F1D",
"eh.	c #2B211F",
"fh.	c #4C4C49",
"gh.	c #796D5F",
"hh.	c #998B79",
"ih.	c #968C7D",
"jh.	c #56544F",
"kh.	c #51514F",
"lh.	c #41413F",
"mh.	c #302826",
"nh.	c #282223",
"oh.	c #0E0B0F",
"ph.	c #040102",
"qh.	c #1C120D",
"rh.	c #20120B",
"sh.	c #251307",
"th.	c #2C1604",
"uh.	c #40240C",
"vh.	c #502B0F",
"wh.	c #532C0D",
"xh.	c #532B0B",
"yh.	c #562C0B",
"zh.	c #552C0C",
"Ah.	c #552D0C",
"Bh.	c #542B0C",
"Ch.	c #51280B",
"Dh.	c #4C260A",
"Eh.	c #4C2D17",
"Fh.	c #5E4A3F",
"Gh.	c #68615E",
"Hh.	c #696567",
"Ih.	c #575357",
"Jh.	c #3B3B3E",
"Kh.	c #2F3035",
"Lh.	c #33353B",
"Mh.	c #1F1B1E",
"Nh.	c #0F0D13",
"Oh.	c #272121",
"Ph.	c #665C4E",
"Qh.	c #695E4B",
"Rh.	c #776B5A",
"Sh.	c #928673",
"Th.	c #978772",
"Uh.	c #897865",
"Vh.	c #81715E",
"Wh.	c #5D574C",
"Xh.	c #1A1814",
"Yh.	c #726556",
"Zh.	c #6F6353",
"`h.	c #695F4F",
" i.	c #665C4F",
".i.	c #635B4E",
"+i.	c #615848",
"@i.	c #625847",
"#i.	c #625746",
"$i.	c #645948",
"%i.	c #645947",
"&i.	c #665B4A",
"*i.	c #665B4B",
"=i.	c #64594A",
"-i.	c #574C3E",
";i.	c #54483C",
">i.	c #61554A",
",i.	c #64594C",
"'i.	c #5E5245",
")i.	c #736B5E",
"!i.	c #756D60",
"~i.	c #5E5446",
"{i.	c #594F40",
"]i.	c #6C6353",
"^i.	c #6E6454",
"/i.	c #6A6050",
"(i.	c #6A604F",
"_i.	c #69604E",
":i.	c #6C6351",
"<i.	c #69614F",
"[i.	c #6A6250",
"}i.	c #6A6251",
"|i.	c #6A6053",
"1i.	c #5F574C",
"2i.	c #6B625C",
"3i.	c #5F594A",
"4i.	c #5F594B",
"5i.	c #645D52",
"6i.	c #615950",
"7i.	c #5A524A",
"8i.	c #645E56",
"9i.	c #4F4940",
"0i.	c #4B443A",
"ai.	c #4C4336",
"bi.	c #4E4436",
"ci.	c #564C44",
"di.	c #686051",
"ei.	c #7E715E",
"fi.	c #716452",
"gi.	c #53493A",
"hi.	c #0C0D14",
"ii.	c #211F1A",
"ji.	c #574736",
"ki.	c #61503E",
"li.	c #5D4F3F",
"mi.	c #2D2420",
"ni.	c #322A2A",
"oi.	c #342B2A",
"pi.	c #2A2121",
"qi.	c #252022",
"ri.	c #1E1715",
"si.	c #1D1413",
"ti.	c #221918",
"ui.	c #231A1A",
"vi.	c #211817",
"wi.	c #201817",
"xi.	c #4D4E4A",
"yi.	c #514D45",
"zi.	c #9B8B75",
"Ai.	c #A3927D",
"Bi.	c #756F62",
"Ci.	c #5B5952",
"Di.	c #575754",
"Ei.	c #454643",
"Fi.	c #352E2C",
"Gi.	c #0B0608",
"Hi.	c #2A1E16",
"Ii.	c #321F12",
"Ji.	c #39210E",
"Ki.	c #42250C",
"Li.	c #502E11",
"Mi.	c #583111",
"Ni.	c #58300E",
"Oi.	c #582F0D",
"Pi.	c #5A2F0D",
"Qi.	c #592F0D",
"Ri.	c #582F0F",
"Si.	c #572F0F",
"Ti.	c #552D0F",
"Ui.	c #522F12",
"Vi.	c #5B402B",
"Wi.	c #77675D",
"Xi.	c #7D7976",
"Yi.	c #767575",
"Zi.	c #59595A",
"`i.	c #373739",
" j.	c #2B2C31",
".j.	c #323439",
"+j.	c #303237",
"@j.	c #0D0910",
"#j.	c #07060D",
"$j.	c #07060C",
"%j.	c #302A2A",
"&j.	c #302A29",
"*j.	c #766A56",
"=j.	c #988C78",
"-j.	c #877763",
";j.	c #7C6E5A",
">j.	c #746A59",
",j.	c #1D1C17",
"'j.	c #817466",
")j.	c #988977",
"!j.	c #9B8973",
"~j.	c #95856D",
"{j.	c #8F7F68",
"]j.	c #8C7D67",
"^j.	c #8B7C67",
"/j.	c #8A7C67",
"(j.	c #897C66",
"_j.	c #897B65",
":j.	c #877862",
"<j.	c #877960",
"[j.	c #887960",
"}j.	c #897961",
"|j.	c #8B7C63",
"1j.	c #897B63",
"2j.	c #897A63",
"3j.	c #857460",
"4j.	c #84745E",
"5j.	c #82725D",
"6j.	c #867661",
"7j.	c #8D7D68",
"8j.	c #90816B",
"9j.	c #90816D",
"0j.	c #998D78",
"aj.	c #8F8370",
"bj.	c #877B69",
"cj.	c #887C68",
"dj.	c #847663",
"ej.	c #7E705A",
"fj.	c #83755F",
"gj.	c #8F816B",
"hj.	c #90836B",
"ij.	c #91836A",
"jj.	c #92846B",
"kj.	c #91846B",
"lj.	c #8F8369",
"mj.	c #8C8068",
"nj.	c #8D8169",
"oj.	c #8D826C",
"pj.	c #8D826D",
"qj.	c #877B6A",
"rj.	c #988D80",
"sj.	c #A3988A",
"tj.	c #A29788",
"uj.	c #968A73",
"vj.	c #92876E",
"wj.	c #948971",
"xj.	c #938972",
"yj.	c #948B74",
"zj.	c #908572",
"Aj.	c #908571",
"Bj.	c #8C816E",
"Cj.	c #877B6B",
"Dj.	c #897D6E",
"Ej.	c #928777",
"Fj.	c #968B7B",
"Gj.	c #8F8576",
"Hj.	c #867C6D",
"Ij.	c #7B7161",
"Jj.	c #776B59",
"Kj.	c #766955",
"Lj.	c #786A55",
"Mj.	c #7A6A55",
"Nj.	c #82725C",
"Oj.	c #837460",
"Pj.	c #877864",
"Qj.	c #887A69",
"Rj.	c #8A7C6F",
"Sj.	c #61564C",
"Tj.	c #353229",
"Uj.	c #676153",
"Vj.	c #7A705E",
"Wj.	c #675C4D",
"Xj.	c #393434",
"Yj.	c #363131",
"Zj.	c #413326",
"`j.	c #5F4F3D",
" k.	c #473C30",
".k.	c #302822",
"+k.	c #382F2D",
"@k.	c #39302F",
"#k.	c #3B3230",
"$k.	c #0A0A08",
"%k.	c #181212",
"&k.	c #1F1818",
"*k.	c #4E4D48",
"=k.	c #5A5142",
"-k.	c #7B6D57",
";k.	c #9C8971",
">k.	c #A49179",
",k.	c #998A75",
"'k.	c #575854",
")k.	c #292425",
"!k.	c #110E12",
"~k.	c #0D080B",
"{k.	c #1E1615",
"]k.	c #2B1E17",
"^k.	c #341F13",
"/k.	c #3D210D",
"(k.	c #48260C",
"_k.	c #563011",
":k.	c #5A310F",
"<k.	c #5A300E",
"[k.	c #5A3010",
"}k.	c #593010",
"|k.	c #562E0F",
"1k.	c #553216",
"2k.	c #624834",
"3k.	c #796C63",
"4k.	c #7B7876",
"5k.	c #737170",
"6k.	c #575656",
"7k.	c #323133",
"8k.	c #303136",
"9k.	c #2E2F33",
"0k.	c #0B090E",
"ak.	c #312A2A",
"bk.	c #2F2828",
"ck.	c #544E48",
"dk.	c #73695B",
"ek.	c #756855",
"fk.	c #7F725E",
"gk.	c #938772",
"hk.	c #998A76",
"ik.	c #8F7D6A",
"jk.	c #7E6D5B",
"kk.	c #736553",
"lk.	c #6D6353",
"mk.	c #1B1915",
"nk.	c #605245",
"ok.	c #9B8A72",
"pk.	c #99856D",
"qk.	c #958269",
"rk.	c #8F7D64",
"sk.	c #8C7A62",
"tk.	c #8A7961",
"uk.	c #887961",
"vk.	c #86775E",
"wk.	c #88795F",
"xk.	c #8A7B62",
"yk.	c #877961",
"zk.	c #8A7B63",
"Ak.	c #8A7963",
"Bk.	c #897862",
"Ck.	c #877760",
"Dk.	c #8B7B63",
"Ek.	c #908069",
"Fk.	c #93846D",
"Gk.	c #91816B",
"Hk.	c #95866E",
"Ik.	c #958670",
"Jk.	c #988B75",
"Kk.	c #958A74",
"Lk.	c #938873",
"Mk.	c #90846F",
"Nk.	c #867A65",
"Ok.	c #847661",
"Pk.	c #83735E",
"Qk.	c #81725B",
"Rk.	c #857660",
"Sk.	c #8F806A",
"Tk.	c #90826B",
"Uk.	c #8F816A",
"Vk.	c #93846C",
"Wk.	c #92836C",
"Xk.	c #92846C",
"Yk.	c #8E8168",
"Zk.	c #8E8068",
"`k.	c #8D7F68",
" l.	c #8E816A",
".l.	c #8B7F69",
"+l.	c #8D816B",
"@l.	c #887B69",
"#l.	c #887C6B",
"$l.	c #978B7B",
"%l.	c #A59A88",
"&l.	c #A79A88",
"*l.	c #9A8B72",
"=l.	c #928569",
"-l.	c #95876C",
";l.	c #93876C",
">l.	c #93876D",
",l.	c #91846C",
"'l.	c #90836C",
")l.	c #8B7D68",
"!l.	c #8B7D67",
"~l.	c #867864",
"{l.	c #847662",
"]l.	c #827461",
"^l.	c #877966",
"/l.	c #8F826F",
"(l.	c #796C58",
"_l.	c #776953",
":l.	c #7A6B54",
"<l.	c #806F57",
"[l.	c #86765E",
"}l.	c #887762",
"|l.	c #8C7D66",
"1l.	c #8D7F6B",
"2l.	c #8C7E6F",
"3l.	c #64584F",
"4l.	c #35322C",
"5l.	c #656054",
"6l.	c #6A5F53",
"7l.	c #464340",
"8l.	c #403227",
"9l.	c #514132",
"0l.	c #5D4D3D",
"al.	c #594B3D",
"bl.	c #43382E",
"cl.	c #3C3330",
"dl.	c #3A312F",
"el.	c #261F1F",
"fl.	c #191417",
"gl.	c #100C0B",
"hl.	c #3A3C3A",
"il.	c #4F4F49",
"jl.	c #534E43",
"kl.	c #5E5442",
"ll.	c #7F7058",
"ml.	c #A59077",
"nl.	c #998973",
"ol.	c #796F5F",
"pl.	c #605B53",
"ql.	c #4B4B48",
"rl.	c #221919",
"sl.	c #2D211A",
"tl.	c #342014",
"ul.	c #40230E",
"vl.	c #4E2A0D",
"wl.	c #5C3413",
"xl.	c #5F3513",
"yl.	c #5C3310",
"zl.	c #5B310E",
"Al.	c #5A310E",
"Bl.	c #5C3211",
"Cl.	c #5B3311",
"Dl.	c #58361A",
"El.	c #624935",
"Fl.	c #73665B",
"Gl.	c #74716C",
"Hl.	c #575555",
"Il.	c #303034",
"Jl.	c #7C705D",
"Kl.	c #8A7D69",
"Ll.	c #8E7F6C",
"Ml.	c #837360",
"Nl.	c #6F6250",
"Ol.	c #695F51",
"Pl.	c #1A1915",
"Ql.	c #786A59",
"Rl.	c #786A54",
"Sl.	c #73654F",
"Tl.	c #70624D",
"Ul.	c #6D614D",
"Vl.	c #6B604D",
"Wl.	c #6C624E",
"Xl.	c #6B614D",
"Yl.	c #6B604C",
"Zl.	c #695F4A",
"`l.	c #6A604B",
" m.	c #6A604C",
".m.	c #6D6450",
"+m.	c #6C6350",
"@m.	c #6B604E",
"#m.	c #6B614E",
"$m.	c #6B5F4D",
"%m.	c #6E6350",
"&m.	c #716654",
"*m.	c #756B58",
"=m.	c #766B59",
"-m.	c #796F5B",
";m.	c #7A705D",
">m.	c #7B725F",
",m.	c #7B7260",
"'m.	c #7B7361",
")m.	c #786F5E",
"!m.	c #766D5C",
"~m.	c #716757",
"{m.	c #6A604E",
"]m.	c #685D4B",
"^m.	c #685C49",
"/m.	c #746857",
"(m.	c #766C5A",
"_m.	c #796F5D",
":m.	c #7A715F",
"<m.	c #766E5C",
"[m.	c #736A58",
"}m.	c #716958",
"|m.	c #6F6758",
"1m.	c #6F6757",
"2m.	c #685F52",
"3m.	c #766C60",
"4m.	c #817564",
"5m.	c #796E59",
"6m.	c #70664E",
"7m.	c #71674F",
"8m.	c #726851",
"9m.	c #736954",
"0m.	c #716652",
"am.	c #6F6452",
"bm.	c #6B604F",
"cm.	c #695E4C",
"dm.	c #655949",
"em.	c #635746",
"fm.	c #736A5A",
"gm.	c #696253",
"hm.	c #615948",
"im.	c #5E5543",
"jm.	c #5D5340",
"km.	c #615641",
"lm.	c #6A5F4B",
"mm.	c #6D624F",
"nm.	c #706654",
"om.	c #706657",
"pm.	c #6D6357",
"qm.	c #50463F",
"rm.	c #282723",
"sm.	c #35342E",
"tm.	c #666256",
"um.	c #6D6457",
"vm.	c #45403F",
"wm.	c #53463A",
"xm.	c #5B4E42",
"ym.	c #564B41",
"zm.	c #3B3430",
"Am.	c #14131A",
"Bm.	c #1A191F",
"Cm.	c #322F30",
"Dm.	c #3C3D3C",
"Em.	c #52524C",
"Fm.	c #615745",
"Gm.	c #817059",
"Hm.	c #9C886E",
"Im.	c #A18D74",
"Jm.	c #988872",
"Km.	c #786E5E",
"Lm.	c #5C5850",
"Mm.	c #575855",
"Nm.	c #2C201A",
"Om.	c #331F14",
"Pm.	c #3F220D",
"Qm.	c #4F2B0E",
"Rm.	c #5D3515",
"Sm.	c #603614",
"Tm.	c #5E3411",
"Um.	c #5B320F",
"Vm.	c #5B320E",
"Wm.	c #5B3312",
"Xm.	c #5B3515",
"Ym.	c #5E3D1F",
"Zm.	c #654730",
"`m.	c #685141",
" n.	c #695E54",
".n.	c #696564",
"+n.	c #595556",
"@n.	c #2E2D32",
"#n.	c #292325",
"$n.	c #7F766A",
"%n.	c #807363",
"&n.	c #827563",
"*n.	c #6E604E",
"=n.	c #5F5040",
"-n.	c #433F37",
";n.	c #100E0C",
">n.	c #140F0A",
",n.	c #231C15",
"'n.	c #32291F",
")n.	c #31291D",
"!n.	c #2D261A",
"~n.	c #2C2419",
"{n.	c #2A2319",
"]n.	c #2A251B",
"^n.	c #2A251C",
"/n.	c #2D291E",
"(n.	c #2B271D",
"_n.	c #2B281D",
":n.	c #29261A",
"<n.	c #2A251A",
"[n.	c #2A261B",
"}n.	c #2C291F",
"|n.	c #2A261D",
"1n.	c #252218",
"2n.	c #242017",
"3n.	c #231E15",
"4n.	c #252117",
"5n.	c #28241A",
"6n.	c #29251B",
"7n.	c #2C281D",
"8n.	c #2E2A1E",
"9n.	c #302C21",
"0n.	c #322D22",
"an.	c #322E23",
"bn.	c #312C22",
"cn.	c #2F2B21",
"dn.	c #2C271E",
"en.	c #2A261C",
"fn.	c #262117",
"gn.	c #241E15",
"hn.	c #211A12",
"in.	c #231D15",
"jn.	c #2D2920",
"kn.	c #29271F",
"ln.	c #27251D",
"mn.	c #1F1D11",
"nn.	c #1D1C11",
"on.	c #1E1D13",
"pn.	c #212017",
"qn.	c #211D15",
"rn.	c #211D14",
"sn.	c #282219",
"tn.	c #332D23",
"un.	c #27241B",
"vn.	c #222014",
"wn.	c #201E11",
"xn.	c #232013",
"yn.	c #262316",
"zn.	c #2A271A",
"An.	c #302C22",
"Bn.	c #302B24",
"Cn.	c #6D6355",
"Dn.	c #443E3B",
"En.	c #24221E",
"Fn.	c #232019",
"Gn.	c #211D1D",
"Hn.	c #0A070B",
"In.	c #121018",
"Jn.	c #1B1A22",
"Kn.	c #1B1B21",
"Ln.	c #404240",
"Mn.	c #585952",
"Nn.	c #5D594D",
"On.	c #685F4E",
"Pn.	c #82735F",
"Qn.	c #9C8B73",
"Rn.	c #9F8D76",
"Sn.	c #968874",
"Tn.	c #59564E",
"Un.	c #545451",
"Vn.	c #565754",
"Wn.	c #393937",
"Xn.	c #352116",
"Yn.	c #40230F",
"Zn.	c #512E11",
"`n.	c #603919",
" o.	c #623918",
".o.	c #603714",
"+o.	c #5E3512",
"@o.	c #5F3511",
"#o.	c #5E3513",
"$o.	c #5E3613",
"%o.	c #5D3716",
"&o.	c #614225",
"*o.	c #78604B",
"=o.	c #8C7869",
"-o.	c #827467",
";o.	c #696358",
">o.	c #676563",
",o.	c #5C5A5A",
"'o.	c #3B3A3A",
")o.	c #252327",
"!o.	c #877F73",
"~o.	c #897F6E",
"{o.	c #7F7261",
"]o.	c #645746",
"^o.	c #514435",
"/o.	c #0E0B08",
"(o.	c #676559",
"_o.	c #7F7867",
":o.	c #6E6456",
"<o.	c #6F6A61",
"[o.	c #4C4741",
"}o.	c #1C1C1C",
"|o.	c #16100E",
"1o.	c #0F0E0B",
"2o.	c #090B0C",
"3o.	c #110F17",
"4o.	c #191920",
"5o.	c #2D2E31",
"6o.	c #424444",
"7o.	c #595954",
"8o.	c #645F55",
"9o.	c #847665",
"0o.	c #978875",
"ao.	c #908473",
"bo.	c #6D675C",
"co.	c #4C4C4B",
"do.	c #525251",
"eo.	c #494948",
"fo.	c #2F251D",
"go.	c #392619",
"ho.	c #452915",
"io.	c #573417",
"jo.	c #67411F",
"ko.	c #68401E",
"lo.	c #663D19",
"mo.	c #643A16",
"no.	c #653A15",
"oo.	c #643B18",
"po.	c #603C1A",
"qo.	c #664C32",
"ro.	c #867566",
"so.	c #9E9389",
"to.	c #8D857C",
"uo.	c #5A5558",
"vo.	c #877F75",
"wo.	c #877B6C",
"xo.	c #615444",
"yo.	c #4F4233",
"zo.	c #514636",
"Ao.	c #50483B",
"Bo.	c #010305",
"Co.	c #020405",
"Do.	c #6E6B5E",
"Eo.	c #8B8471",
"Fo.	c #89806A",
"Go.	c #867C69",
"Ho.	c #908877",
"Io.	c #978F7F",
"Jo.	c #9A9183",
"Ko.	c #8B8377",
"Lo.	c #010304",
"Mo.	c #2D2F31",
"No.	c #424545",
"Oo.	c #5B5C56",
"Po.	c #686358",
"Qo.	c #746A5A",
"Ro.	c #7D7061",
"So.	c #7B6E61",
"To.	c #605B51",
"Uo.	c #484843",
"Vo.	c #464746",
"Wo.	c #454544",
"Xo.	c #171A1F",
"Yo.	c #121519",
"Zo.	c #362319",
"`o.	c #543214",
" p.	c #65401C",
".p.	c #66411C",
"+p.	c #643E19",
"@p.	c #643B16",
"#p.	c #653B14",
"$p.	c #633B15",
"%p.	c #623B19",
"&p.	c #5F3C1E",
"*p.	c #644B33",
"=p.	c #998F87",
"-p.	c #898178",
";p.	c #54524F",
">p.	c #595856",
",p.	c #524E4F",
"'p.	c #2D2D31",
")p.	c #877F74",
"!p.	c #877E6F",
"~p.	c #847A6A",
"{p.	c #867D6B",
"]p.	c #7E7262",
"^p.	c #5A4E3C",
"/p.	c #5D5140",
"(p.	c #5B5344",
"_p.	c #04060A",
":p.	c #07090E",
"<p.	c #06090E",
"[p.	c #04070B",
"}p.	c #05070B",
"|p.	c #090B0E",
"1p.	c #090C0F",
"2p.	c #04070A",
"3p.	c #030507",
"4p.	c #282926",
"5p.	c #383732",
"6p.	c #706D5F",
"7p.	c #8F8973",
"8p.	c #8C836B",
"9p.	c #847B63",
"0p.	c #89806B",
"ap.	c #918A76",
"bp.	c #968F7C",
"cp.	c #8A8476",
"dp.	c #090A0B",
"ep.	c #0D0F0F",
"fp.	c #080909",
"gp.	c #07090A",
"hp.	c #0F0E15",
"ip.	c #2C2C30",
"jp.	c #3F4142",
"kp.	c #5B5A57",
"lp.	c #66594D",
"mp.	c #534337",
"np.	c #46382E",
"op.	c #41342D",
"pp.	c #4C433C",
"qp.	c #3D3C3A",
"rp.	c #424342",
"sp.	c #3D3E3C",
"tp.	c #181B20",
"up.	c #301D16",
"vp.	c #381D0C",
"wp.	c #4A2A10",
"xp.	c #5B3C1C",
"yp.	c #5D3D1D",
"zp.	c #5D3B1B",
"Ap.	c #5C3817",
"Bp.	c #5D3916",
"Cp.	c #5D3B19",
"Dp.	c #5E3E22",
"Ep.	c #5D4029",
"Fp.	c #604A37",
"Gp.	c #76695C",
"Hp.	c #8B8078",
"Ip.	c #7D746C",
"Jp.	c #4B4847",
"Kp.	c #827A70",
"Lp.	c #847A6D",
"Mp.	c #7B705F",
"Np.	c #675847",
"Op.	c #675D4E",
"Pp.	c #433E36",
"Qp.	c #14151C",
"Rp.	c #16171E",
"Sp.	c #16181D",
"Tp.	c #0F1114",
"Up.	c #040608",
"Vp.	c #000204",
"Wp.	c #716D60",
"Xp.	c #908873",
"Yp.	c #8C8269",
"Zp.	c #83795F",
"`p.	c #867B67",
" q.	c #8F8773",
".q.	c #928A78",
"+q.	c #888274",
"@q.	c #100F15",
"#q.	c #3F4141",
"$q.	c #655A54",
"%q.	c #5D4C42",
"&q.	c #402C24",
"*q.	c #2C1B15",
"=q.	c #241713",
"-q.	c #312722",
";q.	c #3D3D3D",
">q.	c #1E2125",
",q.	c #2F221A",
"'q.	c #362113",
")q.	c #492F1A",
"!q.	c #5E462F",
"~q.	c #604B36",
"{q.	c #5D452F",
"]q.	c #5C4127",
"^q.	c #5F4428",
"/q.	c #664E37",
"(q.	c #6E5A49",
"_q.	c #705E53",
":q.	c #726459",
"<q.	c #776D63",
"[q.	c #7E756C",
"}q.	c #7D756B",
"|q.	c #7B7261",
"1q.	c #776D5A",
"2q.	c #726452",
"3q.	c #726250",
"4q.	c #7D6F5A",
"5q.	c #4A463C",
"6q.	c #1C1E24",
"7q.	c #202129",
"8q.	c #1F2128",
"9q.	c #1E2026",
"0q.	c #24262B",
"aq.	c #212328",
"bq.	c #151819",
"cq.	c #14171A",
"dq.	c #111417",
"eq.	c #070A0D",
"fq.	c #3E3D3F",
"gq.	c #716E5F",
"hq.	c #928A72",
"iq.	c #90866A",
"jq.	c #867B5F",
"kq.	c #867C65",
"lq.	c #8D8570",
"mq.	c #8F8775",
"nq.	c #848071",
"oq.	c #535047",
"pq.	c #1F1E1C",
"qq.	c #1A1917",
"rq.	c #3D3F40",
"sq.	c #5F534D",
"tq.	c #5C493F",
"uq.	c #4C362D",
"vq.	c #402D26",
"wq.	c #362721",
"xq.	c #3B302A",
"yq.	c #3C3C3C",
"zq.	c #1F2025",
"Aq.	c #31231B",
"Bq.	c #443327",
"Cq.	c #5A4934",
"Dq.	c #604D36",
"Eq.	c #6E5D4F",
"Fq.	c #7A6E69",
"Gq.	c #7D7472",
"Hq.	c #7D7672",
"Iq.	c #766E65",
"Jq.	c #4C4743",
"Kq.	c #746C64",
"Lq.	c #776E5D",
"Mq.	c #716656",
"Nq.	c #706452",
"Oq.	c #716351",
"Pq.	c #7A6B58",
"Qq.	c #726857",
"Rq.	c #0E0E14",
"Sq.	c #1F2028",
"Tq.	c #1F2029",
"Uq.	c #24262C",
"Vq.	c #171B1E",
"Wq.	c #181C1F",
"Xq.	c #181C20",
"Yq.	c #323134",
"Zq.	c #29292D",
"`q.	c #716D5D",
" r.	c #948B71",
".r.	c #93876A",
"+r.	c #897C61",
"@r.	c #867B63",
"#r.	c #88806B",
"$r.	c #8A8271",
"%r.	c #817B6D",
"&r.	c #534F47",
"*r.	c #29272B",
"=r.	c #3B3C3F",
"-r.	c #4F4C4C",
";r.	c #554A45",
">r.	c #5A473C",
",r.	c #614A40",
"'r.	c #634E44",
")r.	c #5B4A41",
"!r.	c #3B3B39",
"~r.	c #403F3F",
"{r.	c #1D1E23",
"]r.	c #595851",
"^r.	c #5B4A36",
"/r.	c #6B5B4B",
"(r.	c #766A64",
"_r.	c #77706D",
":r.	c #77726E",
"<r.	c #736E67",
"[r.	c #625B53",
"}r.	c #42403C",
"|r.	c #44423F",
"1r.	c #242427",
"2r.	c #726A62",
"3r.	c #736550",
"4r.	c #7B6D58",
"5r.	c #726956",
"6r.	c #4E4A40",
"7r.	c #1D1D23",
"8r.	c #1C1B22",
"9r.	c #0D0D09",
"0r.	c #121517",
"ar.	c #736F5E",
"br.	c #988F74",
"cr.	c #9A8E70",
"dr.	c #908367",
"er.	c #837B67",
"fr.	c #867E6E",
"gr.	c #7C766A",
"hr.	c #524E47",
"ir.	c #080504",
"jr.	c #0A0603",
"kr.	c #080502",
"lr.	c #080503",
"mr.	c #090604",
"nr.	c #1F1A15",
"or.	c #343438",
"pr.	c #494546",
"qr.	c #4A413C",
"rr.	c #544339",
"sr.	c #6C564A",
"tr.	c #766257",
"ur.	c #726357",
"vr.	c #1D1F20",
"wr.	c #524D48",
"xr.	c #5B5245",
"yr.	c #5E4934",
"zr.	c #624A30",
"Ar.	c #67513B",
"Br.	c #6C5F58",
"Cr.	c #6E6760",
"Dr.	c #706961",
"Er.	c #635B54",
"Fr.	c #0F0C09",
"Gr.	c #1E1913",
"Hr.	c #221B15",
"Ir.	c #1E1812",
"Jr.	c #1A150E",
"Kr.	c #130F0A",
"Lr.	c #100C09",
"Mr.	c #272629",
"Nr.	c #766D63",
"Or.	c #6D5F4F",
"Pr.	c #725F4B",
"Qr.	c #746149",
"Rr.	c #6C5841",
"Sr.	c #75634B",
"Tr.	c #4B453B",
"Ur.	c #201C17",
"Vr.	c #2E2B23",
"Wr.	c #353128",
"Xr.	c #333027",
"Yr.	c #302C23",
"Zr.	c #231F1A",
"`r.	c #24211B",
" s.	c #24201B",
".s.	c #75705F",
"+s.	c #9B9176",
"@s.	c #9E9072",
"#s.	c #93866B",
"$s.	c #80765F",
"%s.	c #766F5D",
"&s.	c #797263",
"*s.	c #4E4C44",
"=s.	c #0F0B06",
"-s.	c #1B1610",
";s.	c #1C1710",
">s.	c #17130D",
",s.	c #18140E",
"'s.	c #1A160F",
")s.	c #1D1811",
"!s.	c #261F17",
"~s.	c #322A21",
"{s.	c #322B21",
"]s.	c #1E170F",
"^s.	c #1A130C",
"/s.	c #1B160E",
"(s.	c #1A140D",
"_s.	c #19140D",
":s.	c #18130D",
"<s.	c #1A1610",
"[s.	c #110E0A",
"}s.	c #0A0705",
"|s.	c #0F0A07",
"1s.	c #17100C",
"2s.	c #29231C",
"3s.	c #100B0A",
"4s.	c #060304",
"5s.	c #444242",
"6s.	c #4F4439",
"7s.	c #6D5F52",
"8s.	c #7A6F61",
"9s.	c #776F61",
"0s.	c #736D61",
"as.	c #5C5952",
"bs.	c #43423E",
"cs.	c #424140",
"ds.	c #4A423C",
"es.	c #433A36",
"fs.	c #39312F",
"gs.	c #2B2C2F",
"hs.	c #5A5952",
"is.	c #5F5546",
"js.	c #634C33",
"ks.	c #674928",
"ls.	c #674A2A",
"ms.	c #664F35",
"ns.	c #655344",
"os.	c #786F68",
"ps.	c #484443",
"qs.	c #594E43",
"rs.	c #4E4743",
"ss.	c #796F64",
"ts.	c #715F4B",
"us.	c #664F3A",
"vs.	c #6A5039",
"ws.	c #765B41",
"xs.	c #71553B",
"ys.	c #786146",
"zs.	c #705E49",
"As.	c #5E534A",
"Bs.	c #5D5348",
"Cs.	c #5C5146",
"Ds.	c #5B5348",
"Es.	c #584F45",
"Fs.	c #655E55",
"Gs.	c #655E4F",
"Hs.	c #655D50",
"Is.	c #665F50",
"Js.	c #635C4E",
"Ks.	c #635B4F",
"Ls.	c #655D52",
"Ms.	c #686053",
"Ns.	c #685F54",
"Os.	c #706659",
"Ps.	c #71675A",
"Qs.	c #776E63",
"Rs.	c #7B7267",
"Ss.	c #7E766B",
"Ts.	c #766E64",
"Us.	c #686156",
"Vs.	c #615D5A",
"Ws.	c #5A5654",
"Xs.	c #504B45",
"Ys.	c #4F4845",
"Zs.	c #504B49",
"`s.	c #7A7563",
" t.	c #9E9578",
".t.	c #A29476",
"+t.	c #96896E",
"@t.	c #79705A",
"#t.	c #676150",
"$t.	c #26292A",
"%t.	c #17150F",
"&t.	c #27231A",
"*t.	c #2D271C",
"=t.	c #373024",
"-t.	c #4A4334",
";t.	c #52493A",
">t.	c #4F4637",
",t.	c #4A4132",
"'t.	c #463D2E",
")t.	c #4A3F2F",
"!t.	c #4D4030",
"~t.	c #544735",
"{t.	c #665948",
"]t.	c #695C4C",
"^t.	c #594E3F",
"/t.	c #392F22",
"(t.	c #3A3124",
"_t.	c #251E1A",
":t.	c #61594B",
"<t.	c #675E52",
"[t.	c #4D4846",
"}t.	c #56524D",
"|t.	c #4D4942",
"1t.	c #554F49",
"2t.	c #57534D",
"3t.	c #474440",
"4t.	c #474340",
"5t.	c #4F4B47",
"6t.	c #53504D",
"7t.	c #413E40",
"8t.	c #433C38",
"9t.	c #695E53",
"0t.	c #767062",
"at.	c #736F62",
"bt.	c #706C62",
"ct.	c #43423F",
"dt.	c #434241",
"et.	c #473E3B",
"ft.	c #514842",
"gt.	c #4C413D",
"ht.	c #4C403B",
"it.	c #433735",
"jt.	c #2E2625",
"kt.	c #2B2B2F",
"lt.	c #5A5951",
"mt.	c #5E5544",
"nt.	c #634B30",
"ot.	c #674623",
"pt.	c #664420",
"qt.	c #634729",
"rt.	c #614B39",
"st.	c #685A4F",
"tt.	c #736B63",
"ut.	c #79706A",
"vt.	c #6D655F",
"wt.	c #4B4845",
"xt.	c #514F4E",
"yt.	c #494645",
"zt.	c #675A4D",
"At.	c #53463B",
"Bt.	c #4A3F35",
"Ct.	c #4C4239",
"Dt.	c #4A4340",
"Et.	c #786D63",
"Ft.	c #766355",
"Gt.	c #725B47",
"Ht.	c #5A3E27",
"It.	c #5E3E26",
"Jt.	c #79553A",
"Kt.	c #7A563B",
"Lt.	c #7C5E42",
"Mt.	c #78644C",
"Nt.	c #1E1914",
"Ot.	c #5E5850",
"Pt.	c #6B635A",
"Qt.	c #7E746B",
"Rt.	c #83766C",
"St.	c #827669",
"Tt.	c #807264",
"Ut.	c #7F7162",
"Vt.	c #796B5C",
"Wt.	c #7A6C5C",
"Xt.	c #786A5C",
"Yt.	c #756759",
"Zt.	c #746657",
"`t.	c #766859",
" u.	c #766858",
".u.	c #786C5E",
"+u.	c #7E7365",
"@u.	c #877C70",
"#u.	c #80766B",
"$u.	c #746A5F",
"%u.	c #73695D",
"&u.	c #7D7364",
"*u.	c #83786A",
"=u.	c #827969",
"-u.	c #817668",
";u.	c #807467",
">u.	c #837768",
",u.	c #877867",
"'u.	c #897B6B",
")u.	c #8A7D6C",
"!u.	c #877969",
"~u.	c #887A6A",
"{u.	c #8D7F71",
"]u.	c #8F8274",
"^u.	c #8F8375",
"/u.	c #82776A",
"(u.	c #796D60",
"_u.	c #786C5F",
":u.	c #786D60",
"<u.	c #74685C",
"[u.	c #71675E",
"}u.	c #756E68",
"|u.	c #726B68",
"1u.	c #6B6663",
"2u.	c #635E5B",
"3u.	c #635C59",
"4u.	c #615A56",
"5u.	c #625B56",
"6u.	c #5F5952",
"7u.	c #5C5550",
"8u.	c #5D5751",
"9u.	c #5D5653",
"0u.	c #5E5857",
"au.	c #474142",
"bu.	c #7D7666",
"cu.	c #9E9378",
"du.	c #9F9175",
"eu.	c #93866D",
"fu.	c #716753",
"gu.	c #3F3D38",
"hu.	c #352F25",
"iu.	c #3A3325",
"ju.	c #615748",
"ku.	c #6D6253",
"lu.	c #5D503F",
"mu.	c #5E4F3E",
"nu.	c #62503C",
"ou.	c #614E3A",
"pu.	c #67543F",
"qu.	c #6D5B47",
"ru.	c #796955",
"su.	c #807260",
"tu.	c #736453",
"uu.	c #594B3B",
"vu.	c #4C4030",
"wu.	c #52473A",
"xu.	c #4D443B",
"yu.	c #382F29",
"zu.	c #63584C",
"Au.	c #726759",
"Bu.	c #73675B",
"Cu.	c #554A44",
"Du.	c #150F10",
"Eu.	c #1D171A",
"Fu.	c #352F30",
"Gu.	c #3B3535",
"Hu.	c #595350",
"Iu.	c #645E57",
"Ju.	c #69625A",
"Ku.	c #4F4A45",
"Lu.	c #59544E",
"Mu.	c #615C57",
"Nu.	c #2D2D30",
"Ou.	c #424040",
"Pu.	c #665E53",
"Qu.	c #757163",
"Ru.	c #747064",
"Su.	c #706D64",
"Tu.	c #4C433E",
"Uu.	c #4D443D",
"Vu.	c #443935",
"Wu.	c #3D3430",
"Xu.	c #514D49",
"Yu.	c #5E5645",
"Zu.	c #624D2F",
"`u.	c #664824",
" v.	c #664520",
".v.	c #634727",
"+v.	c #79736D",
"@v.	c #6D665F",
"#v.	c #4A4946",
"$v.	c #52514E",
"%v.	c #4B4036",
"&v.	c #4D4339",
"*v.	c #48413E",
"=v.	c #776C62",
"-v.	c #786757",
";v.	c #735B46",
">v.	c #573A22",
",v.	c #5B391F",
"'v.	c #7D573A",
")v.	c #815C3E",
"!v.	c #7F6044",
"~v.	c #7B664D",
"{v.	c #080705",
"]v.	c #4F4C4A",
"^v.	c #595550",
"/v.	c #82766C",
"(v.	c #807567",
"_v.	c #7D7163",
":v.	c #7B6E5F",
"<v.	c #796D5D",
"[v.	c #776B5C",
"}v.	c #75695B",
"|v.	c #706557",
"1v.	c #736859",
"2v.	c #7A7063",
"3v.	c #82786D",
"4v.	c #857B71",
"5v.	c #80776D",
"6v.	c #776E64",
"7v.	c #766E61",
"8v.	c #7C7367",
"9v.	c #7B7266",
"0v.	c #7B7166",
"av.	c #7C7267",
"bv.	c #7B7065",
"cv.	c #7A6E64",
"dv.	c #7E7264",
"ev.	c #837669",
"fv.	c #84786B",
"gv.	c #807466",
"hv.	c #827567",
"iv.	c #837868",
"jv.	c #837869",
"kv.	c #867A6E",
"lv.	c #8A7E72",
"mv.	c #897E72",
"nv.	c #7C7366",
"ov.	c #72675C",
"pv.	c #6D6359",
"qv.	c #6C6359",
"rv.	c #6A6258",
"sv.	c #6D665E",
"tv.	c #6F6863",
"uv.	c #6C6663",
"vv.	c #67625F",
"wv.	c #605C59",
"xv.	c #5E5A56",
"yv.	c #5F5A55",
"zv.	c #59544F",
"Av.	c #585350",
"Bv.	c #5B5655",
"Cv.	c #474343",
"Dv.	c #7E7767",
"Ev.	c #9C9378",
"Fv.	c #9D9275",
"Gv.	c #8E8269",
"Hv.	c #6E6551",
"Iv.	c #5A5447",
"Jv.	c #605A4F",
"Kv.	c #5C594F",
"Lv.	c #211D18",
"Mv.	c #373025",
"Nv.	c #393022",
"Ov.	c #615647",
"Pv.	c #5C5142",
"Qv.	c #584B3C",
"Rv.	c #5A4D3B",
"Sv.	c #5A4A38",
"Tv.	c #5E4B37",
"Uv.	c #5C4733",
"Vv.	c #76634E",
"Wv.	c #796855",
"Xv.	c #7D6D5A",
"Yv.	c #5A4C3A",
"Zv.	c #4E4130",
"`v.	c #4A3E2F",
" w.	c #4F4234",
".w.	c #504435",
"+w.	c #534638",
"@w.	c #4F4336",
"#w.	c #483F33",
"$w.	c #4A4036",
"%w.	c #211A1B",
"&w.	c #635C52",
"*w.	c #5E574A",
"=w.	c #5F574B",
"-w.	c #5F584C",
";w.	c #615C51",
">w.	c #726F63",
",w.	c #727066",
"'w.	c #5C5B55",
")w.	c #444441",
"!w.	c #3E3E3D",
"~w.	c #434242",
"{w.	c #4D443E",
"]w.	c #473C38",
"^w.	c #413732",
"/w.	c #352B27",
"(w.	c #3B312D",
"_w.	c #4F4A46",
":w.	c #595850",
"<w.	c #5D5645",
"[w.	c #614F35",
"}w.	c #654B2C",
"|w.	c #64492A",
"1w.	c #634F3F",
"2w.	c #67615A",
"3w.	c #474643",
"4w.	c #504F4E",
"5w.	c #474544",
"6w.	c #463C34",
"7w.	c #443C34",
"8w.	c #221C17",
"9w.	c #715945",
"0w.	c #553622",
"aw.	c #56331C",
"bw.	c #744D31",
"cw.	c #7A5539",
"dw.	c #79593F",
"ew.	c #79644D",
"fw.	c #54493E",
"gw.	c #0D0D0C",
"hw.	c #232320",
"iw.	c #4C4539",
"jw.	c #4C453B",
"kw.	c #3A3630",
"lw.	c #4F493F",
"mw.	c #50493F",
"nw.	c #534B40",
"ow.	c #575046",
"pw.	c #3F3A32",
"qw.	c #413D3B",
"rw.	c #6B6657",
"sw.	c #827963",
"tw.	c #847961",
"uw.	c #796C57",
"vw.	c #625846",
"ww.	c #575043",
"xw.	c #0B0D0F",
"yw.	c #0D0E0D",
"zw.	c #24221D",
"Aw.	c #363026",
"Bw.	c #382F24",
"Cw.	c #473D30",
"Dw.	c #4F4538",
"Ew.	c #4C3F31",
"Fw.	c #54412F",
"Gw.	c #59442F",
"Hw.	c #614C38",
"Iw.	c #705C49",
"Jw.	c #756350",
"Kw.	c #6E5D4B",
"Lw.	c #5B4B3A",
"Mw.	c #524233",
"Nw.	c #544434",
"Ow.	c #504131",
"Pw.	c #4E4030",
"Qw.	c #4D3E2F",
"Rw.	c #524333",
"Sw.	c #544435",
"Tw.	c #514336",
"Uw.	c #4D4134",
"Vw.	c #463C30",
"Ww.	c #4C4036",
"Xw.	c #3A2E26",
"Yw.	c #382C25",
"Zw.	c #53483F",
"`w.	c #53483E",
" x.	c #2E2628",
".x.	c #2D2524",
"+x.	c #413A35",
"@x.	c #615A4F",
"#x.	c #413935",
"$x.	c #27252A",
"%x.	c #28272A",
"&x.	c #706F63",
"*x.	c #717066",
"=x.	c #6D6C62",
"-x.	c #5B5B54",
";x.	c #454541",
">x.	c #3F3F3E",
",x.	c #433934",
"'x.	c #362C28",
")x.	c #372A24",
"!x.	c #3C302A",
"~x.	c #4E4A44",
"{x.	c #57574E",
"]x.	c #685946",
"^x.	c #6D5B44",
"/x.	c #6C5A44",
"(x.	c #6A5947",
"_x.	c #6E6A61",
":x.	c #6F6B63",
"<x.	c #605C52",
"[x.	c #474743",
"}x.	c #50504F",
"|x.	c #37302B",
"1x.	c #3E3631",
"2x.	c #71675C",
"3x.	c #726151",
"4x.	c #6C5541",
"5x.	c #563926",
"6x.	c #52321D",
"7x.	c #765538",
"8x.	c #785A40",
"9x.	c #53493E",
"0x.	c #110C08",
"ax.	c #100C07",
"bx.	c #0F0C07",
"cx.	c #0D0A05",
"dx.	c #0C0A05",
"ex.	c #0C0A04",
"fx.	c #0E0B05",
"gx.	c #0E0C07",
"hx.	c #0E0C08",
"ix.	c #0F0D08",
"jx.	c #0D0C08",
"kx.	c #0B0A06",
"lx.	c #0B0905",
"mx.	c #0A0A05",
"nx.	c #0B0A05",
"ox.	c #090803",
"px.	c #070703",
"qx.	c #070602",
"rx.	c #060602",
"sx.	c #070603",
"tx.	c #080704",
"ux.	c #080805",
"vx.	c #090906",
"wx.	c #060604",
"xx.	c #070704",
"yx.	c #080604",
"zx.	c #0C0905",
"Ax.	c #100E09",
"Bx.	c #0B0904",
"Cx.	c #070502",
"Dx.	c #423C2E",
"Ex.	c #4B412F",
"Fx.	c #4C412F",
"Gx.	c #4A3D2C",
"Hx.	c #262725",
"Ix.	c #252623",
"Jx.	c #4D4539",
"Kx.	c #797166",
"Lx.	c #4C3E2C",
"Mx.	c #54402C",
"Nx.	c #563F2B",
"Ox.	c #5D4631",
"Px.	c #66513D",
"Qx.	c #74604C",
"Rx.	c #7A6753",
"Sx.	c #7B6956",
"Tx.	c #72614D",
"Ux.	c #645441",
"Vx.	c #61513F",
"Wx.	c #645442",
"Xx.	c #5E4D3B",
"Yx.	c #5C4A39",
"Zx.	c #604D3C",
"`x.	c #62503E",
" y.	c #635241",
".y.	c #56493B",
"+y.	c #4E4237",
"@y.	c #4E4238",
"#y.	c #483D36",
"$y.	c #362C27",
"%y.	c #3C342E",
"&y.	c #373030",
"*y.	c #342D2F",
"=y.	c #61584B",
"-y.	c #61594C",
";y.	c #5F584B",
">y.	c #5E564B",
",y.	c #49443E",
"'y.	c #615B57",
")y.	c #504943",
"!y.	c #554E45",
"~y.	c #2A282C",
"{y.	c #403E3D",
"]y.	c #6F6D62",
"^y.	c #706E64",
"/y.	c #6B6A61",
"(y.	c #5A5953",
"_y.	c #3B3A39",
":y.	c #413833",
"<y.	c #3A302C",
"[y.	c #332A26",
"}y.	c #362621",
"|y.	c #54554E",
"1y.	c #615D55",
"2y.	c #6C645D",
"3y.	c #69645C",
"4y.	c #5D574B",
"5y.	c #484642",
"6y.	c #504E4D",
"7y.	c #352D28",
"8y.	c #352F26",
"9y.	c #24211A",
"0y.	c #433D3B",
"ay.	c #6F604F",
"by.	c #5E4835",
"cy.	c #4B321D",
"dy.	c #472B17",
"ey.	c #5F4129",
"fy.	c #74563D",
"gy.	c #775C44",
"hy.	c #705C4A",
"iy.	c #251F1A",
"jy.	c #2F271A",
"ky.	c #2E2112",
"ly.	c #2F2111",
"my.	c #2E1E10",
"ny.	c #342518",
"oy.	c #5F544B",
"py.	c #5C5045",
"qy.	c #543E28",
"ry.	c #5A412A",
"sy.	c #644A34",
"ty.	c #6D5540",
"uy.	c #806B56",
"vy.	c #76624E",
"wy.	c #695642",
"xy.	c #675440",
"yy.	c #6B5743",
"zy.	c #64503D",
"Ay.	c #604B38",
"By.	c #654E3B",
"Cy.	c #68513E",
"Dy.	c #685340",
"Ey.	c #574838",
"Fy.	c #574A3D",
"Gy.	c #5A4E43",
"Hy.	c #55483F",
"Iy.	c #4F443B",
"Jy.	c #231D19",
"Ky.	c #332C2C",
"Ly.	c #342F2F",
"My.	c #605749",
"Ny.	c #5E564C",
"Oy.	c #716B66",
"Py.	c #72685E",
"Qy.	c #7A6D5E",
"Ry.	c #7A6E5F",
"Sy.	c #43413F",
"Ty.	c #434036",
"Uy.	c #5D5B4F",
"Vy.	c #716F64",
"Wy.	c #5C5B54",
"Xy.	c #474642",
"Yy.	c #3C3B3B",
"Zy.	c #3C332F",
"`y.	c #352721",
" z.	c #37261E",
".z.	c #3B2D25",
"+z.	c #49453E",
"@z.	c #50534A",
"#z.	c #595952",
"$z.	c #666159",
"%z.	c #706B64",
"&z.	c #716C67",
"*z.	c #6C6662",
"=z.	c #69635B",
"-z.	c #6B6253",
";z.	c #605748",
">z.	c #48463F",
",z.	c #4D4B48",
"'z.	c #403F3D",
")z.	c #271F18",
"!z.	c #3C3128",
"~z.	c #372E25",
"{z.	c #766A60",
"]z.	c #726251",
"^z.	c #5B4733",
"/z.	c #4D3720",
"(z.	c #4D3620",
"_z.	c #654B37",
":z.	c #775D49",
"<z.	c #7D6851",
"[z.	c #6E5E4C",
"}z.	c #12110D",
"|z.	c #342415",
"1z.	c #32200F",
"2z.	c #2F1B0B",
"3z.	c #342213",
"4z.	c #4A3C30",
"5z.	c #5E5248",
"6z.	c #161211",
"7z.	c #393127",
"8z.	c #40372A",
"9z.	c #473E2E",
"0z.	c #574C3C",
"az.	c #84796C",
"bz.	c #83796D",
"cz.	c #74695E",
"dz.	c #5D5146",
"ez.	c #403121",
"fz.	c #473522",
"gz.	c #513B25",
"hz.	c #583F27",
"iz.	c #634931",
"jz.	c #6B523C",
"kz.	c #7B654E",
"lz.	c #735D47",
"mz.	c #6E5A43",
"nz.	c #715C47",
"oz.	c #745F4A",
"pz.	c #715C48",
"qz.	c #67523E",
"rz.	c #634C3A",
"sz.	c #67513D",
"tz.	c #6B5542",
"uz.	c #655240",
"vz.	c #564737",
"wz.	c #504537",
"xz.	c #594C41",
"yz.	c #5B4E44",
"zz.	c #4E4239",
"Az.	c #483C34",
"Bz.	c #392F28",
"Cz.	c #2D2520",
"Dz.	c #3B342D",
"Ez.	c #6F6B60",
"Fz.	c #635A4C",
"Gz.	c #605950",
"Hz.	c #534E49",
"Iz.	c #776C61",
"Jz.	c #786A5A",
"Kz.	c #44413F",
"Lz.	c #6F6E63",
"Mz.	c #6E6C64",
"Nz.	c #474646",
"Oz.	c #3B312E",
"Pz.	c #33241D",
"Qz.	c #36241B",
"Rz.	c #3B2A22",
"Sz.	c #4C4C44",
"Tz.	c #4C4B41",
"Uz.	c #524E44",
"Vz.	c #6B6764",
"Wz.	c #6D6968",
"Xz.	c #6A6461",
"Yz.	c #655849",
"Zz.	c #665845",
"`z.	c #3C3A32",
" A.	c #392E26",
".A.	c #3C3126",
"+A.	c #55504C",
"@A.	c #847A6E",
"#A.	c #76654F",
"$A.	c #736148",
"%A.	c #725E47",
"&A.	c #786550",
"*A.	c #766151",
"=A.	c #766451",
"-A.	c #6B5E4F",
";A.	c #423527",
">A.	c #473321",
",A.	c #442D19",
"'A.	c #3C2311",
")A.	c #3A2414",
"!A.	c #463428",
"~A.	c #52453C",
"{A.	c #090B10",
"]A.	c #0F0B0A",
"^A.	c #4C4337",
"/A.	c #5E5243",
"(A.	c #675C4C",
"_A.	c #50463A",
":A.	c #3A2E22",
"<A.	c #37291A",
"[A.	c #3E2E1D",
"}A.	c #463320",
"|A.	c #47321D",
"1A.	c #4D3722",
"2A.	c #523C28",
"3A.	c #5C4732",
"4A.	c #614B36",
"5A.	c #66513B",
"6A.	c #66523B",
"7A.	c #6F5A44",
"8A.	c #796450",
"9A.	c #7E6955",
"0A.	c #745F4B",
"aA.	c #654F3C",
"bA.	c #5E4735",
"cA.	c #614938",
"dA.	c #665442",
"eA.	c #594D41",
"fA.	c #65594E",
"gA.	c #5E5349",
"hA.	c #473D34",
"iA.	c #625A4D",
"jA.	c #62594E",
"kA.	c #63594F",
"lA.	c #635A4F",
"mA.	c #605850",
"nA.	c #736759",
"oA.	c #454341",
"pA.	c #5E5B52",
"qA.	c #727167",
"rA.	c #74736A",
"sA.	c #717068",
"tA.	c #616059",
"uA.	c #4B4949",
"vA.	c #3B322F",
"wA.	c #36261D",
"xA.	c #382419",
"yA.	c #3E2B21",
"zA.	c #4C423A",
"AA.	c #474337",
"BA.	c #484235",
"CA.	c #555047",
"DA.	c #676561",
"EA.	c #6D6B6A",
"FA.	c #6B6662",
"GA.	c #62564A",
"HA.	c #594733",
"IA.	c #554029",
"JA.	c #463520",
"KA.	c #33281A",
"LA.	c #101316",
"MA.	c #312921",
"NA.	c #393025",
"OA.	c #2D2822",
"PA.	c #221F1A",
"QA.	c #8D8576",
"RA.	c #948872",
"SA.	c #92836B",
"TA.	c #94846B",
"UA.	c #8B7A63",
"VA.	c #7C6D58",
"WA.	c #6C5D4B",
"XA.	c #695C4B",
"YA.	c #110F0C",
"ZA.	c #5F4A35",
"`A.	c #5A402B",
" B.	c #4C311E",
".B.	c #402818",
"+B.	c #3B281C",
"@B.	c #3D2F27",
"#B.	c #6C6456",
"$B.	c #7A6F5F",
"%B.	c #6C6151",
"&B.	c #564B3C",
"*B.	c #30251B",
"=B.	c #34271B",
"-B.	c #3B2C1E",
";B.	c #3E2D1D",
">B.	c #392615",
",B.	c #362311",
"'B.	c #392513",
")B.	c #412E1B",
"!B.	c #473320",
"~B.	c #54402B",
"{B.	c #84715C",
"]B.	c #88755F",
"^B.	c #65503D",
"/B.	c #5B4533",
"(B.	c #604938",
"_B.	c #67513E",
":B.	c #6D5946",
"<B.	c #6B5B49",
"[B.	c #6A5D4C",
"}B.	c #655B51",
"|B.	c #382E29",
"1B.	c #645A4B",
"2B.	c #655B4D",
"3B.	c #625B50",
"4B.	c #6E665C",
"5B.	c #665B4D",
"6B.	c #040308",
"7B.	c #76746C",
"8B.	c #72716A",
"9B.	c #4D4B49",
"0B.	c #474545",
"aB.	c #38312F",
"bB.	c #2F221D",
"cB.	c #36251C",
"dB.	c #3D291F",
"eB.	c #656360",
"fB.	c #6B696A",
"gB.	c #6B6361",
"hB.	c #615045",
"iB.	c #543B25",
"jB.	c #4B2F15",
"kB.	c #3C240C",
"lB.	c #291C0E",
"mB.	c #0D1014",
"nB.	c #292220",
"oB.	c #231A17",
"pB.	c #1D1412",
"qB.	c #3F3530",
"rB.	c #2D241D",
"sB.	c #5C5753",
"tB.	c #8E8677",
"uB.	c #96876E",
"vB.	c #97876E",
"wB.	c #8C7C68",
"xB.	c #716353",
"yB.	c #564B3D",
"zB.	c #040207",
"AB.	c #121017",
"BB.	c #695541",
"CB.	c #644937",
"DB.	c #543928",
"EB.	c #422B1C",
"FB.	c #342218",
"GB.	c #080A10",
"HB.	c #49443C",
"IB.	c #574E47",
"JB.	c #867A6A",
"KB.	c #867969",
"LB.	c #514337",
"MB.	c #36291E",
"NB.	c #3D2F21",
"OB.	c #3E2D1F",
"PB.	c #352314",
"QB.	c #311E0F",
"RB.	c #332011",
"SB.	c #3C2A19",
"TB.	c #43311F",
"UB.	c #513E2B",
"VB.	c #634E3C",
"WB.	c #7D6956",
"XB.	c #877561",
"YB.	c #887662",
"ZB.	c #796654",
"`B.	c #614D3C",
" C.	c #54402F",
".C.	c #594634",
"+C.	c #604B3B",
"@C.	c #6A5746",
"#C.	c #6C5C4C",
"$C.	c #706553",
"%C.	c #6F6657",
"&C.	c #362D28",
"*C.	c #6B6055",
"=C.	c #655A4C",
"-C.	c #655B4C",
";C.	c #655B52",
">C.	c #4F4438",
",C.	c #716152",
"'C.	c #737268",
")C.	c #77766D",
"!C.	c #74736B",
"~C.	c #63625C",
"{C.	c #474645",
"]C.	c #4B4A49",
"^C.	c #1C1511",
"/C.	c #38271E",
"(C.	c #39251B",
"_C.	c #3C2B21",
":C.	c #514B3E",
"<C.	c #565148",
"[C.	c #646360",
"}C.	c #6B6B6B",
"|C.	c #625246",
"1C.	c #563A24",
"2C.	c #4E2D13",
"3C.	c #3F230A",
"4C.	c #2E1E0F",
"5C.	c #0C0E11",
"6C.	c #120C0C",
"7C.	c #30281E",
"8C.	c #5D5954",
"9C.	c #8F8777",
"0C.	c #92836A",
"aC.	c #95876D",
"bC.	c #857964",
"cC.	c #655B4A",
"dC.	c #0B0A08",
"eC.	c #0A070C",
"fC.	c #554F44",
"gC.	c #695B49",
"hC.	c #645041",
"iC.	c #554031",
"jC.	c #48372A",
"kC.	c #3D2F26",
"lC.	c #313032",
"mC.	c #070B10",
"nC.	c #817566",
"oC.	c #776C5C",
"pC.	c #53483C",
"qC.	c #3B2F21",
"rC.	c #362617",
"sC.	c #352515",
"tC.	c #473625",
"uC.	c #4F3E2B",
"vC.	c #584733",
"wC.	c #645240",
"xC.	c #7B6A57",
"yC.	c #847360",
"zC.	c #524130",
"AC.	c #564532",
"BC.	c #5C4938",
"CC.	c #685746",
"DC.	c #6D5E4F",
"EC.	c #6F6656",
"FC.	c #6E6657",
"GC.	c #6B6256",
"HC.	c #3C312B",
"IC.	c #030508",
"JC.	c #655C4C",
"KC.	c #665D4E",
"LC.	c #655D4F",
"MC.	c #635C50",
"NC.	c #5E574C",
"OC.	c #514942",
"PC.	c #5C5348",
"QC.	c #5C5248",
"RC.	c #4D4337",
"SC.	c #4B4032",
"TC.	c #584B3D",
"UC.	c #706253",
"VC.	c #706D66",
"WC.	c #706D68",
"XC.	c #5E5B57",
"YC.	c #191311",
"ZC.	c #291F1B",
"`C.	c #2F211B",
" D.	c #322119",
".D.	c #33241C",
"+D.	c #605F5E",
"@D.	c #6A696B",
"#D.	c #645347",
"$D.	c #5B3E28",
"%D.	c #563319",
"&D.	c #482911",
"*D.	c #362414",
"=D.	c #0C0D10",
"-D.	c #291E19",
";D.	c #080506",
">D.	c #8E7E68",
",D.	c #8B7E67",
"'D.	c #564D3F",
")D.	c #120D0D",
"!D.	c #18120F",
"~D.	c #0D0907",
"{D.	c #110D0B",
"]D.	c #4A4944",
"^D.	c #655F58",
"/D.	c #5C5853",
"(D.	c #4B4946",
"_D.	c #393637",
":D.	c #080A0F",
"<D.	c #3C3430",
"[D.	c #61584A",
"}D.	c #6E6355",
"|D.	c #776C5D",
"1D.	c #33271C",
"2D.	c #2F2214",
"3D.	c #352618",
"4D.	c #554435",
"5D.	c #5B4939",
"6D.	c #6D5D4C",
"7D.	c #726352",
"8D.	c #706351",
"9D.	c #665746",
"0D.	c #604F3F",
"aD.	c #5C4A3C",
"bD.	c #5E4D3D",
"cD.	c #5C4B3A",
"dD.	c #615140",
"eD.	c #695A4B",
"fD.	c #61564D",
"gD.	c #393129",
"hD.	c #63594A",
"iD.	c #645B4B",
"jD.	c #62584D",
"kD.	c #55493D",
"lD.	c #63574A",
"mD.	c #524F4B",
"nD.	c #6B6963",
"oD.	c #706D69",
"pD.	c #52514D",
"qD.	c #342F2E",
"rD.	c #1D1714",
"sD.	c #201612",
"tD.	c #1F140F",
"uD.	c #221712",
"vD.	c #636265",
"wD.	c #686361",
"xD.	c #674B34",
"yD.	c #654227",
"zD.	c #53331B",
"AD.	c #3D2818",
"BD.	c #1E1713",
"CD.	c #271F1F",
"DD.	c #898271",
"ED.	c #8B806B",
"FD.	c #8A7E66",
"GD.	c #857A64",
"HD.	c #706756",
"ID.	c #453D39",
"JD.	c #473F3B",
"KD.	c #2C221F",
"LD.	c #2C221E",
"MD.	c #291F1A",
"ND.	c #2C221D",
"OD.	c #2D231F",
"PD.	c #2D2320",
"QD.	c #392F2B",
"RD.	c #382E28",
"SD.	c #3B3129",
"TD.	c #443D35",
"UD.	c #302928",
"VD.	c #151217",
"WD.	c #45453E",
"XD.	c #414037",
"YD.	c #4A473E",
"ZD.	c #848076",
"`D.	c #8B877D",
" E.	c #7E7B73",
".E.	c #5E5C56",
"+E.	c #675F58",
"@E.	c #6F675F",
"#E.	c #50493A",
"$E.	c #504438",
"%E.	c #221913",
"&E.	c #251B11",
"*E.	c #544438",
"=E.	c #514235",
"-E.	c #4F4133",
";E.	c #57493A",
">E.	c #574A3C",
",E.	c #594D3F",
"'E.	c #665849",
")E.	c #706051",
"!E.	c #716151",
"~E.	c #675845",
"{E.	c #645643",
"]E.	c #6C5F4D",
"^E.	c #786C5C",
"/E.	c #554B41",
"(E.	c #5A4F40",
"_E.	c #676052",
":E.	c #63594D",
"<E.	c #564D46",
"[E.	c #675D51",
"}E.	c #64584D",
"|E.	c #443A32",
"1E.	c #09080E",
"2E.	c #5D5A58",
"3E.	c #605E5C",
"4E.	c #5B5956",
"5E.	c #342D2E",
"6E.	c #19110F",
"7E.	c #5E5E5E",
"8E.	c #66615E",
"9E.	c #6B5C51",
"0E.	c #6F5641",
"aE.	c #6E4E35",
"bE.	c #593C25",
"cE.	c #3F2B1B",
"dE.	c #382B22",
"eE.	c #1B1413",
"fE.	c #231C1E",
"gE.	c #878072",
"hE.	c #867D6A",
"iE.	c #807563",
"jE.	c #7D7361",
"kE.	c #6D6557",
"lE.	c #292527",
"mE.	c #2F2827",
"nE.	c #2E2422",
"oE.	c #4C4039",
"pE.	c #594D46",
"qE.	c #5B4F48",
"rE.	c #594D47",
"sE.	c #4C3F3B",
"tE.	c #3F332E",
"uE.	c #30231C",
"vE.	c #34261F",
"wE.	c #372921",
"xE.	c #372A22",
"yE.	c #382A23",
"zE.	c #3B2E26",
"AE.	c #3C3028",
"BE.	c #443730",
"CE.	c #483B33",
"DE.	c #473932",
"EE.	c #40322B",
"FE.	c #41332C",
"GE.	c #493A33",
"HE.	c #4C3C34",
"IE.	c #4A3B31",
"JE.	c #4A3B32",
"KE.	c #483A31",
"LE.	c #4D4238",
"ME.	c #52473B",
"NE.	c #594F45",
"OE.	c #554E44",
"PE.	c #514A43",
"QE.	c #595048",
"RE.	c #63574D",
"SE.	c #362C25",
"TE.	c #433933",
"UE.	c #433833",
"VE.	c #423731",
"WE.	c #433631",
"XE.	c #413530",
"YE.	c #413531",
"ZE.	c #3E3431",
"`E.	c #3D332F",
" F.	c #312C2D",
".F.	c #312C2F",
"+F.	c #1B161B",
"@F.	c #161117",
"#F.	c #3F3F3F",
"$F.	c #41423C",
"%F.	c #6F6C64",
"&F.	c #88857A",
"*F.	c #8D8A7E",
"=F.	c #5D5955",
"-F.	c #7F786F",
";F.	c #756D64",
">F.	c #362C22",
",F.	c #352C21",
"'F.	c #352B29",
")F.	c #140E0E",
"!F.	c #1F160F",
"~F.	c #443931",
"{F.	c #43362C",
"]F.	c #675A4E",
"^F.	c #796A5C",
"/F.	c #716557",
"(F.	c #4E4742",
"_F.	c #54483E",
":F.	c #6E6455",
"<F.	c #696153",
"[F.	c #655A4F",
"}F.	c #574D46",
"|F.	c #675B4F",
"1F.	c #695C4F",
"2F.	c #5B4E43",
"3F.	c #5D5D5D",
"4F.	c #666360",
"5F.	c #6F645B",
"6F.	c #73614F",
"7F.	c #725C45",
"8F.	c #413223",
"9F.	c #17110F",
"0F.	c #5F5A56",
"aF.	c #868176",
"bF.	c #837E6D",
"cF.	c #7C7566",
"dF.	c #6C665B",
"eF.	c #2F2422",
"fF.	c #3E322B",
"gF.	c #4F443C",
"hF.	c #60554F",
"iF.	c #5E534D",
"jF.	c #504540",
"kF.	c #362821",
"lF.	c #352720",
"mF.	c #3A2D25",
"nF.	c #3B2E25",
"oF.	c #3D3027",
"pF.	c #44372E",
"qF.	c #493B34",
"rF.	c #41332B",
"sF.	c #403229",
"tF.	c #493931",
"uF.	c #4E3D35",
"vF.	c #4D3D33",
"wF.	c #4C3D33",
"xF.	c #4D4137",
"yF.	c #544C43",
"zF.	c #5B524A",
"AF.	c #655A51",
"BF.	c #6E6357",
"CF.	c #372D28",
"DF.	c #403732",
"EF.	c #453A35",
"FF.	c #463A35",
"GF.	c #443834",
"HF.	c #433834",
"IF.	c #3F3431",
"JF.	c #3C322F",
"KF.	c #332D2D",
"LF.	c #353030",
"MF.	c #312C30",
"NF.	c #252025",
"OF.	c #494944",
"PF.	c #54524A",
"QF.	c #716D64",
"RF.	c #858376",
"SF.	c #8A887B",
"TF.	c #7F7C72",
"UF.	c #5B5852",
"VF.	c #050205",
"WF.	c #2B2621",
"XF.	c #7D766C",
"YF.	c #352C22",
"ZF.	c #372C28",
"`F.	c #382E2B",
" G.	c #130D0E",
".G.	c #211812",
"+G.	c #3A3027",
"@G.	c #80705E",
"#G.	c #766654",
"$G.	c #72624F",
"%G.	c #736452",
"&G.	c #6A5D4F",
"*G.	c #4D4338",
"=G.	c #574B40",
"-G.	c #5A4F46",
";G.	c #6F6252",
">G.	c #726757",
",G.	c #6E6557",
"'G.	c #665D53",
")G.	c #595047",
"!G.	c #51483E",
"~G.	c #584F46",
"{G.	c #6A5F51",
"]G.	c #5F5448",
"^G.	c #0C090E",
"/G.	c #3F3E3B",
"(G.	c #4E4F4F",
"_G.	c #5B5E5F",
":G.	c #5F605F",
"<G.	c #67645E",
"[G.	c #6A5E4E",
"}G.	c #37312F",
"|G.	c #828077",
"1G.	c #7F7C6F",
"2G.	c #787368",
"3G.	c #3E3C3B",
"4G.	c #2F241E",
"5G.	c #3C322C",
"6G.	c #362B23",
"7G.	c #3F322C",
"8G.	c #43362F",
"9G.	c #3E322A",
"0G.	c #3D3129",
"aG.	c #3B3028",
"bG.	c #362E28",
"cG.	c #4E4640",
"dG.	c #5D534B",
"eG.	c #3C3431",
"fG.	c #3B3330",
"gG.	c #3A312E",
"hG.	c #282429",
"iG.	c #211C22",
"jG.	c #1B161C",
"kG.	c #4D4E4C",
"lG.	c #5C5B52",
"mG.	c #7F7C70",
"nG.	c #848075",
"oG.	c #79756C",
"pG.	c #54524D",
"qG.	c #40372B",
"rG.	c #2F2725",
"sG.	c #17100E",
"tG.	c #1F1713",
"uG.	c #4C433D",
"vG.	c #7A6C5B",
"wG.	c #7A6855",
"xG.	c #796754",
"yG.	c #736251",
"zG.	c #67594A",
"AG.	c #5C4F41",
"BG.	c #5F5246",
"CG.	c #625548",
"DG.	c #7D7062",
"EG.	c #58524E",
"FG.	c #695B4C",
"GG.	c #756856",
"HG.	c #786B5B",
"IG.	c #716758",
"JG.	c #5C564D",
"KG.	c #585048",
"LG.	c #3E3A33",
"MG.	c #4E4E50",
"NG.	c #4F5354",
"OG.	c #4E5253",
"PG.	c #525553",
"QG.	c #56544D",
"RG.	c #353433",
"SG.	c #202122",
"TG.	c #554E49",
"UG.	c #5F5954",
"VG.	c #4F4947",
"WG.	c #53514E",
"XG.	c #706D65",
"YG.	c #67645D",
"ZG.	c #1B1414",
"`G.	c #16100D",
" H.	c #15100B",
".H.	c #17120D",
"+H.	c #241C18",
"@H.	c #201711",
"#H.	c #1E1710",
"$H.	c #1B150F",
"%H.	c #191511",
"&H.	c #23211C",
"*H.	c #211F1B",
"=H.	c #1E1A17",
"-H.	c #110E14",
";H.	c #120F15",
">H.	c #555755",
",H.	c #62645E",
"'H.	c #62635B",
")H.	c #626158",
"!H.	c #6D6B61",
"~H.	c #79776B",
"{H.	c #747269",
"]H.	c #474031",
"^H.	c #150E0E",
"/H.	c #130C0C",
"(H.	c #18110E",
"_H.	c #1D1510",
":H.	c #7E705C",
"<H.	c #7B6B58",
"[H.	c #746453",
"}H.	c #706250",
"|H.	c #645747",
"1H.	c #635649",
"2H.	c #796C5E",
"3H.	c #52453E",
"4H.	c #5B4B3E",
"5H.	c #6A5B4B",
"6H.	c #332F30",
"7H.	c #454141",
"8H.	c #4B4644",
"9H.	c #585250",
"0H.	c #65605D",
"aH.	c #65605E",
"bH.	c #534E4C",
"cH.	c #4E4E4E",
"dH.	c #47484A",
"eH.	c #3B3E40",
"fH.	c #35383B",
"gH.	c #373B3D",
"hH.	c #363A3B",
"iH.	c #383C3B",
"jH.	c #323433",
"kH.	c #27292A",
"lH.	c #232626",
"mH.	c #2B251E",
"nH.	c #70675F",
"oH.	c #7A7168",
"pH.	c #5A514E",
"qH.	c #221A1B",
"rH.	c #474342",
"sH.	c #5B5651",
"tH.	c #5A5550",
"uH.	c #4A4748",
"vH.	c #403C3E",
"wH.	c #070503",
"xH.	c #060401",
"yH.	c #0F0B12",
"zH.	c #565756",
"AH.	c #656660",
"BH.	c #65655E",
"CH.	c #6A675D",
"DH.	c #706C61",
"EH.	c #777369",
"FH.	c #4B4945",
"GH.	c #40382D",
"HH.	c #1E1716",
"IH.	c #120B0B",
"JH.	c #10090A",
"KH.	c #100909",
"LH.	c #150D0A",
"MH.	c #160C08",
"NH.	c #423936",
"OH.	c #6E6254",
"PH.	c #6F6251",
"QH.	c #6D6150",
"RH.	c #635647",
"SH.	c #605447",
"TH.	c #807365",
"UH.	c #7E7162",
"VH.	c #423226",
"WH.	c #574635",
"XH.	c #5D4A3A",
"YH.	c #574638",
"ZH.	c #4B3F32",
"`H.	c #372D24",
" I.	c #514C4A",
".I.	c #716A63",
"+I.	c #7E7870",
"@I.	c #4F4944",
"#I.	c #454040",
"$I.	c #221E22",
"%I.	c #4F4D4D",
"&I.	c #515250",
"*I.	c #484A49",
"=I.	c #313334",
"-I.	c #333534",
";I.	c #242627",
">I.	c #242727",
",I.	c #212324",
"'I.	c #2D2820",
")I.	c #585047",
"!I.	c #71675D",
"~I.	c #7A7065",
"{I.	c #58554E",
"]I.	c #55524A",
"^I.	c #57544A",
"/I.	c #55544C",
"(I.	c #4C4A47",
"_I.	c #040103",
":I.	c #0F1217",
"<I.	c #080B10",
"[I.	c #05080C",
"}I.	c #020408",
"|I.	c #030106",
"1I.	c #0F0B11",
"2I.	c #676961",
"3I.	c #67685E",
"4I.	c #6A675B",
"5I.	c #696559",
"6I.	c #716E61",
"7I.	c #69685E",
"8I.	c #494842",
"9I.	c #231D18",
"0I.	c #332C24",
"aI.	c #3C3427",
"bI.	c #40392B",
"cI.	c #100A08",
"dI.	c #110909",
"eI.	c #160D0B",
"fI.	c #150C08",
"gI.	c #1E140F",
"hI.	c #29201A",
"iI.	c #473D31",
"jI.	c #61574B",
"kI.	c #302C24",
"lI.	c #222426",
"mI.	c #423327",
"nI.	c #594737",
"oI.	c #4D4234",
"pI.	c #1E1E1C",
"qI.	c #2D292C",
"rI.	c #504947",
"sI.	c #5B544E",
"tI.	c #756B63",
"uI.	c #847B71",
"vI.	c #6C635B",
"wI.	c #524A44",
"xI.	c #47403C",
"yI.	c #474141",
"zI.	c #272225",
"AI.	c #241F23",
"BI.	c #201B1F",
"CI.	c #4A4847",
"DI.	c #4E4C4A",
"EI.	c #4E4D4B",
"FI.	c #51514E",
"GI.	c #4C4B48",
"HI.	c #474644",
"II.	c #665D4F",
"JI.	c #695E51",
"KI.	c #554B43",
"LI.	c #5A554C",
"MI.	c #585349",
"NI.	c #5B5550",
"OI.	c #0B0507",
"PI.	c #0B0C13",
"QI.	c #110D12",
"RI.	c #555350",
"SI.	c #66635A",
"TI.	c #3F372A",
"UI.	c #423A2C",
"VI.	c #120B07",
"WI.	c #140C0A",
"XI.	c #1F1612",
"YI.	c #1D140F",
"ZI.	c #221813",
"`I.	c #302622",
" J.	c #17181F",
".J.	c #473A2F",
"+J.	c #5E4D3E",
"@J.	c #242525",
"#J.	c #534C46",
"$J.	c #837B70",
"%J.	c #827B71",
"&J.	c #282326",
"*J.	c #252024",
"=J.	c #242023",
"-J.	c #211C20",
";J.	c #050605",
">J.	c #4F4D4A",
",J.	c #5B5854",
"'J.	c #3D3C3B",
")J.	c #0E1011",
"!J.	c #453D30",
"~J.	c #554B3B",
"{J.	c #0F0909",
"]J.	c #5E584C",
"^J.	c #5D5649",
"/J.	c #625B4D",
"(J.	c #171114",
"_J.	c #191315",
":J.	c #1A1416",
"<J.	c #1B1417",
"[J.	c #1B1518",
"}J.	c #171820",
"|J.	c #13141C",
"1J.	c #0D0A10",
"2J.	c #141116",
"3J.	c #5E5952",
"4J.	c #6D6354",
"5J.	c #6A655C",
"6J.	c #494945",
"7J.	c #413A2D",
"8J.	c #443C2D",
"9J.	c #423B2D",
"0J.	c #413C2E",
"aJ.	c #3F3B2E",
"bJ.	c #3E392E",
"cJ.	c #1F1913",
"dJ.	c #261D18",
"eJ.	c #231A15",
"fJ.	c #191A21",
"gJ.	c #14161D",
"hJ.	c #44382D",
"iJ.	c #3A3329",
"jJ.	c #282A28",
"kJ.	c #36312F",
"lJ.	c #201C20",
"mJ.	c #454241",
"nJ.	c #68625D",
"oJ.	c #66605B",
"pJ.	c #615D58",
"qJ.	c #362F24",
"rJ.	c #3D3426",
"sJ.	c #423828",
"tJ.	c #443A29",
"uJ.	c #3F3526",
"vJ.	c #5E574E",
"wJ.	c #625748",
"xJ.	c #5B5444",
"yJ.	c #50493C",
"zJ.	c #201A1E",
"AJ.	c #201B20",
"BJ.	c #221D22",
"CJ.	c #201C22",
"DJ.	c #1C1C23",
"EJ.	c #1B1C23",
"FJ.	c #191A22",
"GJ.	c #181922",
"HJ.	c #171821",
"IJ.	c #181820",
"JJ.	c #15151C",
"KJ.	c #15141A",
"LJ.	c #0B0A11",
"MJ.	c #837562",
"NJ.	c #7F6E5C",
"OJ.	c #766250",
"PJ.	c #75614E",
"QJ.	c #756151",
"RJ.	c #78695A",
"SJ.	c #6C655C",
"TJ.	c #474845",
"UJ.	c #2B2F31",
"VJ.	c #403C2F",
"WJ.	c #3C3A2F",
"XJ.	c #3B392F",
"YJ.	c #393730",
"ZJ.	c #19120D",
"`J.	c #17110E",
" K.	c #2B2728",
".K.	c #1D1712",
"+K.	c #050206",
"@K.	c #615F5C",
"#K.	c #6D6963",
"$K.	c #6B6661",
"%K.	c #66625E",
"&K.	c #413C3A",
"*K.	c #3C3426",
"=K.	c #3E3424",
"-K.	c #403725",
";K.	c #382F1F",
">K.	c #292216",
",K.	c #17110B",
"'K.	c #635B4C",
")K.	c #635747",
"!K.	c #584E3B",
"~K.	c #1C171C",
"{K.	c #1D191F",
"]K.	c #1B1B22",
"^K.	c #191B22",
"/K.	c #171921",
"(K.	c #181921",
"_K.	c #17171F",
":K.	c #17171E",
"<K.	c #16161D",
"[K.	c #16171D",
"}K.	c #0B0A10",
"|K.	c #0C0B12",
"1K.	c #0D0C13",
"2K.	c #0D0D15",
"3K.	c #101018",
"4K.	c #100F17",
"5K.	c #111018",
"6K.	c #15141B",
"7K.	c #16151D",
"8K.	c #927A5F",
"9K.	c #8F7357",
"0K.	c #83654B",
"aK.	c #7D5D45",
"bK.	c #7B5D48",
"cK.	c #7C6654",
"dK.	c #464744",
"eK.	c #292E30",
"fK.	c #3F392D",
"gK.	c #3F3B30",
"hK.	c #3C3B30",
"iK.	c #3B3B31",
"jK.	c #383930",
"kK.	c #393932",
"lK.	c #120D09",
"mK.	c #0C0804",
"nK.	c #100C0A",
"oK.	c #3E392F",
"pK.	c #3D382E",
"qK.	c #3C372E",
"rK.	c #3D382F",
"sK.	c #14171C",
"tK.	c #1B1712",
"uK.	c #131117",
"vK.	c #262826",
"wK.	c #2A2D2D",
"xK.	c #08050B",
"yK.	c #6C6863",
"zK.	c #6C6762",
"AK.	c #6E6863",
"BK.	c #6A6560",
"CK.	c #67625E",
"DK.	c #534E4B",
"EK.	c #3C3528",
"FK.	c #3D3527",
"GK.	c #3A3123",
"HK.	c #30271B",
"IK.	c #221C12",
"JK.	c #120E09",
"KK.	c #615544",
"LK.	c #524432",
"MK.	c #51432F",
"NK.	c #6B5D4A",
"OK.	c #796C5C",
"PK.	c #15171E",
"QK.	c #16161E",
"RK.	c #16171F",
"SK.	c #15161E",
"TK.	c #0F1015",
"UK.	c #0B0A12",
"VK.	c #0E0D16",
"WK.	c #14141B",
"XK.	c #3A2B1D",
"YK.	c #81664C",
"ZK.	c #9A7654",
"`K.	c #956E4B",
" L.	c #885F40",
".L.	c #7B5235",
"+L.	c #755238",
"@L.	c #785C47",
"#L.	c #42433E",
"$L.	c #262A2C",
"%L.	c #403A2D",
"&L.	c #3B3A31",
"*L.	c #3B3B33",
"=L.	c #373831",
"-L.	c #383A33",
";L.	c #44423B",
">L.	c #1A1410",
",L.	c #100B06",
"'L.	c #0B0703",
")L.	c #38342B",
"!L.	c #343028",
"~L.	c #292B29",
"{L.	c #292C2B",
"]L.	c #0B080E",
"^L.	c #212221",
"/L.	c #40403D",
"(L.	c #615F5B",
"_L.	c #6D6965",
":L.	c #6E6964",
"<L.	c #53504C",
"[L.	c #383229",
"}L.	c #3F392E",
"|L.	c #3F392C",
"1L.	c #383125",
"2L.	c #292318",
"3L.	c #1E1910",
"4L.	c #140F0B",
"5L.	c #605543",
"6L.	c #4C3F2B",
"7L.	c #4F402C",
"8L.	c #746653",
"9L.	c #877B66",
"0L.	c #857966",
"aL.	c #807766",
"bL.	c #5F594C",
"cL.	c #221F17",
"dL.	c #0B0503",
"eL.	c #140D0A",
"fL.	c #150D09",
"gL.	c #160E0A",
"hL.	c #170D0A",
"iL.	c #1A0F0C",
"jL.	c #1A110F",
"kL.	c #1C1413",
"lL.	c #110E15",
"mL.	c #110D14",
"nL.	c #120F14",
"oL.	c #1C1512",
"pL.	c #241C14",
"qL.	c #25190C",
"rL.	c #3F2D17",
"sL.	c #866544",
"tL.	c #9D734C",
"uL.	c #966942",
"vL.	c #835733",
"wL.	c #774E2C",
"xL.	c #714E31",
"yL.	c #755841",
"zL.	c #645749",
"AL.	c #262A2A",
"BL.	c #1F2123",
"CL.	c #403A30",
"DL.	c #3F3B2F",
"EL.	c #3B382E",
"FL.	c #3C3A30",
"GL.	c #3B3B32",
"HL.	c #3C3C34",
"IL.	c #150F09",
"JL.	c #14100A",
"KL.	c #14110D",
"LL.	c #14120E",
"ML.	c #3D372D",
"NL.	c #383429",
"OL.	c #0F0B10",
"PL.	c #2B2D2B",
"QL.	c #26241F",
"RL.	c #060307",
"SL.	c #4D4945",
"TL.	c #0E0C12",
"UL.	c #696562",
"VL.	c #302B22",
"WL.	c #201D14",
"XL.	c #46413E",
"YL.	c #594E40",
"ZL.	c #3D3123",
"`L.	c #36291B",
" M.	c #5D5141",
".M.	c #7D705F",
"+M.	c #847B67",
"@M.	c #2E281D",
"#M.	c #110A05",
"$M.	c #1C150C",
"%M.	c #21150D",
"&M.	c #26160D",
"*M.	c #27140A",
"=M.	c #2A160B",
"-M.	c #2B150A",
";M.	c #2E180D",
">M.	c #2F1B11",
",M.	c #342118",
"'M.	c #34231B",
")M.	c #413A32",
"!M.	c #443D39",
"~M.	c #272122",
"{M.	c #3E3735",
"]M.	c #382B21",
"^M.	c #362719",
"/M.	c #2E1C0A",
"(M.	c #3B240E",
"_M.	c #6C4E30",
":M.	c #815A3A",
"<M.	c #7C5433",
"[M.	c #6E4728",
"}M.	c #6D482A",
"|M.	c #6C4D36",
"1M.	c #705744",
"2M.	c #403F3B",
"3M.	c #252929",
"4M.	c #1C150F",
"5M.	c #1E1C17",
"6M.	c #13100E",
"7M.	c #2F261E",
"8M.	c #322A25",
"9M.	c #0F090F",
"0M.	c #3D3730",
"aM.	c #2F2B23",
"bM.	c #2C2923",
"cM.	c #292722",
"dM.	c #504A47",
"eM.	c #534D4A",
"fM.	c #55514C",
"gM.	c #19151D",
"hM.	c #17131B",
"iM.	c #363637",
"jM.	c #51504C",
"kM.	c #5E5B58",
"lM.	c #65625E",
"mM.	c #524F4C",
"nM.	c #454140",
"oM.	c #17140F",
"pM.	c #544F46",
"qM.	c #271F16",
"rM.	c #0A0501",
"sM.	c #191108",
"tM.	c #655A4B",
"uM.	c #544A3D",
"vM.	c #362E21",
"wM.	c #382E22",
"xM.	c #584433",
"yM.	c #4A3020",
"zM.	c #442714",
"AM.	c #4D2D18",
"BM.	c #502E19",
"CM.	c #54321C",
"DM.	c #54341F",
"EM.	c #593B25",
"FM.	c #583D29",
"GM.	c #54422F",
"HM.	c #544734",
"IM.	c #675A47",
"JM.	c #7D705C",
"KM.	c #978975",
"LM.	c #8F806D",
"MM.	c #867865",
"NM.	c #857765",
"OM.	c #867966",
"PM.	c #8A7E6A",
"QM.	c #877A66",
"RM.	c #81755F",
"SM.	c #786B55",
"TM.	c #746751",
"UM.	c #71624F",
"VM.	c #71604E",
"WM.	c #72614F",
"XM.	c #725F4E",
"YM.	c #796B5B",
"ZM.	c #796F60",
"`M.	c #6F6555",
" N.	c #685F4F",
".N.	c #6E6554",
"+N.	c #7C7467",
"@N.	c #797164",
"#N.	c #5D5546",
"$N.	c #6C6352",
"%N.	c #877D6A",
"&N.	c #908472",
"*N.	c #8F8371",
"=N.	c #877A6B",
"-N.	c #817467",
";N.	c #817468",
">N.	c #837568",
",N.	c #837668",
"'N.	c #827767",
")N.	c #655547",
"!N.	c #584532",
"~N.	c #49331E",
"{N.	c #402A14",
"]N.	c #36210D",
"^N.	c #37220E",
"/N.	c #3A210F",
"(N.	c #3B2211",
"_N.	c #472D1B",
":N.	c #6D5847",
"<N.	c #6E5E4E",
"[N.	c #615B4E",
"}N.	c #40423D",
"|N.	c #3E3B30",
"1N.	c #3D392F",
"2N.	c #423E33",
"3N.	c #1F1912",
"4N.	c #262219",
"5N.	c #28251C",
"6N.	c #23211A",
"7N.	c #1F1A1B",
"8N.	c #171010",
"9N.	c #130D0F",
"0N.	c #120C12",
"aN.	c #323029",
"bN.	c #605A56",
"cN.	c #5A5551",
"dN.	c #1B181F",
"eN.	c #1D1923",
"fN.	c #1E1B25",
"gN.	c #1D1A24",
"hN.	c #1F1B25",
"iN.	c #201D26",
"jN.	c #211E25",
"kN.	c #464443",
"lN.	c #5C5A55",
"mN.	c #605D59",
"nN.	c #3A3738",
"oN.	c #191510",
"pN.	c #140C07",
"qN.	c #4B3F35",
"rN.	c #33271A",
"sN.	c #72604D",
"tN.	c #6C5440",
"uN.	c #553722",
"vN.	c #4D2B15",
"wN.	c #5B351D",
"xN.	c #61391F",
"yN.	c #643D21",
"zN.	c #603920",
"AN.	c #633F23",
"BN.	c #5D3E23",
"CN.	c #5C452B",
"DN.	c #65533A",
"EN.	c #89775E",
"FN.	c #A7967B",
"GN.	c #B9A88C",
"HN.	c #BDAA8E",
"IN.	c #B7A389",
"JN.	c #A9967E",
"KN.	c #A5937B",
"LN.	c #A39179",
"MN.	c #A4927A",
"NN.	c #A49279",
"ON.	c #A69579",
"PN.	c #A59478",
"QN.	c #A59479",
"RN.	c #A39276",
"SN.	c #9E8C71",
"TN.	c #948266",
"UN.	c #8E7A5E",
"VN.	c #887359",
"WN.	c #8B745A",
"XN.	c #8A725A",
"YN.	c #89715A",
"ZN.	c #876E58",
"`N.	c #87705A",
" O.	c #917E69",
".O.	c #9F8F7A",
"+O.	c #A1917D",
"@O.	c #9D8F7B",
"#O.	c #8A7C68",
"$O.	c #857863",
"%O.	c #8E816B",
"&O.	c #9F9179",
"*O.	c #AA9B82",
"=O.	c #AA9B84",
"-O.	c #A79883",
";O.	c #918374",
">O.	c #776A60",
",O.	c #655950",
"'O.	c #665B51",
")O.	c #8E8373",
"!O.	c #867968",
"~O.	c #7F7362",
"{O.	c #716658",
"]O.	c #726656",
"^O.	c #736754",
"/O.	c #A5977F",
"(O.	c #AD9C83",
"_O.	c #AB9B81",
":O.	c #AA9980",
"<O.	c #A8977F",
"[O.	c #A5937D",
"}O.	c #A2907B",
"|O.	c #9F8D79",
"1O.	c #A08D79",
"2O.	c #A3917C",
"3O.	c #A5937F",
"4O.	c #A59380",
"5O.	c #A49482",
"6O.	c #968776",
"7O.	c #807362",
"8O.	c #8D7F6F",
"9O.	c #8C7E6E",
"0O.	c #624B35",
"aO.	c #513722",
"bO.	c #4D351F",
"cO.	c #362313",
"dO.	c #130803",
"eO.	c #060200",
"fO.	c #261A14",
"gO.	c #564A42",
"hO.	c #5F5C52",
"iO.	c #41433E",
"jO.	c #252829",
"kO.	c #56483A",
"lO.	c #5D4F40",
"mO.	c #4D3F36",
"nO.	c #221915",
"oO.	c #150F0C",
"pO.	c #34291E",
"qO.	c #3A2D21",
"rO.	c #433A2C",
"sO.	c #463D32",
"tO.	c #453C32",
"uO.	c #3A362E",
"vO.	c #2B221A",
"wO.	c #29201C",
"xO.	c #1C171A",
"yO.	c #0B0707",
"zO.	c #151016",
"AO.	c #34322B",
"BO.	c #31302A",
"CO.	c #1E1D1A",
"DO.	c #242227",
"EO.	c #1D1B21",
"FO.	c #1E1C24",
"GO.	c #1F1D26",
"HO.	c #1F1C26",
"IO.	c #201D28",
"JO.	c #211F28",
"KO.	c #232129",
"LO.	c #42413F",
"MO.	c #575550",
"NO.	c #5F5D58",
"OO.	c #5F5D5A",
"PO.	c #4D4A49",
"QO.	c #100B08",
"RO.	c #372E22",
"SO.	c #34291D",
"TO.	c #645446",
"UO.	c #4F3520",
"VO.	c #4B2C15",
"WO.	c #5C371E",
"XO.	c #623C20",
"YO.	c #643F21",
"ZO.	c #613C20",
"`O.	c #634022",
" P.	c #593C1F",
".P.	c #5A4427",
"+P.	c #69563A",
"@P.	c #8F7C61",
"#P.	c #AD9A7E",
"$P.	c #BEAC8E",
"%P.	c #BEAA8E",
"&P.	c #BEAB8D",
"*P.	c #B9A58A",
"=P.	c #B19E84",
"-P.	c #AA977E",
";P.	c #A7957C",
">P.	c #A6957C",
",P.	c #A7957B",
"'P.	c #A8967A",
")P.	c #A59477",
"!P.	c #A49275",
"~P.	c #A08E71",
"{P.	c #978367",
"]P.	c #8E795D",
"^P.	c #897458",
"/P.	c #8B7459",
"(P.	c #8A7159",
"_P.	c #8A7058",
":P.	c #866D56",
"<P.	c #866F58",
"[P.	c #937F6A",
"}P.	c #A2927C",
"|P.	c #8E806B",
"1P.	c #94866F",
"2P.	c #A5977D",
"3P.	c #B0A186",
"4P.	c #AFA087",
"5P.	c #978978",
"6P.	c #6C6156",
"7P.	c #8A8170",
"8P.	c #8F8471",
"9P.	c #827664",
"0P.	c #756958",
"aP.	c #766A5B",
"bP.	c #A79980",
"cP.	c #AB9A7F",
"dP.	c #AA987E",
"eP.	c #A9967D",
"fP.	c #A3907B",
"gP.	c #A08D78",
"hP.	c #A18E79",
"iP.	c #A4917B",
"jP.	c #A99882",
"kP.	c #AB9985",
"lP.	c #AB9B87",
"mP.	c #8B7D6E",
"nP.	c #918373",
"oP.	c #8F8171",
"pP.	c #7A6957",
"qP.	c #624C36",
"rP.	c #543C26",
"sP.	c #523C27",
"tP.	c #392A1D",
"uP.	c #100B07",
"vP.	c #4E4948",
"wP.	c #68645D",
"xP.	c #444642",
"yP.	c #272B2B",
"zP.	c #37332A",
"AP.	c #504233",
"BP.	c #5D4A3B",
"CP.	c #614B3E",
"DP.	c #513E34",
"EP.	c #382921",
"FP.	c #1C110E",
"GP.	c #150D0C",
"HP.	c #110B09",
"IP.	c #17110C",
"JP.	c #1F1A12",
"KP.	c #231E17",
"LP.	c #201C16",
"MP.	c #130E0B",
"NP.	c #28201A",
"OP.	c #372A1D",
"PP.	c #3B2D1F",
"QP.	c #423425",
"RP.	c #453929",
"SP.	c #2B211A",
"TP.	c #2A1F1C",
"UP.	c #1A1A1E",
"VP.	c #16191C",
"WP.	c #3A3938",
"XP.	c #2F312E",
"YP.	c #0C060C",
"ZP.	c #120D13",
"`P.	c #2B2D2C",
" Q.	c #33322B",
".Q.	c #32312B",
"+Q.	c #141015",
"@Q.	c #514B4A",
"#Q.	c #56514D",
"$Q.	c #433F3C",
"%Q.	c #1C1922",
"&Q.	c #1D1B24",
"*Q.	c #1C1A23",
"=Q.	c #1E1C25",
"-Q.	c #201E25",
";Q.	c #3B3B3A",
">Q.	c #454441",
",Q.	c #494845",
"'Q.	c #3F3D3E",
")Q.	c #2E2B2F",
"!Q.	c #3F3C3F",
"~Q.	c #403C3D",
"{Q.	c #4E4940",
"]Q.	c #1B1812",
"^Q.	c #120C0A",
"/Q.	c #5C4F45",
"(Q.	c #625647",
"_Q.	c #5B4B3B",
":Q.	c #4A3525",
"<Q.	c #472E1C",
"[Q.	c #523520",
"}Q.	c #55371F",
"|Q.	c #593C22",
"1Q.	c #583B21",
"2Q.	c #5A3D22",
"3Q.	c #563B21",
"4Q.	c #553F27",
"5Q.	c #5C4A33",
"6Q.	c #7C6B53",
"7Q.	c #B1A188",
"8Q.	c #B7A78E",
"9Q.	c #B1A089",
"0Q.	c #AA9982",
"aQ.	c #A08F7A",
"bQ.	c #A0907B",
"cQ.	c #A1927D",
"dQ.	c #9E8F79",
"eQ.	c #9E8F77",
"fQ.	c #9E9078",
"gQ.	c #9D8E76",
"hQ.	c #998B72",
"iQ.	c #96886F",
"jQ.	c #8F7E66",
"kQ.	c #7F6D57",
"lQ.	c #7E6C56",
"mQ.	c #7D6955",
"nQ.	c #7C6753",
"oQ.	c #7D6856",
"pQ.	c #8C7967",
"qQ.	c #9B8D7B",
"rQ.	c #9D907E",
"sQ.	c #9B907C",
"tQ.	c #8B7F6B",
"uQ.	c #887B67",
"vQ.	c #91856F",
"wQ.	c #A1957D",
"xQ.	c #AB9F86",
"yQ.	c #AB9F88",
"zQ.	c #A69A85",
"AQ.	c #908475",
"BQ.	c #635950",
"CQ.	c #797065",
"DQ.	c #877F70",
"EQ.	c #898071",
"FQ.	c #817766",
"GQ.	c #7C7361",
"HQ.	c #726758",
"IQ.	c #6E6658",
"JQ.	c #827764",
"KQ.	c #9E937E",
"LQ.	c #A49780",
"MQ.	c #A1937C",
"NQ.	c #A1917C",
"OQ.	c #9D8E7A",
"PQ.	c #9B8B79",
"QQ.	c #988877",
"RQ.	c #978878",
"SQ.	c #958776",
"TQ.	c #988A79",
"UQ.	c #998B7B",
"VQ.	c #9B8E7D",
"WQ.	c #9A8D7D",
"XQ.	c #9A8F7F",
"YQ.	c #8E8375",
"ZQ.	c #7D7367",
"`Q.	c #827569",
" R.	c #5A4736",
".R.	c #4A3625",
"+R.	c #463424",
"@R.	c #34281E",
"#R.	c #464344",
"$R.	c #484944",
"%R.	c #483A2B",
"&R.	c #594635",
"*R.	c #6D5743",
"=R.	c #725B48",
"-R.	c #5D493B",
";R.	c #3F3027",
">R.	c #251917",
",R.	c #211C16",
"'R.	c #1E160F",
")R.	c #392D25",
"!R.	c #392B21",
"~R.	c #35271A",
"{R.	c #392A1B",
"]R.	c #453829",
"^R.	c #3A362C",
"/R.	c #30261E",
"(R.	c #2D211F",
"_R.	c #241C1C",
":R.	c #2E2F2E",
"<R.	c #0D080D",
"[R.	c #151116",
"}R.	c #2D2D29",
"|R.	c #20201E",
"1R.	c #181419",
"2R.	c #16131A",
"3R.	c #17151E",
"4R.	c #15121C",
"5R.	c #1B1820",
"6R.	c #3F3E3E",
"7R.	c #41423F",
"8R.	c #42423F",
"9R.	c #4F4E4A",
"0R.	c #575552",
"aR.	c #4D494A",
"bR.	c #3F3C3E",
"cR.	c #3A363A",
"dR.	c #1E1C18",
"eR.	c #4D3D2B",
"fR.	c #4D3C2B",
"gR.	c #4C3D2E",
"hR.	c #54493B",
"iR.	c #7C7062",
"jR.	c #776B5F",
"kR.	c #756A5C",
"lR.	c #736A5B",
"mR.	c #6C6354",
"nR.	c #5B5144",
"oR.	c #564C40",
"pR.	c #554A3F",
"qR.	c #5A4C43",
"rR.	c #5F5047",
"sR.	c #6A5F54",
"tR.	c #766F63",
"uR.	c #6D6656",
"vR.	c #776F5F",
"wR.	c #7F7766",
"xR.	c #615951",
"yR.	c #544F48",
"zR.	c #605B52",
"AR.	c #5F594E",
"BR.	c #585247",
"CR.	c #746F62",
"DR.	c #68635A",
"ER.	c #3F332C",
"FR.	c #2E2119",
"GR.	c #281E16",
"HR.	c #3F3D3F",
"IR.	c #69675C",
"JR.	c #4D4D47",
"KR.	c #413829",
"LR.	c #483B28",
"MR.	c #5C4835",
"NR.	c #735A45",
"OR.	c #614E3F",
"PR.	c #44352C",
"QR.	c #302D24",
"RR.	c #3E3227",
"SR.	c #3D3024",
"TR.	c #382A1D",
"UR.	c #3C2D1E",
"VR.	c #463A2C",
"WR.	c #3D352B",
"XR.	c #31231D",
"YR.	c #312420",
"ZR.	c #271D1D",
"`R.	c #343633",
" S.	c #2E302F",
".S.	c #242624",
"+S.	c #2A2A27",
"@S.	c #040105",
"#S.	c #171217",
"$S.	c #181318",
"%S.	c #0C0A12",
"&S.	c #0E0C15",
"*S.	c #0F0D17",
"=S.	c #0D0B14",
"-S.	c #0D0B15",
";S.	c #403E3E",
">S.	c #4E4E4A",
",S.	c #1C1619",
"'S.	c #413A38",
")S.	c #403937",
"!S.	c #2E2728",
"~S.	c #32292A",
"{S.	c #181613",
"]S.	c #343235",
"^S.	c #6B665D",
"/S.	c #69665B",
"(S.	c #4F4D48",
"_S.	c #443B30",
":S.	c #413526",
"<S.	c #453724",
"[S.	c #574430",
"}S.	c #6D5542",
"|S.	c #705947",
"1S.	c #5C493C",
"2S.	c #3F322B",
"3S.	c #302625",
"4S.	c #35332A",
"5S.	c #3A332A",
"6S.	c #3F3228",
"7S.	c #3E3024",
"8S.	c #3E3023",
"9S.	c #3C2D22",
"0S.	c #3A2D22",
"aS.	c #383329",
"bS.	c #3A3025",
"cS.	c #30221B",
"dS.	c #30221D",
"eS.	c #271C1C",
"fS.	c #1E171B",
"gS.	c #252523",
"hS.	c #252622",
"iS.	c #090509",
"jS.	c #171218",
"kS.	c #07070E",
"lS.	c #0A0911",
"mS.	c #0C0B14",
"nS.	c #0A0912",
"oS.	c #0A0812",
"pS.	c #0D0D16",
"qS.	c #3A393A",
"rS.	c #62625E",
"sS.	c #6C6B67",
"tS.	c #4A4945",
"uS.	c #4B4A48",
"vS.	c #241B18",
"wS.	c #271D19",
"xS.	c #1C1516",
"yS.	c #0A060A",
"zS.	c #201C18",
"AS.	c #1C1D23",
"BS.	c #45423A",
"CS.	c #484640",
"DS.	c #1A1519",
"ES.	c #1B161A",
"FS.	c #0E0F18",
"GS.	c #14151D",
"HS.	c #6C685D",
"IS.	c #69655C",
"JS.	c #443728",
"KS.	c #453824",
"LS.	c #53422D",
"MS.	c #634F3C",
"NS.	c #695443",
"OS.	c #302D26",
"PS.	c #392E24",
"QS.	c #3D2F24",
"RS.	c #3D2E22",
"SS.	c #3E2E22",
"TS.	c #3D2E21",
"US.	c #3C3025",
"VS.	c #30271E",
"WS.	c #342E24",
"XS.	c #3D3930",
"YS.	c #3B3830",
"ZS.	c #2F211C",
"`S.	c #281E1C",
" T.	c #1F191C",
".T.	c #1D1A20",
"+T.	c #2B2E2C",
"@T.	c #2E302E",
"#T.	c #1B1C1B",
"$T.	c #1A1A18",
"%T.	c #201F1C",
"&T.	c #201F1B",
"*T.	c #1D1C18",
"=T.	c #1E1D19",
"-T.	c #09050A",
";T.	c #120E14",
">T.	c #05050C",
",T.	c #090810",
"'T.	c #0A0A13",
")T.	c #080711",
"!T.	c #0A0813",
"~T.	c #0C0C15",
"{T.	c #0B0B13",
"]T.	c #373032",
"^T.	c #393335",
"/T.	c #332E30",
"(T.	c #686762",
"_T.	c #75736E",
":T.	c #73726E",
"<T.	c #454342",
"[T.	c #3F3C3C",
"}T.	c #241914",
"|T.	c #2B1F1B",
"1T.	c #1D1515",
"2T.	c #130D12",
"3T.	c #0F0F18",
"4T.	c #453825",
"5T.	c #554433",
"6T.	c #5C4A3B",
"7T.	c #2F2D24",
"8T.	c #3A2C20",
"9T.	c #3A2B1F",
"0T.	c #3C2D20",
"aT.	c #2F251F",
"bT.	c #31241E",
"cT.	c #302320",
"dT.	c #261D1D",
"eT.	c #18161C",
"fT.	c #303131",
"gT.	c #0F0F17",
"hT.	c #0B0B14",
"iT.	c #0B0B15",
"jT.	c #090A11",
"kT.	c #413B3B",
"lT.	c #514C4B",
"mT.	c #534D4C",
"nT.	c #4B4A46",
"oT.	c #63635C",
"pT.	c #6D6C68",
"qT.	c #74746F",
"rT.	c #5C5B57",
"sT.	c #42423E",
"tT.	c #3D3D3A",
"uT.	c #3D3B3A",
"vT.	c #261D17",
"wT.	c #2C2018",
"xT.	c #35281F",
"yT.	c #362A25",
"zT.	c #191317",
"AT.	c #1B171A",
"BT.	c #434138",
"CT.	c #6B645D",
"DT.	c #463927",
"ET.	c #493C28",
"FT.	c #534636",
"GT.	c #2E291F",
"HT.	c #322D23",
"IT.	c #392D21",
"JT.	c #3C2E20",
"KT.	c #3D2D1F",
"LT.	c #3F3022",
"MT.	c #372B20",
"NT.	c #333533",
"OT.	c #303230",
"PT.	c #242421",
"QT.	c #1E1E1D",
"RT.	c #1F2223",
"ST.	c #222425",
"TT.	c #24211C",
"UT.	c #080710",
"VT.	c #5A5352",
"WT.	c #67605C",
"XT.	c #57504D",
"YT.	c #4C4644",
"ZT.	c #4C4A46",
"`T.	c #5A5954",
" U.	c #666461",
".U.	c #6D6B69",
"+U.	c #575654",
"@U.	c #2F241D",
"#U.	c #3D3025",
"$U.	c #44352A",
"%U.	c #43352F",
"&U.	c #312523",
"*U.	c #181214",
"=U.	c #1A1417",
"-U.	c #2A2629",
";U.	c #59534F",
">U.	c #4C4843",
",U.	c #4B3D2B",
"'U.	c #493C2A",
")U.	c #483D2F",
"!U.	c #3A3023",
"~U.	c #3A3024",
"{U.	c #352B1F",
"]U.	c #36291C",
"^U.	c #3C2C1E",
"/U.	c #402F23",
"(U.	c #12110F",
"_U.	c #39372F",
":U.	c #3D3B33",
"<U.	c #0A0810",
"[U.	c #0B0B12",
"}U.	c #1D2022",
"|U.	c #100E16",
"1U.	c #03020A",
"2U.	c #000005",
"3U.	c #5E5755",
"4U.	c #6B635E",
"5U.	c #5D544F",
"6U.	c #564F4B",
"7U.	c #5E5E59",
"8U.	c #63645F",
"9U.	c #676764",
"0U.	c #535351",
"aU.	c #382D25",
"bU.	c #4E4138",
"cU.	c #3A2F2B",
"dU.	c #2C282B",
"eU.	c #323132",
"fU.	c #332F32",
"gU.	c #343033",
"hU.	c #423F40",
"iU.	c #343032",
"jU.	c #393538",
"kU.	c #393537",
"lU.	c #343134",
"mU.	c #333034",
"nU.	c #322F32",
"oU.	c #312E31",
"pU.	c #302D30",
"qU.	c #272428",
"rU.	c #272327",
"sU.	c #201A14",
"tU.	c #524532",
"uU.	c #4D412F",
"vU.	c #42382E",
"wU.	c #473C2E",
"xU.	c #4D4130",
"yU.	c #4E4131",
"zU.	c #494030",
"AU.	c #3D3525",
"BU.	c #372E1E",
"CU.	c #3F2E20",
"DU.	c #402E21",
"EU.	c #413024",
"FU.	c #32271C",
"GU.	c #3E3C33",
"HU.	c #0C0A11",
"IU.	c #07060E",
"JU.	c #151718",
"KU.	c #222525",
"LU.	c #1C1F21",
"MU.	c #18110F",
"NU.	c #272429",
"OU.	c #221F26",
"PU.	c #100D15",
"QU.	c #020107",
"RU.	c #413B3C",
"SU.	c #5C5653",
"TU.	c #675E5A",
"UU.	c #695F5A",
"VU.	c #5C514D",
"WU.	c #5E554F",
"XU.	c #61605C",
"YU.	c #5B5B58",
"ZU.	c #585956",
"`U.	c #484847",
" V.	c #4B4038",
".V.	c #392E2B",
"+V.	c #1C1A20",
"@V.	c #29252A",
"#V.	c #2E2A2E",
"$V.	c #323033",
"%V.	c #333134",
"&V.	c #312E32",
"*V.	c #353135",
"=V.	c #2C292D",
"-V.	c #2F2C2F",
";V.	c #3D3B3D",
">V.	c #322E31",
",V.	c #363336",
"'V.	c #383438",
")V.	c #353236",
"!V.	c #363338",
"~V.	c #363337",
"{V.	c #363437",
"]V.	c #343135",
"^V.	c #2F2C30",
"/V.	c #262328",
"(V.	c #252126",
"_V.	c #171111",
":V.	c #150E0B",
"<V.	c #4B4130",
"[V.	c #524332",
"}V.	c #4B3E2C",
"|V.	c #433A28",
"1V.	c #393020",
"2V.	c #342A1B",
"3V.	c #3B2B1E",
"4V.	c #3E2C20",
"5V.	c #3F2E22",
"6V.	c #33281D",
"7V.	c #251E15",
"8V.	c #23211D",
"9V.	c #3F3B34",
"0V.	c #0D0E12",
"aV.	c #252727",
"bV.	c #212425",
"cV.	c #1D1F22",
"dV.	c #202223",
"eV.	c #17100F",
"fV.	c #120D0F",
"gV.	c #262429",
"hV.	c #232127",
"iV.	c #3F3B3B",
"jV.	c #67605B",
"kV.	c #69625B",
"lV.	c #625952",
"mV.	c #605752",
"nV.	c #433F3A",
"oV.	c #5A5757",
"pV.	c #4E4F4C",
"qV.	c #3F352F",
"rV.	c #463C35",
"sV.	c #322925",
"tV.	c #1F1A1D",
"uV.	c #28262A",
"vV.	c #2D2B2E",
"wV.	c #2C2A2E",
"xV.	c #2D2B2F",
"yV.	c #2E2C30",
"zV.	c #2D2A2E",
"AV.	c #363436",
"BV.	c #292529",
"CV.	c #2B272C",
"DV.	c #2C292E",
"EV.	c #2D2A2F",
"FV.	c #2E2A2F",
"GV.	c #211A13",
"HV.	c #463E30",
"IV.	c #483E2E",
"JV.	c #483E2F",
"KV.	c #4A3F36",
"LV.	c #52453A",
"MV.	c #504234",
"NV.	c #453928",
"OV.	c #413625",
"PV.	c #3B3023",
"QV.	c #36281C",
"RV.	c #38281D",
"SV.	c #3D2E23",
"TV.	c #3A2E24",
"UV.	c #413C32",
"VV.	c #434035",
"WV.	c #0A080E",
"XV.	c #232625",
"YV.	c #1F2224",
"ZV.	c #181112",
"`V.	c #3A3838",
" W.	c #302C2E",
".W.	c #232025",
"+W.	c #625A56",
"@W.	c #645B54",
"#W.	c #665C54",
"$W.	c #574E4A",
"%W.	c #47433C",
"&W.	c #514E4D",
"*W.	c #525050",
"=W.	c #4A4A49",
"-W.	c #29211E",
";W.	c #413C31",
">W.	c #4F4335",
",W.	c #514434",
"'W.	c #4F4433",
")W.	c #4F4536",
"!W.	c #30251A",
"~W.	c #2C2218",
"{W.	c #362F25",
"]W.	c #48443A",
"^W.	c #222424",
"/W.	c #110A0B",
"(W.	c #302B2C",
"_W.	c #363130",
":W.	c #1F1A1E",
"<W.	c #58504B",
"[W.	c #504D46",
"}W.	c #504F4F",
"|W.	c #17120F",
"1W.	c #403C34",
"2W.	c #38362F",
"3W.	c #473D37",
"4W.	c #504436",
"5W.	c #0F090B",
"6W.	c #262124",
"7W.	c #2F2A2C",
"8W.	c #413F3E",
"9W.	c #403C3C",
"0W.	c #403B3B",
"aW.	c #393433",
"bW.	c #3D3127",
"cW.	c #130F13",
"dW.	c #68625E",
"eW.	c #5A544B",
"fW.	c #665E58",
"gW.	c #69625D",
"hW.	c #4C4A45",
"iW.	c #484646",
"jW.	c #4E4C4E",
"kW.	c #181216",
"lW.	c #32322D",
"mW.	c #272622",
"nW.	c #493F3A",
"oW.	c #4D423B",
"pW.	c #504237",
"qW.	c #4D3F35",
"rW.	c #493E33",
"sW.	c #3B3226",
"tW.	c #3C3226",
"uW.	c #1C191F",
"vW.	c #1E181A",
"wW.	c #0C0507",
"xW.	c #0B0406",
"yW.	c #0A0305",
"zW.	c #272125",
"AW.	c #2F292B",
"BW.	c #656158",
"CW.	c #68655F",
"DW.	c #65645E",
"EW.	c #62615D",
"FW.	c #63615F",
"GW.	c #615E5D",
"HW.	c #615D5B",
"IW.	c #5D5857",
"JW.	c #5C5755",
"KW.	c #56514F",
"LW.	c #4B4440",
"MW.	c #625545",
"NW.	c #594B39",
"OW.	c #5D503E",
"PW.	c #494543",
"QW.	c #47423E",
"RW.	c #5C574E",
"SW.	c #767169",
"TW.	c #7E7872",
"UW.	c #424240",
"VW.	c #464645",
"WW.	c #0F0D14",
"XW.	c #130E0A",
"YW.	c #181315",
"ZW.	c #151512",
"`W.	c #22211E",
" X.	c #51463E",
".X.	c #52463D",
"+X.	c #514539",
"@X.	c #4D4136",
"#X.	c #493F34",
"$X.	c #312824",
"%X.	c #41382B",
"&X.	c #42392A",
"*X.	c #110C0E",
"=X.	c #0A0405",
"-X.	c #69645B",
";X.	c #6D6962",
">X.	c #676562",
",X.	c #656261",
"'X.	c #66625F",
")X.	c #655F5E",
"!X.	c #645E5D",
"~X.	c #5F5A58",
"{X.	c #5A5553",
"]X.	c #151010",
"^X.	c #6C6053",
"/X.	c #6E5E4B",
"(X.	c #6A5744",
"_X.	c #716456",
":X.	c #7D7871",
"<X.	c #87817A",
"[X.	c #77716D",
"}X.	c #0F0D15",
"|X.	c #19171F",
"1X.	c #1E1B21",
"2X.	c #140F12",
"3X.	c #181316",
"4X.	c #3D3735",
"5X.	c #50453E",
"6X.	c #52453D",
"7X.	c #504339",
"8X.	c #43382C",
"9X.	c #191418",
"0X.	c #2C282A",
"aX.	c #080305",
"bX.	c #080204",
"cX.	c #070103",
"dX.	c #665E51",
"eX.	c #615D59",
"fX.	c #5F5957",
"gX.	c #5C5552",
"hX.	c #5B5653",
"iX.	c #7B684F",
"jX.	c #79634A",
"kX.	c #7B6D5A",
"lX.	c #59554C",
"mX.	c #5D5952",
"nX.	c #7E7A72",
"oX.	c #838077",
"pX.	c #88837B",
"qX.	c #76716C",
"rX.	c #54504D",
"sX.	c #131119",
"tX.	c #1B1921",
"uX.	c #463F3B",
"vX.	c #4B413D",
"wX.	c #4F453E",
"xX.	c #50443D",
"yX.	c #332924",
"zX.	c #453B30",
"AX.	c #252023",
"BX.	c #343436",
"CX.	c #060203",
"DX.	c #221D20",
"EX.	c #6C604C",
"FX.	c #6F5E4A",
"GX.	c #72604B",
"HX.	c #6D5C47",
"IX.	c #675A46",
"JX.	c #676152",
"KX.	c #6D6863",
"LX.	c #6E6862",
"MX.	c #635B55",
"NX.	c #5D5550",
"OX.	c #4F4644",
"PX.	c #1E1612",
"QX.	c #605142",
"RX.	c #836B52",
"SX.	c #886D4C",
"TX.	c #826646",
"UX.	c #806449",
"VX.	c #806C56",
"WX.	c #4E4A47",
"XX.	c #4A4645",
"YX.	c #3F3E40",
"ZX.	c #414041",
"`X.	c #726F68",
" Y.	c #79756E",
".Y.	c #79766F",
"+Y.	c #3F3E3F",
"@Y.	c #27262B",
"#Y.	c #1B1920",
"$Y.	c #130E0F",
"%Y.	c #473E3A",
"&Y.	c #4A413D",
"*Y.	c #4B413B",
"=Y.	c #262022",
"-Y.	c #080508",
";Y.	c #79664D",
">Y.	c #685034",
",Y.	c #674B2B",
"'Y.	c #624623",
")Y.	c #614A2B",
"!Y.	c #7A6D59",
"~Y.	c #948C84",
"{Y.	c #97928D",
"]Y.	c #958F89",
"^Y.	c #888179",
"/Y.	c #746B64",
"(Y.	c #645B52",
"_Y.	c #61564F",
":Y.	c #544844",
"<Y.	c #271D15",
"[Y.	c #75624B",
"}Y.	c #9C805B",
"|Y.	c #9E7E51",
"1Y.	c #96754A",
"2Y.	c #93734C",
"3Y.	c #8D7658",
"4Y.	c #746F66",
"5Y.	c #767067",
"6Y.	c #777169",
"7Y.	c #78736B",
"8Y.	c #78736C",
"9Y.	c #79756F",
"0Y.	c #716D69",
"aY.	c #565452",
"bY.	c #444344",
"cY.	c #58544F",
"dY.	c #5A5451",
"eY.	c #55524D",
"fY.	c #565351",
"gY.	c #4D4B4A",
"hY.	c #434343",
"iY.	c #110E16",
"jY.	c #1F1B20",
"kY.	c #7D644A",
"lY.	c #654322",
"mY.	c #633A10",
"nY.	c #5F3509",
"oY.	c #63421F",
"pY.	c #806E5A",
"qY.	c #9B948B",
"rY.	c #9D9C97",
"sY.	c #9D9A93",
"tY.	c #766E68",
"uY.	c #615851",
"vY.	c #5A504A",
"wY.	c #4D433E",
"xY.	c #231A12",
"yY.	c #AF9167",
"zY.	c #B18C59",
"AY.	c #AA8553",
"BY.	c #A78154",
"CY.	c #9D815F",
"DY.	c #655E59",
"EY.	c #8C8479",
"FY.	c #8C8578",
"GY.	c #8B8378",
"HY.	c #8B8479",
"IY.	c #88827A",
"JY.	c #7F7A76",
"KY.	c #5E5A57",
"LY.	c #373230",
"MY.	c #484440",
"NY.	c #55524E",
"OY.	c #544F4F",
"PY.	c #5C5855",
"QY.	c #4E4D4C",
"RY.	c #393839",
"SY.	c #0D0B12",
"TY.	c #120C0B",
"UY.	c #0F0E14",
"VY.	c #14141C",
"WY.	c #15141C",
"XY.	c #191921",
"YY.	c #1D1D25",
"ZY.	c #1E1E26",
"`Y.	c #16141A",
" Z.	c #1B1618",
".Z.	c #0C0709",
"+Z.	c #171215",
"@Z.	c #1F1D23",
"#Z.	c #7E6648",
"$Z.	c #66401B",
"%Z.	c #683709",
"&Z.	c #683606",
"*Z.	c #6C461E",
"=Z.	c #827059",
"-Z.	c #989489",
";Z.	c #989791",
">Z.	c #97958E",
",Z.	c #87847C",
"'Z.	c #726C65",
")Z.	c #5C554E",
"!Z.	c #1E1A11",
"~Z.	c #7D6C54",
"{Z.	c #C1A579",
"]Z.	c #CBA86F",
"^Z.	c #C8A36B",
"/Z.	c #C7A36F",
"(Z.	c #B99E76",
"_Z.	c #837764",
":Z.	c #898276",
"<Z.	c #8B8476",
"[Z.	c #8A8376",
"}Z.	c #898277",
"|Z.	c #8A857B",
"1Z.	c #847F79",
"2Z.	c #494642",
"3Z.	c #5F5C59",
"4Z.	c #565552",
"5Z.	c #54514F",
"6Z.	c #52514F",
"7Z.	c #17161E",
"8Z.	c #0E0F15",
"9Z.	c #0D0D14",
"0Z.	c #1A1B22",
"aZ.	c #1A1C23",
"bZ.	c #12131A",
"cZ.	c #15161F",
"dZ.	c #171720",
"eZ.	c #181821",
"fZ.	c #191A23",
"gZ.	c #1B1C25",
"hZ.	c #1E1F29",
"iZ.	c #1F1F29",
"jZ.	c #20212A",
"kZ.	c #1D1F28",
"lZ.	c #18161D",
"mZ.	c #795F40",
"nZ.	c #693F19",
"oZ.	c #6E3809",
"pZ.	c #723907",
"qZ.	c #73461D",
"rZ.	c #836B51",
"sZ.	c #938879",
"tZ.	c #928A82",
"uZ.	c #8F877D",
"vZ.	c #7E756D",
"wZ.	c #6C635C",
"xZ.	c #15140C",
"yZ.	c #C8AD84",
"zZ.	c #D6B47F",
"AZ.	c #D6AF7C",
"BZ.	c #DAB484",
"CZ.	c #C8AB87",
"DZ.	c #897C6C",
"EZ.	c #3F3B3A",
"FZ.	c #59534B",
"GZ.	c #8B8275",
"HZ.	c #8C8477",
"IZ.	c #898378",
"JZ.	c #847E78",
"KZ.	c #645E5B",
"LZ.	c #444141",
"MZ.	c #514E4F",
"NZ.	c #565354",
"OZ.	c #535051",
"PZ.	c #5F5B5A",
"QZ.	c #5E5B59",
"RZ.	c #5D5C58",
"SZ.	c #53504F",
"TZ.	c #4B4848",
"UZ.	c #0E0D13",
"VZ.	c #181920",
"WZ.	c #1A1B23",
"XZ.	c #1C1E26",
"YZ.	c #181A23",
"ZZ.	c #181A21",
"`Z.	c #16151C",
" `.	c #18171E",
".`.	c #7C5D40",
"+`.	c #76461E",
"@`.	c #7E4211",
"#`.	c #854811",
"$`.	c #834F1E",
"%`.	c #8A6942",
"&`.	c #927F64",
"*`.	c #8D7C66",
"=`.	c #8A7861",
"-`.	c #7C6A57",
";`.	c #0E0F08",
">`.	c #736853",
",`.	c #CCB68F",
"'`.	c #DEC18E",
")`.	c #E0BE8D",
"!`.	c #E7C695",
"~`.	c #D1B794",
"{`.	c #555048",
"]`.	c #857F73",
"^`.	c #8B8477",
"/`.	c #898478",
"(`.	c #898479",
"_`.	c #86817A",
":`.	c #555452",
"<`.	c #5C5B5A",
"[`.	c #444140",
"}`.	c #524F4D",
"|`.	c #555451",
"1`.	c #494745",
"2`.	c #0F100F",
"3`.	c #896A4E",
"4`.	c #86532B",
"5`.	c #8D4D1B",
"6`.	c #924F17",
"7`.	c #8F511A",
"8`.	c #925F2F",
"9`.	c #936C43",
"0`.	c #8F6944",
"a`.	c #8A663D",
"b`.	c #745232",
"c`.	c #57402E",
"d`.	c #3C2F27",
"e`.	c #5C5244",
"f`.	c #C1AC8B",
"g`.	c #D7BD8F",
"h`.	c #DCBD8F",
"i`.	c #E0C296",
"j`.	c #CAB393",
"k`.	c #7E796D",
"l`.	c #837D6F",
"m`.	c #827B6E",
"n`.	c #807A6E",
"o`.	c #7E786C",
"p`.	c #7F796D",
"q`.	c #7D776C",
"r`.	c #7D796D",
"s`.	c #7C776E",
"t`.	c #7A766E",
"u`.	c #68635E",
"v`.	c #4C494A",
"w`.	c #494747",
"x`.	c #3E3B3C",
"y`.	c #95785E",
"z`.	c #8D5C33",
"A`.	c #92521D",
"B`.	c #965115",
"C`.	c #995515",
"D`.	c #98591D",
"E`.	c #9D642B",
"F`.	c #9C632D",
"G`.	c #925B23",
"H`.	c #6B3C11",
"I`.	c #3D200A",
"J`.	c #1B0E07",
"K`.	c #0B0706",
"L`.	c #504A3F",
"M`.	c #BBA889",
"N`.	c #C9B187",
"O`.	c #C7AB83",
"P`.	c #C8AC86",
"Q`.	c #B09B7F",
"R`.	c #6B6158",
"S`.	c #45403C",
"T`.	c #746E61",
"U`.	c #716C5F",
"V`.	c #65625F",
"W`.	c #5B5755",
"X`.	c #433F3E",
"Y`.	c #977A62",
"Z`.	c #8E5E35",
"``.	c #92531D",
"  +	c #955014",
". +	c #995312",
"+ +	c #985213",
"@ +	c #A05D1B",
"# +	c #9F5A1B",
"$ +	c #925013",
"% +	c #693408",
"& +	c #361904",
"* +	c #150C04",
"= +	c #AD9A83",
"- +	c #B79E7C",
"; +	c #B49977",
"> +	c #B49979",
", +	c #9F8C76",
"' +	c #5E5451",
") +	c #231F28",
"! +	c #12121A",
"~ +	c #6E6A60",
"{ +	c #6A655A",
"] +	c #686459",
"^ +	c #666259",
"/ +	c #65605A",
"( +	c #605C57",
"_ +	c #3D3838",
": +	c #585655",
"< +	c #575655",
"[ +	c #4A4848",
"} +	c #353336",
"| +	c #38363A",
"1 +	c #353337",
"2 +	c #9A7D65",
"3 +	c #91623B",
"4 +	c #935724",
"5 +	c #97561B",
"6 +	c #9B5717",
"7 +	c #975314",
"8 +	c #995614",
"9 +	c #995512",
"0 +	c #8B4B0D",
"a +	c #613107",
"b +	c #301806",
"c +	c #120C08",
"d +	c #010406",
"e +	c #4D4B44",
"f +	c #AE9A79",
"g +	c #AB9373",
"h +	c #AA9176",
"i +	c #9C8B78",
"j +	c #5E5553",
"k +	c #6B6760",
"l +	c #6C685F",
"m +	c #67645B",
"n +	c #67655C",
"o +	c #686560",
"p +	c #65615C",
"q +	c #62605A",
"r +	c #64615D",
"s +	c #686561",
"t +	c #595753",
"u +	c #565554",
"v +	c #535251",
"w +	c #484848",
"x +	c #343137",
"y +	c #343236",
"z +	c #0C0D0B",
"A +	c #0B0C0A",
"B +	c #090907",
"C +	c #997F66",
"D +	c #936B47",
"E +	c #9B673C",
"F +	c #A06734",
"G +	c #A06630",
"H +	c #8E541E",
"I +	c #804710",
"J +	c #7E430C",
"K +	c #733E08",
"L +	c #4F2503",
"M +	c #261104",
"N +	c #44433F",
"O +	c #A29174",
"P +	c #A08D70",
"Q +	c #5B5553",
"R +	c #25232C",
"S +	c #14141E",
"T +	c #636059",
"U +	c #636158",
"V +	c #605E56",
"W +	c #5F5E55",
"X +	c #5D5D54",
"Y +	c #605F57",
"Z +	c #605E58",
"` +	c #5B5954",
" .+	c #353232",
"..+	c #424041",
"+.+	c #3E3D3E",
"@.+	c #222026",
"#.+	c #211F25",
"$.+	c #120F0B",
"%.+	c #13100C",
"&.+	c #15120E",
"*.+	c #201A16",
"=.+	c #201B16",
"-.+	c #1A1713",
";.+	c #1A1712",
">.+	c #14130E",
",.+	c #11110D",
"'.+	c #1E1D18",
").+	c #1C1B15",
"!.+	c #1C1A16",
"~.+	c #1E1911",
"{.+	c #1C1811",
"].+	c #1A1611",
"^.+	c #14120D",
"/.+	c #25221C",
"(.+	c #28251F",
"_.+	c #27241E",
":.+	c #2B2922",
"<.+	c #2D2B23",
"[.+	c #34332D",
"}.+	c #2D2B25",
"|.+	c #12100B",
"1.+	c #120F0A",
"2.+	c #110D08",
"3.+	c #100C08",
"4.+	c #13100A",
"5.+	c #13100B",
"6.+	c #110E09",
"7.+	c #0E0B07",
"8.+	c #100E0A",
"9.+	c #1C1914",
"0.+	c #1F1C16",
"a.+	c #13110C",
"b.+	c #A0876C",
"c.+	c #A37F5E",
"d.+	c #AE845D",
"e.+	c #B1865A",
"f.+	c #AB8155",
"g.+	c #82592F",
"h.+	c #603710",
"i.+	c #5B2F09",
"j.+	c #582E05",
"k.+	c #412003",
"l.+	c #211006",
"m.+	c #020506",
"n.+	c #817666",
"o.+	c #87775F",
"p.+	c #87745E",
"q.+	c #877461",
"r.+	c #1E1A25",
"s.+	c #10101A",
"t.+	c #4C4A42",
"u.+	c #494740",
"v.+	c #484740",
"w.+	c #46453F",
"x.+	c #46463F",
"y.+	c #47463F",
"z.+	c #494841",
"A.+	c #4C4A44",
"B.+	c #39383B",
"C.+	c #39383C",
"D.+	c #343338",
"E.+	c #0E0C11",
"F.+	c #4F473A",
"G.+	c #50483C",
"H.+	c #4F483E",
"I.+	c #433E34",
"J.+	c #544D44",
"K.+	c #4A4338",
"L.+	c #41392D",
"M.+	c #3F372B",
"N.+	c #42392E",
"O.+	c #46423C",
"P.+	c #47443D",
"Q.+	c #46433D",
"R.+	c #46443D",
"S.+	c #46443F",
"T.+	c #46443E",
"U.+	c #4A3F31",
"V.+	c #493D2D",
"W.+	c #565044",
"X.+	c #676053",
"Y.+	c #6E6759",
"Z.+	c #686154",
"`.+	c #696254",
" ++	c #6A6355",
".++	c #71695B",
"+++	c #736B5D",
"@++	c #746D5F",
"#++	c #756E5F",
"$++	c #736C5F",
"%++	c #736D5F",
"&++	c #726D60",
"*++	c #7A7468",
"=++	c #7E786B",
"-++	c #7F796C",
";++	c #7F786C",
">++	c #787165",
",++	c #625D54",
"'++	c #423B34",
")++	c #40392D",
"!++	c #3E362A",
"~++	c #312A22",
"{++	c #252019",
"]++	c #38332A",
"^++	c #454037",
"/++	c #4A443B",
"(++	c #524D43",
"_++	c #504B3F",
":++	c #504B42",
"<++	c #211D16",
"[++	c #484338",
"}++	c #3F3A33",
"|++	c #A2896D",
"1++	c #A58667",
"2++	c #AD8D69",
"3++	c #AF8D69",
"4++	c #A58664",
"5++	c #73573A",
"6++	c #4B2E13",
"7++	c #46260B",
"8++	c #472606",
"9++	c #361A02",
"0++	c #1A0B03",
"a++	c #6A5948",
"b++	c #6A5747",
"c++	c #6C5A4C",
"d++	c #695D53",
"e++	c #443C3E",
"f++	c #181520",
"g++	c #0D0D18",
"h++	c #43403C",
"i++	c #42403B",
"j++	c #3C3B3D",
"k++	c #3A383D",
"l++	c #3B393F",
"m++	c #37343B",
"n++	c #2A282F",
"o++	c #04030A",
"p++	c #4E4946",
"q++	c #4D4642",
"r++	c #574C43",
"s++	c #5D5044",
"t++	c #5F5346",
"u++	c #63584F",
"v++	c #655B53",
"w++	c #655D56",
"x++	c #68615A",
"y++	c #69615A",
"z++	c #6B6151",
"A++	c #695F50",
"B++	c #6A5F50",
"C++	c #675B4E",
"D++	c #5B5045",
"E++	c #514537",
"F++	c #57493B",
"G++	c #4F463D",
"H++	c #534940",
"I++	c #534A42",
"J++	c #514943",
"K++	c #5B5552",
"L++	c #534F48",
"M++	c #544F49",
"N++	c #58544D",
"O++	c #58544E",
"P++	c #484543",
"Q++	c #624F3C",
"R++	c #604E3C",
"S++	c #5C4D3D",
"T++	c #584A3D",
"U++	c #55473C",
"V++	c #463B31",
"W++	c #524A41",
"X++	c #82786A",
"Y++	c #887D6E",
"Z++	c #867C6E",
"`++	c #887F6F",
" @+	c #8B8170",
".@+	c #8C8272",
"+@+	c #8D8271",
"@@+	c #8C8271",
"#@+	c #867B6E",
"$@+	c #837B6D",
"%@+	c #827A6D",
"&@+	c #81776C",
"*@+	c #83796E",
"=@+	c #8E8478",
"-@+	c #938A7D",
";@+	c #988E81",
">@+	c #9B9284",
",@+	c #9B9183",
"'@+	c #9C9183",
")@+	c #9A8F81",
"!@+	c #998E81",
"~@+	c #948B80",
"{@+	c #837A72",
"]@+	c #5A5042",
"^@+	c #5A4E41",
"/@+	c #594C40",
"(@+	c #574A3E",
"_@+	c #53453A",
":@+	c #544539",
"<@+	c #57483D",
"[@+	c #57493E",
"}@+	c #51443B",
"|@+	c #6F665A",
"1@+	c #675E56",
"2@+	c #4B433C",
"3@+	c #594F47",
"4@+	c #5C5147",
"5@+	c #58504A",
"6@+	c #987E5D",
"7@+	c #9C8161",
"8@+	c #A28A69",
"9@+	c #A28B6A",
"0@+	c #978467",
"a@+	c #665742",
"b@+	c #423120",
"c@+	c #3F2916",
"d@+	c #43290F",
"e@+	c #392109",
"f@+	c #1E0F08",
"g@+	c #020406",
"h@+	c #5F5141",
"i@+	c #655A50",
"j@+	c #433E3F",
"k@+	c #1C1923",
"l@+	c #12121C",
"m@+	c #474640",
"n@+	c #464540",
"o@+	c #44443F",
"p@+	c #45453F",
"q@+	c #464640",
"r@+	c #4F4E48",
"s@+	c #53514C",
"t@+	c #3B3A3D",
"u@+	c #39393C",
"v@+	c #3A393E",
"w@+	c #333137",
"x@+	c #27262C",
"y@+	c #4C4844",
"z@+	c #4B443F",
"A@+	c #5A4F44",
"B@+	c #595149",
"C@+	c #575049",
"D@+	c #6B6354",
"E@+	c #685D4D",
"F@+	c #463C32",
"G@+	c #493F36",
"H@+	c #4C4440",
"I@+	c #433E3D",
"J@+	c #312B2B",
"K@+	c #56514C",
"L@+	c #55524B",
"M@+	c #57544D",
"N@+	c #56524C",
"O@+	c #56534C",
"P@+	c #53514B",
"Q@+	c #5B4C40",
"R@+	c #614E3D",
"S@+	c #624D39",
"T@+	c #624E39",
"U@+	c #5F4C3A",
"V@+	c #5C4C3B",
"W@+	c #4E4137",
"X@+	c #493D33",
"Y@+	c #736B5F",
"Z@+	c #81796B",
"`@+	c #877F71",
" #+	c #887F72",
".#+	c #887F71",
"+#+	c #857D6F",
"@#+	c #847C6E",
"##+	c #857E6F",
"$#+	c #878071",
"%#+	c #8A8274",
"&#+	c #898171",
"*#+	c #888070",
"=#+	c #867D6F",
"-#+	c #837B6C",
";#+	c #80786A",
">#+	c #7A7469",
",#+	c #777067",
"'#+	c #746D65",
")#+	c #787168",
"!#+	c #7D756D",
"~#+	c #8D857B",
"{#+	c #8D867B",
"]#+	c #8E867A",
"^#+	c #8D8579",
"/#+	c #8A8279",
"(#+	c #7A736B",
"_#+	c #5D554F",
":#+	c #554C40",
"<#+	c #54473D",
"[#+	c #4B3D32",
"}#+	c #4C3E33",
"|#+	c #514338",
"1#+	c #514339",
"2#+	c #4D4138",
"3#+	c #413934",
"4#+	c #4A4137",
"5#+	c #5A5348",
"6#+	c #5C554D",
"7#+	c #59524B",
"8#+	c #5A5049",
"9#+	c #635B4D",
"0#+	c #6C4B25",
"a#+	c #715333",
"b#+	c #776144",
"c#+	c #76644D",
"d#+	c #706652",
"e#+	c #545143",
"f#+	c #4A3B30",
"g#+	c #513E2A",
"h#+	c #483521",
"i#+	c #2D2219",
"j#+	c #0A0E10",
"k#+	c #3E3A3C",
"l#+	c #1C1924",
"m#+	c #14121E",
"n#+	c #141219",
"o#+	c #43423D",
"p#+	c #40403B",
"q#+	c #494743",
"r#+	c #2A292E",
"s#+	c #25242A",
"t#+	c #373331",
"u#+	c #403832",
"v#+	c #514A45",
"w#+	c #524C47",
"x#+	c #46403C",
"y#+	c #60594B",
"z#+	c #60584A",
"A#+	c #605849",
"B#+	c #5D5647",
"C#+	c #5D5648",
"D#+	c #3E332B",
"E#+	c #322C2C",
"F#+	c #44413C",
"G#+	c #413F3B",
"H#+	c #4B382A",
"I#+	c #4C3727",
"J#+	c #4D3828",
"K#+	c #4A372A",
"L#+	c #41342B",
"M#+	c #3A2E28",
"N#+	c #756F65",
"O#+	c #6D685F",
"P#+	c #6B655D",
"Q#+	c #736E63",
"R#+	c #6B665B",
"S#+	c #676257",
"T#+	c #605C54",
"U#+	c #5D5752",
"V#+	c #5B5650",
"W#+	c #635E58",
"X#+	c #6C6861",
"Y#+	c #2E211D",
"Z#+	c #352822",
"`#+	c #382B25",
" $+	c #3B2E28",
".$+	c #453D3B",
"+$+	c #585044",
"@$+	c #463F38",
"#$+	c #443C38",
"$$+	c #4A423E",
"%$+	c #582E07",
"&$+	c #543112",
"*$+	c #51381F",
"=$+	c #4C3A28",
"-$+	c #45463E",
";$+	c #5F4F3B",
">$+	c #544430",
",$+	c #3A2F26",
"'$+	c #13171A",
")$+	c #04090D",
"!$+	c #463F39",
"~$+	c #332E32",
"{$+	c #1B1824",
"]$+	c #151420",
"^$+	c #14131B",
"/$+	c #1B1A20",
"($+	c #1F1811",
"_$+	c #19130D",
":$+	c #19130E",
"<$+	c #484134",
"[$+	c #474135",
"}$+	c #453F33",
"|$+	c #130B0D",
"1$+	c #392316",
"2$+	c #392417",
"3$+	c #352218",
"4$+	c #312219",
"5$+	c #291E1A",
"6$+	c #241A16",
"7$+	c #140E0B",
"8$+	c #45413B",
"9$+	c #4E4841",
"0$+	c #3D3A37",
"a$+	c #444240",
"b$+	c #4C4745",
"c$+	c #130D0B",
"d$+	c #0E0907",
"e$+	c #0D0504",
"f$+	c #110706",
"g$+	c #190E0C",
"h$+	c #1D110E",
"i$+	c #221513",
"j$+	c #1E1311",
"k$+	c #251F20",
"l$+	c #312827",
"m$+	c #61310A",
"n$+	c #573111",
"o$+	c #4E331B",
"p$+	c #463322",
"q$+	c #554A41",
"r$+	c #5E4D3C",
"s$+	c #564434",
"t$+	c #3D312B",
"u$+	c #050A0E",
"v$+	c #2D282D",
"w$+	c #171420",
"x$+	c #12101D",
"y$+	c #13121A",
"z$+	c #30302A",
"A$+	c #0C0703",
"B$+	c #0D0703",
"C$+	c #3C3635",
"D$+	c #40392E",
"E$+	c #221917",
"F$+	c #030001",
"G$+	c #1A1111",
"H$+	c #2C2120",
"I$+	c #332826",
"J$+	c #35231D",
"K$+	c #3C2419",
"L$+	c #3C2316",
"M$+	c #3A2216",
"N$+	c #352017",
"O$+	c #302018",
"P$+	c #2A1E18",
"Q$+	c #291C19",
"R$+	c #231815",
"S$+	c #1C1410",
"T$+	c #0E0706",
"U$+	c #434040",
"V$+	c #4A4543",
"W$+	c #090203",
"X$+	c #0C0304",
"Y$+	c #140909",
"Z$+	c #180B0C",
"`$+	c #1D1010",
" %+	c #1B0F0F",
".%+	c #0E0807",
"+%+	c #241C1A",
"@%+	c #251C18",
"#%+	c #221D21",
"$%+	c #332B23",
"%%+	c #5F340F",
"&%+	c #583516",
"*%+	c #50371F",
"=%+	c #544A41",
"-%+	c #3D332E",
";%+	c #2F2B2E",
">%+	c #2D2C31",
",%+	c #090E10",
"'%+	c #413B2F",
")%+	c #17141F",
"!%+	c #13111C",
"~%+	c #2F2F2A",
"{%+	c #2A282D",
"]%+	c #120C09",
"^%+	c #46403E",
"/%+	c #524C40",
"(%+	c #565146",
"_%+	c #281F1B",
":%+	c #221A18",
"<%+	c #060202",
"[%+	c #1F1515",
"}%+	c #302624",
"|%+	c #392D2C",
"1%+	c #443936",
"2%+	c #493F3B",
"3%+	c #4A433F",
"4%+	c #534F4B",
"5%+	c #514E49",
"6%+	c #3D2C25",
"7%+	c #462D23",
"8%+	c #452B1F",
"9%+	c #442B1E",
"0%+	c #3F281D",
"a%+	c #39271E",
"b%+	c #35261F",
"c%+	c #332520",
"d%+	c #261C17",
"e%+	c #1D1410",
"f%+	c #18100E",
"g%+	c #645E59",
"h%+	c #615C58",
"i%+	c #514D48",
"j%+	c #484545",
"k%+	c #4E4B4A",
"l%+	c #55524F",
"m%+	c #575451",
"n%+	c #120B0E",
"o%+	c #1A1113",
"p%+	c #1F1415",
"q%+	c #221517",
"r%+	c #261A1B",
"s%+	c #24191A",
"t%+	c #363030",
"u%+	c #3C3532",
"v%+	c #41270F",
"w%+	c #3F2815",
"x%+	c #3E2C1D",
"y%+	c #16131D",
"z%+	c #12111C",
"A%+	c #1D1B22",
"B%+	c #423D3C",
"C%+	c #4C4842",
"D%+	c #56534A",
"E%+	c #59554B",
"F%+	c #5E5A4F",
"G%+	c #626054",
"H%+	c #6D6A5E",
"I%+	c #726F64",
"J%+	c #625F56",
"K%+	c #160E0E",
"L%+	c #211918",
"M%+	c #261C1C",
"N%+	c #322928",
"O%+	c #4A4744",
"P%+	c #37302F",
"Q%+	c #412D26",
"R%+	c #412A20",
"S%+	c #3C281F",
"T%+	c #392920",
"U%+	c #332620",
"V%+	c #332722",
"W%+	c #251D19",
"X%+	c #64615C",
"Y%+	c #3C3C3D",
"Z%+	c #424143",
"`%+	c #4C4B4C",
" &+	c #525151",
".&+	c #595756",
"+&+	c #585753",
"@&+	c #171013",
"#&+	c #21181A",
"$&+	c #23191A",
"%&+	c #291D1E",
"&&+	c #281E1E",
"*&+	c #3F3938",
"=&+	c #3F3937",
"-&+	c #3E3835",
";&+	c #020209",
">&+	c #29262B",
",&+	c #2C282C",
"'&+	c #2D221A",
")&+	c #2D221D",
"!&+	c #2D2625",
"~&+	c #2B2527",
"{&+	c #0C0F12",
"]&+	c #110F18",
"^&+	c #0E0D17",
"/&+	c #0E0D15",
"(&+	c #1E1A1F",
"_&+	c #19161C",
":&+	c #3E3C36",
"<&+	c #56554D",
"[&+	c #5B5951",
"}&+	c #070203",
"|&+	c #0B0404",
"1&+	c #140D0D",
"2&+	c #2E2524",
"3&+	c #291C17",
"4&+	c #25150D",
"5&+	c #22130E",
"6&+	c #211611",
"7&+	c #1D1514",
"8&+	c #2F3033",
"9&+	c #38383B",
"0&+	c #1C1517",
"a&+	c #1D1416",
"b&+	c #1C1314",
"c&+	c #211718",
"d&+	c #211819",
"e&+	c #130E0C",
"f&+	c #111019",
"g&+	c #1E1A20",
"h&+	c #1A181F",
"i&+	c #31312D",
"j&+	c #0D0809",
"k&+	c #221C1E",
"l&+	c #1B1211",
"m&+	c #100603",
"n&+	c #0E0402",
"o&+	c #0D0403",
"p&+	c #0E0707",
"q&+	c #1B1517",
"r&+	c #1A1314",
"s&+	c #170F11",
"t&+	c #1D1516",
"u&+	c #1E1718",
"v&+	c #13100F",
"w&+	c #2B2B27",
"x&+	c #0D0705",
"y&+	c #0B0504",
"z&+	c #08070D",
"A&+	c #191210",
"B&+	c #33332D",
"C&+	c #1C1B16",
"D&+	c #1B1914",
"E&+	c #342D2B",
"F&+	c #4E4843",
"G&+	c #494640",
"H&+	c #433E3B",
"I&+	c #231F19",
"J&+	c #1D1C19",
"K&+	c #594E44",
"L&+	c #5C5047",
"M&+	c #262017",
"N&+	c #17120B",
"O&+	c #120E0A",
"P&+	c #0A0B0A",
"Q&+	c #4A4841",
"R&+	c #4E4D45",
"S&+	c #261D15",
"T&+	c #24190E",
"U&+	c #3E2F22",
"V&+	c #524134",
"W&+	c #57473A",
"X&+	c #777368",
"Y&+	c #59544D",
"Z&+	c #403D3E",
"`&+	c #3C3A3D",
" *+	c #26272D",
".*+	c #585042",
"+*+	c #574D3F",
"@*+	c #554D3F",
"#*+	c #514A3E",
"$*+	c #5D574A",
"%*+	c #25231C",
"&*+	c #5D5245",
"**+	c #332820",
"=*+	c #4C4035",
"-*+	c #49413B",
";*+	c #050708",
">*+	c #090502",
",*+	c #1D160D",
"'*+	c #4F483A",
")*+	c #71685C",
"!*+	c #3D3225",
"~*+	c #3C3125",
"{*+	c #4E4846",
"]*+	c #7B736B",
"^*+	c #080401",
"/*+	c #1D1F1F",
"(*+	c #5C5752",
"_*+	c #4E4C45",
":*+	c #524F49",
"<*+	c #635E57",
"[*+	c #32261A",
"}*+	c #5B442F",
"|*+	c #765C44",
"1*+	c #786049",
"2*+	c #6F5D49",
"3*+	c #64605A",
"4*+	c #817B6E",
"5*+	c #857E70",
"6*+	c #777065",
"7*+	c #423B39",
"8*+	c #454041",
"9*+	c #3D393C",
"0*+	c #7D725F",
"a*+	c #7B6D5B",
"b*+	c #756A5A",
"c*+	c #6D665A",
"d*+	c #837A69",
"e*+	c #847B69",
"f*+	c #7A7262",
"g*+	c #5C534D",
"h*+	c #978D7B",
"i*+	c #958673",
"j*+	c #7F705F",
"k*+	c #76695D",
"l*+	c #817260",
"m*+	c #82715D",
"n*+	c #7E6D59",
"o*+	c #7C6C59",
"p*+	c #615447",
"q*+	c #3C2F25",
"r*+	c #726455",
"s*+	c #6D6154",
"t*+	c #635851",
"u*+	c #13120F",
"v*+	c #251E13",
"w*+	c #494539",
"x*+	c #59544B",
"y*+	c #60564A",
"z*+	c #635646",
"A*+	c #645543",
"B*+	c #62503D",
"C*+	c #604E3A",
"D*+	c #5D4A37",
"E*+	c #5C4A36",
"F*+	c #5B4836",
"G*+	c #21191B",
"H*+	c #4B4341",
"I*+	c #736A63",
"J*+	c #7C7168",
"K*+	c #171009",
"L*+	c #191006",
"M*+	c #271D11",
"N*+	c #2D2217",
"O*+	c #1C1814",
"P*+	c #1B1D1C",
"Q*+	c #68625A",
"R*+	c #3A3831",
"S*+	c #130E09",
"T*+	c #19110C",
"U*+	c #0A0402",
"V*+	c #332519",
"W*+	c #392412",
"X*+	c #61462E",
"Y*+	c #7A5B3D",
"Z*+	c #74573C",
"`*+	c #6F5941",
" =+	c #7A756B",
".=+	c #817A69",
"+=+	c #463E3B",
"@=+	c #413D3C",
"#=+	c #5E5A58",
"$=+	c #514F4D",
"%=+	c #847561",
"&=+	c #80705D",
"*=+	c #7E715D",
"==+	c #766D5E",
"-=+	c #615B4D",
";=+	c #7C7465",
">=+	c #827968",
",=+	c #857B69",
"'=+	c #786F5F",
")=+	c #594F49",
"!=+	c #9F8F7B",
"~=+	c #9B8A75",
"{=+	c #80715F",
"]=+	c #4C443B",
"^=+	c #5A4F42",
"/=+	c #7D6D5F",
"(=+	c #8A765E",
"_=+	c #89735B",
":=+	c #89735C",
"<=+	c #836F5A",
"[=+	c #7E6C58",
"}=+	c #776655",
"|=+	c #68594A",
"1=+	c #584B3E",
"2=+	c #635547",
"3=+	c #76685A",
"4=+	c #716458",
"5=+	c #6C6056",
"6=+	c #6E6459",
"7=+	c #70655C",
"8=+	c #675E57",
"9=+	c #1B150D",
"0=+	c #2A2216",
"a=+	c #6B6355",
"b=+	c #655E51",
"c=+	c #635D4F",
"d=+	c #565247",
"e=+	c #5B574F",
"f=+	c #4C4942",
"g=+	c #655B4E",
"h=+	c #695B4A",
"i=+	c #695744",
"j=+	c #68533E",
"k=+	c #644D37",
"l=+	c #655039",
"m=+	c #624B36",
"n=+	c #161012",
"o=+	c #443C39",
"p=+	c #695F58",
"q=+	c #7D7167",
"r=+	c #1E1711",
"s=+	c #2E2519",
"t=+	c #544836",
"u=+	c #7D6D57",
"v=+	c #84715B",
"w=+	c #6B5A45",
"x=+	c #3B3021",
"y=+	c #36342D",
"z=+	c #34332C",
"A=+	c #241E14",
"B=+	c #87796D",
"C=+	c #0C0301",
"D=+	c #180F09",
"E=+	c #525049",
"F=+	c #392B1D",
"G=+	c #402A17",
"H=+	c #60422A",
"I=+	c #735335",
"J=+	c #6D5034",
"K=+	c #6B543B",
"L=+	c #5A4938",
"M=+	c #6B675D",
"N=+	c #756D5A",
"O=+	c #766B5A",
"P=+	c #6D6252",
"Q=+	c #463A30",
"R=+	c #160E09",
"S=+	c #2A211A",
"T=+	c #433832",
"U=+	c #463C38",
"V=+	c #62635C",
"W=+	c #686462",
"X=+	c #56534D",
"Y=+	c #524C3F",
"Z=+	c #090603",
"`=+	c #746959",
" -+	c #776B58",
".-+	c #655F53",
"+-+	c #595449",
"@-+	c #787162",
"#-+	c #797262",
"$-+	c #49403C",
"%-+	c #73675F",
"&-+	c #8D8071",
"*-+	c #8D7C6C",
"=-+	c #766657",
"--+	c #5B5243",
";-+	c #766959",
">-+	c #83715B",
",-+	c #826F58",
"'-+	c #786956",
")-+	c #534D42",
"!-+	c #352A20",
"~-+	c #64574B",
"{-+	c #594D43",
"]-+	c #5D564F",
"^-+	c #57504B",
"/-+	c #0B0D0E",
"(-+	c #322D25",
"_-+	c #54514C",
":-+	c #2C281F",
"<-+	c #272116",
"[-+	c #352E21",
"}-+	c #534E46",
"|-+	c #6F6150",
"1-+	c #6A5742",
"2-+	c #6A553F",
"3-+	c #66513C",
"4-+	c #120C0E",
"5-+	c #140D10",
"6-+	c #352C2A",
"7-+	c #231B16",
"8-+	c #392E22",
"9-+	c #7A6A57",
"0-+	c #B09B80",
"a-+	c #B2997C",
"b-+	c #917A5F",
"c-+	c #5C4B36",
"d-+	c #38291E",
"e-+	c #281E19",
"f-+	c #171817",
"g-+	c #3F3833",
"h-+	c #2B2923",
"i-+	c #3B2F23",
"j-+	c #A79481",
"k-+	c #B7A28D",
"l-+	c #7B6A56",
"m-+	c #2C190C",
"n-+	c #28180D",
"o-+	c #49403A",
"p-+	c #3B2C20",
"q-+	c #412A1A",
"r-+	c #593C28",
"s-+	c #614329",
"t-+	c #5D432A",
"u-+	c #59432F",
"v-+	c #49453F",
"w-+	c #716752",
"x-+	c #887966",
"y-+	c #584A3A",
"z-+	c #413327",
"A-+	c #675949",
"B-+	c #47372B",
"C-+	c #46372E",
"D-+	c #4D413C",
"E-+	c #4F4D49",
"F-+	c #302A1E",
"G-+	c #897964",
"H-+	c #392D1E",
"I-+	c #181109",
"J-+	c #161108",
"K-+	c #261F15",
"L-+	c #443B37",
"M-+	c #655F54",
"N-+	c #3A3231",
"O-+	c #64574A",
"P-+	c #645647",
"Q-+	c #3F3A30",
"R-+	c #493D35",
"S-+	c #3A3332",
"T-+	c #57514C",
"U-+	c #3C3229",
"V-+	c #58534B",
"W-+	c #2D282A",
"X-+	c #6B5E4D",
"Y-+	c #635442",
"Z-+	c #5F4E3E",
"`-+	c #100B0D",
" ;+	c #160F11",
".;+	c #554B45",
"+;+	c #161210",
"@;+	c #271D13",
"#;+	c #A58E75",
"$;+	c #AE9476",
"%;+	c #A08668",
"&;+	c #8A755C",
"*;+	c #847160",
"=;+	c #796C62",
"-;+	c #161716",
";;+	c #101111",
">;+	c #888378",
",;+	c #B0A898",
"';+	c #ABA28F",
");+	c #38362D",
"!;+	c #2B2A21",
"~;+	c #33291D",
"{;+	c #9F8E7C",
"];+	c #B4A28C",
"^;+	c #B8A58C",
"/;+	c #9D8971",
"(;+	c #6F5E4B",
"_;+	c #433629",
":;+	c #473524",
"<;+	c #563E2B",
"[;+	c #583E2A",
"};+	c #4F3925",
"|;+	c #46382B",
"1;+	c #746A55",
"2;+	c #A4977C",
"3;+	c #AEA184",
"4;+	c #A19075",
"5;+	c #8A785F",
"6;+	c #A09077",
"7;+	c #A9967C",
"8;+	c #7F6C54",
"9;+	c #6B5846",
"0;+	c #69594C",
"a;+	c #171209",
"b;+	c #3C3524",
"c;+	c #8A7D67",
"d;+	c #BAAA8A",
"e;+	c #B9A985",
"f;+	c #9C8B6C",
"g;+	c #908066",
"h;+	c #8F8168",
"i;+	c #615C50",
"j;+	c #5A564C",
"k;+	c #2D2B26",
"l;+	c #161717",
"m;+	c #121415",
"n;+	c #58524B",
"o;+	c #514C42",
"p;+	c #483E35",
"q;+	c #574D40",
"r;+	c #463C31",
"s;+	c #130D10",
"t;+	c #1A1316",
"u;+	c #2D2525",
"v;+	c #352A2A",
"w;+	c #080404",
"x;+	c #150D08",
"y;+	c #8B7660",
"z;+	c #A58B70",
"A;+	c #AE9275",
"B;+	c #B39B80",
"C;+	c #BEAC97",
"D;+	c #BFAFA3",
"E;+	c #90887E",
"F;+	c #999387",
"G;+	c #CAC2AF",
"H;+	c #C4B7A3",
"I;+	c #645848",
"J;+	c #53463D",
"K;+	c #43372E",
"L;+	c #2C231E",
"M;+	c #948674",
"N;+	c #BBAB95",
"O;+	c #BAA990",
"P;+	c #BCAA8E",
"Q;+	c #B8A489",
"R;+	c #B6A189",
"S;+	c #AF9C86",
"T;+	c #867866",
"U;+	c #140D09",
"V;+	c #47392E",
"W;+	c #513E31",
"X;+	c #564132",
"Y;+	c #4B392A",
"Z;+	c #6F6351",
"`;+	c #AB9B7D",
" >+	c #B8A784",
".>+	c #AA9572",
"+>+	c #A58D69",
"@>+	c #AC9470",
"#>+	c #CFBC99",
"$>+	c #E7D7B4",
"%>+	c #E1CDAC",
"&>+	c #BFA98A",
"*>+	c #9C856C",
"=>+	c #826F5D",
"->+	c #332C2A",
";>+	c #15130F",
">>+	c #0D0803",
",>+	c #C2B090",
"'>+	c #D5C39B",
")>+	c #D9C7A3",
"!>+	c #E0D1B0",
"~>+	c #E4D3B6",
"{>+	c #312C2C",
"]>+	c #30292A",
"^>+	c #2C2526",
"/>+	c #453E3A",
"(>+	c #4C4640",
"_>+	c #524A43",
":>+	c #1B1410",
"<>+	c #605C53",
"[>+	c #0F0906",
"}>+	c #A28C72",
"|>+	c #B29A7D",
"1>+	c #B69F84",
"2>+	c #C1AF97",
"3>+	c #C3B4A4",
"4>+	c #999186",
"5>+	c #221C13",
"6>+	c #8F8878",
"7>+	c #C9BDA8",
"8>+	c #C4B59F",
"9>+	c #594F43",
"0>+	c #4E4338",
"a>+	c #372C23",
"b>+	c #140F09",
"c>+	c #0B0401",
"d>+	c #A39583",
"e>+	c #C2B39A",
"f>+	c #BCAC91",
"g>+	c #BCAB8F",
"h>+	c #BBA88C",
"i>+	c #BEAB90",
"j>+	c #918371",
"k>+	c #31271E",
"l>+	c #524A46",
"m>+	c #615A53",
"n>+	c #5F5751",
"o>+	c #5B564D",
"p>+	c #50483D",
"q>+	c #4A4033",
"r>+	c #1A1C1B",
"s>+	c #211C13",
"t>+	c #655A47",
"u>+	c #A69575",
"v>+	c #B6A27C",
"w>+	c #A78D67",
"x>+	c #A48960",
"y>+	c #B59B71",
"z>+	c #DBC49C",
"A>+	c #EBD9B1",
"B>+	c #E0CEA9",
"C>+	c #C2AE8C",
"D>+	c #A18C73",
"E>+	c #867462",
"F>+	c #504C49",
"G>+	c #1A160E",
"H>+	c #221A0E",
"I>+	c #675C49",
"J>+	c #AB9D80",
"K>+	c #C5B590",
"L>+	c #DAC79F",
"M>+	c #E4D2AE",
"N>+	c #F0E3C0",
"O>+	c #F4E7C6",
"P>+	c #C0B49C",
"Q>+	c #322D2E",
"R>+	c #312D2E",
"S>+	c #4D4A41",
"T>+	c #2C2E2C",
"U>+	c #2D2F2D",
"V>+	c #0D0704",
"W>+	c #0F0703",
"X>+	c #3E3E3A",
"Y>+	c #4B4540",
"Z>+	c #776E66",
"`>+	c #211813",
" ,+	c #615C53",
".,+	c #666157",
"+,+	c #6C6255",
"@,+	c #6A5D50",
"#,+	c #6B6153",
"$,+	c #70695C",
"%,+	c #1F181A",
"&,+	c #241D1F",
"*,+	c #282118",
"=,+	c #685B4B",
"-,+	c #8D7B65",
";,+	c #A18E72",
">,+	c #A28F76",
",,+	c #AD9D8C",
"',+	c #8C8276",
"),+	c #BBAB94",
"!,+	c #B7A58E",
"~,+	c #93826D",
"{,+	c #282520",
"],+	c #231D14",
"^,+	c #191209",
"/,+	c #191005",
"(,+	c #4C4031",
"_,+	c #9A8E7B",
":,+	c #B1A38D",
"<,+	c #AFA188",
"[,+	c #B1A388",
"},+	c #B1A286",
"|,+	c #B5A68A",
"1,+	c #B6A68D",
"2,+	c #978976",
"3,+	c #18120B",
"4,+	c #1E1912",
"5,+	c #514E47",
"6,+	c #575349",
"7,+	c #4D433A",
"8,+	c #0E1013",
"9,+	c #0C0E10",
"0,+	c #948366",
"a,+	c #B29D76",
"b,+	c #A78C64",
"c,+	c #A58960",
"d,+	c #B2976E",
"e,+	c #C9B189",
"f,+	c #C3AF88",
"g,+	c #A18F6E",
"h,+	c #7E6E52",
"i,+	c #6C5C48",
"j,+	c #52473E",
"k,+	c #3B3627",
"l,+	c #5E523D",
"m,+	c #AB9C7B",
"n,+	c #B8A783",
"o,+	c #CBB993",
"p,+	c #D9CAA6",
"q,+	c #E3D9B8",
"r,+	c #E0D6B9",
"s,+	c #A59E88",
"t,+	c #2B251C",
"u,+	c #17130E",
"v,+	c #170E0A",
"w,+	c #110807",
"x,+	c #1B1310",
"y,+	c #1F1714",
"z,+	c #6A5C4E",
"A,+	c #6F5F50",
"B,+	c #6E6151",
"C,+	c #453D33",
"D,+	c #251D1E",
"E,+	c #5C4D40",
"F,+	c #8D7C6D",
"G,+	c #85786B",
"H,+	c #5E544B",
"I,+	c #0C0A07",
"J,+	c #9E9181",
"K,+	c #A3957C",
"L,+	c #AD9B82",
"M,+	c #918068",
"N,+	c #71614E",
"O,+	c #090804",
"P,+	c #1F1C13",
"Q,+	c #534C3E",
"R,+	c #655D4C",
"S,+	c #615646",
"T,+	c #736854",
"U,+	c #8C816B",
"V,+	c #938871",
"W,+	c #988B74",
"X,+	c #A0927A",
"Y,+	c #A4987E",
"Z,+	c #726C60",
"`,+	c #625C52",
" '+	c #5F5B54",
".'+	c #504D45",
"+'+	c #444037",
"@'+	c #231F14",
"#'+	c #7D6E53",
"$'+	c #B19D79",
"%'+	c #B29B70",
"&'+	c #B3996E",
"*'+	c #B1976F",
"='+	c #B19A75",
"-'+	c #917D5F",
";'+	c #64543D",
">'+	c #130B07",
",'+	c #9A8973",
"''+	c #A29176",
")'+	c #9F8F71",
"!'+	c #A08F70",
"~'+	c #9F8E6F",
"{'+	c #AA987B",
"]'+	c #B2A388",
"^'+	c #B9AB94",
"/'+	c #B0A592",
"('+	c #797162",
"_'+	c #110B0A",
":'+	c #87796A",
"<'+	c #A1907C",
"['+	c #988A77",
"}'+	c #A6A093",
"|'+	c #AAA396",
"1'+	c #847D6F",
"2'+	c #544A43",
"3'+	c #5C554F",
"4'+	c #3C322E",
"5'+	c #433935",
"6'+	c #5E5445",
"7'+	c #6A5B4C",
"8'+	c #756453",
"9'+	c #746553",
"0'+	c #625649",
"a'+	c #50463B",
"b'+	c #524538",
"c'+	c #655649",
"d'+	c #7E6E61",
"e'+	c #84776A",
"f'+	c #5C524C",
"g'+	c #261E14",
"h'+	c #BDAD96",
"i'+	c #B6A48A",
"j'+	c #AE9B80",
"k'+	c #A8947C",
"l'+	c #9C8972",
"m'+	c #8E7C64",
"n'+	c #83715D",
"o'+	c #817464",
"p'+	c #4B3F38",
"q'+	c #150F06",
"r'+	c #928370",
"s'+	c #8B7E69",
"t'+	c #817361",
"u'+	c #867965",
"v'+	c #9D937A",
"w'+	c #A49B89",
"x'+	c #A49C8C",
"y'+	c #767064",
"z'+	c #0F0B09",
"A'+	c #090401",
"B'+	c #5A4B33",
"C'+	c #A79273",
"D'+	c #B69B77",
"E'+	c #B89E77",
"F'+	c #B19974",
"G'+	c #A89574",
"H'+	c #796752",
"I'+	c #1C1615",
"J'+	c #0A0502",
"K'+	c #675A4C",
"L'+	c #AE9B86",
"M'+	c #AA9A7F",
"N'+	c #9E8C73",
"O'+	c #96856C",
"P'+	c #93846F",
"Q'+	c #928572",
"R'+	c #8A8277",
"S'+	c #473D38",
"T'+	c #A39381",
"U'+	c #C1AE92",
"V'+	c #B6A58C",
"W'+	c #7B6E60",
"X'+	c #B4AC9C",
"Y'+	c #B2A895",
"Z'+	c #908574",
"`'+	c #4F4844",
" )+	c #2F2520",
".)+	c #463B35",
"+)+	c #554944",
"@)+	c #584D47",
"#)+	c #4A413B",
"$)+	c #695849",
"%)+	c #715F4C",
"&)+	c #605549",
"*)+	c #2D2626",
"=)+	c #2B2323",
"-)+	c #130C06",
";)+	c #2C2111",
">)+	c #7B6E5A",
",)+	c #AC9B83",
"')+	c #A9957B",
"))+	c #7D6E5A",
"!)+	c #786958",
"~)+	c #7E7164",
"{)+	c #171109",
"])+	c #1C1407",
"^)+	c #685E4B",
"/)+	c #91856E",
"()+	c #8E806A",
"_)+	c #877A65",
":)+	c #7F725F",
"<)+	c #817562",
"[)+	c #857A66",
"})+	c #8D836C",
"|)+	c #90856F",
"1)+	c #988E75",
"2)+	c #9D927C",
"3)+	c #A59C86",
"4)+	c #A59D89",
"5)+	c #272117",
"6)+	c #514F49",
"7)+	c #58554F",
"8)+	c #070200",
"9)+	c #463720",
"0)+	c #948164",
"a)+	c #AC9677",
"b)+	c #B09C7D",
"c)+	c #AA997C",
"d)+	c #9A8E75",
"e)+	c #9C917B",
"f)+	c #948771",
"g)+	c #2A2823",
"h)+	c #968B7A",
"i)+	c #71695A",
"j)+	c #201B11",
"k)+	c #BDAB8C",
"l)+	c #B2A186",
"m)+	c #221F18",
"n)+	c #ACA493",
"o)+	c #ACA18D",
"p)+	c #8F836F",
"q)+	c #1F1814",
"r)+	c #392E2A",
"s)+	c #52453F",
"t)+	c #594D45",
"u)+	c #4D453E",
"v)+	c #6B5A47",
"w)+	c #685744",
"x)+	c #615243",
"y)+	c #5B554A",
"z)+	c #584E43",
"A)+	c #383230",
"B)+	c #342C2A",
"C)+	c #615548",
"D)+	c #665847",
"E)+	c #82735D",
"F)+	c #9A886F",
"G)+	c #95816B",
"H)+	c #8A7A63",
"I)+	c #6A5C4A",
"J)+	c #2D291F",
"K)+	c #322C1F",
"L)+	c #4D4532",
"M)+	c #776956",
"N)+	c #7D715D",
"O)+	c #766C59",
"P)+	c #6E6556",
"Q)+	c #6E6457",
"R)+	c #756B5D",
"S)+	c #847A65",
"T)+	c #867C67",
"U)+	c #8F856D",
"V)+	c #948973",
"W)+	c #9C917C",
"X)+	c #9C947E",
"Y)+	c #7B7462",
"Z)+	c #4A4435",
"`)+	c #45423E",
" !+	c #3C3B34",
".!+	c #3E3E36",
"+!+	c #61523D",
"@!+	c #7C6C52",
"#!+	c #76664F",
"$!+	c #726858",
"%!+	c #655F59",
"&!+	c #6B665E",
"*!+	c #332B20",
"=!+	c #92836E",
"-!+	c #82745F",
";!+	c #4F4331",
">!+	c #2E271B",
",!+	c #241F15",
"'!+	c #140F0D",
")!+	c #B7A485",
"!!+	c #AC9A7D",
"~!+	c #A99E8D",
"{!+	c #A99A85",
"]!+	c #94856E",
"^!+	c #4A4843",
"/!+	c #3E322E",
"(!+	c #554B44",
"_!+	c #373731",
":!+	c #4D3F34",
"<!+	c #544334",
"[!+	c #564739",
"}!+	c #493C33",
"|!+	c #382F2C",
"1!+	c #827768",
"2!+	c #9E8F7C",
"3!+	c #9A8B74",
"4!+	c #94836B",
"5!+	c #86745B",
"6!+	c #7D6C53",
"7!+	c #685846",
"8!+	c #170F08",
"9!+	c #0E0804",
"0!+	c #7B766B",
"a!+	c #7A746A",
"b!+	c #746E65",
"c!+	c #140F0C",
"d!+	c #6A6557",
"e!+	c #837C68",
"f!+	c #857C65",
"g!+	c #7F715B",
"h!+	c #766852",
"i!+	c #6D634E",
"j!+	c #655D4B",
"k!+	c #565042",
"l!+	c #6F6553",
"m!+	c #7C735D",
"n!+	c #837763",
"o!+	c #90866E",
"p!+	c #88806A",
"q!+	c #7F7664",
"r!+	c #898270",
"s!+	c #7E7868",
"t!+	c #454138",
"u!+	c #1C1B17",
"v!+	c #1B1B18",
"w!+	c #211E16",
"x!+	c #8B7C64",
"y!+	c #786A52",
"z!+	c #3D3220",
"A!+	c #181009",
"B!+	c #887B62",
"C!+	c #97886A",
"D!+	c #A79779",
"E!+	c #AF9F82",
"F!+	c #AFA185",
"G!+	c #645C4B",
"H!+	c #312C21",
"I!+	c #181310",
"J!+	c #958770",
"K!+	c #B8A584",
"L!+	c #AC9D7C",
"M!+	c #726953",
"N!+	c #1A1911",
"O!+	c #797367",
"P!+	c #ADA28F",
"Q!+	c #A09377",
"R!+	c #746858",
"S!+	c #4E4839",
"T!+	c #524740",
"U!+	c #382B1F",
"V!+	c #3C2E22",
"W!+	c #1F1A14",
"X!+	c #3F3732",
"Y!+	c #31261D",
"Z!+	c #93826A",
"`!+	c #796651",
" ~+	c #614E3C",
".~+	c #534132",
"+~+	c #362A24",
"@~+	c #120B08",
"#~+	c #7E766C",
"$~+	c #7A7369",
"%~+	c #514944",
"&~+	c #0A0504",
"*~+	c #9F957F",
"=~+	c #8F846C",
"-~+	c #746651",
";~+	c #635541",
">~+	c #5E5448",
",~+	c #695E4D",
"'~+	c #837761",
")~+	c #877964",
"!~+	c #8F826B",
"~~+	c #938670",
"{~+	c #9E917B",
"]~+	c #887D6D",
"^~+	c #21201C",
"/~+	c #0F0A06",
"(~+	c #2A2218",
"_~+	c #4F4333",
":~+	c #796B54",
"<~+	c #8C7D65",
"[~+	c #7D6E5C",
"}~+	c #08060E",
"|~+	c #3A3434",
"1~+	c #8B7F70",
"2~+	c #90816A",
"3~+	c #8F8062",
"4~+	c #958364",
"5~+	c #AF9C7C",
"6~+	c #C7B493",
"7~+	c #D1C29F",
"8~+	c #C0B093",
"9~+	c #807460",
"0~+	c #251C13",
"a~+	c #94846D",
"b~+	c #B7A281",
"c~+	c #AC9B7B",
"d~+	c #746A53",
"e~+	c #1C1911",
"f~+	c #AC9F8B",
"g~+	c #A89579",
"h~+	c #A59476",
"i~+	c #97866E",
"j~+	c #796B57",
"k~+	c #4A4030",
"l~+	c #463C2F",
"m~+	c #2F231A",
"n~+	c #32251A",
"o~+	c #31231A",
"p~+	c #281C15",
"q~+	c #1B110E",
"r~+	c #140E0A",
"s~+	c #150F0B",
"t~+	c #070302",
"u~+	c #1F1A16",
"v~+	c #1D1611",
"w~+	c #0F0905",
"x~+	c #120905",
"y~+	c #3D3124",
"z~+	c #95866F",
"A~+	c #93846B",
"B~+	c #897A62",
"C~+	c #6B5C48",
"D~+	c #7C7468",
"E~+	c #090403",
"F~+	c #393428",
"G~+	c #8A8372",
"H~+	c #9E957D",
"I~+	c #5D5548",
"J~+	c #675C4B",
"K~+	c #736753",
"L~+	c #7C7059",
"M~+	c #83785F",
"N~+	c #867961",
"O~+	c #8F8169",
"P~+	c #A19379",
"Q~+	c #0D0804",
"R~+	c #130D09",
"S~+	c #251D13",
"T~+	c #3C3023",
"U~+	c #524430",
"V~+	c #695B41",
"W~+	c #5F5548",
"X~+	c #8B7D6B",
"Y~+	c #928169",
"Z~+	c #8E7F5F",
"`~+	c #917F5F",
" {+	c #A89674",
".{+	c #C1AD89",
"+{+	c #C7B690",
"@{+	c #B5A483",
"#{+	c #7E6F58",
"${+	c #453A29",
"%{+	c #94856C",
"&{+	c #B8A481",
"*{+	c #AE9D7B",
"={+	c #786E55",
"-{+	c #201D12",
";{+	c #B2A690",
">{+	c #B2A286",
",{+	c #A59074",
"'{+	c #A08B6C",
"){+	c #947F61",
"!{+	c #857257",
"~{+	c #73644D",
"{{+	c #6C6555",
"]{+	c #292C2A",
"^{+	c #292D2A",
"/{+	c #2D2F2B",
"({+	c #342A21",
"_{+	c #32251C",
":{+	c #3E3629",
"<{+	c #48413B",
"[{+	c #11110F",
"}{+	c #56493E",
"|{+	c #84735D",
"1{+	c #443C30",
"2{+	c #181714",
"3{+	c #140F0F",
"4{+	c #373125",
"5{+	c #887D6B",
"6{+	c #8D816A",
"7{+	c #726751",
"8{+	c #564C3D",
"9{+	c #756955",
"0{+	c #7D705B",
"a{+	c #7C6F58",
"b{+	c #84765F",
"c{+	c #8C7D64",
"d{+	c #95866D",
"e{+	c #8B7F67",
"f{+	c #5F5845",
"g{+	c #262620",
"h{+	c #1C1E19",
"i{+	c #615644",
"j{+	c #7A6A56",
"k{+	c #7A6850",
"l{+	c #6C5D40",
"m{+	c #5C4F38",
"n{+	c #645A4C",
"o{+	c #3B3636",
"p{+	c #968873",
"q{+	c #938169",
"r{+	c #8B795D",
"s{+	c #8C795B",
"t{+	c #A08D6C",
"u{+	c #B5A07D",
"v{+	c #BAA581",
"w{+	c #AD9A76",
"x{+	c #8D7D60",
"y{+	c #74644E",
"z{+	c #746454",
"A{+	c #130C07",
"B{+	c #96856A",
"C{+	c #B4A07B",
"D{+	c #AD9B78",
"E{+	c #7B6F56",
"F{+	c #241F14",
"G{+	c #A89A86",
"H{+	c #917E5F",
"I{+	c #867151",
"J{+	c #7F694A",
"K{+	c #826D4F",
"L{+	c #7F6B53",
"M{+	c #282D2B",
"N{+	c #282E2B",
"O{+	c #292C29",
"P{+	c #2C2C27",
"Q{+	c #312A1F",
"R{+	c #3B3324",
"S{+	c #4E4633",
"T{+	c #5F5543",
"U{+	c #675D4B",
"V{+	c #685C4C",
"W{+	c #18120E",
"X{+	c #938575",
"Y{+	c #8C7D6A",
"Z{+	c #81715C",
"`{+	c #666053",
" ]+	c #49463D",
".]+	c #38362E",
"+]+	c #1C1712",
"@]+	c #877E70",
"#]+	c #837662",
"$]+	c #776B56",
"%]+	c #63584A",
"&]+	c #736756",
"*]+	c #6E614D",
"=]+	c #736650",
"-]+	c #7E7057",
";]+	c #897A60",
">]+	c #8C7E65",
",]+	c #918670",
"']+	c #9C9384",
")]+	c #656255",
"!]+	c #151510",
"~]+	c #080908",
"{]+	c #1E1F1D",
"]]+	c #100A06",
"^]+	c #8F826A",
"/]+	c #A49379",
"(]+	c #998669",
"_]+	c #736145",
":]+	c #4D412C",
"<]+	c #494236",
"[]+	c #0B0704",
"}]+	c #807770",
"|]+	c #AA9E92",
"1]+	c #AEA191",
"2]+	c #A89B86",
"3]+	c #A5947C",
"4]+	c #938165",
"5]+	c #917E60",
"6]+	c #9F8D6D",
"7]+	c #B6A37B",
"8]+	c #AE9A76",
"9]+	c #A89375",
"0]+	c #A8947A",
"a]+	c #655643",
"b]+	c #9D8A69",
"c]+	c #B5A078",
"d]+	c #AC9A74",
"e]+	c #81755A",
"f]+	c #2C271A",
"g]+	c #857866",
"h]+	c #7A6A52",
"i]+	c #725F42",
"j]+	c #786242",
"k]+	c #7C6548",
"l]+	c #877154",
"m]+	c #8C785E",
"n]+	c #93836C",
"o]+	c #3C3D3B",
"p]+	c #2A2D2C",
"q]+	c #262B2A",
"r]+	c #252A29",
"s]+	c #252826",
"t]+	c #292A26",
"u]+	c #2C2922",
"v]+	c #3E3228",
"w]+	c #423429",
"x]+	c #2F251E",
"y]+	c #352E23",
"z]+	c #382F22",
"A]+	c #443828",
"B]+	c #584C38",
"C]+	c #6C604A",
"D]+	c #746752",
"E]+	c #776856",
"F]+	c #574B3F",
"G]+	c #040100",
"H]+	c #231A14",
"I]+	c #766653",
"J]+	c #685948",
"K]+	c #7D756A",
"L]+	c #AEA395",
"M]+	c #776A57",
"N]+	c #605342",
"O]+	c #493D30",
"P]+	c #332821",
"Q]+	c #5D4F43",
"R]+	c #544738",
"S]+	c #60513E",
"T]+	c #6D5E47",
"U]+	c #77684E",
"V]+	c #827159",
"W]+	c #9B8C74",
"X]+	c #A79984",
"Y]+	c #A29784",
"Z]+	c #625D4E",
"`]+	c #0E0A06",
" ^+	c #212325",
".^+	c #0F0805",
"+^+	c #938569",
"@^+	c #A18F70",
"#^+	c #968165",
"$^+	c #6F5C45",
"%^+	c #423626",
"&^+	c #160F09",
"*^+	c #130D07",
"=^+	c #8C8175",
"-^+	c #B3A595",
";^+	c #B3A591",
">^+	c #AD9D86",
",^+	c #9C896F",
"'^+	c #958165",
")^+	c #998569",
"!^+	c #A79271",
"~^+	c #AA9770",
"{^+	c #A48E6C",
"]^+	c #A69073",
"^^+	c #AD997C",
"/^+	c #AA9A7E",
"(^+	c #090505",
"_^+	c #86735A",
":^+	c #A28E69",
"<^+	c #B09971",
"[^+	c #AA9872",
"}^+	c #85785D",
"|^+	c #302A1D",
"1^+	c #695A46",
"2^+	c #6E5B43",
"3^+	c #7F694D",
"4^+	c #877055",
"5^+	c #8B785F",
"6^+	c #8E7E66",
"7^+	c #837864",
"8^+	c #554E40",
"9^+	c #424042",
"0^+	c #2F3130",
"a^+	c #292A27",
"b^+	c #272A28",
"c^+	c #242827",
"d^+	c #262A29",
"e^+	c #282A27",
"f^+	c #44342A",
"g^+	c #3D2E26",
"h^+	c #322B1E",
"i^+	c #3A3020",
"j^+	c #63543F",
"k^+	c #756850",
"l^+	c #796A54",
"m^+	c #7F705B",
"n^+	c #726553",
"o^+	c #56493C",
"p^+	c #776854",
"q^+	c #6F624F",
"r^+	c #554C3F",
"s^+	c #151511",
"t^+	c #4A473D",
"u^+	c #5D5549",
"v^+	c #463F33",
"w^+	c #4C473B",
"x^+	c #120C07",
"y^+	c #0E0704",
"z^+	c #988D7A",
"A^+	c #554A3B",
"B^+	c #564838",
"C^+	c #6D5D46",
"D^+	c #705F48",
"E^+	c #897A61",
"F^+	c #968872",
"G^+	c #5C5442",
"H^+	c #221C11",
"I^+	c #25221D",
"J^+	c #1E1E1B",
"K^+	c #8E8164",
"L^+	c #9C8B6B",
"M^+	c #917F62",
"N^+	c #6D5E46",
"O^+	c #413828",
"P^+	c #A39889",
"Q^+	c #9E9383",
"R^+	c #3D362B",
"S^+	c #17120C",
"T^+	c #484033",
"U^+	c #595040",
"V^+	c #A89B88",
"W^+	c #A4947E",
"X^+	c #A08E78",
"Y^+	c #97856C",
"Z^+	c #948467",
"`^+	c #907D61",
" /+	c #968467",
"./+	c #9F8D6B",
"+/+	c #998764",
"@/+	c #8B7758",
"#/+	c #857358",
"$/+	c #87765F",
"%/+	c #8D7F69",
"&/+	c #736657",
"*/+	c #373227",
"=/+	c #93816A",
"-/+	c #988465",
";/+	c #A5916B",
">/+	c #B29D74",
",/+	c #AD9C76",
"'/+	c #8B7F64",
")/+	c #3A3527",
"!/+	c #695D4C",
"~/+	c #776952",
"{/+	c #847358",
"]/+	c #857258",
"^/+	c #89775C",
"//+	c #84755B",
"(/+	c #85785E",
"_/+	c #877C66",
":/+	c #7E7A6D",
"</+	c #737568",
"[/+	c #40423E",
"}/+	c #161817",
"|/+	c #191A18",
"1/+	c #2C2D28",
"2/+	c #282B29",
"3/+	c #252927",
"4/+	c #282C2A",
"5/+	c #332B21",
"6/+	c #48392E",
"7/+	c #42342A",
"8/+	c #120D0E",
"9/+	c #1F170E",
"0/+	c #2C2416",
"a/+	c #63523E",
"b/+	c #766650",
"c/+	c #7B6A54",
"d/+	c #7C6C57",
"e/+	c #6E6050",
"f/+	c #5D5045",
"g/+	c #756553",
"h/+	c #716352",
"i/+	c #121009",
"j/+	c #3E392D",
"k/+	c #2D251B",
"l/+	c #221911",
"m/+	c #231911",
"n/+	c #3B3024",
"o/+	c #706252",
"p/+	c #453930",
"q/+	c #271F17",
"r/+	c #69594A",
"s/+	c #60503B",
"t/+	c #766850",
"u/+	c #867761",
"v/+	c #837661",
"w/+	c #6F6450",
"x/+	c #5E5545",
"y/+	c #080201",
"z/+	c #897B5F",
"A/+	c #968567",
"B/+	c #8B795E",
"C/+	c #685A43",
"D/+	c #090301",
"E/+	c #33261D",
"F/+	c #988975",
"G/+	c #C4B29B",
"H/+	c #BBAA92",
"I/+	c #554735",
"J/+	c #322719",
"K/+	c #302618",
"L/+	c #342B1E",
"M/+	c #383333",
"N/+	c #766A5E",
"O/+	c #7E735F",
"P/+	c #928472",
"Q/+	c #8F7F6C",
"R/+	c #8F7D68",
"S/+	c #8B7962",
"T/+	c #89785F",
"U/+	c #857259",
"V/+	c #8F7B5F",
"W/+	c #887559",
"X/+	c #746349",
"Y/+	c #574A36",
"Z/+	c #554B3E",
"`/+	c #141017",
" (+	c #1A161C",
".(+	c #1B171C",
"+(+	c #0D0603",
"@(+	c #4F4338",
"#(+	c #9A876C",
"$(+	c #988364",
"%(+	c #A38D69",
"&(+	c #B4A077",
"*(+	c #AD9D79",
"=(+	c #897E66",
"-(+	c #3B362A",
";(+	c #70614C",
">(+	c #6C5D47",
",(+	c #685943",
"'(+	c #6F614A",
")(+	c #817560",
"!(+	c #92897B",
"~(+	c #7F7B6D",
"{(+	c #403F36",
"](+	c #4F4C43",
"^(+	c #514C43",
"/(+	c #262927",
"((+	c #0D0808",
"_(+	c #443A2E",
":(+	c #2D231A",
"<(+	c #3B3124",
"[(+	c #3F3324",
"}(+	c #584936",
"|(+	c #756754",
"1(+	c #675B4B",
"2(+	c #110F0A",
"3(+	c #080703",
"4(+	c #5E5344",
"5(+	c #675B4A",
"6(+	c #726451",
"7(+	c #726450",
"8(+	c #746552",
"9(+	c #706251",
"0(+	c #574E3F",
"a(+	c #232015",
"b(+	c #13120E",
"c(+	c #565245",
"d(+	c #3B362C",
"e(+	c #40382A",
"f(+	c #4B4133",
"g(+	c #5E5140",
"h(+	c #766854",
"i(+	c #7B6B59",
"j(+	c #554C3D",
"k(+	c #1D1614",
"l(+	c #2B2720",
"m(+	c #514433",
"n(+	c #8A7E68",
"o(+	c #7F735F",
"p(+	c #807560",
"q(+	c #6E6756",
"r(+	c #443A2A",
"s(+	c #86785D",
"t(+	c #8A795D",
"u(+	c #675B44",
"v(+	c #433B2D",
"w(+	c #31251C",
"x(+	c #938470",
"y(+	c #BAA78C",
"z(+	c #B5A386",
"A(+	c #A29074",
"B(+	c #8C7C63",
"C(+	c #8B7D65",
"D(+	c #837963",
"E(+	c #564F40",
"F(+	c #4D4538",
"G(+	c #473D2F",
"H(+	c #625645",
"I(+	c #776859",
"J(+	c #83745E",
"K(+	c #85765E",
"L(+	c #807056",
"M(+	c #7E6D52",
"N(+	c #837156",
"O(+	c #89795B",
"P(+	c #6C6047",
"Q(+	c #2F261A",
"R(+	c #150F0A",
"S(+	c #28262B",
"T(+	c #2D2A30",
"U(+	c #333235",
"V(+	c #343337",
"W(+	c #333236",
"X(+	c #241C15",
"Y(+	c #403527",
"Z(+	c #796B58",
"`(+	c #9B8A70",
" _+	c #8D785D",
"._+	c #7D684C",
"+_+	c #826E4F",
"@_+	c #927F5D",
"#_+	c #8C7D5F",
"$_+	c #6B624E",
"%_+	c #2E2A20",
"&_+	c #524636",
"*_+	c #524431",
"=_+	c #7A6F59",
"-_+	c #8F846F",
";_+	c #888170",
">_+	c #545043",
",_+	c #2E2E24",
"'_+	c #3F3D36",
")_+	c #262724",
"!_+	c #292223",
"~_+	c #272022",
"{_+	c #0F0B0F",
"]_+	c #4E433A",
"^_+	c #52463C",
"/_+	c #4E4234",
"(_+	c #463B33",
"__+	c #51463A",
":_+	c #493E30",
"<_+	c #3F3424",
"[_+	c #3B2E1D",
"}_+	c #504033",
"|_+	c #151009",
"1_+	c #0C0704",
"2_+	c #66594A",
"3_+	c #67584A",
"4_+	c #6D5F4E",
"5_+	c #6B5C4C",
"6_+	c #6D614F",
"7_+	c #6E6452",
"8_+	c #6A6353",
"9_+	c #52483C",
"0_+	c #756959",
"a_+	c #82725F",
"b_+	c #82715B",
"c_+	c #6F5C4E",
"d_+	c #4B4543",
"e_+	c #4E4947",
"f_+	c #978C7B",
"g_+	c #81745D",
"h_+	c #907F66",
"i_+	c #86755D",
"j_+	c #655945",
"k_+	c #2C2019",
"l_+	c #867663",
"m_+	c #AA967D",
"n_+	c #B09D7F",
"o_+	c #B5A283",
"p_+	c #BEAC8D",
"q_+	c #C2B193",
"r_+	c #C6B697",
"s_+	c #B3A68C",
"t_+	c #655D4D",
"u_+	c #302A2D",
"v_+	c #281E14",
"w_+	c #6A5C4D",
"x_+	c #7A6954",
"y_+	c #74644B",
"z_+	c #74624B",
"A_+	c #7A674F",
"B_+	c #857559",
"C_+	c #655846",
"D_+	c #2B292D",
"E_+	c #2F2D31",
"F_+	c #363439",
"G_+	c #3F3D42",
"H_+	c #3F3E43",
"I_+	c #414044",
"J_+	c #3F3F43",
"K_+	c #3F3E42",
"L_+	c #393638",
"M_+	c #8E7F6A",
"N_+	c #A38F78",
"O_+	c #A38D73",
"P_+	c #7D6750",
"Q_+	c #54422C",
"R_+	c #5E4D38",
"S_+	c #554836",
"T_+	c #584A3B",
"U_+	c #665947",
"V_+	c #887B66",
"W_+	c #8F816C",
"X_+	c #898274",
"Y_+	c #251B17",
"Z_+	c #251B16",
"`_+	c #2A2223",
" :+	c #261E20",
".:+	c #0F090C",
"+:+	c #534837",
"@:+	c #20140C",
"#:+	c #21140D",
"$:+	c #150E0A",
"%:+	c #090405",
"&:+	c #29231B",
"*:+	c #272118",
"=:+	c #5C5145",
"-:+	c #6B5F4F",
";:+	c #6C5F4E",
">:+	c #6E614E",
",:+	c #857967",
"':+	c #1D1812",
"):+	c #4B4843",
"!:+	c #2D2A21",
"~:+	c #332D22",
"{:+	c #8B7B67",
"]:+	c #85745F",
"^:+	c #625141",
"/:+	c #2E221A",
"(:+	c #534C47",
"_:+	c #7B7268",
"::+	c #9C9282",
"<:+	c #8E8573",
"[:+	c #7D7461",
"}:+	c #6F6655",
"|:+	c #3D3529",
"1:+	c #7D725C",
"2:+	c #8D7E66",
"3:+	c #83745D",
"4:+	c #625744",
"5:+	c #A3947A",
"6:+	c #A69679",
"7:+	c #B19F80",
"8:+	c #C2B190",
"9:+	c #C6B694",
"0:+	c #C8BA98",
"a:+	c #B3A88C",
"b:+	c #625B4A",
"c:+	c #251F24",
"d:+	c #0B0603",
"e:+	c #130B05",
"f:+	c #231910",
"g:+	c #635446",
"h:+	c #6F5E4C",
"i:+	c #756450",
"j:+	c #7C6C51",
"k:+	c #75654C",
"l:+	c #736449",
"m:+	c #7E7058",
"n:+	c #645B49",
"o:+	c #1D1A13",
"p:+	c #3B383E",
"q:+	c #3E3C41",
"r:+	c #404044",
"s:+	c #3E3E42",
"t:+	c #3D3D40",
"u:+	c #0A0505",
"v:+	c #B19F83",
"w:+	c #B29F82",
"x:+	c #AA9779",
"y:+	c #564432",
"z:+	c #433526",
"A:+	c #221D17",
"B:+	c #5E5141",
"C:+	c #6A5E4A",
"D:+	c #857960",
"E:+	c #8A7D63",
"F:+	c #998B73",
"G:+	c #A59984",
"H:+	c #231914",
"I:+	c #261B15",
"J:+	c #271B14",
"K:+	c #281C16",
"L:+	c #271C16",
"M:+	c #1F1819",
"N:+	c #292122",
"O:+	c #0E080B",
"P:+	c #150F13",
"Q:+	c #181114",
"R:+	c #181113",
"S:+	c #171012",
"T:+	c #4D4031",
"U:+	c #1C1312",
"V:+	c #110906",
"W:+	c #0B0302",
"X:+	c #0D0405",
"Y:+	c #0E0904",
"Z:+	c #5C5547",
"`:+	c #5C5545",
" <+	c #635B4B",
".<+	c #695C49",
"+<+	c #746753",
"@<+	c #7B6C59",
"#<+	c #2B251B",
"$<+	c #90856E",
"%<+	c #614F3E",
"&<+	c #493929",
"*<+	c #281B10",
"=<+	c #4D4641",
"-<+	c #31271C",
";<+	c #6C6252",
"><+	c #696151",
",<+	c #7A6F5B",
"'<+	c #887963",
")<+	c #615645",
"!<+	c #83755B",
"~<+	c #948367",
"{<+	c #B1A180",
"]<+	c #BAAB89",
"^<+	c #B7A989",
"/<+	c #A59A7F",
"(<+	c #575040",
"_<+	c #332F34",
":<+	c #28252A",
"<<+	c #1D181C",
"[<+	c #29241A",
"}<+	c #292217",
"|<+	c #332A1D",
"1<+	c #615346",
"2<+	c #695D4A",
"3<+	c #6B5D49",
"4<+	c #72624B",
"5<+	c #77674F",
"6<+	c #6D6048",
"7<+	c #5F533F",
"8<+	c #5B5140",
"9<+	c #3C3C41",
"0<+	c #37383D",
"a<+	c #35373A",
"b<+	c #140E0C",
"c<+	c #0D0604",
"d<+	c #1F150C",
"e<+	c #5F5041",
"f<+	c #96856D",
"g<+	c #A39175",
"h<+	c #A18F72",
"i<+	c #9A896B",
"j<+	c #7A6951",
"k<+	c #5A4C3C",
"l<+	c #594E3E",
"m<+	c #6C5F4B",
"n<+	c #7B6B53",
"o<+	c #857459",
"p<+	c #87765D",
"q<+	c #91826B",
"r<+	c #473E2F",
"s<+	c #1C1711",
"t<+	c #2A1C15",
"u<+	c #281A12",
"v<+	c #261B14",
"w<+	c #30241B",
"x<+	c #2A2324",
"y<+	c #261F21",
"z<+	c #100A0E",
"A<+	c #140F13",
"B<+	c #161014",
"C<+	c #181013",
"D<+	c #4F4230",
"E<+	c #493D2B",
"F<+	c #4D4132",
"G<+	c #080303",
"H<+	c #857D6B",
"I<+	c #807764",
"J<+	c #827967",
"K<+	c #5D5042",
"L<+	c #7A6D5B",
"M<+	c #726755",
"N<+	c #665B52",
"O<+	c #3C3429",
"P<+	c #574735",
"Q<+	c #524232",
"R<+	c #5F5241",
"S<+	c #685C4E",
"T<+	c #645845",
"U<+	c #665B49",
"V<+	c #5D5344",
"W<+	c #4F4537",
"X<+	c #4B4235",
"Y<+	c #0E1012",
"Z<+	c #796E5A",
"`<+	c #8A7C65",
" [+	c #403423",
".[+	c #685A44",
"+[+	c #96866B",
"@[+	c #AC9E7E",
"#[+	c #AEA081",
"$[+	c #9A9077",
"%[+	c #4F4939",
"&[+	c #0C0806",
"*[+	c #494441",
"=[+	c #584F48",
"-[+	c #625948",
";[+	c #665A46",
">[+	c #6B5F48",
",[+	c #675945",
"'[+	c #665B47",
")[+	c #554938",
"![+	c #61533E",
"~[+	c #6E6048",
"{[+	c #7F7258",
"][+	c #7D7057",
"^[+	c #6A5F4A",
"/[+	c #413728",
"([+	c #282116",
"_[+	c #2E2D30",
":[+	c #353436",
"<[+	c #38373C",
"[[+	c #383A3D",
"}[+	c #323436",
"|[+	c #786857",
"1[+	c #8B7A62",
"2[+	c #8B7A60",
"3[+	c #7E6D55",
"4[+	c #5B4C3B",
"5[+	c #060808",
"6[+	c #383025",
"7[+	c #6B5C49",
"8[+	c #705E47",
"9[+	c #74614B",
"0[+	c #82715A",
"a[+	c #80715C",
"b[+	c #746656",
"c[+	c #726559",
"d[+	c #776B61",
"e[+	c #2C261E",
"f[+	c #36261C",
"g[+	c #332216",
"h[+	c #301F13",
"i[+	c #2A1A0F",
"j[+	c #26190F",
"k[+	c #271B12",
"l[+	c #2E2319",
"m[+	c #282123",
"n[+	c #120C0F",
"o[+	c #0D080C",
"p[+	c #160F13",
"q[+	c #4F412F",
"r[+	c #534533",
"s[+	c #65584D",
"t[+	c #191213",
"u[+	c #100A0A",
"v[+	c #534C45",
"w[+	c #877E6B",
"x[+	c #18110B",
"y[+	c #0C0706",
"z[+	c #7B6E5B",
"A[+	c #7D705D",
"B[+	c #837862",
"C[+	c #8E816E",
"D[+	c #887B6D",
"E[+	c #5A4D3A",
"F[+	c #766756",
"G[+	c #AB9E8A",
"H[+	c #B9AB97",
"I[+	c #9A8E7C",
"J[+	c #494034",
"K[+	c #150F08",
"L[+	c #857663",
"M[+	c #796956",
"N[+	c #4A4136",
"O[+	c #241E19",
"P[+	c #1A1C1D",
"Q[+	c #0F1113",
"R[+	c #0B0502",
"S[+	c #756A58",
"T[+	c #170E08",
"U[+	c #4F4434",
"V[+	c #8A7C66",
"W[+	c #A49779",
"X[+	c #A79A7B",
"Y[+	c #968C73",
"Z[+	c #494235",
"`[+	c #080403",
" }+	c #373235",
".}+	c #605A57",
"+}+	c #79705D",
"@}+	c #847760",
"#}+	c #86765D",
"$}+	c #837359",
"%}+	c #6D5C45",
"&}+	c #574834",
"*}+	c #392C1E",
"=}+	c #382A1C",
"-}+	c #66563F",
";}+	c #7D6E55",
">}+	c #7C6D57",
",}+	c #32291D",
"'}+	c #847664",
")}+	c #877762",
"!}+	c #84745C",
"~}+	c #817157",
"{}+	c #75634E",
"]}+	c #675745",
"^}+	c #101211",
"/}+	c #645646",
"(}+	c #645541",
"_}+	c #665540",
":}+	c #9D8E7B",
"<}+	c #9C8D7E",
"[}+	c #988A7B",
"}}+	c #6D6356",
"|}+	c #352922",
"1}+	c #3B2A20",
"2}+	c #3A291B",
"3}+	c #372414",
"4}+	c #321E10",
"5}+	c #2B190D",
"6}+	c #25160A",
"7}+	c #25180C",
"8}+	c #2E2015",
"9}+	c #3B2C1D",
"0}+	c #292324",
"a}+	c #120C11",
"b}+	c #150E13",
"c}+	c #191115",
"d}+	c #191113",
"e}+	c #4E4335",
"f}+	c #514533",
"g}+	c #524531",
"h}+	c #564A39",
"i}+	c #150F0F",
"j}+	c #555046",
"k}+	c #867D68",
"l}+	c #19110A",
"m}+	c #6D6555",
"n}+	c #7D705E",
"o}+	c #7A6E59",
"p}+	c #8B7E6A",
"q}+	c #2B2119",
"r}+	c #736656",
"s}+	c #A0947D",
"t}+	c #AB9F87",
"u}+	c #B5A98F",
"v}+	c #A0927D",
"w}+	c #1C1812",
"x}+	c #30281C",
"y}+	c #5D5241",
"z}+	c #80725D",
"A}+	c #847560",
"B}+	c #2A2B28",
"C}+	c #202423",
"D}+	c #6E6553",
"E}+	c #7F7360",
"F}+	c #746754",
"G}+	c #4F4D44",
"H}+	c #494233",
"I}+	c #867C66",
"J}+	c #A09679",
"K}+	c #A59A7B",
"L}+	c #948B72",
"M}+	c #474134",
"N}+	c #6D6859",
"O}+	c #6F6754",
"P}+	c #7F745C",
"Q}+	c #837259",
"R}+	c #806D52",
"S}+	c #67553D",
"T}+	c #3B291B",
"U}+	c #3B2B1C",
"V}+	c #574631",
"W}+	c #6A5940",
"X}+	c #7A6C52",
"Y}+	c #756752",
"Z}+	c #2E261C",
"`}+	c #817460",
" |+	c #7D7059",
".|+	c #796B53",
"+|+	c #71634E",
"@|+	c #403531",
"#|+	c #625747",
"$|+	c #615540",
"%|+	c #63563F",
"&|+	c #6B5D47",
"*|+	c #857860",
"=|+	c #928773",
"-|+	c #8E8371",
";|+	c #6F6557",
">|+	c #3C2A1C",
",|+	c #3A2716",
"'|+	c #372311",
")|+	c #362110",
"!|+	c #2E1B0C",
"~|+	c #29180A",
"{|+	c #281A0C",
"]|+	c #312316",
"^|+	c #0C070B",
"/|+	c #0D070B",
"(|+	c #362F2E",
"_|+	c #3E3633",
":|+	c #241E20",
"<|+	c #4D412D",
"[|+	c #4C3E2F",
"}|+	c #2E271F",
"||+	c #0C0606",
"1|+	c #030002",
"2|+	c #857A67",
"3|+	c #2D261B",
"4|+	c #5E5342",
"5|+	c #726654",
"6|+	c #7C6D5D",
"7|+	c #625A4C",
"8|+	c #7C715C",
"9|+	c #95876F",
"0|+	c #A19377",
"a|+	c #9C8D72",
"b|+	c #867862",
"c|+	c #695D52",
"d|+	c #716554",
"e|+	c #7C6E59",
"f|+	c #756751",
"g|+	c #52493C",
"h|+	c #1F2121",
"i|+	c #625949",
"j|+	c #706454",
"k|+	c #574B3B",
"l|+	c #4D4941",
"m|+	c #09060B",
"n|+	c #9B9076",
"o|+	c #9F9478",
"p|+	c #8F866F",
"q|+	c #453F32",
"r|+	c #0A060D",
"s|+	c #5D5446",
"t|+	c #6E634F",
"u|+	c #78654F",
"v|+	c #796349",
"w|+	c #77654D",
"x|+	c #786653",
"y|+	c #796B56",
"z|+	c #766450",
"A|+	c #846F56",
"B|+	c #7B6A50",
"C|+	c #665A44",
"D|+	c #434140",
"E|+	c #1F1B15",
"F|+	c #776D59",
"G|+	c #6B5F4B",
"H|+	c #665945",
"I|+	c #3A2F2C",
"J|+	c #433632",
"K|+	c #463932",
"L|+	c #5B503C",
"M|+	c #786C59",
"N|+	c #7F7460",
"O|+	c #7C715E",
"P|+	c #4C413A",
"Q|+	c #3B2818",
"R|+	c #3C2613",
"S|+	c #38220E",
"T|+	c #37210E",
"U|+	c #311D0D",
"V|+	c #2C1C0C",
"W|+	c #2B1C0F",
"X|+	c #302216",
"Y|+	c #382B1D",
"Z|+	c #1B140E",
"`|+	c #352C20",
" 1+	c #4F4430",
".1+	c #615541",
"+1+	c #AB9E90",
"@1+	c #8D8477",
"#1+	c #050103",
"$1+	c #887F70",
"%1+	c #887E68",
"&1+	c #857963",
"*1+	c #897E69",
"=1+	c #5D574E",
"-1+	c #786E58",
";1+	c #786D59",
">1+	c #988F7D",
",1+	c #ABA193",
"'1+	c #A79D90",
")1+	c #46433E",
"!1+	c #1B120B",
"~1+	c #7E6F57",
"{1+	c #968569",
"]1+	c #9A886A",
"^1+	c #9D8C6D",
"/1+	c #A08F72",
"(1+	c #A7987D",
"_1+	c #8A7F69",
":1+	c #494336",
"<1+	c #181817",
"[1+	c #847A6B",
"}1+	c #A79A83",
"|1+	c #A19179",
"11+	c #7E6C54",
"21+	c #6E5F48",
"31+	c #342D22",
"41+	c #1E201F",
"51+	c #2E281E",
"61+	c #595144",
"71+	c #675E4E",
"81+	c #645A49",
"91+	c #524839",
"01+	c #312E26",
"a1+	c #2E2B24",
"b1+	c #48453E",
"c1+	c #44433C",
"d1+	c #7F7764",
"e1+	c #9A9276",
"f1+	c #9D9477",
"g1+	c #8B846D",
"h1+	c #433F32",
"i1+	c #675D4C",
"j1+	c #73654C",
"k1+	c #736345",
"l1+	c #7C684C",
"m1+	c #C4B49C",
"n1+	c #C1B49A",
"o1+	c #B1A084",
"p1+	c #B09C7C",
"q1+	c #928366",
"r1+	c #554A38",
"s1+	c #1C150D",
"t1+	c #4A4846",
"u1+	c #545250",
"v1+	c #4E4D4A",
"w1+	c #565046",
"x1+	c #6C6455",
"y1+	c #887E6D",
"z1+	c #857C6A",
"A1+	c #736957",
"B1+	c #5D513F",
"C1+	c #534A3B",
"D1+	c #201712",
"E1+	c #1C1C1A",
"F1+	c #4F4239",
"G1+	c #131413",
"H1+	c #0D0E0C",
"I1+	c #403B31",
"J1+	c #443D30",
"K1+	c #4C4433",
"L1+	c #5C5342",
"M1+	c #736B58",
"N1+	c #6D6250",
"O1+	c #3C2F24",
"P1+	c #3D2D1E",
"Q1+	c #3B2816",
"R1+	c #3C2712",
"S1+	c #3B2610",
"T1+	c #382410",
"U1+	c #332211",
"V1+	c #312213",
"W1+	c #2E2115",
"X1+	c #2F2419",
"Y1+	c #32281C",
"Z1+	c #0F0A0D",
"`1+	c #150E0F",
" 2+	c #47382B",
".2+	c #4F412D",
"+2+	c #574733",
"@2+	c #A5907A",
"#2+	c #BAA892",
"$2+	c #0C0502",
"%2+	c #060204",
"&2+	c #110B0C",
"*2+	c #0E0906",
"=2+	c #857761",
"-2+	c #5A5043",
";2+	c #6F6554",
">2+	c #7A6B5A",
",2+	c #A99D8B",
"'2+	c #BAAE9D",
")2+	c #B2A594",
"!2+	c #726555",
"~2+	c #443F3E",
"{2+	c #4D4946",
"]2+	c #2D2118",
"^2+	c #6E5F4B",
"/2+	c #958469",
"(2+	c #988468",
"_2+	c #9B8768",
":2+	c #A18D6D",
"<2+	c #A59275",
"[2+	c #887B64",
"}2+	c #AA9C84",
"|2+	c #A6947B",
"12+	c #796750",
"22+	c #675442",
"32+	c #695F57",
"42+	c #3E382D",
"52+	c #7C7463",
"62+	c #968E75",
"72+	c #978E75",
"82+	c #877F6B",
"92+	c #63523A",
"02+	c #6D5940",
"a2+	c #AB9780",
"b2+	c #DCCBB3",
"c2+	c #DCCFB4",
"d2+	c #AF997D",
"e2+	c #8A806E",
"f2+	c #8A816F",
"g2+	c #857C6B",
"h2+	c #0D0502",
"i2+	c #50423A",
"j2+	c #312A20",
"k2+	c #524B3D",
"l2+	c #706556",
"m2+	c #372F25",
"n2+	c #3D3023",
"o2+	c #3D2D1C",
"p2+	c #3C2813",
"q2+	c #3B2612",
"r2+	c #382512",
"s2+	c #332314",
"t2+	c #302318",
"u2+	c #151014",
"v2+	c #625541",
"w2+	c #6E5E47",
"x2+	c #836F55",
"y2+	c #9F8A6E",
"z2+	c #60503F",
"A2+	c #2A1D15",
"B2+	c #180F0B",
"C2+	c #120A08",
"D2+	c #504E48",
"E2+	c #51524B",
"F2+	c #897D66",
"G2+	c #877962",
"H2+	c #7C6E5C",
"I2+	c #5A4E3E",
"J2+	c #584E3F",
"K2+	c #B7AC97",
"L2+	c #A59985",
"M2+	c #8F826C",
"N2+	c #504A3E",
"O2+	c #20180E",
"P2+	c #635745",
"Q2+	c #99886A",
"R2+	c #9B8867",
"S2+	c #A18E6B",
"T2+	c #A49171",
"U2+	c #887A60",
"V2+	c #9A8C72",
"W2+	c #87775E",
"X2+	c #706048",
"Y2+	c #635441",
"Z2+	c #544A3C",
"`2+	c #82776B",
" 3+	c #191610",
".3+	c #1F1D18",
"+3+	c #7A725F",
"@3+	c #8D856E",
"#3+	c #7C7765",
"$3+	c #655848",
"%3+	c #5E4F3A",
"&3+	c #5C4E35",
"*3+	c #8E7D66",
"=3+	c #C5B6A0",
"-3+	c #D2C5AC",
";3+	c #B4A58A",
">3+	c #9B886E",
",3+	c #625745",
"'3+	c #251E16",
")3+	c #18150F",
"!3+	c #4A4947",
"~3+	c #4E4C49",
"{3+	c #2D2C27",
"]3+	c #1E1A12",
"^3+	c #625C4F",
"/3+	c #857E6D",
"(3+	c #847D6C",
"_3+	c #797160",
":3+	c #6D6453",
"<3+	c #655C4D",
"[3+	c #676051",
"}3+	c #453932",
"|3+	c #4A3C34",
"13+	c #100E08",
"23+	c #201C13",
"33+	c #4E4B3D",
"43+	c #767161",
"53+	c #746C5C",
"63+	c #6B6251",
"73+	c #706656",
"83+	c #382D1F",
"93+	c #402F20",
"03+	c #402F1E",
"a3+	c #3D2B18",
"b3+	c #3C2915",
"c3+	c #392714",
"d3+	c #3A2918",
"e3+	c #33251A",
"f3+	c #150E10",
"g3+	c #140E11",
"h3+	c #594C43",
"i3+	c #51443A",
"j3+	c #1A120B",
"k3+	c #5A4D3F",
"l3+	c #786549",
"m3+	c #796346",
"n3+	c #887153",
"o3+	c #927B5F",
"p3+	c #88725E",
"q3+	c #604E41",
"r3+	c #1D130E",
"s3+	c #505049",
"t3+	c #877861",
"u3+	c #8B7C66",
"v3+	c #7C6F5B",
"w3+	c #594D3C",
"x3+	c #5D5545",
"y3+	c #988E7E",
"z3+	c #A49A86",
"A3+	c #81735C",
"B3+	c #796950",
"C3+	c #8E7C5B",
"D3+	c #A28F6A",
"E3+	c #A4906F",
"F3+	c #85755D",
"G3+	c #42392C",
"H3+	c #080405",
"I3+	c #544B3D",
"J3+	c #786B59",
"K3+	c #776852",
"L3+	c #695B43",
"M3+	c #5B4C37",
"N3+	c #574B39",
"O3+	c #1D1912",
"P3+	c #383938",
"Q3+	c #483F31",
"R3+	c #6E6653",
"S3+	c #706856",
"T3+	c #655F50",
"U3+	c #1A1B19",
"V3+	c #685B48",
"W3+	c #8D7F6E",
"X3+	c #9B8F7D",
"Y3+	c #71644E",
"Z3+	c #746654",
"`3+	c #484644",
" 4+	c #1B1A13",
".4+	c #594F42",
"+4+	c #7A7266",
"@4+	c #403631",
"#4+	c #433831",
"$4+	c #463930",
"%4+	c #41342A",
"&4+	c #392F26",
"*4+	c #12120D",
"=4+	c #0F0E08",
"-4+	c #1B1910",
";4+	c #4A483C",
">4+	c #716D5E",
",4+	c #605949",
"'4+	c #625A4A",
")4+	c #372D1F",
"!4+	c #382B1C",
"~4+	c #3B2C1C",
"{4+	c #3F2E1D",
"]4+	c #413120",
"^4+	c #412F1F",
"/4+	c #3D2C19",
"(4+	c #3B2916",
"_4+	c #392816",
":4+	c #38291A",
"<4+	c #15110F",
"[4+	c #1B1D1E",
"}4+	c #150F12",
"|4+	c #51473D",
"14+	c #5F5245",
"24+	c #4A3F32",
"34+	c #574639",
"44+	c #7D684D",
"54+	c #90785B",
"64+	c #998266",
"74+	c #99836A",
"84+	c #766352",
"94+	c #281E17",
"04+	c #7F7767",
"a4+	c #887D67",
"b4+	c #5E5548",
"c4+	c #8F8570",
"d4+	c #847861",
"e4+	c #998A73",
"f4+	c #A39482",
"g4+	c #110C07",
"h4+	c #201A10",
"i4+	c #372B1A",
"j4+	c #725F46",
"k4+	c #A28F6C",
"l4+	c #A69471",
"m4+	c #84765D",
"n4+	c #554734",
"o4+	c #52442F",
"p4+	c #52504B",
"q4+	c #5B523E",
"r4+	c #4A4232",
"s4+	c #27221B",
"t4+	c #8E7F6F",
"u4+	c #938874",
"v4+	c #494844",
"w4+	c #494742",
"x4+	c #484641",
"y4+	c #25241E",
"z4+	c #494134",
"A4+	c #544838",
"B4+	c #514633",
"C4+	c #635D51",
"D4+	c #2D271F",
"E4+	c #4B3F36",
"F4+	c #38372D",
"G4+	c #343124",
"H4+	c #4E4B3E",
"I4+	c #5B5447",
"J4+	c #4E4639",
"K4+	c #332C21",
"L4+	c #362D1F",
"M4+	c #392E1F",
"N4+	c #3D3121",
"O4+	c #3D2F1E",
"P4+	c #3C2C1B",
"Q4+	c #402F1F",
"R4+	c #423221",
"S4+	c #423020",
"T4+	c #3D2C1A",
"U4+	c #3A2917",
"V4+	c #3B2B19",
"W4+	c #231D17",
"X4+	c #51453B",
"Y4+	c #605043",
"Z4+	c #4A3C31",
"`4+	c #110B06",
" 5+	c #7D6C5A",
".5+	c #9A866B",
"+5+	c #A18B6F",
"@5+	c #998269",
"#5+	c #927D64",
"$5+	c #72604E",
"%5+	c #433731",
"&5+	c #867A66",
"*5+	c #5B4F3F",
"=5+	c #0C0707",
"-5+	c #766A5C",
";5+	c #7E6E59",
">5+	c #7F6E57",
",5+	c #94836A",
"'5+	c #998B75",
")5+	c #2A221C",
"!5+	c #110A03",
"~5+	c #5D4D39",
"{5+	c #9E8B6C",
"]5+	c #A18E6F",
"^5+	c #7D6F58",
"/5+	c #514131",
"(5+	c #595652",
"_5+	c #636058",
":5+	c #635D56",
"<5+	c #8E8271",
"[5+	c #948778",
"}5+	c #7C705C",
"|5+	c #342E22",
"15+	c #372D29",
"25+	c #382D2A",
"35+	c #827861",
"45+	c #92836F",
"55+	c #A08F79",
"65+	c #80735E",
"75+	c #4E4332",
"85+	c #4B4A44",
"95+	c #4A4743",
"05+	c #403D36",
"a5+	c #564C3B",
"b5+	c #544834",
"c5+	c #4A3D2B",
"d5+	c #524737",
"e5+	c #726A61",
"f5+	c #524741",
"g5+	c #564940",
"h5+	c #746E5F",
"i5+	c #5F5948",
"j5+	c #5C5445",
"k5+	c #2E251A",
"l5+	c #362C1E",
"m5+	c #3F3021",
"n5+	c #3E2E1F",
"o5+	c #3F2F20",
"p5+	c #402F21",
"q5+	c #3F2F1F",
"r5+	c #3D2C1B",
"s5+	c #3C2B1A",
"t5+	c #3A291A",
"u5+	c #161013",
"v5+	c #635444",
"w5+	c #483B32",
"x5+	c #251E17",
"y5+	c #9E8F75",
"z5+	c #A59276",
"A5+	c #917E66",
"B5+	c #72644F",
"C5+	c #110D10",
"D5+	c #877A64",
"E5+	c #514739",
"F5+	c #837762",
"G5+	c #81725D",
"H5+	c #7B6A53",
"I5+	c #837158",
"J5+	c #85765F",
"K5+	c #2B271F",
"L5+	c #100A03",
"M5+	c #564833",
"N5+	c #968465",
"O5+	c #9B896A",
"P5+	c #776B53",
"Q5+	c #393326",
"R5+	c #5A4C3B",
"S5+	c #685941",
"T5+	c #5A4B35",
"U5+	c #35291A",
"V5+	c #100A04",
"W5+	c #464445",
"X5+	c #5D5B54",
"Y5+	c #9E9481",
"Z5+	c #AA9E8D",
"`5+	c #5F5544",
" 6+	c #807862",
".6+	c #655B49",
"+6+	c #4A4644",
"@6+	c #4B4A45",
"#6+	c #11100C",
"$6+	c #544D3F",
"%6+	c #5B4F39",
"&6+	c #5B4F3E",
"*6+	c #615B50",
"=6+	c #383228",
"-6+	c #1F1A13",
";6+	c #504641",
">6+	c #353329",
",6+	c #787466",
"'6+	c #87816D",
")6+	c #726D58",
"!6+	c #645D4C",
"~6+	c #2B2218",
"{6+	c #2E2419",
"]6+	c #362B1E",
"^6+	c #3F3124",
"/6+	c #3D2C1C",
"(6+	c #3A2A1B",
"_6+	c #1A130E",
":6+	c #655343",
"<6+	c #5D4B3A",
"[6+	c #0D0707",
"}6+	c #95836F",
"|6+	c #917F6A",
"16+	c #8B7A66",
"26+	c #483F39",
"36+	c #877D68",
"46+	c #867A64",
"56+	c #887D65",
"66+	c #806F5A",
"76+	c #7A6751",
"86+	c #7F6D54",
"96+	c #81715B",
"06+	c #685D54",
"a6+	c #58504C",
"b6+	c #564832",
"c6+	c #7F6E51",
"d6+	c #88785A",
"e6+	c #6B6149",
"f6+	c #352F22",
"g6+	c #352D22",
"h6+	c #524433",
"i6+	c #6C5B44",
"j6+	c #68583F",
"k6+	c #251C11",
"l6+	c #1D1913",
"m6+	c #554E4A",
"n6+	c #1C130E",
"o6+	c #968C7C",
"p6+	c #998F7D",
"q6+	c #574E3E",
"r6+	c #1C1414",
"s6+	c #706555",
"t6+	c #6D604E",
"u6+	c #756851",
"v6+	c #7C6A54",
"w6+	c #8F7C64",
"x6+	c #4F4635",
"y6+	c #5C4E3A",
"z6+	c #5F503B",
"A6+	c #5C4C39",
"B6+	c #625542",
"C6+	c #070201",
"D6+	c #51483F",
"E6+	c #0E0903",
"F6+	c #352F24",
"G6+	c #706B5B",
"H6+	c #807864",
"I6+	c #706755",
"J6+	c #585244",
"K6+	c #291F16",
"L6+	c #2C2117",
"M6+	c #33271D",
"N6+	c #372B22",
"O6+	c #3B2B1D",
"P6+	c #36291F",
"Q6+	c #1E1512",
"R6+	c #6A5945",
"S6+	c #66533F",
"T6+	c #534431",
"U6+	c #3A2F24",
"V6+	c #766A57",
"W6+	c #776C58",
"X6+	c #685F4D",
"Y6+	c #6E6351",
"Z6+	c #7D6F57",
"`6+	c #83725A",
" 7+	c #70655B",
".7+	c #282218",
"+7+	c #6E6552",
"@7+	c #65593F",
"#7+	c #685A3D",
"$7+	c #706147",
"%7+	c #615642",
"&7+	c #353023",
"*7+	c #342A1D",
"=7+	c #695943",
"-7+	c #7F6E53",
";7+	c #706049",
">7+	c #5C503F",
",7+	c #42413E",
"'7+	c #5A544E",
")7+	c #48453C",
"!7+	c #424038",
"~7+	c #776E5E",
"{7+	c #635D57",
"]7+	c #756C62",
"^7+	c #574F3E",
"/7+	c #72674F",
"(7+	c #7C6E55",
"_7+	c #938368",
":7+	c #93836A",
"<7+	c #776A55",
"[7+	c #524736",
"}7+	c #4F4136",
"|7+	c #272015",
"17+	c #504631",
"27+	c #65593E",
"37+	c #6D5E44",
"47+	c #6A5B44",
"57+	c #6C6048",
"67+	c #6A5D4B",
"77+	c #6D6251",
"87+	c #665949",
"97+	c #514232",
"07+	c #30271D",
"a7+	c #2F2A1E",
"b7+	c #484233",
"c7+	c #716A58",
"d7+	c #7E755F",
"e7+	c #776E5A",
"f7+	c #605B4A",
"g7+	c #2E2219",
"h7+	c #3C2E1F",
"i7+	c #3E2F1E",
"j7+	c #3B2C1B",
"k7+	c #3C2D1D",
"l7+	c #382A1E",
"m7+	c #352920",
"n7+	c #191214",
"o7+	c #5A4D3C",
"p7+	c #6D5945",
"q7+	c #68543F",
"r7+	c #5A4936",
"s7+	c #483A2C",
"t7+	c #31261E",
"u7+	c #7E7062",
"v7+	c #6C5E52",
"w7+	c #0E0905",
"x7+	c #4C4233",
"y7+	c #65594A",
"z7+	c #73644E",
"A7+	c #A49681",
"B7+	c #9F9282",
"C7+	c #272017",
"D7+	c #2C261B",
"E7+	c #2E271D",
"F7+	c #302920",
"G7+	c #2C261D",
"H7+	c #6E685B",
"I7+	c #8E836E",
"J7+	c #72654C",
"K7+	c #5F5137",
"L7+	c #675A41",
"M7+	c #5C523F",
"N7+	c #353024",
"O7+	c #14100C",
"P7+	c #1C140B",
"Q7+	c #695A44",
"R7+	c #978468",
"S7+	c #958368",
"T7+	c #887965",
"U7+	c #928475",
"V7+	c #948779",
"W7+	c #897F6F",
"X7+	c #5F594D",
"Y7+	c #82796E",
"Z7+	c #453B32",
"`7+	c #3F3836",
" 8+	c #776A56",
".8+	c #776752",
"+8+	c #8C7B63",
"@8+	c #7F6F5D",
"#8+	c #817461",
"$8+	c #827766",
"%8+	c #231C11",
"&8+	c #4D422D",
"*8+	c #685940",
"=8+	c #6F5E45",
"-8+	c #6E5D45",
";8+	c #706149",
">8+	c #6E5F4A",
",8+	c #71624E",
"'8+	c #776651",
")8+	c #7F6D56",
"!8+	c #816D57",
"~8+	c #857058",
"{8+	c #846C56",
"]8+	c #806A55",
"^8+	c #7B6653",
"/8+	c #7B6754",
"(8+	c #423529",
"_8+	c #292017",
":8+	c #28211A",
"<8+	c #5E5748",
"[8+	c #7C735E",
"}8+	c #827863",
"|8+	c #7D7463",
"18+	c #2C211D",
"28+	c #2C1F19",
"38+	c #1A110E",
"48+	c #160F0E",
"58+	c #3A2D1F",
"68+	c #3A2B1B",
"78+	c #382919",
"88+	c #37291B",
"98+	c #41332A",
"08+	c #3C2F26",
"a8+	c #2A2118",
"b8+	c #5F5242",
"c8+	c #71604A",
"d8+	c #6D5B45",
"e8+	c #120D0B",
"f8+	c #6E6358",
"g8+	c #766C5D",
"h8+	c #1A120D",
"i8+	c #1A130D",
"j8+	c #0B0602",
"k8+	c #21190D",
"l8+	c #5F5646",
"m8+	c #635D4B",
"n8+	c #302721",
"o8+	c #534737",
"p8+	c #71634D",
"q8+	c #988A72",
"r8+	c #9C907C",
"s8+	c #978D7C",
"t8+	c #70675D",
"u8+	c #2C2318",
"v8+	c #30291E",
"w8+	c #292219",
"x8+	c #1B1710",
"y8+	c #100D07",
"z8+	c #070401",
"A8+	c #292319",
"B8+	c #726B5B",
"C8+	c #756950",
"D8+	c #5C5138",
"E8+	c #5D533D",
"F8+	c #524A39",
"G8+	c #161009",
"H8+	c #A28F71",
"I8+	c #A39172",
"J8+	c #95846B",
"K8+	c #897D69",
"L8+	c #57554F",
"M8+	c #585651",
"N8+	c #19110B",
"O8+	c #9E9382",
"P8+	c #ACA38E",
"Q8+	c #877E6C",
"R8+	c #37342B",
"S8+	c #6D685E",
"T8+	c #2B261F",
"U8+	c #887863",
"V8+	c #3F3D3C",
"W8+	c #090402",
"X8+	c #241E11",
"Y8+	c #4C422C",
"Z8+	c #67583F",
"`8+	c #6C5D46",
" 9+	c #6F624A",
".9+	c #6F614D",
"+9+	c #736450",
"@9+	c #786651",
"#9+	c #7C6852",
"$9+	c #816C55",
"%9+	c #806853",
"&9+	c #7F6953",
"*9+	c #7A654E",
"=9+	c #63523F",
"-9+	c #3E2F1F",
";9+	c #201409",
">9+	c #1E160C",
",9+	c #201912",
"'9+	c #6C6659",
")9+	c #78705E",
"!9+	c #776E58",
"~9+	c #7A715A",
"{9+	c #2E221B",
"]9+	c #291E18",
"^9+	c #120C0D",
"/9+	c #3B2E20",
"(9+	c #3D2E1E",
"_9+	c #3A2B1A",
":9+	c #392A19",
"<9+	c #362918",
"[9+	c #3C2E21",
"}9+	c #45372D",
"|9+	c #3E3026",
"19+	c #120D10",
"29+	c #4B4034",
"39+	c #5B4E3C",
"49+	c #241C19",
"59+	c #5E5449",
"69+	c #403625",
"79+	c #3B3321",
"89+	c #372D1D",
"99+	c #3A3120",
"09+	c #544939",
"a9+	c #514939",
"b9+	c #4C4738",
"c9+	c #423C3B",
"d9+	c #6F624E",
"e9+	c #726550",
"f9+	c #756B57",
"g9+	c #392F21",
"h9+	c #3D3223",
"i9+	c #3A3022",
"j9+	c #292419",
"k9+	c #251F17",
"l9+	c #3A3225",
"m9+	c #675F4D",
"n9+	c #7A7059",
"o9+	c #665B45",
"p9+	c #473E2C",
"q9+	c #3D362A",
"r9+	c #1D1B14",
"s9+	c #6F5F4D",
"t9+	c #9F8B6F",
"u9+	c #9C8A6B",
"v9+	c #827662",
"w9+	c #6B6459",
"x9+	c #867E6C",
"y9+	c #726B58",
"z9+	c #6E6655",
"A9+	c #786A56",
"B9+	c #766957",
"C9+	c #625D4F",
"D9+	c #3E3D38",
"E9+	c #140F08",
"F9+	c #282216",
"G9+	c #403825",
"H9+	c #493E2B",
"I9+	c #49402D",
"J9+	c #493F2E",
"K9+	c #4B4432",
"L9+	c #4C4335",
"M9+	c #5C4C3C",
"N9+	c #5A4939",
"O9+	c #5D4B38",
"P9+	c #6B5643",
"Q9+	c #5E4B36",
"R9+	c #42311B",
"S9+	c #382816",
"T9+	c #413523",
"U9+	c #433828",
"V9+	c #7A6D57",
"W9+	c #6F634C",
"X9+	c #655746",
"Y9+	c #261A16",
"Z9+	c #2A1D17",
"`9+	c #2B1E19",
" 0+	c #2B1F1A",
".0+	c #261C18",
"+0+	c #3C2E1E",
"@0+	c #382A1A",
"#0+	c #36291A",
"$0+	c #3B2D23",
"%0+	c #070204",
"&0+	c #090407",
"*0+	c #0B0609",
"=0+	c #1D160F",
"-0+	c #261C14",
";0+	c #7A6E5E",
">0+	c #8B7C5F",
",0+	c #87795A",
"'0+	c #847557",
")0+	c #837458",
"!0+	c #7D6F54",
"~0+	c #685D45",
"{0+	c #4B4131",
"]0+	c #211A14",
"^0+	c #7D735F",
"/0+	c #7A6E5A",
"(0+	c #463E2F",
"_0+	c #453A2A",
":0+	c #4B3E2B",
"<0+	c #50432F",
"[0+	c #382E20",
"}0+	c #292114",
"|0+	c #2D2418",
"10+	c #483F32",
"20+	c #645D4D",
"30+	c #6A6153",
"40+	c #665D47",
"50+	c #292015",
"60+	c #18110C",
"70+	c #72634F",
"80+	c #9E8B6D",
"90+	c #968365",
"00+	c #88765D",
"a0+	c #7F715D",
"b0+	c #6C6258",
"c0+	c #382F2A",
"d0+	c #645644",
"e0+	c #625644",
"f0+	c #322B1D",
"g0+	c #1F180C",
"h0+	c #140E05",
"i0+	c #100B04",
"j0+	c #110D07",
"k0+	c #100C06",
"l0+	c #291D12",
"m0+	c #4D3D30",
"n0+	c #614D3D",
"o0+	c #5B4832",
"p0+	c #574529",
"q0+	c #6D5A3E",
"r0+	c #827053",
"s0+	c #806F53",
"t0+	c #74674E",
"u0+	c #746854",
"v0+	c #817764",
"w0+	c #8E826B",
"x0+	c #7E7059",
"y0+	c #64553F",
"z0+	c #483C31",
"A0+	c #1F1410",
"B0+	c #251914",
"C0+	c #2E221E",
"D0+	c #2B201D",
"E0+	c #231917",
"F0+	c #1D1513",
"G0+	c #3D301F",
"H0+	c #3B2D1D",
"I0+	c #372B1D",
"J0+	c #3C3124",
"K0+	c #050104",
"L0+	c #0F090D",
"M0+	c #342C24",
"N0+	c #AA9C7F",
"O0+	c #A59574",
"P0+	c #A49372",
"Q0+	c #A08F6F",
"R0+	c #9E8D6D",
"S0+	c #908266",
"T0+	c #736751",
"U0+	c #877C6B",
"V0+	c #7B6F5E",
"W0+	c #44382C",
"X0+	c #51432E",
"Y0+	c #51422C",
"Z0+	c #544530",
"`0+	c #504231",
" a+	c #3B2F22",
".a+	c #2D2417",
"+a+	c #52493B",
"@a+	c #7A7161",
"#a+	c #675B49",
"$a+	c #605544",
"%a+	c #937F64",
"&a+	c #87755B",
"*a+	c #2F2A2B",
"=a+	c #6C6559",
"-a+	c #575146",
";a+	c #3A312C",
">a+	c #372B21",
",a+	c #4A3F30",
"'a+	c #453A2E",
")a+	c #5F5444",
"!a+	c #564B3E",
"~a+	c #120C04",
"{a+	c #5A493B",
"]a+	c #584731",
"^a+	c #614F33",
"/a+	c #877353",
"(a+	c #9D8765",
"_a+	c #978261",
":a+	c #907C5D",
"<a+	c #766C5B",
"[a+	c #7E6F5A",
"}a+	c #423427",
"|a+	c #1B120F",
"1a+	c #201714",
"2a+	c #3A2D20",
"3a+	c #3C2F20",
"4a+	c #3A2D1E",
"5a+	c #181215",
"6a+	c #1B1519",
"7a+	c #080407",
"8a+	c #130C10",
"9a+	c #847A69",
"0a+	c #9C9177",
"aa+	c #9B8D6F",
"ba+	c #9C8E6F",
"ca+	c #998A6B",
"da+	c #95886A",
"ea+	c #877C63",
"fa+	c #6B624F",
"ga+	c #4E402C",
"ha+	c #4F402B",
"ia+	c #3E3326",
"ja+	c #2D2519",
"ka+	c #696152",
"la+	c #88785E",
"ma+	c #89785D",
"na+	c #867660",
"oa+	c #716D61",
"pa+	c #737062",
"qa+	c #656356",
"ra+	c #514E44",
"sa+	c #352B25",
"ta+	c #181818",
"ua+	c #4F412E",
"va+	c #5C4C33",
"wa+	c #837153",
"xa+	c #978564",
"ya+	c #8F7D5E",
"za+	c #867559",
"Aa+	c #7C6D54",
"Ba+	c #7E725D",
"Ca+	c #3D3125",
"Da+	c #29201F",
"Ea+	c #2D2321",
"Fa+	c #362A1E",
"Ga+	c #3B2D20",
"Ha+	c #372C21",
"Ia+	c #150E11",
"Ja+	c #171115",
"Ka+	c #150F14",
"La+	c #161015",
"Ma+	c #0C080D",
"Na+	c #120D12",
"Oa+	c #110C11",
"Pa+	c #1D1512",
"Qa+	c #675E49",
"Ra+	c #70654E",
"Sa+	c #756B54",
"Ta+	c #736851",
"Ua+	c #706650",
"Va+	c #5F5545",
"Wa+	c #453828",
"Xa+	c #443627",
"Ya+	c #605343",
"Za+	c #5F5247",
"`a+	c #5D5650",
" b+	c #524F47",
".b+	c #55534A",
"+b+	c #362A20",
"@b+	c #42372B",
"#b+	c #0D0908",
"$b+	c #35322A",
"%b+	c #2B261E",
"&b+	c #453826",
"*b+	c #675842",
"=b+	c #72654B",
"-b+	c #695B45",
";b+	c #615441",
">b+	c #4F4842",
",b+	c #847B6A",
"'b+	c #706554",
")b+	c #251D1D",
"!b+	c #251C1C",
"~b+	c #2A1F1A",
"{b+	c #34281C",
"]b+	c #35271C",
"^b+	c #332B29",
"/b+	c #1E171A",
"(b+	c #201B1E",
"_b+	c #2C2525",
":b+	c #484038",
"<b+	c #1C150E",
"[b+	c #433A2E",
"}b+	c #1D130D",
"|b+	c #534839",
"1b+	c #120A05",
"2b+	c #251A11",
"3b+	c #3C3022",
"4b+	c #32271B",
"5b+	c #2B2217",
"6b+	c #19110D",
"7b+	c #211919",
"8b+	c #110B0F",
"9b+	c #231D1F",
"0b+	c #211D22",
"ab+	c #3E3837",
"bb+	c #413C3C",
"cb+	c #3F3A3A",
"db+	c #393435",
"eb+	c #363132",
"fb+	c #2B272A",
"gb+	c #46413D",
"hb+	c #2C2627",
"ib+	c #2E231D",
"jb+	c #3E3A39",
"kb+	c #3F3A39",
"lb+	c #393332",
"mb+	c #2C272A",
"nb+	c #363335",
"ob+	c #1A1312",
"pb+	c #06080A",
"qb+	c #080501",
"rb+	c #0A0804",
"sb+	c #080300",
"tb+	c #060300",
"ub+	c #080400",
"vb+	c #090501",
"wb+	c #16100A",
"xb+	c #160F0A",
"yb+	c #150E09",
"zb+	c #100D08",
"Ab+	c #18120A",
"Bb+	c #1B140B",
"Cb+	c #211A10",
"Db+	c #221D15",
"Eb+	c #251F16",
"Fb+	c #241F16",
"Gb+	c #262116",
"Hb+	c #2C261A",
"Ib+	c #362F22",
"Jb+	c #382F23",
"Kb+	c #372D22",
"Lb+	c #342C21",
"Mb+	c #362E22",
"Nb+	c #29241D",
"Ob+	c #28241C",
"Pb+	c #504335",
"Qb+	c #443624",
"Rb+	c #3C2E1D",
"Sb+	c #302415",
"Tb+	c #291D10",
"Ub+	c #2C2012",
"Vb+	c #312414",
"Wb+	c #332615",
"Xb+	c #342617",
"Yb+	c #352819",
"Zb+	c #342819",
"`b+	c #342719",
" c+	c #322619",
".c+	c #2E2518",
"+c+	c #2A2217",
"@c+	c #282017",
"#c+	c #332A1F",
"$c+	c #312A1E",
"%c+	c #2B2419",
"&c+	c #231B12",
"*c+	c #1E160E",
"=c+	c #1D150D",
"-c+	c #201910",
";c+	c #251D14",
">c+	c #2D271D",
",c+	c #241F17",
"'c+	c #211B13",
")c+	c #241C10",
"!c+	c #20170C",
"~c+	c #1D150B",
"{c+	c #1A130B",
"]c+	c #191208",
"^c+	c #150E05",
"/c+	c #140D04",
"(c+	c #161006",
"_c+	c #1E170C",
":c+	c #292218",
"<c+	c #0F0D09",
"[c+	c #16120B",
"}c+	c #1D170F",
"|c+	c #1E1810",
"1c+	c #251F15",
"2c+	c #1F1B13",
"3c+	c #201C14",
"4c+	c #1F1B12",
"5c+	c #1D1911",
"6c+	c #1C1810",
"7c+	c #1A1710",
"8c+	c #191710",
"9c+	c #17160F",
"0c+	c #1A1913",
"ac+	c #14130F",
"bc+	c #131310",
"cc+	c #2E251B",
"dc+	c #292118",
"ec+	c #2A231A",
"fc+	c #2A2318",
"gc+	c #2C251B",
"hc+	c #282217",
"ic+	c #272016",
"jc+	c #201B13",
"kc+	c #0F0D0A",
"lc+	c #16130D",
"mc+	c #1B1913",
"nc+	c #18120D",
"oc+	c #261F18",
"pc+	c #2E241A",
"qc+	c #30261B",
"rc+	c #372C1E",
"sc+	c #3D3323",
"tc+	c #4B4030",
"uc+	c #564A3D",
"vc+	c #564B3F",
"wc+	c #2E271E",
"xc+	c #443B2F",
"yc+	c #4C4334",
"zc+	c #4D4435",
"Ac+	c #544A3A",
"Bc+	c #231E18",
"Cc+	c #2E281F",
"Dc+	c #70604D",
"Ec+	c #6B5C4B",
"Fc+	c #6D5F4C",
"Gc+	c #70624E",
"Hc+	c #6F614E",
"Ic+	c #6F604D",
"Jc+	c #6B5E4A",
"Kc+	c #6D604C",
"Lc+	c #2A241D",
"Mc+	c #7B7062",
"Nc+	c #8F7B69",
"Oc+	c #907A64",
"Pc+	c #8D745B",
"Qc+	c #886F54",
"Rc+	c #7B6349",
"Sc+	c #644F37",
"Tc+	c #564128",
"Uc+	c #5B442A",
"Vc+	c #644C2F",
"Wc+	c #684F32",
"Xc+	c #6A5034",
"Yc+	c #6B5337",
"Zc+	c #6A5238",
"`c+	c #6A533A",
" d+	c #68523B",
".d+	c #63513C",
"+d+	c #5E4F3C",
"@d+	c #5B4D3C",
"#d+	c #605443",
"$d+	c #695C4A",
"%d+	c #665A4A",
"&d+	c #392E20",
"*d+	c #413627",
"=d+	c #574A38",
"-d+	c #756652",
";d+	c #635848",
">d+	c #615546",
",d+	c #615746",
"'d+	c #5A5140",
")d+	c #504738",
"!d+	c #5A4A37",
"~d+	c #57462F",
"{d+	c #56442D",
"]d+	c #53422B",
"^d+	c #51412C",
"/d+	c #4D3D2A",
"(d+	c #463724",
"_d+	c #3B2D1A",
":d+	c #372A17",
"<d+	c #352916",
"[d+	c #3A2F1C",
"}d+	c #4A3F2D",
"|d+	c #57534A",
"1d+	c #584C3B",
"2d+	c #5F5140",
"3d+	c #605441",
"4d+	c #635641",
"5d+	c #625441",
"6d+	c #564A38",
"7d+	c #534836",
"8d+	c #524838",
"9d+	c #514736",
"0d+	c #4B4333",
"ad+	c #484031",
"bd+	c #3B372B",
"cd+	c #3E3A2F",
"dd+	c #3B382F",
"ed+	c #34322A",
"fd+	c #18100A",
"gd+	c #7D6D5B",
"hd+	c #766655",
"id+	c #70604F",
"jd+	c #5A4B3A",
"kd+	c #554636",
"ld+	c #584A39",
"md+	c #5C4F3E",
"nd+	c #5D4D3E",
"od+	c #5C4D3C",
"pd+	c #584C3A",
"qd+	c #5E5240",
"rd+	c #625543",
"sd+	c #605341",
"td+	c #5F5240",
"ud+	c #4C3E30",
"vd+	c #372F24",
"wd+	c #3B2F24",
"xd+	c #443826",
"yd+	c #4A3F2C",
"zd+	c #5A4F3D",
"Ad+	c #5B4C3D",
"Bd+	c #625343",
"Cd+	c #5E5041",
"Dd+	c #63574B",
"Ed+	c #342B20",
"Fd+	c #534A3A",
"Gd+	c #534939",
"Hd+	c #554A3A",
"Id+	c #5B513F",
"Jd+	c #6B5F4C",
"Kd+	c #756956",
"Ld+	c #837865",
"Md+	c #83796A",
"Nd+	c #726658",
"Od+	c #7B6C58",
"Pd+	c #7B6C57",
"Qd+	c #7B6B55",
"Rd+	c #796854",
"Sd+	c #796A55",
"Td+	c #786954",
"Ud+	c #7A6A54",
"Vd+	c #7A6953",
"Wd+	c #7B6B54",
"Xd+	c #7A6952",
"Yd+	c #77664F",
"Zd+	c #8E7F6D",
"`d+	c #927E6A",
" e+	c #967B5F",
".e+	c #957859",
"+e+	c #886D4F",
"@e+	c #70593D",
"#e+	c #61492D",
"$e+	c #684D2E",
"%e+	c #755835",
"&e+	c #785B38",
"*e+	c #785A39",
"=e+	c #795C3C",
"-e+	c #775C3D",
";e+	c #735B42",
">e+	c #6E5B44",
",e+	c #7B6F5C",
"'e+	c #403526",
")e+	c #564837",
"!e+	c #61533F",
"~e+	c #73634D",
"{e+	c #665C4B",
"]e+	c #655C4A",
"^e+	c #635A47",
"/e+	c #625947",
"(e+	c #564D3D",
"_e+	c #4C4332",
":e+	c #5D503D",
"<e+	c #695840",
"[e+	c #6C583E",
"}e+	c #6C573C",
"|e+	c #6D573B",
"1e+	c #6B563B",
"2e+	c #69563D",
"3e+	c #64533B",
"4e+	c #5B4A33",
"5e+	c #4E3E26",
"6e+	c #493922",
"7e+	c #483922",
"8e+	c #4B3D27",
"9e+	c #5B4F3A",
"0e+	c #726653",
"ae+	c #776D5D",
"be+	c #2D281E",
"ce+	c #5A4D39",
"de+	c #625440",
"ee+	c #70614B",
"fe+	c #74654D",
"ge+	c #75654D",
"he+	c #74644D",
"ie+	c #74654E",
"je+	c #73654D",
"ke+	c #73644C",
"le+	c #75664D",
"me+	c #6D5F48",
"ne+	c #665843",
"oe+	c #625641",
"pe+	c #655844",
"qe+	c #645844",
"re+	c #635843",
"se+	c #5C5240",
"te+	c #554C3C",
"ue+	c #494436",
"ve+	c #4C463A",
"we+	c #4C473D",
"xe+	c #1D130B",
"ye+	c #887663",
"ze+	c #877560",
"Ae+	c #81705B",
"Be+	c #7D6C58",
"Ce+	c #63533F",
"De+	c #675744",
"Ee+	c #675643",
"Fe+	c #6C5946",
"Ge+	c #6B5945",
"He+	c #6D5E4A",
"Ie+	c #6D5E4B",
"Je+	c #645742",
"Ke+	c #655742",
"Le+	c #6C5E4A",
"Me+	c #39342A",
"Ne+	c #403225",
"Oe+	c #3E3124",
"Pe+	c #382C22",
"Qe+	c #3B2E21",
"Re+	c #403323",
"Se+	c #554E42",
"Te+	c #483A2F",
"Ue+	c #524033",
"Ve+	c #584637",
"We+	c #5F4D3F",
"Xe+	c #5E4E40",
"Ye+	c #594C3D",
"Ze+	c #605348",
"`e+	c #5B4F44",
" f+	c #494033",
".f+	c #51483B",
"+f+	c #534B3E",
"@f+	c #6A5C4C",
"#f+	c #746856",
"$f+	c #746757",
"%f+	c #766752",
"&f+	c #756650",
"*f+	c #756550",
"=f+	c #75644F",
"-f+	c #73634E",
";f+	c #74624E",
">f+	c #73644F",
",f+	c #75654F",
"'f+	c #75644E",
")f+	c #75644D",
"!f+	c #726049",
"~f+	c #705F47",
"{f+	c #6E5C46",
"]f+	c #786855",
"^f+	c #8E7B68",
"/f+	c #90765B",
"(f+	c #907355",
"_f+	c #856A4B",
":f+	c #6E563A",
"<f+	c #60482E",
"[f+	c #684C30",
"}f+	c #715433",
"|f+	c #735634",
"1f+	c #715434",
"2f+	c #6F5435",
"3f+	c #6C5236",
"4f+	c #6A5138",
"5f+	c #654F3A",
"6f+	c #5F4F3C",
"7f+	c #584C3C",
"8f+	c #6A5B48",
"9f+	c #736653",
"0f+	c #706453",
"af+	c #685F50",
"bf+	c #645C4E",
"cf+	c #605948",
"df+	c #5E5746",
"ef+	c #534C3D",
"ff+	c #48402E",
"gf+	c #5C4E3B",
"hf+	c #6A5740",
"if+	c #6D573E",
"jf+	c #6E573B",
"kf+	c #6C553B",
"lf+	c #6B573E",
"mf+	c #66543E",
"nf+	c #5B4B34",
"of+	c #4E3E27",
"pf+	c #4B3923",
"qf+	c #4B3A23",
"rf+	c #51402A",
"sf+	c #5A4C37",
"tf+	c #6C604D",
"uf+	c #4C3F2F",
"vf+	c #514330",
"wf+	c #5A4B38",
"xf+	c #6B5B47",
"yf+	c #71624B",
"zf+	c #72634B",
"Af+	c #71614A",
"Bf+	c #72624C",
"Cf+	c #70614A",
"Df+	c #6F6049",
"Ef+	c #6F5F48",
"Ff+	c #60523D",
"Gf+	c #5E503B",
"Hf+	c #5F513D",
"If+	c #615440",
"Jf+	c #5E523F",
"Kf+	c #5C503E",
"Lf+	c #4B4539",
"Mf+	c #454137",
"Nf+	c #776855",
"Of+	c #81705D",
"Pf+	c #6A5A47",
"Qf+	c #544534",
"Rf+	c #594939",
"Sf+	c #5D4E3D",
"Tf+	c #61503D",
"Uf+	c #614F3D",
"Vf+	c #64513F",
"Wf+	c #655241",
"Xf+	c #665745",
"Yf+	c #645645",
"Zf+	c #594D3B",
"`f+	c #594C3B",
" g+	c #645847",
".g+	c #645846",
"+g+	c #635645",
"@g+	c #655847",
"#g+	c #695B4B",
"$g+	c #685B49",
"%g+	c #372A1E",
"&g+	c #372A20",
"*g+	c #2B211C",
"=g+	c #2D221E",
"-g+	c #453D31",
";g+	c #4B3B2D",
">g+	c #4D3C2D",
",g+	c #544233",
"'g+	c #5C4B3B",
")g+	c #5A493A",
"!g+	c #564939",
"~g+	c #574A3B",
"{g+	c #2C231A",
"]g+	c #4E4334",
"^g+	c #393231",
"/g+	c #443A2B",
"(g+	c #5E5241",
"_g+	c #62513D",
":g+	c #61503C",
"<g+	c #6A5944",
"[g+	c #6F5D48",
"}g+	c #72614C",
"|g+	c #73624D",
"1g+	c #73624C",
"2g+	c #74624A",
"3g+	c #6E5D44",
"4g+	c #715F48",
"5g+	c #796652",
"6g+	c #7E6D5A",
"7g+	c #6E6150",
"8g+	c #817362",
"9g+	c #847260",
"0g+	c #86725D",
"ag+	c #836B54",
"bg+	c #775E42",
"cg+	c #634D35",
"dg+	c #56402B",
"eg+	c #5A432A",
"fg+	c #60462A",
"gg+	c #5F4629",
"hg+	c #5D4328",
"ig+	c #5B4329",
"jg+	c #553E27",
"kg+	c #513B26",
"lg+	c #4A3726",
"mg+	c #32291E",
"ng+	c #362C20",
"og+	c #4B3D2F",
"pg+	c #544D40",
"qg+	c #514B3C",
"rg+	c #484133",
"sg+	c #634F38",
"tg+	c #665037",
"ug+	c #664E34",
"vg+	c #674E34",
"wg+	c #644D34",
"xg+	c #634E36",
"yg+	c #5D4A34",
"zg+	c #513F2A",
"Ag+	c #44321D",
"Bg+	c #41301A",
"Cg+	c #42301C",
"Dg+	c #463621",
"Eg+	c #5C5143",
"Fg+	c #5A5347",
"Gg+	c #655541",
"Hg+	c #6F5F49",
"Ig+	c #74644F",
"Jg+	c #6F5E47",
"Kg+	c #6A5A42",
"Lg+	c #65563E",
"Mg+	c #5F503A",
"Ng+	c #5F503C",
"Og+	c #61523E",
"Pg+	c #5C4F3B",
"Qg+	c #453C36",
"Rg+	c #5B4E45",
"Sg+	c #5B4C3F",
"Tg+	c #746351",
"Ug+	c #6D5D4B",
"Vg+	c #4E4132",
"Wg+	c #3F3325",
"Xg+	c #483B2D",
"Yg+	c #4F4131",
"Zg+	c #564536",
"`g+	c #594738",
" h+	c #564637",
".h+	c #43392B",
"+h+	c #4C4135",
"@h+	c #41352B",
"#h+	c #403125",
"$h+	c #443326",
"%h+	c #49372A",
"&h+	c #534234",
"*h+	c #534335",
"=h+	c #524335",
"-h+	c #4F4238",
";h+	c #4B3C30",
">h+	c #504032",
",h+	c #4F3E31",
"'h+	c #3E3229",
")h+	c #382C27",
"!h+	c #483F3A",
"~h+	c #605140",
"{h+	c #5A4B39",
"]h+	c #554533",
"^h+	c #534230",
"/h+	c #74614F",
"(h+	c #76634F",
"_h+	c #776550",
":h+	c #786752",
"<h+	c #796852",
"[h+	c #786750",
"}h+	c #7B6950",
"|h+	c #79674F",
"1h+	c #79664F",
"2h+	c #826F59",
"3h+	c #8A7763",
"4h+	c #8E7E6B",
"5h+	c #7B6C5D",
"6h+	c #7D6D5D",
"7h+	c #7A6450",
"8h+	c #775F48",
"9h+	c #6D5740",
"0h+	c #5C4936",
"ah+	c #4E3C2C",
"bh+	c #503D29",
"ch+	c #543F28",
"dh+	c #553F28",
"eh+	c #543D27",
"fh+	c #533C28",
"gh+	c #4C3724",
"hh+	c #443120",
"ih+	c #3A2A1D",
"jh+	c #1A150F",
"kh+	c #241D14",
"lh+	c #2C2016",
"mh+	c #34271D",
"nh+	c #5E4834",
"oh+	c #614A32",
"ph+	c #624830",
"qh+	c #644930",
"rh+	c #614933",
"sh+	c #5A4530",
"th+	c #4F3C27",
"uh+	c #43301D",
"vh+	c #412F1C",
"wh+	c #44331F",
"xh+	c #483826",
"yh+	c #564835",
"zh+	c #80705C",
"Ah+	c #7F6D58",
"Bh+	c #7B6951",
"Ch+	c #7A684F",
"Dh+	c #77654C",
"Eh+	c #6F5E49",
"Fh+	c #71604C",
"Gh+	c #71604B",
"Hh+	c #6F5F4A",
"Ih+	c #5C5040",
"Jh+	c #4E483F",
"Kh+	c #77695D",
"Lh+	c #79695B",
"Mh+	c #776556",
"Nh+	c #6F5E4D",
"Oh+	c #6C5B4B",
"Ph+	c #685848",
"Qh+	c #2D241C",
"Rh+	c #55473B",
"Sh+	c #57473B",
"Th+	c #58483B",
"Uh+	c #534437",
"Vh+	c #4D4135",
"Wh+	c #585248",
"Xh+	c #453931",
"Yh+	c #54473B",
"Zh+	c #3F3026",
"`h+	c #403024",
" i+	c #504134",
".i+	c #524638",
"+i+	c #5D5145",
"@i+	c #4C3C31",
"#i+	c #4F3E30",
"$i+	c #4C392C",
"%i+	c #4D392A",
"&i+	c #483528",
"*i+	c #453428",
"=i+	c #413127",
"-i+	c #46392F",
";i+	c #40342A",
">i+	c #635545",
",i+	c #514231",
"'i+	c #4D3E2D",
")i+	c #665747",
"!i+	c #796A58",
"~i+	c #7D6B57",
"{i+	c #807058",
"]i+	c #806E57",
"^i+	c #817057",
"/i+	c #806E56",
"(i+	c #836F59",
"_i+	c #8E7C65",
":i+	c #968570",
"<i+	c #988A75",
"[i+	c #777062",
"}i+	c #7E7061",
"|i+	c #7D6E5D",
"1i+	c #76634D",
"2i+	c #574732",
"3i+	c #594933",
"4i+	c #524030",
"5i+	c #473627",
"6i+	c #473F31",
"7i+	c #463F31",
"8i+	c #574938",
"9i+	c #654E36",
"0i+	c #674D34",
"ai+	c #694D34",
"bi+	c #674D35",
"ci+	c #674E37",
"di+	c #624C35",
"ei+	c #58442E",
"fi+	c #4E3C26",
"gi+	c #4D3A25",
"hi+	c #4C3924",
"ii+	c #645D50",
"ji+	c #5B564B",
"ki+	c #514D44",
"li+	c #47443A",
"mi+	c #524639",
"ni+	c #584D3C",
"oi+	c #6A5C49",
"pi+	c #72634E",
"qi+	c #7B6D55",
"ri+	c #867964",
"si+	c #86755F",
"ti+	c #837056",
"ui+	c #837054",
"vi+	c #826F53",
"wi+	c #806E53",
"xi+	c #786751",
"yi+	c #796953",
"zi+	c #7D6C55",
"Ai+	c #7D6953",
"Bi+	c #7C6A53",
"Ci+	c #796751",
"Di+	c #6C5F4C",
"Ei+	c #5E534B",
"Fi+	c #7A6B5E",
"Gi+	c #7E6E5E",
"Hi+	c #7B6959",
"Ii+	c #786856",
"Ji+	c #6E604F",
"Ki+	c #5A4C41",
"Li+	c #54473C",
"Mi+	c #433B34",
"Ni+	c #5D5248",
"Oi+	c #5D5349",
"Pi+	c #554739",
"Qi+	c #3F2F24",
"Ri+	c #413225",
"Si+	c #5A4D40",
"Ti+	c #5E5345",
"Ui+	c #4C3B30",
"Vi+	c #4E3A2D",
"Wi+	c #4D382A",
"Xi+	c #4E3727",
"Yi+	c #493322",
"Zi+	c #4A3524",
"`i+	c #473224",
" j+	c #483626",
".j+	c #483727",
"+j+	c #504133",
"@j+	c #574B3D",
"#j+	c #4D4033",
"$j+	c #7A6B57",
"%j+	c #7D6D58",
"&j+	c #80705A",
"*j+	c #7E6C55",
"=j+	c #8B7B64",
"-j+	c #90806B",
";j+	c #968774",
">j+	c #756859",
",j+	c #6A5B49",
"'j+	c #544A37",
")j+	c #4B3E31",
"!j+	c #614D3A",
"~j+	c #664F37",
"{j+	c #6A4E34",
"]j+	c #694E35",
"^j+	c #684F37",
"/j+	c #654D36",
"(j+	c #5C4630",
"_j+	c #523D28",
":j+	c #503B26",
"<j+	c #4D3925",
"[j+	c #52463B",
"}j+	c #6D5F53",
"|j+	c #706759",
"1j+	c #635A4B",
"2j+	c #685D50",
"3j+	c #514538",
"4j+	c #6B5A46",
"5j+	c #816F58",
"6j+	c #867763",
"7j+	c #837159",
"8j+	c #867053",
"9j+	c #866F53",
"0j+	c #816C51",
"aj+	c #78654D",
"bj+	c #71614B",
"cj+	c #7B6650",
"dj+	c #77644F",
"ej+	c #675948",
"fj+	c #605545",
"gj+	c #594D44",
"hj+	c #7D6D5C",
"ij+	c #7A6958",
"jj+	c #6B5D4C",
"kj+	c #675A4A",
"lj+	c #50453B",
"mj+	c #342A24",
"nj+	c #544537",
"oj+	c #56483C",
"pj+	c #4B3E32",
"qj+	c #4A3D30",
"rj+	c #2A261F",
"sj+	c #34271F",
"tj+	c #625749",
"uj+	c #75695C",
"vj+	c #453226",
"wj+	c #483224",
"xj+	c #4F3525",
"yj+	c #513724",
"zj+	c #573E29",
"Aj+	c #59422C",
"Bj+	c #543F2A",
"Cj+	c #54412C",
"Dj+	c #53402E",
"Ej+	c #564534",
"Fj+	c #2F271D",
"Gj+	c #5E5143",
"Hj+	c #5F5342",
"Ij+	c #82735E",
"Jj+	c #6F5E48",
"Kj+	c #827262",
"Lj+	c #796A5D",
"Mj+	c #857666",
"Nj+	c #837363",
"Oj+	c #746958",
"Pj+	c #5F5647",
"Qj+	c #584C3D",
"Rj+	c #453E30",
"Sj+	c #221E17",
"Tj+	c #373228",
"Uj+	c #513F31",
"Vj+	c #624931",
"Wj+	c #6A4F36",
"Xj+	c #6C533A",
"Yj+	c #68503A",
"Zj+	c #5F4933",
"`j+	c #56412B",
" k+	c #503C2A",
".k+	c #4B3A29",
"+k+	c #413323",
"@k+	c #5D4E42",
"#k+	c #7F6E5F",
"$k+	c #837263",
"%k+	c #5F5147",
"&k+	c #615A4C",
"*k+	c #5E5547",
"=k+	c #6C6155",
"-k+	c #5C4F42",
";k+	c #685949",
">k+	c #5E4F3F",
",k+	c #4F4030",
"'k+	c #63503D",
")k+	c #826D55",
"!k+	c #846E57",
"~k+	c #836E57",
"{k+	c #726350",
"]k+	c #72624D",
"^k+	c #7F6A4F",
"/k+	c #897155",
"(k+	c #897255",
"_k+	c #836D52",
":k+	c #736149",
"<k+	c #6A5A45",
"[k+	c #6A5B47",
"}k+	c #7F6952",
"|k+	c #7E6953",
"1k+	c #786652",
"2k+	c #5A4F3E",
"3k+	c #706355",
"4k+	c #756657",
"5k+	c #716252",
"6k+	c #6F614F",
"7k+	c #6A5F4D",
"8k+	c #3E342A",
"9k+	c #32251B",
"0k+	c #3A2C22",
"ak+	c #4A3D32",
"bk+	c #584A3F",
"ck+	c #786E5F",
"dk+	c #80786B",
"ek+	c #36281E",
"fk+	c #352519",
"gk+	c #3A2517",
"hk+	c #482D1C",
"ik+	c #573B24",
"jk+	c #74593D",
"kk+	c #6A5239",
"lk+	c #5B452F",
"mk+	c #54402D",
"nk+	c #544331",
"ok+	c #4C423B",
"pk+	c #231A11",
"qk+	c #1A1209",
"rk+	c #1E1811",
"sk+	c #6A5D4D",
"tk+	c #81725F",
"uk+	c #7D6D59",
"vk+	c #62523D",
"wk+	c #665543",
"xk+	c #6E5E50",
"yk+	c #6B5C50",
"zk+	c #82715F",
"Ak+	c #736556",
"Bk+	c #45352B",
"Ck+	c #564232",
"Dk+	c #5F4732",
"Ek+	c #684D35",
"Fk+	c #6B5038",
"Gk+	c #6C533B",
"Hk+	c #69513A",
"Ik+	c #604A34",
"Jk+	c #57422C",
"Kk+	c #52402E",
"Lk+	c #4C3C2D",
"Mk+	c #32281D",
"Nk+	c #322821",
"Ok+	c #67584D",
"Pk+	c #817062",
"Qk+	c #79685A",
"Rk+	c #80725F",
"Sk+	c #4F3F2B",
"Tk+	c #51402E",
"Uk+	c #5A4836",
"Vk+	c #64513E",
"Wk+	c #725D49",
"Xk+	c #836D55",
"Yk+	c #6A5842",
"Zk+	c #5E4F3B",
"`k+	c #604F3A",
" l+	c #7D674D",
".l+	c #8A7255",
"+l+	c #887154",
"@l+	c #806C51",
"#l+	c #62543F",
"$l+	c #685745",
"%l+	c #6F5C49",
"&l+	c #7F6B54",
"*l+	c #796753",
"=l+	c #685A48",
"-l+	c #17100B",
";l+	c #63574C",
">l+	c #65584B",
",l+	c #544538",
"'l+	c #685C4A",
")l+	c #564C3E",
"!l+	c #888072",
"~l+	c #857E71",
"{l+	c #302013",
"]l+	c #331F0E",
"^l+	c #432A15",
"/l+	c #593D23",
"(l+	c #785B3D",
"_l+	c #8A6F50",
":l+	c #937A5A",
"<l+	c #80694C",
"[l+	c #614C34",
"}l+	c #52402C",
"|l+	c #50473F",
"1l+	c #786B56",
"2l+	c #685A47",
"3l+	c #5F513F",
"4l+	c #625243",
"5l+	c #67594C",
"6l+	c #64574C",
"7l+	c #887861",
"8l+	c #84745F",
"9l+	c #3F3427",
"0l+	c #2F2920",
"al+	c #44362C",
"bl+	c #554333",
"cl+	c #5E4833",
"dl+	c #695038",
"el+	c #6D533A",
"fl+	c #6F563D",
"gl+	c #6C553D",
"hl+	c #634D36",
"il+	c #5A452F",
"jl+	c #57442E",
"kl+	c #544330",
"ll+	c #6D6054",
"ml+	c #837466",
"nl+	c #746457",
"ol+	c #2A2925",
"pl+	c #9A876B",
"ql+	c #968167",
"rl+	c #8F7D62",
"sl+	c #79674E",
"tl+	c #635139",
"ul+	c #584631",
"vl+	c #5F4D3A",
"wl+	c #65533E",
"xl+	c #847058",
"yl+	c #847057",
"zl+	c #79654E",
"Al+	c #5F503D",
"Bl+	c #63513F",
"Cl+	c #73604A",
"Dl+	c #7E694F",
"El+	c #8A7456",
"Fl+	c #887355",
"Gl+	c #826E53",
"Hl+	c #715F49",
"Il+	c #826D56",
"Jl+	c #88725A",
"Kl+	c #837058",
"Ll+	c #7F6E59",
"Ml+	c #6C5E4C",
"Nl+	c #3D3528",
"Ol+	c #241C13",
"Pl+	c #736457",
"Ql+	c #685A4D",
"Rl+	c #453B36",
"Sl+	c #554837",
"Tl+	c #544A3B",
"Ul+	c #696052",
"Vl+	c #787064",
"Wl+	c #3D3026",
"Xl+	c #413124",
"Yl+	c #453120",
"Zl+	c #4C351F",
"`l+	c #593E23",
" m+	c #735839",
".m+	c #896F50",
"+m+	c #927A5B",
"@m+	c #806A4D",
"#m+	c #5D4A32",
"$m+	c #4D3D2E",
"%m+	c #4B423B",
"&m+	c #827866",
"*m+	c #7C715F",
"=m+	c #756B59",
"-m+	c #584D3F",
";m+	c #574D43",
">m+	c #716253",
",m+	c #342D23",
"'m+	c #4E3E2F",
")m+	c #594531",
"!m+	c #6B5239",
"~m+	c #6A533B",
"{m+	c #594530",
"]m+	c #56442F",
"^m+	c #524230",
"/m+	c #2C251E",
"(m+	c #2C271F",
"_m+	c #6B5F54",
":m+	c #7B6E62",
"<m+	c #7D6E5F",
"[m+	c #947F65",
"}m+	c #988266",
"|m+	c #988064",
"1m+	c #8F7A5E",
"2m+	c #715C43",
"3m+	c #69543D",
"4m+	c #6A5640",
"5m+	c #65523E",
"6m+	c #62503B",
"7m+	c #6A5643",
"8m+	c #7B6854",
"9m+	c #7F6C55",
"0m+	c #73614D",
"am+	c #7D6950",
"bm+	c #826E51",
"cm+	c #847053",
"dm+	c #806C52",
"em+	c #74634D",
"fm+	c #695A48",
"gm+	c #7D6954",
"hm+	c #826E57",
"im+	c #88725B",
"jm+	c #85715A",
"km+	c #29241C",
"lm+	c #473F3A",
"mm+	c #493F32",
"nm+	c #5F554A",
"om+	c #241B16",
"pm+	c #3E3531",
"qm+	c #3E342E",
"rm+	c #5A5247",
"sm+	c #695640",
"tm+	c #69523A",
"um+	c #624A2E",
"vm+	c #664D30",
"wm+	c #70583D",
"xm+	c #796348",
"ym+	c #53422E",
"zm+	c #6F685A",
"Am+	c #675F52",
"Bm+	c #544736",
"Cm+	c #574D3C",
"Dm+	c #4E4538",
"Em+	c #2B211B",
"Fm+	c #392B1E",
"Gm+	c #473422",
"Hm+	c #59432E",
"Im+	c #695239",
"Jm+	c #654F37",
"Km+	c #604B34",
"Lm+	c #58452F",
"Mm+	c #564530",
"Nm+	c #4B3F30",
"Om+	c #2F281E",
"Pm+	c #534841",
"Qm+	c #937E62",
"Rm+	c #968063",
"Sm+	c #947D60",
"Tm+	c #917A5C",
"Um+	c #7C654A",
"Vm+	c #7A644A",
"Wm+	c #6E5A42",
"Xm+	c #625039",
"Ym+	c #62513C",
"Zm+	c #796853",
"`m+	c #7D6B55",
" n+	c #756551",
".n+	c #74634A",
"+n+	c #7E6B50",
"@n+	c #806D51",
"#n+	c #7B6955",
"$n+	c #847158",
"%n+	c #86725A",
"&n+	c #776853",
"*n+	c #575144",
"=n+	c #4B4538",
"-n+	c #534B46",
";n+	c #4F4843",
">n+	c #5F5547",
",n+	c #6A5E4D",
"'n+	c #706353",
")n+	c #756857",
"!n+	c #6C5F50",
"~n+	c #65594D",
"{n+	c #18100C",
"]n+	c #160F0C",
"^n+	c #19120E",
"/n+	c #524434",
"(n+	c #5A4A39",
"_n+	c #5E503D",
":n+	c #7C664E",
"<n+	c #6B533B",
"[n+	c #5C452C",
"}n+	c #5A452E",
"|n+	c #5D4A33",
"1n+	c #564531",
"2n+	c #4A3A2A",
"3n+	c #423326",
"4n+	c #262019",
"5n+	c #2B2015",
"6n+	c #2A1E10",
"7n+	c #2E2215",
"8n+	c #2F2417",
"9n+	c #31281B",
"0n+	c #32281A",
"an+	c #31271B",
"bn+	c #292019",
"cn+	c #463D36",
"dn+	c #281C11",
"en+	c #372615",
"fn+	c #4E3A26",
"gn+	c #5C452F",
"hn+	c #5F4932",
"in+	c #5C4731",
"jn+	c #52422F",
"kn+	c #796954",
"ln+	c #7C6B54",
"mn+	c #87725A",
"nn+	c #8C755B",
"on+	c #90795D",
"pn+	c #8F765A",
"qn+	c #8E7657",
"rn+	c #8A7154",
"sn+	c #897052",
"tn+	c #856D50",
"un+	c #81694E",
"vn+	c #745E45",
"wn+	c #5B4933",
"xn+	c #685742",
"yn+	c #312B21",
"zn+	c #554939",
"An+	c #7F6E54",
"Bn+	c #7F6E5B",
"Cn+	c #816F5C",
"Dn+	c #816D5A",
"En+	c #83715A",
"Fn+	c #433E33",
"Gn+	c #3A3535",
"Hn+	c #797068",
"In+	c #867D74",
"Jn+	c #898079",
"Kn+	c #837974",
"Ln+	c #756654",
"Mn+	c #736152",
"Nn+	c #6B5D4E",
"On+	c #473D36",
"Pn+	c #5B5049",
"Qn+	c #584D44",
"Rn+	c #524334",
"Sn+	c #5C4C37",
"Tn+	c #534432",
"Un+	c #7C6E57",
"Vn+	c #806D55",
"Wn+	c #4F3D2A",
"Xn+	c #685F53",
"Yn+	c #655E53",
"Zn+	c #20170D",
"`n+	c #1F140A",
" o+	c #22180D",
".o+	c #22180F",
"+o+	c #261D12",
"@o+	c #251B0F",
"#o+	c #261C0F",
"$o+	c #271E13",
"%o+	c #261B12",
"&o+	c #342517",
"*o+	c #56432E",
"=o+	c #5A4731",
"-o+	c #574530",
";o+	c #54432E",
">o+	c #4F402D",
",o+	c #887A67",
"'o+	c #84725C",
")o+	c #816D56",
"!o+	c #88745A",
"~o+	c #8B7559",
"{o+	c #8D775A",
"]o+	c #8C7458",
"^o+	c #8C7456",
"/o+	c #8B7153",
"(o+	c #8C7354",
"_o+	c #8A7153",
":o+	c #886F52",
"<o+	c #786248",
"[o+	c #5B4932",
"}o+	c #766553",
"|o+	c #786A51",
"1o+	c #7A6B52",
"2o+	c #807258",
"3o+	c #7E6F59",
"4o+	c #7F715C",
"5o+	c #82705D",
"6o+	c #584E3D",
"7o+	c #8A827A",
"8o+	c #877E77",
"9o+	c #7A6E5B",
"0o+	c #231A18",
"ao+	c #1F1614",
"bo+	c #554530",
"co+	c #473B2C",
"do+	c #1E1B14",
"eo+	c #545049",
"fo+	c #786952",
"go+	c #675540",
"ho+	c #3F3227",
"io+	c #06090C",
"jo+	c #0E100F",
"ko+	c #524D44",
"lo+	c #281D15",
"mo+	c #271C13",
"no+	c #2B2016",
"oo+	c #291F14",
"po+	c #281D11",
"qo+	c #281D10",
"ro+	c #2D2319",
"so+	c #2A1F17",
"to+	c #36291D",
"uo+	c #534531",
"vo+	c #504332",
"wo+	c #4B4233",
"xo+	c #6B6559",
"yo+	c #7E7265",
"zo+	c #867461",
"Ao+	c #85735E",
"Bo+	c #84715A",
"Co+	c #89765D",
"Do+	c #89755A",
"Eo+	c #8A775B",
"Fo+	c #8B7457",
"Go+	c #8A7254",
"Ho+	c #8C7454",
"Io+	c #8A7052",
"Jo+	c #896F51",
"Ko+	c #7D654A",
"Lo+	c #6C563D",
"Mo+	c #635039",
"No+	c #736451",
"Oo+	c #2D2C26",
"Po+	c #1C1C18",
"Qo+	c #665C49",
"Ro+	c #70644D",
"So+	c #7D6F5B",
"To+	c #726756",
"Uo+	c #6B645E",
"Vo+	c #675C4F",
"Wo+	c #2C211C",
"Xo+	c #3E3125",
"Yo+	c #443527",
"Zo+	c #453525",
"`o+	c #473725",
" p+	c #443323",
".p+	c #1F1816",
"+p+	c #4F4C46",
"@p+	c #665844",
"#p+	c #564733",
"$p+	c #070B0D",
"%p+	c #0B0D0D",
"&p+	c #545046",
"*p+	c #110B08",
"=p+	c #201713",
"-p+	c #2F2318",
";p+	c #302419",
">p+	c #302519",
",p+	c #2E2315",
"'p+	c #2F2315",
")p+	c #34291B",
"!p+	c #322C22",
"~p+	c #392D23",
"{p+	c #382D22",
"]p+	c #2E2317",
"^p+	c #382C1E",
"/p+	c #3C3324",
"(p+	c #84786A",
"_p+	c #8A7C6B",
":p+	c #897A67",
"<p+	c #82715E",
"[p+	c #7C6A55",
"}p+	c #7E6E57",
"|p+	c #7F6F57",
"1p+	c #816C52",
"2p+	c #846E51",
"3p+	c #8A7355",
"4p+	c #8D7355",
"5p+	c #836A4E",
"6p+	c #735F47",
"7p+	c #75634D",
"8p+	c #756651",
"9p+	c #766855",
"0p+	c #534F43",
"ap+	c #2E2E28",
"bp+	c #1D1E1A",
"cp+	c #2A2924",
"dp+	c #5A5240",
"ep+	c #625741",
"fp+	c #6D624A",
"gp+	c #7B6F58",
"hp+	c #7F725D",
"ip+	c #786D5A",
"jp+	c #786D5B",
"kp+	c #7D7260",
"lp+	c #595143",
"mp+	c #27231B",
"np+	c #272621",
"op+	c #5B534F",
"pp+	c #60564F",
"qp+	c #49413C",
"rp+	c #30221A",
"sp+	c #291D17",
"tp+	c #3C2C1D",
"up+	c #1F1715",
"vp+	c #413F37",
"wp+	c #413D34",
"xp+	c #4D4335",
"yp+	c #443626",
"zp+	c #3C2F23",
"Ap+	c #3D3126",
"Bp+	c #060A0D",
"Cp+	c #080B0C",
"Dp+	c #2C2119",
"Ep+	c #2B2118",
"Fp+	c #2A1E17",
"Gp+	c #32241B",
"Hp+	c #312419",
"Ip+	c #2F2217",
"Jp+	c #322618",
"Kp+	c #332617",
"Lp+	c #372C20",
"Mp+	c #31271D",
"Np+	c #453A2B",
"Op+	c #221814",
"Pp+	c #251B15",
"Qp+	c #241B12",
"Rp+	c #271E14",
"Sp+	c #281F16",
"Tp+	c #756E66",
"Up+	c #605241",
"Vp+	c #625342",
"Wp+	c #655744",
"Xp+	c #655845",
"Yp+	c #665643",
"Zp+	c #6A5841",
"`p+	c #776248",
" q+	c #876F53",
".q+	c #8B7154",
"+q+	c #856C4F",
"@q+	c #81684E",
"#q+	c #7B644C",
"$q+	c #79664E",
"%q+	c #70624F",
"&q+	c #504C40",
"*q+	c #2C2B25",
"=q+	c #1A1A17",
"-q+	c #4D4434",
";q+	c #584F3A",
">q+	c #645943",
",q+	c #776C57",
"'q+	c #7C6F5D",
")q+	c #7E725F",
"!q+	c #18150E",
"~q+	c #6A6255",
"{q+	c #625B57",
"]q+	c #766D65",
"^q+	c #746B63",
"/q+	c #686159",
"(q+	c #36271D",
"_q+	c #2B1F17",
":q+	c #3B2D21",
"<q+	c #3B2C1F",
"[q+	c #3D2C1E",
"}q+	c #30241D",
"|q+	c #363733",
"1q+	c #42413B",
"2q+	c #3D3B34",
"3q+	c #070B0E",
"4q+	c #49463F",
"5q+	c #372A21",
"6q+	c #34251B",
"7q+	c #312117",
"8q+	c #322218",
"9q+	c #2F1F16",
"0q+	c #2E2016",
"aq+	c #2F2118",
"bq+	c #34251A",
"cq+	c #332518",
"dq+	c #322317",
"eq+	c #37291E",
"fq+	c #372B1F",
"gq+	c #372A1B",
"hq+	c #3A2C1E",
"iq+	c #312519",
"jq+	c #362B1F",
"kq+	c #483B2B",
"lq+	c #43372D",
"mq+	c #251C14",
"nq+	c #282119",
"oq+	c #79736B",
"pq+	c #817A6C",
"qq+	c #5C4D3E",
"rq+	c #746047",
"sq+	c #867155",
"tq+	c #83694D",
"uq+	c #81674C",
"vq+	c #7A634B",
"wq+	c #78664C",
"xq+	c #433E31",
"yq+	c #4C4333",
"zq+	c #584E3A",
"Aq+	c #665C46",
"Bq+	c #776D58",
"Cq+	c #776C5B",
"Dq+	c #807666",
"Eq+	c #6F6760",
"Fq+	c #38271C",
"Gq+	c #2C1F16",
"Hq+	c #241A14",
"Iq+	c #3C2E23",
"Jq+	c #3D2D20",
"Kq+	c #3D2C1D",
"Lq+	c #3D2B1C",
"Mq+	c #3A2B20",
"Nq+	c #393A34",
"Oq+	c #3E3226",
"Pq+	c #403127",
"Qq+	c #050A0D",
"Rq+	c #3D322C",
"Sq+	c #474540",
"Tq+	c #403D38",
"Uq+	c #3B2C23",
"Vq+	c #352419",
"Wq+	c #321F13",
"Xq+	c #332014",
"Yq+	c #331E14",
"Zq+	c #322015",
"`q+	c #322014",
" r+	c #352316",
".r+	c #352416",
"+r+	c #342315",
"@r+	c #332316",
"#r+	c #38281B",
"$r+	c #39291D",
"%r+	c #37291C",
"&r+	c #36271B",
"*r+	c #39291B",
"=r+	c #3C2D1F",
"-r+	c #44362A",
";r+	c #38291C",
">r+	c #382B1E",
",r+	c #281C17",
"'r+	c #261B16",
")r+	c #241814",
"!r+	c #271B16",
"~r+	c #241813",
"{r+	c #2C2820",
"]r+	c #594D3E",
"^r+	c #846E54",
"/r+	c #836B50",
"(r+	c #7E664C",
"_r+	c #7E654B",
":r+	c #786249",
"<r+	c #76624A",
"[r+	c #29241B",
"}r+	c #50493B",
"|r+	c #5D5342",
"1r+	c #645946",
"2r+	c #766C57",
"3r+	c #6B6250",
"4r+	c #6D6554",
"5r+	c #6E6758",
"6r+	c #817364",
"7r+	c #796D5E",
"8r+	c #625D58",
"9r+	c #3C2A1D",
"0r+	c #312217",
"ar+	c #291C14",
"br+	c #261C15",
"cr+	c #3E2E1E",
"dr+	c #392B1F",
"er+	c #140D0C",
"fr+	c #40352A",
"gr+	c #0F0F0E",
"hr+	c #363833",
"ir+	c #353734",
"jr+	c #353631",
"kr+	c #363631",
"lr+	c #35352E",
"mr+	c #36342C",
"nr+	c #050A0C",
"or+	c #070A0A",
"pr+	c #433428",
"qr+	c #3C291B",
"rr+	c #382315",
"sr+	c #392314",
"tr+	c #382213",
"ur+	c #382415",
"vr+	c #362213",
"wr+	c #382414",
"xr+	c #362413",
"yr+	c #3B2919",
"zr+	c #372718",
"Ar+	c #382719",
"Br+	c #382718",
"Cr+	c #3D2E1D",
"Dr+	c #403224",
"Er+	c #423021",
"Fr+	c #3F2D1E",
"Gr+	c #3C2B1C",
"Hr+	c #2A1F18",
"Ir+	c #2A1D16",
"Jr+	c #291D16",
"Kr+	c #38352B",
"Lr+	c #343128",
"Mr+	c #675944",
"Nr+	c #736048",
"Or+	c #715D44",
"Pr+	c #7A644C",
"Qr+	c #78664E",
"Rr+	c #766753",
"Sr+	c #544C3D",
"Tr+	c #4B4334",
"Ur+	c #534B3C",
"Vr+	c #6A614E",
"Wr+	c #776C56",
"Xr+	c #766C56",
"Yr+	c #736B56",
"Zr+	c #615847",
"`r+	c #4E4638",
" s+	c #696252",
".s+	c #7E7464",
"+s+	c #827765",
"@s+	c #3E2C1F",
"#s+	c #2C2017",
"$s+	c #3C3029",
"%s+	c #3E3127",
"&s+	c #3E3025",
"*s+	c #3C2C1C",
"=s+	c #37281C",
"-s+	c #251B13",
";s+	c #120A07",
">s+	c #382D26",
",s+	c #35342D",
"'s+	c #35332B",
")s+	c #070B0C",
"!s+	c #090B0B",
"~s+	c #3B2F25",
"{s+	c #3E342C",
"]s+	c #483D35",
"^s+	c #3F2A1C",
"/s+	c #3B2415",
"(s+	c #3D2514",
"_s+	c #3C2313",
":s+	c #392211",
"<s+	c #3B2412",
"[s+	c #392311",
"}s+	c #382211",
"|s+	c #382311",
"1s+	c #3D2816",
"2s+	c #3D2919",
"3s+	c #3C2918",
"4s+	c #382515",
"5s+	c #392716",
"6s+	c #4E463A",
"7s+	c #45301F",
"8s+	c #483221",
"9s+	c #463121",
"0s+	c #30231B",
"as+	c #291C15",
"bs+	c #241B14",
"cs+	c #3D3A31",
"ds+	c #413730",
"es+	c #453C2F",
"fs+	c #5B4D3A",
"gs+	c #5E4E39",
"hs+	c #6F5D47",
"is+	c #766551",
"js+	c #756552",
"ks+	c #706352",
"ls+	c #655747",
"ms+	c #5B5041",
"ns+	c #807665",
"os+	c #7A6F60",
"ps+	c #433225",
"qs+	c #35291F",
"rs+	c #44382F",
"ss+	c #45382D",
"ts+	c #1B1312",
"us+	c #0D0D0B",
"vs+	c #36352D",
"ws+	c #0B0F10",
"xs+	c #0D100F",
"ys+	c #645546",
"zs+	c #5A5346",
"As+	c #101214",
"Bs+	c #101212",
"Cs+	c #4E443A",
"Ds+	c #4C3C2F",
"Es+	c #422E1E",
"Fs+	c #3F2816",
"Gs+	c #412815",
"Hs+	c #402512",
"Is+	c #3F2512",
"Js+	c #3C2411",
"Ks+	c #3D2410",
"Ls+	c #3B230F",
"Ms+	c #3A230F",
"Ns+	c #38220F",
"Os+	c #3E2916",
"Ps+	c #3F2B19",
"Qs+	c #3F2B18",
"Rs+	c #3B2716",
"Ss+	c #3A2514",
"Ts+	c #382511",
"Us+	c #3B2814",
"Vs+	c #433322",
"Ws+	c #443020",
"Xs+	c #463220",
"Ys+	c #4A3422",
"Zs+	c #4A3423",
"`s+	c #493625",
" t+	c #29201B",
".t+	c #382A22",
"+t+	c #241B15",
"@t+	c #28241D",
"#t+	c #3D3C33",
"$t+	c #47453C",
"%t+	c #52483F",
"&t+	c #4D4334",
"*t+	c #4B402F",
"=t+	c #7A6651",
"-t+	c #7C6953",
";t+	c #756653",
">t+	c #71634F",
",t+	c #746652",
"'t+	c #786C56",
")t+	c #594F3F",
"!t+	c #5F5445",
"~t+	c #4E4434",
"{t+	c #392F24",
"]t+	c #151614",
"^t+	c #3D322A",
"/t+	c #45362A",
"(t+	c #403126",
"_t+	c #3A2C1D",
":t+	c #332926",
"<t+	c #4B4438",
"[t+	c #191917",
"}t+	c #5F4F3E",
"|t+	c #645340",
"1t+	c #433628",
"2t+	c #5F574A",
"3t+	c #03060A",
"4t+	c #442F1F",
"5t+	c #402816",
"6t+	c #422814",
"7t+	c #3F2511",
"8t+	c #3C230F",
"9t+	c #3A220E",
"0t+	c #38210E",
"at+	c #37220D",
"bt+	c #3D2814",
"ct+	c #432E1B",
"dt+	c #442E1B",
"et+	c #412B1A",
"ft+	c #402A18",
"gt+	c #3E2815",
"ht+	c #402B17",
"it+	c #412E1A",
"jt+	c #42311E",
"kt+	c #413121",
"lt+	c #392C20",
"mt+	c #422F21",
"nt+	c #473121",
"ot+	c #453021",
"pt+	c #3E2F21",
"qt+	c #3B2D24",
"rt+	c #34271E",
"st+	c #3A3930",
"tt+	c #44443A",
"ut+	c #4E4B43",
"vt+	c #4A4842",
"wt+	c #524535",
"xt+	c #766552",
"yt+	c #71614F",
"zt+	c #625344",
"At+	c #615344",
"Bt+	c #675C4A",
"Ct+	c #605747",
"Dt+	c #504739",
"Et+	c #3F382A",
"Ft+	c #3B3A34",
"Gt+	c #3D2E1F",
"Ht+	c #3A2C1C",
"It+	c #3B2D1E",
"Jt+	c #392C21",
"Kt+	c #3A2F28",
"Lt+	c #4E4135",
"Mt+	c #2F312D",
"Nt+	c #333431",
"Ot+	c #34342C",
"Pt+	c #42352A",
"Qt+	c #554839",
"Rt+	c #574634",
"St+	c #594732",
"Tt+	c #574633",
"Ut+	c #4C3C2C",
"Vt+	c #41382C",
"Wt+	c #5F5748",
"Xt+	c #442B18",
"Yt+	c #442A15",
"Zt+	c #402611",
"`t+	c #3D240F",
" u+	c #39210C",
".u+	c #38200C",
"+u+	c #38220D",
"@u+	c #3F2915",
"#u+	c #47321E",
"$u+	c #48321F",
"%u+	c #47311E",
"&u+	c #462F1B",
"*u+	c #47311C",
"=u+	c #45311C",
"-u+	c #45321E",
";u+	c #433220",
">u+	c #4D4233",
",u+	c #3B2E24",
"'u+	c #3F2F23",
")u+	c #3F2D20",
"!u+	c #412F21",
"~u+	c #3C2B1F",
"{u+	c #382C20",
"]u+	c #372D21",
"^u+	c #362D22",
"/u+	c #3B3930",
"(u+	c #404136",
"_u+	c #3F3D34",
":u+	c #46433A",
"<u+	c #4F4E45",
"[u+	c #535148",
"}u+	c #574939",
"|u+	c #7B6852",
"1u+	c #776451",
"2u+	c #60503E",
"3u+	c #4B3D30",
"4u+	c #3A3328",
"5u+	c #0F0F0C",
"6u+	c #3B2E22",
"7u+	c #37291D",
"8u+	c #3D312A",
"9u+	c #483A2D",
"0u+	c #5D4F41",
"au+	c #3B3B37",
"bu+	c #35342C",
"cu+	c #0E1112",
"du+	c #0F1110",
"eu+	c #52412E",
"fu+	c #52402A",
"gu+	c #55432F",
"hu+	c #473B2B",
"iu+	c #443B2D",
"ju+	c #4D433B",
"ku+	c #452D1A",
"lu+	c #472C17",
"mu+	c #432913",
"nu+	c #422812",
"ou+	c #3E240F",
"pu+	c #3C230D",
"qu+	c #39220C",
"ru+	c #38200B",
"su+	c #38210C",
"tu+	c #422B16",
"uu+	c #48321E",
"vu+	c #47311D",
"wu+	c #49311D",
"xu+	c #49321D",
"yu+	c #462F1C",
"zu+	c #442F1C",
"Au+	c #43301E",
"Bu+	c #433222",
"Cu+	c #36281F",
"Du+	c #33231A",
"Eu+	c #302117",
"Fu+	c #3B3B30",
"Gu+	c #3E3B33",
"Hu+	c #47453B",
"Iu+	c #4C4A41",
"Ju+	c #4F4E44",
"Ku+	c #594B3A",
"Lu+	c #705F4A",
"Mu+	c #705D4A",
"Nu+	c #5D4C3A",
"Ou+	c #413226",
"Pu+	c #3C3326",
"Qu+	c #2D271E",
"Ru+	c #0D0F14",
"Su+	c #4F463A",
"Tu+	c #544C3E",
"Uu+	c #3C3129",
"Vu+	c #3B2F20",
"Wu+	c #35281C",
"Xu+	c #382A21",
"Yu+	c #403128",
"Zu+	c #443629",
"`u+	c #4B3D2C",
" v+	c #544633",
".v+	c #5C4F3C",
"+v+	c #675A48",
"@v+	c #695B48",
"#v+	c #625444",
"$v+	c #37352C",
"%v+	c #574A39",
"&v+	c #55442F",
"*v+	c #4A3D2D",
"=v+	c #4C4231",
"-v+	c #4A4234",
";v+	c #50483A",
">v+	c #595244",
",v+	c #3E3A30",
"'v+	c #4C3827",
")v+	c #4C3522",
"!v+	c #4F3620",
"~v+	c #4B321C",
"{v+	c #483019",
"]v+	c #432A14",
"^v+	c #412811",
"/v+	c #3D250E",
"(v+	c #3B240C",
"_v+	c #3B240D",
":v+	c #462E18",
"<v+	c #4C3620",
"[v+	c #4A331E",
"}v+	c #48311C",
"|v+	c #4A321E",
"1v+	c #48311D",
"2v+	c #49321F",
"3v+	c #432F1D",
"4v+	c #2A1E19",
"5v+	c #2E1E18",
"6v+	c #291A13",
"7v+	c #261A13",
"8v+	c #3C3B31",
"9v+	c #39382E",
"0v+	c #47463B",
"av+	c #49483E",
"bv+	c #4C4C41",
"cv+	c #4F4B42",
"dv+	c #7D6952",
"ev+	c #443529",
"fv+	c #46382C",
"gv+	c #483C2F",
"hv+	c #3F392F",
"iv+	c #27251E",
"jv+	c #24231F",
"kv+	c #3C2F21",
"lv+	c #36271C",
"mv+	c #36281D",
"nv+	c #594937",
"ov+	c #6F604B",
"pv+	c #363228",
"qv+	c #3E3329",
"rv+	c #574937",
"sv+	c #564734",
"tv+	c #51493A",
"uv+	c #554D40",
"vv+	c #493C31",
"wv+	c #4E3A29",
"xv+	c #513C27",
"yv+	c #4F3924",
"zv+	c #4C3520",
"Av+	c #452E18",
"Bv+	c #422A14",
"Cv+	c #3F2710",
"Dv+	c #3E260F",
"Ev+	c #3E2710",
"Fv+	c #473019",
"Gv+	c #4E3720",
"Hv+	c #4B341F",
"Iv+	c #4A321D",
"Jv+	c #4A3320",
"Kv+	c #46301F",
"Lv+	c #453422",
"Mv+	c #221A17",
"Nv+	c #291C18",
"Ov+	c #2E1D18",
"Pv+	c #2C1B14",
"Qv+	c #291912",
"Rv+	c #251913",
"Sv+	c #3F3F3A",
"Tv+	c #3C3D38",
"Uv+	c #443E33",
"Vv+	c #403C33",
"Wv+	c #3D3B32",
"Xv+	c #3F3E35",
"Yv+	c #444238",
"Zv+	c #47443B",
"`v+	c #62513E",
" w+	c #75624C",
".w+	c #776552",
"+w+	c #493A2B",
"@w+	c #3A3932",
"#w+	c #53493C",
"$w+	c #392B1B",
"%w+	c #3A2B1E",
"&w+	c #3B2B20",
"*w+	c #695A45",
"=w+	c #6A5B46",
"-w+	c #6C5A46",
";w+	c #3A3933",
">w+	c #504434",
",w+	c #403627",
"'w+	c #484237",
")w+	c #453627",
"!w+	c #493927",
"~w+	c #493624",
"{w+	c #402B16",
"]w+	c #422B15",
"^w+	c #412A12",
"/w+	c #422A12",
"(w+	c #4B331B",
"_w+	c #503921",
":w+	c #513A22",
"<w+	c #4E3620",
"[w+	c #4B341E",
"}w+	c #493422",
"|w+	c #453423",
"1w+	c #2F2319",
"2w+	c #1A1310",
"3w+	c #2D1C15",
"4w+	c #3B3C38",
"5w+	c #2E302C",
"6w+	c #413D33",
"7w+	c #33322C",
"8w+	c #413E35",
"9w+	c #48463B",
"0w+	c #594938",
"aw+	c #63513D",
"bw+	c #76634C",
"cw+	c #716049",
"dw+	c #706150",
"ew+	c #5E5040",
"fw+	c #43372B",
"gw+	c #38342A",
"hw+	c #3A2A1C",
"iw+	c #3C2B1E",
"jw+	c #3C2C21",
"kw+	c #3D2C22",
"lw+	c #3F3024",
"mw+	c #655542",
"nw+	c #685643",
"ow+	c #665441",
"pw+	c #675543",
"qw+	c #4D4131",
"rw+	c #0D1011",
"sw+	c #0E1010",
"tw+	c #40392C",
"uw+	c #231C13",
"vw+	c #19150F",
"ww+	c #2E231B",
"xw+	c #33271B",
"yw+	c #342313",
"zw+	c #35210F",
"Aw+	c #412914",
"Bw+	c #412912",
"Cw+	c #432B13",
"Dw+	c #4C331B",
"Ew+	c #523921",
"Fw+	c #533A22",
"Gw+	c #503720",
"Hw+	c #4D3621",
"Iw+	c #4C3421",
"Jw+	c #4D3623",
"Kw+	c #4A3424",
"Lw+	c #483425",
"Mw+	c #271A0F",
"Nw+	c #1F150D",
"Ow+	c #2E211B",
"Pw+	c #2D1C17",
"Qw+	c #281912",
"Rw+	c #2E2D27",
"Sw+	c #333129",
"Tw+	c #725F49",
"Uw+	c #584B37",
"Vw+	c #4F4634",
"Ww+	c #534A3C",
"Xw+	c #2F292A",
"Yw+	c #43352B",
"Zw+	c #2B2117",
"`w+	c #322E24",
" x+	c #453729",
".x+	c #3E2F20",
"+x+	c #3E2D1E",
"@x+	c #3F2E1F",
"#x+	c #3F2E21",
"$x+	c #3E2F24",
"%x+	c #4E4333",
"&x+	c #584839",
"*x+	c #5D4C3C",
"=x+	c #605244",
"-x+	c #584A37",
";x+	c #2F2A20",
">x+	c #271D16",
",x+	c #291C13",
"'x+	c #301E0E",
")x+	c #3F2A18",
"!x+	c #432C17",
"~x+	c #422B13",
"{x+	c #442C13",
"]x+	c #4E351D",
"^x+	c #543B22",
"/x+	c #553D23",
"(x+	c #513821",
"_x+	c #503922",
":x+	c #4F3823",
"<x+	c #4F3927",
"[x+	c #4D3929",
"}x+	c #2D2013",
"|x+	c #261B11",
"1x+	c #2A1A13",
"2x+	c #281913",
"3x+	c #2D2D27",
"4x+	c #16110C",
"5x+	c #61513D",
"6x+	c #4C402F",
"7x+	c #3E382A",
"8x+	c #3A3429",
"9x+	c #251D15",
"0x+	c #3B3433",
"ax+	c #35291B",
"bx+	c #31261A",
"cx+	c #2F251A",
"dx+	c #332F27",
"ex+	c #54463C",
"fx+	c #2D241B",
"gx+	c #3D3326",
"hx+	c #413222",
"ix+	c #584A3C",
"jx+	c #3B2A1C",
"kx+	c #3D2C20",
"lx+	c #3E2E23",
"mx+	c #3E2F25",
"nx+	c #45382E",
"ox+	c #504135",
"px+	c #574734",
"qx+	c #5F4D39",
"rx+	c #281C14",
"sx+	c #291C11",
"tx+	c #3D2918",
"ux+	c #422B17",
"vx+	c #442C15",
"wx+	c #4D351D",
"xx+	c #543C23",
"yx+	c #553E24",
"zx+	c #553D24",
"Ax+	c #563D25",
"Bx+	c #523C25",
"Cx+	c #503A25",
"Dx+	c #4F3A27",
"Ex+	c #4E3A28",
"Fx+	c #453324",
"Gx+	c #36271A",
"Hx+	c #423428",
"Ix+	c #2F1F19",
"Jx+	c #291913",
"Kx+	c #251611",
"Lx+	c #231712",
"Mx+	c #2E2C26",
"Nx+	c #2F2D26",
"Ox+	c #3C382E",
"Px+	c #53463E",
"Qx+	c #50433B",
"Rx+	c #5A4B3B",
"Sx+	c #6D5D48",
"Tx+	c #665644",
"Ux+	c #483D2C",
"Vx+	c #3A3529",
"Wx+	c #3A3230",
"Xx+	c #3A2C23",
"Yx+	c #342619",
"Zx+	c #362A1F",
"`x+	c #271D17",
" y+	c #4B3D31",
".y+	c #19130C",
"+y+	c #33241A",
"@y+	c #33251B",
"#y+	c #392A20",
"$y+	c #3C2C24",
"%y+	c #413229",
"&y+	c #3E3027",
"*y+	c #4C4138",
"=y+	c #463C2D",
"-y+	c #5E4D3A",
";y+	c #0D0F10",
">y+	c #0E0F0D",
",y+	c #2B2018",
"'y+	c #2B1E14",
")y+	c #2F2013",
"!y+	c #3D291A",
"~y+	c #412B19",
"{y+	c #402A16",
"]y+	c #412A15",
"^y+	c #49321C",
"/y+	c #4F3720",
"(y+	c #523B23",
"_y+	c #523922",
":y+	c #533A24",
"<y+	c #513A24",
"[y+	c #523D29",
"}y+	c #533E2A",
"|y+	c #503B28",
"1y+	c #4A3626",
"2y+	c #312620",
"3y+	c #32241E",
"4y+	c #2B1D16",
"5y+	c #39362C",
"6y+	c #584B42",
"7y+	c #423831",
"8y+	c #605240",
"9y+	c #473C2C",
"0y+	c #3B3629",
"ay+	c #413D32",
"by+	c #3D392D",
"cy+	c #282015",
"dy+	c #332C29",
"ey+	c #34261A",
"fy+	c #35271B",
"gy+	c #1C161A",
"hy+	c #4C3D31",
"iy+	c #584737",
"jy+	c #534433",
"ky+	c #4A3B2C",
"ly+	c #3F3123",
"my+	c #221713",
"ny+	c #3B2D26",
"oy+	c #41392B",
"py+	c #534436",
"qy+	c #30251D",
"ry+	c #241711",
"sy+	c #25170E",
"ty+	c #28170C",
"uy+	c #321E0F",
"vy+	c #341E0D",
"wy+	c #331D0A",
"xy+	c #331C08",
"yy+	c #37200B",
"zy+	c #3B220D",
"Ay+	c #3E250F",
"By+	c #3F2610",
"Cy+	c #442E17",
"Dy+	c #4C3622",
"Ey+	c #523C2A",
"Fy+	c #533D2A",
"Gy+	c #513B28",
"Hy+	c #4F3A26",
"Iy+	c #4B3624",
"Jy+	c #50443C",
"Ky+	c #433932",
"Ly+	c #3E3628",
"My+	c #33281F",
"Ny+	c #33261B",
"Oy+	c #342519",
"Py+	c #332921",
"Qy+	c #1B151A",
"Ry+	c #47382C",
"Sy+	c #4E3D2E",
"Ty+	c #4D3F30",
"Uy+	c #3E3128",
"Vy+	c #0F100D",
"Wy+	c #1D0F0A",
"Xy+	c #201008",
"Yy+	c #231107",
"Zy+	c #2A1609",
"`y+	c #2C1607",
" z+	c #2E1707",
".z+	c #2D1605",
"+z+	c #301805",
"@z+	c #321A07",
"#z+	c #371F0A",
"$z+	c #3E2611",
"%z+	c #4B3522",
"&z+	c #523D2A",
"*z+	c #543F2C",
"=z+	c #523C29",
"-z+	c #503B27",
";z+	c #4D3826",
">z+	c #443122",
",z+	c #403022",
"'z+	c #3A2C21",
")z+	c #382D21",
"!z+	c #4D4437",
"~z+	c #3C392F",
"{z+	c #38352C",
"]z+	c #464136",
"^z+	c #483D34",
"/z+	c #504C43",
"(z+	c #2E231A",
"_z+	c #413529",
":z+	c #37281D",
"<z+	c #14171B",
"[z+	c #352619",
"}z+	c #342618",
"|z+	c #34281A",
"1z+	c #392D20",
"2z+	c #3C312A",
"3z+	c #151015",
"4z+	c #161116",
"5z+	c #140D0E",
"6z+	c #473628",
"7z+	c #3B2D22",
"8z+	c #3D2F25",
"9z+	c #594B3E",
"0z+	c #55473A",
"az+	c #453B35",
"bz+	c #2F231F",
"cz+	c #392B22",
"dz+	c #3C2D23",
"ez+	c #473629",
"fz+	c #2C221A",
"gz+	c #382F2B",
"hz+	c #3B383C",
"iz+	c #333136",
"jz+	c #1E1411",
"kz+	c #20140F",
"lz+	c #20110D",
"mz+	c #23130C",
"nz+	c #26140B",
"oz+	c #2C190D",
"pz+	c #2D180B",
"qz+	c #2E190B",
"rz+	c #2E190A",
"sz+	c #301B0B",
"tz+	c #331D0D",
"uz+	c #372210",
"vz+	c #392312",
"wz+	c #3F2A17",
"xz+	c #442F1D",
"yz+	c #4B3625",
"zz+	c #503E2B",
"Az+	c #503D2A",
"Bz+	c #503B29",
"Cz+	c #473523",
"Dz+	c #413020",
"Ez+	c #3C3930",
"Fz+	c #443222",
"Gz+	c #463527",
"Hz+	c #48392C",
"Iz+	c #423325",
"Jz+	c #423424",
"Kz+	c #342417",
"Lz+	c #0C1015",
"Mz+	c #070A11",
"Nz+	c #352718",
"Oz+	c #332719",
"Pz+	c #372B1E",
"Qz+	c #1A1211",
"Rz+	c #433529",
"Sz+	c #4A3727",
"Tz+	c #453424",
"Uz+	c #221A15",
"Vz+	c #1F130E",
"Wz+	c #1E120C",
"Xz+	c #21130D",
"Yz+	c #23150D",
"Zz+	c #27180F",
"`z+	c #26170D",
" A+	c #27180D",
".A+	c #29190D",
"+A+	c #2B1B10",
"@A+	c #2E1F12",
"#A+	c #352517",
"$A+	c #423122",
"%A+	c #4E3B29",
"&A+	c #4B3726",
"*A+	c #463523",
"=A+	c #403020",
"-A+	c #3D2E20",
";A+	c #464034",
">A+	c #171A1E",
",A+	c #3E2C1C",
"'A+	c #443424",
")A+	c #443425",
"!A+	c #433424",
"~A+	c #3F2E1E",
"{A+	c #342516",
"]A+	c #32261C",
"^A+	c #060A0E",
"/A+	c #04080D",
"(A+	c #29251E",
"_A+	c #2F251B",
":A+	c #352617",
"<A+	c #362819",
"[A+	c #372C1F",
"}A+	c #453326",
"|A+	c #433223",
"1A+	c #453528",
"2A+	c #3B2C22",
"3A+	c #433022",
"4A+	c #45311F",
"5A+	c #48331F",
"6A+	c #493420",
"7A+	c #4A3421",
"8A+	c #473221",
"9A+	c #453322",
"0A+	c #443429",
"aA+	c #22211C",
"bA+	c #504433",
"cA+	c #3E3325",
"dA+	c #0B0B09",
"eA+	c #353133",
"fA+	c #130B0C",
"gA+	c #19100E",
"hA+	c #271C18",
"iA+	c #221711",
"jA+	c #1D100B",
"kA+	c #1B0F0A",
"lA+	c #1A0E09",
"mA+	c #190E0A",
"nA+	c #1A110C",
"oA+	c #1E1510",
"pA+	c #211711",
"qA+	c #231912",
"rA+	c #251B12",
"sA+	c #2E2217",
"tA+	c #493626",
"uA+	c #4B3B2B",
"vA+	c #493E31",
"wA+	c #3C3027",
"xA+	c #4F4135",
"yA+	c #604E3E",
"zA+	c #5F4D3E",
"AA+	c #5D4C3F",
"BA+	c #54453A",
"CA+	c #403C31",
"DA+	c #443628",
"EA+	c #443528",
"FA+	c #453524",
"GA+	c #332415",
"HA+	c #312317",
"IA+	c #1B1411",
"JA+	c #322518",
"KA+	c #332517",
"LA+	c #342616",
"MA+	c #4D392B",
"NA+	c #4A3828",
"OA+	c #4C3929",
"PA+	c #4C3D30",
"QA+	c #483A2E",
"RA+	c #463426",
"SA+	c #4B3724",
"TA+	c #4B331C",
"UA+	c #4C341E",
"VA+	c #443223",
"WA+	c #453527",
"XA+	c #463629",
"YA+	c #453629",
"ZA+	c #1D1D1A",
"`A+	c #574835",
" B+	c #584834",
".B+	c #50412D",
"+B+	c #453726",
"@B+	c #413424",
"#B+	c #0B0B08",
"$B+	c #332720",
"%B+	c #221B1C",
"&B+	c #221612",
"*B+	c #281B16",
"=B+	c #2B1D18",
"-B+	c #291A14",
";B+	c #261710",
">B+	c #20110A",
",B+	c #1D100A",
"'B+	c #1A0F0B",
")B+	c #19100D",
"!B+	c #1C1610",
"~B+	c #524635",
"{B+	c #584F3F",
"]B+	c #584D3E",
"^B+	c #574D3D",
"/B+	c #3A372D",
"(B+	c #3C382D",
"_B+	c #624F3E",
":B+	c #614C3A",
"<B+	c #644F3D",
"[B+	c #665242",
"}B+	c #59493C",
"|B+	c #413D31",
"1B+	c #444036",
"2B+	c #3C2A1B",
"3B+	c #3F2D1D",
"4B+	c #473729",
"5B+	c #473624",
"6B+	c #483725",
"7B+	c #433323",
"8B+	c #332619",
"9B+	c #332516",
"0B+	c #352717",
"aB+	c #3A2F23",
"bB+	c #4C3829",
"cB+	c #4E3A2A",
"dB+	c #4D3B2C",
"eB+	c #4C3C2E",
"fB+	c #493B2E",
"gB+	c #4D3D2D",
"hB+	c #4E3B28",
"iB+	c #4E351F",
"jB+	c #4F361F",
"kB+	c #4D341D",
"lB+	c #473220",
"mB+	c #443226",
"nB+	c #453529",
"oB+	c #50402B",
"pB+	c #473724",
"qB+	c #31251F",
"rB+	c #271D1B",
"sB+	c #2A1912",
"tB+	c #27150E",
"uB+	c #21110A",
"vB+	c #1F1009",
"wB+	c #1D120D",
"xB+	c #5B5141",
"yB+	c #53493B",
"zB+	c #322721",
"AB+	c #483A30",
"BB+	c #564537",
"CB+	c #69523E",
"DB+	c #675140",
"EB+	c #3F3C31",
"FB+	c #423F35",
"GB+	c #504C42",
"HB+	c #3F2D1F",
"IB+	c #473526",
"JB+	c #4B3927",
"KB+	c #4D3C2A",
"LB+	c #4F3F2E",
"MB+	c #241B1A",
"NB+	c #0E0808",
"OB+	c #33261A",
"PB+	c #322517",
"QB+	c #322416",
"RB+	c #332618",
"SB+	c #46382D",
"TB+	c #4A3B2E",
"UB+	c #503C29",
"VB+	c #523D27",
"WB+	c #503923",
"XB+	c #4F3822",
"YB+	c #443221",
"ZB+	c #433224",
"`B+	c #423227",
" C+	c #453728",
".C+	c #564632",
"+C+	c #574630",
"@C+	c #51412A",
"#C+	c #463826",
"$C+	c #281E1D",
"%C+	c #2A1E1A",
"&C+	c #291B14",
"*C+	c #281810",
"=C+	c #28160E",
"-C+	c #25140C",
";C+	c #26150D",
">C+	c #23140D",
",C+	c #22150E",
"'C+	c #201511",
")C+	c #534637",
"!C+	c #574D3E",
"~C+	c #584F40",
"{C+	c #5D5242",
"]C+	c #5B5040",
"^C+	c #554B3C",
"/C+	c #494234",
"(C+	c #46372D",
"_C+	c #66513E",
":C+	c #6D5742",
"<C+	c #6B5340",
"[C+	c #665140",
"}C+	c #514E45",
"|C+	c #4E4C47",
"1C+	c #35281A",
"2C+	c #402E1E",
"3C+	c #3B2B21",
"4C+	c #38271D",
"5C+	c #39281B",
"6C+	c #402E1F",
"7C+	c #463324",
"8C+	c #493727",
"9C+	c #463525",
"0C+	c #493829",
"aC+	c #231A19",
"bC+	c #312417",
"cC+	c #483729",
"dC+	c #4F3B2B",
"eC+	c #4D3B2B",
"fC+	c #44372C",
"gC+	c #4A3725",
"hC+	c #4C3725",
"iC+	c #463223",
"jC+	c #453224",
"kC+	c #413023",
"lC+	c #3F3128",
"mC+	c #413227",
"nC+	c #433427",
"oC+	c #54432D",
"pC+	c #503F28",
"qC+	c #483724",
"rC+	c #201716",
"sC+	c #231713",
"tC+	c #24150F",
"uC+	c #25170F",
"vC+	c #24140D",
"wC+	c #26150C",
"xC+	c #29170C",
"yC+	c #2C190F",
"zC+	c #2D1B12",
"AC+	c #2A1B12",
"BC+	c #1F1511",
"CC+	c #5E5242",
"DC+	c #3F3025",
"EC+	c #664F3D",
"FC+	c #624D3C",
"GC+	c #413E37",
"HC+	c #4D4A42",
"IC+	c #323234",
"JC+	c #412E22",
"KC+	c #412C1F",
"LC+	c #422F1E",
"MC+	c #412E1F",
"NC+	c #423223",
"OC+	c #1F1717",
"PC+	c #1A1212",
"QC+	c #170F10",
"RC+	c #2B1F15",
"SC+	c #2A1E13",
"TC+	c #271C12",
"UC+	c #302620",
"VC+	c #30271F",
"WC+	c #443427",
"XC+	c #4A3829",
"YC+	c #4F3C2B",
"ZC+	c #4A3B2B",
"`C+	c #4D3A28",
" D+	c #4D3A29",
".D+	c #3D2C1F",
"+D+	c #302016",
"@D+	c #2D2017",
"#D+	c #33251F",
"$D+	c #463628",
"%D+	c #1A120A",
"&D+	c #281C12",
"*D+	c #4F3F27",
"=D+	c #1C110C",
"-D+	c #1F110A",
";D+	c #21120B",
">D+	c #21120A",
",D+	c #26160C",
"'D+	c #2F1E11",
")D+	c #392618",
"!D+	c #3A271A",
"~D+	c #352318",
"{D+	c #2C1D14",
"]D+	c #261912",
"^D+	c #534838",
"/D+	c #3E372A",
"(D+	c #3B3428",
"_D+	c #413B2D",
":D+	c #362820",
"<D+	c #3D2D21",
"[D+	c #3C2F22",
"}D+	c #564430",
"|D+	c #5C4834",
"1D+	c #5B4634",
"2D+	c #5C4937",
"3D+	c #524435",
"4D+	c #483D31",
"5D+	c #3F3C30",
"6D+	c #382C1F",
"7D+	c #413022",
"8D+	c #463123",
"9D+	c #442E20",
"0D+	c #3A2819",
"aD+	c #33281C",
"bD+	c #181111",
"cD+	c #2B2019",
"dD+	c #291D13",
"eD+	c #271A10",
"fD+	c #22170E",
"gD+	c #30261C",
"hD+	c #2A2019",
"iD+	c #2A2721",
"jD+	c #1F150F",
"kD+	c #180F0A",
"lD+	c #4C3A2B",
"mD+	c #4B3A2B",
"nD+	c #1E1613",
"oD+	c #2E231C",
"pD+	c #443325",
"qD+	c #423225",
"rD+	c #2B1E15",
"sD+	c #160B08",
"tD+	c #120A0A",
"uD+	c #120B0D",
"vD+	c #170F0C",
"wD+	c #1C130C",
"xD+	c #4B3C28",
"yD+	c #4C3C26",
"zD+	c #483723",
"AD+	c #463624",
"BD+	c #241610",
"CD+	c #22140D",
"DD+	c #342317",
"ED+	c #3D2A1C",
"FD+	c #402C1F",
"GD+	c #3C281A",
"HD+	c #332015",
"ID+	c #2C1B12",
"JD+	c #22160F",
"KD+	c #514635",
"LD+	c #373224",
"MD+	c #403425",
"ND+	c #35271F",
"OD+	c #362920",
"PD+	c #3F2F22",
"QD+	c #3E2D21",
"RD+	c #3F2E23",
"SD+	c #493928",
"TD+	c #53422F",
"UD+	c #52402F",
"VD+	c #433021",
"WD+	c #463022",
"XD+	c #3F2C1C",
"YD+	c #302418",
"ZD+	c #1A1213",
"`D+	c #32261F",
" E+	c #37291F",
".E+	c #261D14",
"+E+	c #2E241C",
"@E+	c #2D2018",
"#E+	c #251812",
"$E+	c #4A392B",
"%E+	c #433325",
"&E+	c #443123",
"*E+	c #453425",
"=E+	c #413224",
"-E+	c #443726",
";E+	c #4B3B27",
">E+	c #4E3E28",
",E+	c #2A1E1B",
"'E+	c #241910",
")E+	c #3A2518",
"!E+	c #28190F",
"~E+	c #221811",
"{E+	c #2B261D",
"]E+	c #26221B",
"^E+	c #544936",
"/E+	c #372E20",
"(E+	c #3E3223",
"_E+	c #433326",
":E+	c #423224",
"<E+	c #403023",
"[E+	c #3D2F22",
"}E+	c #3C3222",
"|E+	c #504030",
"1E+	c #3E3A2E",
"2E+	c #3F3C32",
"3E+	c #312F25",
"4E+	c #271E15",
"5E+	c #302417",
"6E+	c #3B2F1F",
"7E+	c #423323",
"8E+	c #453223",
"9E+	c #412F1E",
"0E+	c #1E1614",
"aE+	c #1B1313",
"bE+	c #403226",
"cE+	c #291E16",
"dE+	c #271D14",
"eE+	c #1F1712",
"fE+	c #130E0E",
"gE+	c #3D2D22",
"hE+	c #382920",
"iE+	c #07050B",
"jE+	c #2D221B",
"kE+	c #33251C",
"lE+	c #1F150E",
"mE+	c #0E0605",
"nE+	c #412E20",
"oE+	c #403123",
"pE+	c #30251C",
"qE+	c #3F3023",
"rE+	c #4F3E29",
"sE+	c #463625",
"tE+	c #3A2618",
"uE+	c #342012",
"vE+	c #2E1C11",
"wE+	c #271A12",
"xE+	c #1F1510",
"yE+	c #564736",
"zE+	c #554835",
"AE+	c #584B3B",
"BE+	c #5C5140",
"CE+	c #453325",
"DE+	c #423022",
"EE+	c #402F22",
"FE+	c #362C1F",
"GE+	c #382E1F",
"HE+	c #3C372B",
"IE+	c #3E392C",
"JE+	c #413C2F",
"KE+	c #19130B",
"LE+	c #281F13",
"ME+	c #3A2F22",
"NE+	c #453222",
"OE+	c #473423",
"PE+	c #41301F",
"QE+	c #1F1615",
"RE+	c #1B1314",
"SE+	c #241911",
"TE+	c #3E2C1E",
"UE+	c #3D3222",
"VE+	c #3D2B1D",
"WE+	c #403324",
"XE+	c #403325",
"YE+	c #433726",
"ZE+	c #4D3E2A",
"`E+	c #50412C",
" F+	c #372517",
".F+	c #332012",
"+F+	c #2C1D13",
"@F+	c #241A13",
"#F+	c #5A4C39",
"$F+	c #564936",
"%F+	c #584C39",
"&F+	c #5F503F",
"*F+	c #5A4E3D",
"=F+	c #4C4538",
"-F+	c #322A1E",
";F+	c #2A241A",
">F+	c #493828",
",F+	c #473525",
"'F+	c #423123",
")F+	c #372F1F",
"!F+	c #383326",
"~F+	c #464031",
"{F+	c #595243",
"]F+	c #5E5646",
"^F+	c #585140",
"/F+	c #4E4736",
"(F+	c #444032",
"_F+	c #453827",
":F+	c #433422",
"<F+	c #443524",
"[F+	c #423422",
"}F+	c #362B1B",
"|F+	c #392C22",
"1F+	c #261B13",
"2F+	c #3A2B1C",
"3F+	c #39291E",
"4F+	c #362C1D",
"5F+	c #3B2A1A",
"6F+	c #23170F",
"7F+	c #2D1F13",
"8F+	c #312014",
"9F+	c #332215",
"0F+	c #382C21",
"aF+	c #413525",
"bF+	c #4B3D2A",
"cF+	c #4C3E2B",
"dF+	c #2A2A23",
"eF+	c #2D2C23",
"fF+	c #322215",
"gF+	c #342111",
"hF+	c #1A140C",
"iF+	c #56493A",
"jF+	c #534633",
"kF+	c #594A39",
"lF+	c #584B39",
"mF+	c #484439",
"nF+	c #2F291E",
"oF+	c #25221A",
"pF+	c #4A3B2D",
"qF+	c #473425",
"rF+	c #463425",
"sF+	c #413123",
"tF+	c #352D20",
"uF+	c #342F22",
"vF+	c #4C4635",
"wF+	c #6E6855",
"xF+	c #7A735E",
"yF+	c #746C58",
"zF+	c #615946",
"AF+	c #4F4736",
"BF+	c #413D2E",
"CF+	c #3D3A2D",
"DF+	c #3A382C",
"EF+	c #43392A",
"FF+	c #433727",
"GF+	c #403424",
"HF+	c #1C1415",
"IF+	c #1D1517",
"JF+	c #413328",
"KF+	c #271D18",
"LF+	c #31241A",
"MF+	c #31271A",
"NF+	c #3F2D1B",
"OF+	c #362B21",
"PF+	c #190F08",
"QF+	c #25180E",
"RF+	c #291A10",
"SF+	c #2A1B0F",
"TF+	c #423525",
"UF+	c #1E1F1B",
"VF+	c #20211B",
"WF+	c #201E19",
"XF+	c #291B11",
"YF+	c #301D0F",
"ZF+	c #352110",
"`F+	c #281B13",
" G+	c #180E06",
".G+	c #22170B",
"+G+	c #22180E",
"@G+	c #514535",
"#G+	c #574836",
"$G+	c #50412F",
"%G+	c #222119",
"&G+	c #22211A",
"*G+	c #26251F",
"=G+	c #282621",
"-G+	c #49392A",
";G+	c #443324",
">G+	c #342E21",
",G+	c #4B4534",
"'G+	c #6D6652",
")G+	c #79715B",
"!G+	c #746B54",
"~G+	c #5E5441",
"{G+	c #4A412F",
"]G+	c #3C3526",
"^G+	c #393426",
"/G+	c #393528",
"(G+	c #373428",
"_G+	c #322F26",
":G+	c #1E1618",
"<G+	c #191110",
"[G+	c #2D221F",
"}G+	c #3C2E24",
"|G+	c #392E29",
"1G+	c #3B3022",
"2G+	c #33261C",
"3G+	c #2D2419",
"4G+	c #382716",
"5G+	c #332416",
"6G+	c #2F2117",
"7G+	c #1A110B",
"8G+	c #26190E",
"9G+	c #3F322A",
"0G+	c #231C1C",
"aG+	c #181010",
"bG+	c #1C1313",
"cG+	c #2D1C10",
"dG+	c #301D10",
"eG+	c #281A11",
"fG+	c #20160E",
"gG+	c #1B110A",
"hG+	c #1B1008",
"iG+	c #201108",
"jG+	c #27180B",
"kG+	c #281A0D",
"lG+	c #433525",
"mG+	c #1F1D16",
"nG+	c #32271D",
"oG+	c #6D624D",
"pG+	c #534734",
"qG+	c #393021",
"rG+	c #393224",
"sG+	c #3B3529",
"tG+	c #1D1618",
"uG+	c #2C201F",
"vG+	c #211713",
"wG+	c #1E1719",
"xG+	c #221C15",
"yG+	c #352A1E",
"zG+	c #271C15",
"AG+	c #2A211E",
"BG+	c #322315",
"CG+	c #180E08",
"DG+	c #19100B",
"EG+	c #1A1009",
"FG+	c #1F130B",
"GG+	c #23160D",
"HG+	c #25180D",
"IG+	c #473A2E",
"JG+	c #453626",
"KG+	c #191112",
"LG+	c #1A1112",
"MG+	c #2D1E13",
"NG+	c #342113",
"OG+	c #301E12",
"PG+	c #241810",
"QG+	c #22170F",
"RG+	c #271910",
"SG+	c #2B180D",
"TG+	c #301D0D",
"UG+	c #2E1E0E",
"VG+	c #423324",
"WG+	c #221810",
"XG+	c #413221",
"YG+	c #392E21",
"ZG+	c #3C3123",
"`G+	c #564B39",
" H+	c #5C4E3C",
".H+	c #3E3324",
"+H+	c #0E090A",
"@H+	c #241D1E",
"#H+	c #1E1516",
"$H+	c #33241E",
"%H+	c #30231D",
"&H+	c #1A1315",
"*H+	c #241916",
"=H+	c #33261E",
"-H+	c #33241B",
";H+	c #32241C",
">H+	c #2A1F1D",
",H+	c #372B26",
"'H+	c #291D18",
")H+	c #201512",
"!H+	c #2F261C",
"~H+	c #191212",
"{H+	c #171011",
"]H+	c #251C16",
"^H+	c #433429",
"/H+	c #302319",
"(H+	c #1A0F08",
"_H+	c #1F140B",
":H+	c #23170D",
"<H+	c #25170D",
"[H+	c #24180D",
"}H+	c #261B10",
"|H+	c #4B3B2E",
"1H+	c #282122",
"2H+	c #2C2424",
"3H+	c #2A2122",
"4H+	c #20181A",
"5H+	c #170E0F",
"6H+	c #160F10",
"7H+	c #301E14",
"8H+	c #2D1D13",
"9H+	c #251811",
"0H+	c #2D1C13",
"aH+	c #321D11",
"bH+	c #341F0F",
"cH+	c #322011",
"dH+	c #2E2423",
"eH+	c #302626",
"fH+	c #4A3A2B",
"gH+	c #48392B",
"hH+	c #0A0503",
"iH+	c #130C08",
"jH+	c #221912",
"kH+	c #524234",
"lH+	c #504031",
"mH+	c #48382A",
"nH+	c #2A201F",
"oH+	c #251C1D",
"pH+	c #3E3330",
"qH+	c #231812",
"rH+	c #2B1F20",
"sH+	c #322422",
"tH+	c #33241F",
"uH+	c #2F221F",
"vH+	c #211818",
"wH+	c #211715",
"xH+	c #251815",
"yH+	c #33231C",
"zH+	c #251C1A",
"AH+	c #2E2320",
"BH+	c #332723",
"CH+	c #342824",
"DH+	c #332622",
"EH+	c #291D19",
"FH+	c #201613",
"GH+	c #191316",
"HH+	c #19100F",
"IH+	c #2F241B",
"JH+	c #291E13",
"KH+	c #2B1E12",
"LH+	c #2A1C11",
"MH+	c #291B0F",
"NH+	c #2A1E12",
"OH+	c #413936",
"PH+	c #2B2325",
"QH+	c #2B2426",
"RH+	c #180F0F",
"SH+	c #291C16",
"TH+	c #2D1D14",
"UH+	c #331E10",
"VH+	c #392212",
"WH+	c #392517",
"XH+	c #34261D",
"YH+	c #302A2B",
"ZH+	c #352D2D",
"`H+	c #3C3633",
" I+	c #45372C",
".I+	c #372C26",
"+I+	c #2C2321",
"@I+	c #0D0709",
"#I+	c #271E1E",
"$I+	c #3E3432",
"%I+	c #1E1617",
"&I+	c #2A1F20",
"*I+	c #30241F",
"=I+	c #332721",
"-I+	c #281D1A",
";I+	c #191215",
">I+	c #322418",
",I+	c #332318",
"'I+	c #35261A",
")I+	c #302215",
"!I+	c #302317",
"~I+	c #221B1D",
"{I+	c #1E1414",
"]I+	c #201715",
"^I+	c #271B17",
"/I+	c #2E1D16",
"(I+	c #331F12",
"_I+	c #3D271B",
":I+	c #37271F",
"<I+	c #2D2423",
"[I+	c #342929",
"}I+	c #372927",
"|I+	c #342A25",
"1I+	c #413A3A",
"2I+	c #291F20",
"3I+	c #3B302F",
"4I+	c #3D312F",
"5I+	c #372924",
"6I+	c #42342D",
"7I+	c #453830",
"8I+	c #251C1E",
"9I+	c #2A1F1F",
"0I+	c #201818",
"aI+	c #1F1718",
"bI+	c #160E0D",
"cI+	c #3A2C1F",
"dI+	c #0A060B",
"eI+	c #1E1515",
"fI+	c #251B19",
"gI+	c #2C1E19",
"hI+	c #3C271B",
"iI+	c #3E2A1E",
"jI+	c #37281F",
"kI+	c #322524",
"lI+	c #312220",
"mI+	c #34251E",
"nI+	c #4F4847",
"oI+	c #3E3839",
"pI+	c #191217",
"qI+	c #20171B",
"rI+	c #2C2324",
"sI+	c #2F2424",
"tI+	c #342725",
"uI+	c #1C1618",
"vI+	c #1F1618",
"wI+	c #211816",
"xI+	c #100A0C",
"yI+	c #251C19",
"zI+	c #2F2726",
"AI+	c #1D1414",
"BI+	c #1E1616",
"CI+	c #140C0D",
"DI+	c #140C0B",
"EI+	c #261C19",
"FI+	c #423328",
"GI+	c #09060C",
"HI+	c #110B0D",
"II+	c #1F1617",
"JI+	c #2D2221",
"KI+	c #2E1F19",
"LI+	c #2F2321",
"MI+	c #342923",
"NI+	c #3A3433",
"OI+	c #484140",
"PI+	c #484241",
"QI+	c #140F14",
"RI+	c #181116",
"SI+	c #1D1519",
"TI+	c #1F1619",
"UI+	c #21191A",
"VI+	c #22191A",
"WI+	c #281F1F",
"XI+	c #2C2626",
"YI+	c #1F1517",
"ZI+	c #1E1513",
"`I+	c #160F12",
" J+	c #362921",
".J+	c #1E1410",
"+J+	c #3C3534",
"@J+	c #201616",
"#J+	c #1F1514",
"$J+	c #000203",
"%J+	c #140D0F",
"&J+	c #130C0E",
"*J+	c #130B0E",
"=J+	c #110A0C",
"-J+	c #130C0D",
";J+	c #1B1213",
">J+	c #201611",
",J+	c #181110",
"'J+	c #0C0604",
")J+	c #000202",
"!J+	c #0E0909",
"~J+	c #060101",
"{J+	c #0A0601",
"]J+	c #090400",
"^J+	c #070400",
"/J+	c #070300",
"(J+	c #090702",
"_J+	c #0A0803",
":J+	c #0B0803",
"<J+	c #0B0903",
"[J+	c #0C0B06",
"}J+	c #100A05",
"|J+	c #0E0702",
"1J+	c #0F0A04",
"2J+	c #050000",
"3J+	c #070100",
"4J+	c #2D261C",
"5J+	c #3F3528",
"6J+	c #3A3021",
"7J+	c #1E140C",
"8J+	c #20140B",
"9J+	c #21150B",
"0J+	c #1F140C",
"aJ+	c #20150C",
"bJ+	c #050401",
"cJ+	c #493F30",
"dJ+	c #655540",
"eJ+	c #62523E",
"fJ+	c #62523F",
"gJ+	c #635240",
"hJ+	c #60513F",
"iJ+	c #5B5142",
"jJ+	c #63584B",
"kJ+	c #6A5E51",
"lJ+	c #6C5F52",
"mJ+	c #6E5F53",
"nJ+	c #695A4E",
"oJ+	c #5F5143",
"pJ+	c #5D544D",
"qJ+	c #514F48",
"rJ+	c #5D584E",
"sJ+	c #5B554C",
"tJ+	c #646058",
"uJ+	c #645B4C",
"vJ+	c #655A49",
"wJ+	c #655B48",
"xJ+	c #665C4A",
"yJ+	c #685C4B",
"zJ+	c #564E40",
"AJ+	c #534B3F",
"BJ+	c #5B554B",
"CJ+	c #483829",
"DJ+	c #594C3C",
"EJ+	c #574839",
"FJ+	c #534435",
"GJ+	c #4F4031",
"HJ+	c #6F5B48",
"IJ+	c #715D49",
"JJ+	c #6E5A46",
"KJ+	c #6E5A44",
"LJ+	c #6B5641",
"MJ+	c #695440",
"NJ+	c #67523F",
"OJ+	c #65513E",
"PJ+	c #66523F",
"QJ+	c #5E5042",
"RJ+	c #625445",
"SJ+	c #66584A",
"TJ+	c #68594C",
"UJ+	c #6D5E50",
"VJ+	c #6F5F51",
"WJ+	c #6E5E51",
"XJ+	c #716053",
"YJ+	c #6C5B4F",
"ZJ+	c #615043",
"`J+	c #56473A",
" K+	c #58493D",
".K+	c #5E5147",
"+K+	c #5C524B",
"@K+	c #6C6050",
"#K+	c #6F614C",
"$K+	c #6F604C",
"%K+	c #6C5E4E",
"&K+	c #655648",
"*K+	c #524840",
"=K+	c #66584C",
"-K+	c #66594C",
";K+	c #63564A",
">K+	c #615449",
",K+	c #5F5348",
"'K+	c #59493A",
")K+	c #5D4939",
"!K+	c #5A4635",
"~K+	c #533F2E",
"{K+	c #554030",
"]K+	c #110A08",
"^K+	c #574737",
"/K+	c #534333",
"(K+	c #503F2F",
"_K+	c #4C3C2B",
":K+	c #4F3F2C",
"<K+	c #6F5C47",
"[K+	c #6F5A46",
"}K+	c #6F5B45",
"|K+	c #6B5640",
"1K+	c #68523D",
"2K+	c #67533E",
"3K+	c #67533F",
"4K+	c #635341",
"5K+	c #605242",
"6K+	c #6B5A4C",
"7K+	c #6A5A4C",
"8K+	c #6A594B",
"9K+	c #6B594C",
"0K+	c #675548",
"aK+	c #554638",
"bK+	c #55463A",
"cK+	c #57493F",
"dK+	c #554A42",
"eK+	c #625B52",
"fK+	c #70624C",
"gK+	c #72644D",
"hK+	c #685B4C",
"iK+	c #685B4D",
"jK+	c #625447",
"kK+	c #5C4E41",
"lK+	c #5A4C3F",
"mK+	c #645448",
"nK+	c #645549",
"oK+	c #635548",
"pK+	c #5F5145",
"qK+	c #5C4F44",
"rK+	c #5A5047",
"sK+	c #64584E",
"tK+	c #584738",
"uK+	c #5E4B3A",
"vK+	c #5C4837",
"wK+	c #564332",
"xK+	c #513D2B",
"yK+	c #543F2D",
"zK+	c #4A413A",
"AK+	c #3F3632",
"BK+	c #5A4A3A",
"CK+	c #564635",
"DK+	c #534232",
"EK+	c #514030",
"FK+	c #51402F",
"GK+	c #544231",
"HK+	c #695844",
"IK+	c #65503C",
"JK+	c #64503A",
"KK+	c #634E39",
"LK+	c #65503B",
"MK+	c #605040",
"NK+	c #615141",
"OK+	c #625142",
"PK+	c #645544",
"QK+	c #6A5A4B",
"RK+	c #675748",
"SK+	c #59483B",
"TK+	c #5B4B3F",
"UK+	c #635949",
"VK+	c #6E6049",
"WK+	c #6E5F49",
"XK+	c #6E604B",
"YK+	c #171612",
"ZK+	c #140E13",
"`K+	c #423933",
" L+	c #544536",
".L+	c #5B4A3A",
"+L+	c #4F3B2A",
"@L+	c #523D2C",
"#L+	c #553F2E",
"$L+	c #47423F",
"%L+	c #62574F",
"&L+	c #675B52",
"*L+	c #6C5F56",
"=L+	c #6F6359",
"-L+	c #6A5B4A",
";L+	c #6C5D4C",
">L+	c #6E5E4D",
",L+	c #6A5A49",
"'L+	c #614F3F",
")L+	c #5E4C3C",
"!L+	c #624F3F",
"~L+	c #6E5B48",
"{L+	c #6E5C4A",
"]L+	c #645443",
"^L+	c #554130",
"/L+	c #5F4B37",
"(L+	c #64503B",
"_L+	c #6E5946",
":L+	c #725C4A",
"<L+	c #705B49",
"[L+	c #6C5A48",
"}L+	c #6C5A4A",
"|L+	c #615343",
"1L+	c #56473B",
"2L+	c #5B4C3E",
"3L+	c #716254",
"4L+	c #423B37",
"5L+	c #443D38",
"6L+	c #534D48",
"7L+	c #5C5144",
"8L+	c #5E503A",
"9L+	c #64543C",
"0L+	c #685A46",
"aL+	c #594E45",
"bL+	c #584D45",
"cL+	c #181217",
"dL+	c #584C42",
"eL+	c #615445",
"fL+	c #5F5344",
"gL+	c #58493B",
"hL+	c #564638",
"iL+	c #544234",
"jL+	c #584435",
"kL+	c #5E4939",
"lL+	c #5D524A",
"mL+	c #675A50",
"nL+	c #6C5D52",
"oL+	c #6F5F53",
"pL+	c #715F53",
"qL+	c #726053",
"rL+	c #705F52",
"sL+	c #716154",
"tL+	c #6A5C4F",
"uL+	c #2F241A",
"vL+	c #716354",
"wL+	c #776757",
"xL+	c #645342",
"yL+	c #675544",
"zL+	c #685545",
"AL+	c #6F5C4A",
"BL+	c #655447",
"CL+	c #392A1A",
"DL+	c #6C5744",
"EL+	c #7B6855",
"FL+	c #806C59",
"GL+	c #7E6A57",
"HL+	c #756351",
"IL+	c #786755",
"JL+	c #726354",
"KL+	c #7B6D5D",
"LL+	c #655C52",
"ML+	c #62574D",
"NL+	c #7F7260",
"OL+	c #7E7260",
"PL+	c #564731",
"QL+	c #63533B",
"RL+	c #6A5741",
"SL+	c #70685E",
"TL+	c #615648",
"UL+	c #635849",
"VL+	c #6C6051",
"WL+	c #1E191D",
"XL+	c #5B4F45",
"YL+	c #615547",
"ZL+	c #625546",
"`L+	c #58493E",
" M+	c #5E4E41",
".M+	c #645243",
"+M+	c #5B5047",
"@M+	c #66584D",
"#M+	c #6D5B4B",
"$M+	c #705D4D",
"%M+	c #6E5B4C",
"&M+	c #0C0505",
"*M+	c #140C08",
"=M+	c #786B5A",
"-M+	c #6D5F4D",
";M+	c #625242",
">M+	c #625041",
",M+	c #685646",
"'M+	c #6D5A49",
")M+	c #6F5B4A",
"!M+	c #75624F",
"~M+	c #776656",
"{M+	c #66574A",
"]M+	c #312416",
"^M+	c #5C4A37",
"/M+	c #7C6854",
"(M+	c #7E6C59",
"_M+	c #82705E",
":M+	c #806D5C",
"<M+	c #796755",
"[M+	c #776554",
"}M+	c #7D6C59",
"|M+	c #6F6154",
"1M+	c #685C4F",
"2M+	c #6C6158",
"3M+	c #47433B",
"4M+	c #827561",
"5M+	c #847764",
"6M+	c #716756",
"7M+	c #66553D",
"8M+	c #705D45",
"9M+	c #4E4031",
"0M+	c #2C2118",
"aM+	c #636057",
"bM+	c #6E655C",
"cM+	c #676057",
"dM+	c #685E52",
"eM+	c #030509",
"fM+	c #544A42",
"gM+	c #574C42",
"hM+	c #635345",
"iM+	c #48413D",
"jM+	c #5F5148",
"kM+	c #67574B",
"lM+	c #695949",
"mM+	c #6A5848",
"nM+	c #6B594A",
"oM+	c #3C2F2A",
"pM+	c #0A0508",
"qM+	c #1A110A",
"rM+	c #756858",
"sM+	c #736555",
"tM+	c #5F4E41",
"uM+	c #6A5949",
"vM+	c #6B5949",
"wM+	c #2B1E13",
"xM+	c #513F2E",
"yM+	c #715E4B",
"zM+	c #766452",
"AM+	c #6D5E4C",
"BM+	c #7F6E5D",
"CM+	c #5C5044",
"DM+	c #4F463E",
"EM+	c #1A140E",
"FM+	c #6D625A",
"GM+	c #60574F",
"HM+	c #817563",
"IM+	c #7F7462",
"JM+	c #5E4E3A",
"KM+	c #705D46",
"LM+	c #59534C",
"MM+	c #514841",
"NM+	c #64584A",
"OM+	c #605344",
"PM+	c #6B5F53",
"QM+	c #0C070A",
"RM+	c #615347",
"SM+	c #665848",
"TM+	c #665648",
"UM+	c #3F2D23",
"VM+	c #412C24",
"WM+	c #3B2820",
"XM+	c #24160F",
"YM+	c #180E09",
"ZM+	c #6F6352",
"`M+	c #6E6352",
" N+	c #615446",
".N+	c #57493D",
"+N+	c #584A3E",
"@N+	c #5F5043",
"#N+	c #5E4F41",
"$N+	c #271B10",
"%N+	c #312215",
"&N+	c #463422",
"*N+	c #544333",
"=N+	c #4F4236",
"-N+	c #746B5A",
";N+	c #4C3D2F",
">N+	c #5B4B37",
",N+	c #64533D",
"'N+	c #6B5A42",
")N+	c #6A5943",
"!N+	c #645542",
"~N+	c #5F5343",
"{N+	c #706451",
"]N+	c #574E41",
"^N+	c #322920",
"/N+	c #615B55",
"(N+	c #473E2D",
"_N+	c #333430",
":N+	c #4A4844",
"<N+	c #555148",
"[N+	c #3E3626",
"}N+	c #382F21",
"|N+	c #3D3021",
"1N+	c #3B291C",
"2N+	c #382115",
"3N+	c #3C1F14",
"4N+	c #411F16",
"5N+	c #3E1F15",
"6N+	c #392115",
"7N+	c #49382E",
"8N+	c #040503",
"9N+	c #21160D",
"0N+	c #281A0E",
"aN+	c #2F1E0F",
"bN+	c #332110",
"cN+	c #392616",
"dN+	c #594F41",
"eN+	c #18151B",
"fN+	c #584F4A",
"gN+	c #554940",
"hN+	c #5A4D43",
"iN+	c #6A5C4B",
"jN+	c #5B5042",
"kN+	c #51453C",
"lN+	c #5D5249",
"mN+	c #564B44",
"nN+	c #574D45",
"oN+	c #574C45",
"pN+	c #52422E",
"qN+	c #51412E",
"rN+	c #423934",
"sN+	c #736959",
"tN+	c #56514B",
"uN+	c #201917",
"vN+	c #372814",
"wN+	c #332614",
"xN+	c #373936",
"yN+	c #393A38",
"zN+	c #3B3D3B",
"AN+	c #4B4C48",
"BN+	c #4B4B46",
"CN+	c #504F48",
"DN+	c #4F4D45",
"EN+	c #535147",
"FN+	c #312616",
"GN+	c #2A200D",
"HN+	c #2B1F0E",
"IN+	c #2F200F",
"JN+	c #34200F",
"KN+	c #371A0C",
"LN+	c #3E190D",
"MN+	c #3D140A",
"NN+	c #3F1A0C",
"ON+	c #4C2D1E",
"PN+	c #6F5A4C",
"QN+	c #514F45",
"RN+	c #21201B",
"SN+	c #141411",
"TN+	c #160E0C",
"UN+	c #5F5443",
"VN+	c #281B0F",
"WN+	c #352312",
"XN+	c #362517",
"YN+	c #3C2D21",
"ZN+	c #554A40",
"`N+	c #695C51",
" O+	c #675B51",
".O+	c #4A403A",
"+O+	c #5C5242",
"@O+	c #52514B",
"#O+	c #44382B",
"$O+	c #3F3122",
"%O+	c #423222",
"&O+	c #403122",
"*O+	c #170F0D",
"=O+	c #706457",
"-O+	c #33210F",
";O+	c #2F1C08",
">O+	c #2B1B08",
",O+	c #2A1C0D",
"'O+	c #271C10",
")O+	c #281E15",
"!O+	c #080B0F",
"~O+	c #3C3E3C",
"{O+	c #383A38",
"]O+	c #373937",
"^O+	c #434645",
"/O+	c #3A2F1F",
"(O+	c #2D1E0C",
"_O+	c #281906",
":O+	c #2D1E0B",
"<O+	c #2D1B0A",
"[O+	c #301B09",
"}O+	c #311305",
"|O+	c #3A1105",
"1O+	c #3B0F05",
"2O+	c #3D1407",
"3O+	c #4F2E1F",
"4O+	c #6F5A4B",
"5O+	c #514F43",
"6O+	c #130A0B",
"7O+	c #39312D",
"8O+	c #20160D",
"9O+	c #2F1D0D",
"0O+	c #555147",
"aO+	c #574A3F",
"bO+	c #766758",
"cO+	c #7D6F5D",
"dO+	c #7C6F5E",
"eO+	c #6B6154",
"fO+	c #6A5D51",
"gO+	c #7D6F62",
"hO+	c #837467",
"iO+	c #7D7064",
"jO+	c #554840",
"kO+	c #4B3F39",
"lO+	c #5F5A51",
"mO+	c #56483D",
"nO+	c #7E6F5B",
"oO+	c #827362",
"pO+	c #51473E",
"qO+	c #211B14",
"rO+	c #65615B",
"sO+	c #4A453A",
"tO+	c #36261A",
"uO+	c #342212",
"vO+	c #321D0B",
"wO+	c #331E0A",
"xO+	c #301E0B",
"yO+	c #2D1E0F",
"zO+	c #554F47",
"AO+	c #0A0E12",
"BO+	c #343634",
"CO+	c #454746",
"DO+	c #3C2F1E",
"EO+	c #34230F",
"FO+	c #31200A",
"GO+	c #36230E",
"HO+	c #321E0B",
"IO+	c #2F1405",
"JO+	c #351206",
"KO+	c #381006",
"LO+	c #3C1609",
"MO+	c #4D2E1F",
"NO+	c #6A5547",
"OO+	c #170E0E",
"PO+	c #594F3E",
"QO+	c #24190F",
"RO+	c #301F0F",
"SO+	c #301E0C",
"TO+	c #342314",
"UO+	c #38291D",
"VO+	c #413B30",
"WO+	c #231E16",
"XO+	c #4B4639",
"YO+	c #5A5548",
"ZO+	c #514E46",
"`O+	c #786A5D",
" P+	c #7D7063",
".P+	c #5C574D",
"+P+	c #423F36",
"@P+	c #70685C",
"#P+	c #766F61",
"$P+	c #1C140E",
"%P+	c #342011",
"&P+	c #351F0C",
"*P+	c #33200D",
"=P+	c #2E1F10",
"-P+	c #2B1F14",
";P+	c #04070D",
">P+	c #383A36",
",P+	c #373837",
"'P+	c #444545",
")P+	c #474948",
"!P+	c #3A2712",
"~P+	c #35210A",
"{P+	c #36210C",
"]P+	c #34200C",
"^P+	c #34200E",
"/P+	c #362111",
"(P+	c #3E2316",
"_P+	c #402117",
":P+	c #432619",
"<P+	c #4C3427",
"[P+	c #604E42",
"}P+	c #251A0F",
"|P+	c #2C1C0E",
"1P+	c #342110",
"2P+	c #372312",
"3P+	c #352415",
"4P+	c #5A4D3E",
"5P+	c #473C35",
"6P+	c #605448",
"7P+	c #4E433B",
"8P+	c #1B120E",
"9P+	c #3C312D",
"0P+	c #1F1512",
"aP+	c #311F13",
"bP+	c #30190C",
"cP+	c #311909",
"dP+	c #321B09",
"eP+	c #311F0E",
"fP+	c #020409",
"gP+	c #414241",
"hP+	c #434444",
"iP+	c #474A48",
"jP+	c #4A4C4A",
"kP+	c #4C4D4A",
"lP+	c #5D5B56",
"mP+	c #483726",
"nP+	c #412D18",
"oP+	c #38240D",
"pP+	c #34210C",
"qP+	c #31200D",
"rP+	c #46372A",
"sP+	c #524036",
"tP+	c #543F37",
"uP+	c #544137",
"vP+	c #554439",
"wP+	c #5F5347",
"xP+	c #1A1914",
"yP+	c #241A18",
"zP+	c #2E2214",
"AP+	c #332413",
"BP+	c #392715",
"CP+	c #412C1B",
"DP+	c #5F5745",
"EP+	c #716651",
"FP+	c #716552",
"GP+	c #605B50",
"HP+	c #2D1910",
"IP+	c #331A0E",
"JP+	c #31180A",
"KP+	c #2F190A",
"LP+	c #291A0E",
"MP+	c #251B14",
"NP+	c #5D5148",
"OP+	c #564F48",
"PP+	c #51504D",
"QP+	c #4A4948",
"RP+	c #474847",
"SP+	c #494A49",
"TP+	c #474748",
"UP+	c #484948",
"VP+	c #4B4B4A",
"WP+	c #585654",
"XP+	c #594B3F",
"YP+	c #4A3728",
"ZP+	c #422C18",
"`P+	c #38220C",
" Q+	c #311E0A",
".Q+	c #2C1D0A",
"+Q+	c #544841",
"@Q+	c #554740",
"#Q+	c #1E1413",
"$Q+	c #1F1412",
"%Q+	c #312415",
"&Q+	c #3F2C19",
"*Q+	c #46311F",
"=Q+	c #615947",
"-Q+	c #716650",
";Q+	c #6F634E",
">Q+	c #231915",
",Q+	c #43362D",
"'Q+	c #45372F",
")Q+	c #42352F",
"!Q+	c #3E322C",
"~Q+	c #271C17",
"{Q+	c #281D16",
"]Q+	c #2A1911",
"^Q+	c #2F180E",
"/Q+	c #2D150A",
"(Q+	c #20130B",
"_Q+	c #474641",
":Q+	c #575651",
"<Q+	c #5A5A55",
"[Q+	c #4F4E4C",
"}Q+	c #484947",
"|Q+	c #4A4B49",
"1Q+	c #605E57",
"2Q+	c #635E55",
"3Q+	c #5C4C3E",
"4Q+	c #4E3929",
"5Q+	c #48321C",
"6Q+	c #3D2710",
"7Q+	c #35220C",
"8Q+	c #2F1F0C",
"9Q+	c #362A1B",
"0Q+	c #4F433D",
"aQ+	c #251B1B",
"bQ+	c #211614",
"cQ+	c #432F1B",
"dQ+	c #413021",
"eQ+	c #5D5444",
"fQ+	c #675D4A",
"gQ+	c #655B47",
"hQ+	c #313332",
"iQ+	c #42342C",
"jQ+	c #3E302A",
"kQ+	c #656056",
"lQ+	c #271811",
"mQ+	c #2C170F",
"nQ+	c #2B160D",
"oQ+	c #2A1A10",
"pQ+	c #1D140E",
"qQ+	c #4F4D4B",
"rQ+	c #454444",
"sQ+	c #4A4949",
"tQ+	c #494849",
"uQ+	c #494847",
"vQ+	c #53504E",
"wQ+	c #615C55",
"xQ+	c #5D5046",
"yQ+	c #4E3827",
"zQ+	c #49331B",
"AQ+	c #45321D",
"BQ+	c #231816",
"CQ+	c #342515",
"DQ+	c #3C2919",
"EQ+	c #422D1A",
"FQ+	c #422D1B",
"GQ+	c #42342B",
"HQ+	c #423228",
"IQ+	c #403026",
"JQ+	c #413026",
"KQ+	c #484030",
"LQ+	c #20191B",
"MQ+	c #40332B",
"NQ+	c #43352C",
"OQ+	c #362924",
"PQ+	c #211A17",
"QQ+	c #2E241D",
"RQ+	c #28160F",
"SQ+	c #251810",
"TQ+	c #464543",
"UQ+	c #4D4C4C",
"VQ+	c #4C4A4B",
"WQ+	c #5C462E",
"XQ+	c #5E4A34",
"YQ+	c #594736",
"ZQ+	c #251B18",
"`Q+	c #15110B",
" R+	c #463726",
".R+	c #372818",
"+R+	c #392818",
"@R+	c #3F2C1B",
"#R+	c #422E1B",
"$R+	c #412D1D",
"%R+	c #493B31",
"&R+	c #402E23",
"*R+	c #423124",
"=R+	c #402E20",
"-R+	c #332B1F",
";R+	c #2F271E",
">R+	c #241612",
",R+	c #605346",
"'R+	c #514640",
")R+	c #504C4C",
"!R+	c #4F4B49",
"~R+	c #4D3B2D",
"{R+	c #4B3523",
"]R+	c #58402B",
"^R+	c #654D37",
"/R+	c #644F39",
"(R+	c #5F4D3B",
"_R+	c #594D3D",
":R+	c #4D433D",
"<R+	c #625B4E",
"[R+	c #2C201B",
"}R+	c #443322",
"|R+	c #3B291A",
"1R+	c #3E2B1C",
"2R+	c #412E1D",
"3R+	c #3F2D1C",
"4R+	c #38291F",
"5R+	c #473A32",
"6R+	c #47382F",
"7R+	c #3D2B1F",
"8R+	c #3E2B1D",
"9R+	c #402D1D",
"0R+	c #463321",
"aR+	c #342820",
"bR+	c #2B2319",
"cR+	c #32261B",
"dR+	c #463728",
"eR+	c #51422E",
"fR+	c #5B4C3A",
"gR+	c #2B1F18",
"hR+	c #281B15",
"iR+	c #2C1D15",
"jR+	c #4F443D",
"kR+	c #474242",
"lR+	c #574C41",
"mR+	c #504034",
"nR+	c #4D3827",
"oR+	c #604934",
"pR+	c #5F4B36",
"qR+	c #584835",
"rR+	c #1F1911",
"sR+	c #453624",
"tR+	c #3F2D21",
"uR+	c #483420",
"vR+	c #45321F",
"wR+	c #422F1D",
"xR+	c #3E2C1B",
"yR+	c #45392B",
"zR+	c #2D2F2F",
"AR+	c #3C2C20",
"BR+	c #55432D",
"CR+	c #2F241F",
"DR+	c #211811",
"ER+	c #211714",
"FR+	c #20170F",
"GR+	c #281B12",
"HR+	c #2C1E14",
"IR+	c #2D1E15",
"JR+	c #4C392B",
"KR+	c #4C3828",
"LR+	c #55402E",
"MR+	c #58432F",
"NR+	c #413324",
"OR+	c #362A1D",
"PR+	c #302518",
"QR+	c #2D2116",
"RR+	c #3E2D22",
"SR+	c #453121",
"TR+	c #402C1A",
"UR+	c #3E2B1A",
"VR+	c #3B2B1F",
"WR+	c #262928",
"XR+	c #262929",
"YR+	c #2B2E2D",
"ZR+	c #2D2F2C",
"`R+	c #503F2C",
" S+	c #5A4630",
".S+	c #635036",
"+S+	c #65533B",
"@S+	c #2A1F15",
"#S+	c #1E181B",
"$S+	c #594C3F",
"%S+	c #291C12",
"&S+	c #281B11",
"*S+	c #291B13",
"=S+	c #0F0908",
"-S+	c #493A2D",
";S+	c #4F3C2E",
">S+	c #4F3B2C",
",S+	c #53402D",
"'S+	c #55422E",
")S+	c #231A10",
"!S+	c #261C12",
"~S+	c #1F170F",
"{S+	c #160D06",
"]S+	c #473521",
"^S+	c #493621",
"/S+	c #483520",
"(S+	c #3D2A19",
"_S+	c #2F2219",
":S+	c #2B2E2E",
"<S+	c #4E3D2D",
"[S+	c #5B4831",
"}S+	c #645035",
"|S+	c #685437",
"1S+	c #68563A",
"2S+	c #584933",
"3S+	c #403422",
"4S+	c #2F2418",
"5S+	c #110A0A",
"6S+	c #2C2217",
"7S+	c #221E16",
"8S+	c #453522",
"9S+	c #423322",
"0S+	c #251910",
"aS+	c #48392D",
"bS+	c #4D3B2E",
"cS+	c #4F3C2D",
"dS+	c #52402D",
"eS+	c #523F2C",
"fS+	c #554330",
"gS+	c #554C44",
"hS+	c #170F09",
"iS+	c #120B05",
"jS+	c #463420",
"kS+	c #46341F",
"lS+	c #3D2B19",
"mS+	c #392717",
"nS+	c #392819",
"oS+	c #2B1F16",
"pS+	c #3C3225",
"qS+	c #333434",
"rS+	c #242625",
"sS+	c #4B3B2C",
"tS+	c #4E3C2B",
"uS+	c #584531",
"vS+	c #5D4931",
"wS+	c #645034",
"xS+	c #635136",
"yS+	c #54452F",
"zS+	c #413422",
"AS+	c #231C1D",
"BS+	c #251E20",
"CS+	c #231C1F",
"DS+	c #2F2317",
"ES+	c #0C0E0F",
"FS+	c #443220",
"GS+	c #45311E",
"HS+	c #221710",
"IS+	c #1F160E",
"   .  +  @  #  $  %  &  *  =  -  ;  >  ,  '  )  !  ~  {  ]  ^  /  (  _  :  <  [  }  }  |  1  2  3  4  5  6  7  8  9  0  a  b  c  d  e  f  g  h  i  j  k  l  m  n  o  p  q  r  s  t  u  v  w  x  y  z  A  B  C  D  E  F  G  H  I  J  K  L  M  N  O  P  Q  R  S  T  U  V  W  X  Y  Z  `   . .. +. @. .. #. $. %. &. *. =. -. ;. >. ,. '. ). !. ~. {. ]. ^. /. (. _. :. <. [. }. |. 1. 1. 2. 3. 4. 5. 6. 7. 8. 9. 0. a. b. c. d. e. f. g. h. i. j. k. l. m. n. o. p. q. r. s. t. u. v. w. x. y. z. A. B. C. D. E. F. G. H. I. J. K. L. M. N. O. P. C  Q. R. S. T. U. V. W. X. Y. Z. `.  + .+ ++ @+ #+ $+ %+ &+ *+ =+ :  -+ ;+ >+ ,+ '+ )+ !+ ~+ {+ ]+ ^+ /+ (+ _+ :+ <+ [+ }+ |+ 1+ 2+ 3+ 4+ 5+ 6+ 7+ 8+ 9+ 0+ a+ b+ c+ d+ e+ f+ g+ h+ i+ j+ k+ l+ m+ n+ o+ p+ q+ r+ s+ t+ u+ v+ w+ x+ y+ O. z+ A+ B+ C+ D+ E+ F+ G+ H+ I+ J+ K+ V  L+ M+ N+ O+ P+ Q+ R+ S+ T+ &+ U+ V+ (  W+ X+ Y+ Z+ G. `+  @ .@ +@ @@ #@ $@ %@ &@ *@ =@ -@ ;@ >@ >@ ,@ >@ '@ )@ ;@ ;@ !@ ~@ {@ ]@ ^@ /@ (@ _@ :@ <@ [@ }@ |@ 1@ 2@ 3@ 4@ 5@ 6@ 7@ 8@ 9@ 0@ a@ ",
"b@ c@ +  d@ e@ f@ g@ h@ i@ j@ k@ l@ m@ n@ o@ p@ q@ r@ s@ t@ u@ v@ w@ x@ y@ z@ A@ }  }  }  B@ C@ D@ E@ F@ G@ H@ I@ J@ K@ L@ M@ N@ O@ e  P@ Q@ R@ S@ T@ U@ V@ W@ X@ Y@ Z@ `@  # .# +# @# ## $# %# &# *# =# y+ -# ;# ># ,# '# |  @  )# !# ~# {# ]# ^# /# (# _# :# <# [# }# |# 1# F  2# 3# 4# 5# 6# 7# 8# 9# 0# a# b# c# d# e# f# g# h# i# j# k# l# l# m# n# o# p# p# q# r# s# t# u# v# w# x# y# z# A# B# C# D# E# F# G# H# I# J# K# 9# L# M# N# O# P# Q# R# S# T# U# V# W# X# Y# Z# `#  $ .$ +$ @$ #$ $$ %$ &$ *$ Y+ =$ -$ ;$ >$ ,$ '$ )$ !$ ~$ {$ ]$ ^$ /$ ($ _$ :$ <$ [$ }$ |$ 1$ 2$ 3$ 4$ 5$ z  6$ 7$ 8$ 9$ _  0$ a$ b$ c$ d$ e$ f$ g$ h$ i$ j$ k$ l$ m$ n$ o$ p$ q$ D@ r$ s$ 5+ 4+ t$ u$ 4+ v$ w$ x$ y$ z$ A$ B$ C$ D$ E$ F$ G$ H$ I$ J$ K$ L$ M$ w@ N$ O$ P$ Q$ R$ S$ S$ T$ U$ V$ y  W$ X$ Y$ Z$ `$  % .% +% @% #% $% %% &% *% =% -% ;% }+ }+ >% ,% '% )% !% ~% {% ]% X+ +. ^% /% (% _% :% <% [% }% |% 1% 2% 3% 4% 5% 6% 7% 8% >@ >@ >@ )@ ]@ 9% ]@ 0% 0% 0% a% b% c% d% e% f% g% h% i% j% k% l% m% n% o% p% q% r% s% t% u% ",
"v% w% x% y% z% A% B% C% D% E% F% G% H% I% J% K% L% M% N% ^  O% P% Q% R% S% T% A@ }  }  }  9# U% 5# V% W% 5  X% Y% Z% }  <% <% `%  & P. .& +& @& #& $& %& && *& =& -& ;& >& ,& '& )& !& ~& {& ]& ^& /& (& _& :& <& [& }& }  }  }  |& 1& 2& D@ 3& 4& 5& 6& 7& 8& 9& 0& a& b& c& d& e& &# f& g& h& }  }  |  [  i& j& k& l& m& n& o& p& q& r& s& t& u& v& w& q# x& y& z& A& B& 2. C& 2. D& E& F& G& H& I& J& K& L& M& N& O& P& Q& R& S& T& U& V& W& X& X& R# Y& .$ Z& `&  * .* +* @* #* $* %* &* ** =* -* ;* >* #. ,* '* )* >$ !* ~* {* ]* ^* O@ /* (* _* :* <* [* }* |* 1* 2* 3* 4* {% 5* 6* Q. 7* 8* 9* 0* a* b* c* d* e* f* g* h* i* j* k* l* m* n* o* p* q* r* s* z  +. t* u* v* w* x* y* z* A* B* C* D* E* F* G* H* I* J* K* L* M* T& M  N* O* M+ P* Q* b* R* c* S* T* U* V* W* X* Y* Z* `* A+  = .= += @= #= 9* $= %= &= *= == -= ;= >= ,= '= )= != ~= z  {= ]= L# ^= /= (= _= K# |  }  }  }  }  := <= [= }= |= 1= 2= 3= 7% 4= 7% 8% ]@ )@ ~@ )@ 5= a% 6= 7= 8= 9= 0= a= e* b= c= d= e= f= g= h= i= j= k= l= m= $# n= o= p= ",
"q= r= s= t= u= v= w= x= y= z= A= B= C= D= E= F= G= H= I= J= K= L= M= N= O= P= Q= }  }  }  a  R= S= T= U= V= W= X= Y= }  }  |  Z= `= {$  - g% X$ .- +- @- #- $- %- &- *- =- -- ;- >- ,- '- )- !- ~- *# {- ]- ^- /- /- (- }  }  }  _- :- <- [- }- |- 1- 2- 3- 4- 5- 6- 7- 8- 9- w$ B* 0- a- b- 8# }  |  @  @  c- d- e- f- g- h- i- j- k- l- m- n- o- p- q- r- s- t- x# u- v- w- v- x- u- y- y# z- A- B- C- D- E- '. F- G- H- I- R& S& J- K- L- M- N- O- P- Q- R- S- T- U- V- W- X- Y- Z- `-  ; .; +; @; #; .= }* }@ 8- $; %; &; *; =; -; L  ;; >; /* ,; 9- '; ); !; E$ ~; {; ]; ^; /; (; _; :; <; [; }; @= |; 1; 2; 3; e* 4; 5; 6; 7; 8; 9; 0; a; b; c; d; e; f; g; h; ,; u* u$ i; u* j; k; l; m; 4& n; o; p; q; r; s; t; 2$ u; v; w; t+ Y$ M+ x; 2# y; z; z  3- %= 1; A; *+ T* B; C; D; E; F; 3   = G; H; I; J; K; L; M; N; O; P; Q; R; S; T; U; V; != W$ W; X; Y; D@ Z; `;  > .> S+ }  }  }  }  }  6# +> |- @> #> L; 2= $> %> &> *> => 7% ]@ 0% 0% a% a% -> -> 8= ;> >> ,> '> S* )> !> ~> {> ]> ^> /> (> _> :> <> [> }> |> 1> ",
"3# 2> 3> 4> 5> 6> 7> 8> 9> 0> a> b> c> d> e> -& f> g> h> i> j> L= k> l> m> n> A@ }  }  }  a  o> p> <* q> r> s> t> u> v> |  @  w> x> y> z> ($ A> B> C> D> E> 4@ F> G> H> I> J> K> L> M> N> O> P> Q> R> S> _& T> U> V> W> }  }  }  X> Y> Z> @. V; `>  , i% ., +, @, #, $, K+ %, &, d= *, =, |+ -, }  }  |  }  ;, >, ,, ', ), !, ~, {, ], ^, /, (, _, :, <, [, v# }, |, 1, /, 2, 3, x- 4, 5, 6, 7, 8, 9, 0, a, b, c, d, e, f, g, h, i, j, k, U& l, m, n, o, p, q, r, s, t, u, v, w, x, y, z, A, B, C, D, E, F, G, H, I, J, *; !* K, =; L, M, @. J+ N, <& O, P, Q, [@ R, S, T, U, V, W, X, Y, Z, `,  ' .' +' @' #' $' %' &' D* l. *' =' -' ;' >' ,' '' )' !' ~' {' ]' ^' /' (' _' 4+ _* :' <' @@ [' d* }' |' 1' 2' 3' 4' 7& 5' p% ]# T* ]= T& 6' D  7' 8' 9' 0' a' b' c' d' e' f' g' h' i' j' k' l' m' n' o' p' #- q' r' s' t' u' /$ v' w' x' <= y' z' R@ A' B' T& Y$ h% C' D' >= E' F' d@ }  |  }  }  G' H' I' J' K' L' M' N' O' P' Q' R' S' ~@ 0% 0% 0% 6= -> T' U' V' V' W' t; X' Y' Z' n; `'  ) ;@ .) +) @) #) $) %) &) *) =) ",
"-) ;) I  >) ,) ') )) !) ~) {) ]) ^) /) () _) :) <) [) }) |) 1) 2) k> 3) 4) 5) Q= }  }  }  6) r$ r$ 7) 8) 9) Z; 0) a) b) c) d) e) f) _* g) h) y; i) j) k) l) m) n) o) p) q) r) s) t) u) v) w) x) Q. i) y) {$ T> z) A) B) C) |  D) E) F) G) H) I) {# J) }+ K) L) O= M) N) O) P) Q) |@ R) /$ [& [  }  |  }  |  S) T) U) V) W) X) Y) Z) `)  ! .! +! @! #! $! %! &! *! *! =! -! ;! >! ,! '! y- )! !! ~! {! ]! ^! /! (! _! :! <! [! }! |! 1! 2! 3! 5& 4! 5! 6! F+ 7! 8! %* 9! 0! a! b! c! d! e! f! g! h! i! j! k! l! Y$ m! n! o! p! q! r! s! t! u! v! M, 5+ |# w! x! y! z! A! B! C! D! /; E! F! G! H! I! J! K! L! M! N! O! W@ G* P! Q! R! S! T! U! V! W! X! Y! Z! `!  ~ .~ +~ @~ #~ u* $~ b* %~ :# &~ *~ =~ -~ ;~ >~ n; U. N= ,~ 6$ '~ )~ !~ T& 4) D  7' ~~ A> {~ ]~ ^~ /~ (~ _~ :~ <~ [~ }~ |~ #) 1~ 2~ 3~ 4~ 5~ 6~ 7~ [' }- X+ ,* 8~ 9~ 0~ a~ b~ c~ d~ e~ f~ 4  g~ h~ i~ S=  . j~ Z> k~ l~ m~ |  }  <% n~ M+ C  N* b' o~ p~ q~ r~ s~ t~ N' S' S' 7% %> u~ v~ 8= 8= V' w~ U' x~ y~ z~ A~ B~ C~ D~ E~ F~ y~ G~ H~ I~ J~ c% K~ L~ M~ ",
"N~ (' O~ P~ Q~ R~ 2; T. S~ T~ U~ V~ W~ X~ Y~ Z~ )& `~  { .{ +{ @{ #{ l> ${ %{ &{ }  }  }  C. r$ Z  0# *{ ={ -{ ;{ >{ ,{ '{ ){ !{ >= ~{ {{ ]{ ^{ /{ ({ *# _{ b$ :{ <{ [{ }{ |{ 1{ 4% 2{ 3{ x) ~- 3# 4{ 5{ 6{ v$ 7{ 8{ 9{ 0{ y% a{ u* F) b{ >= J+ J) J) d  ,* &, c{ d{ e{ f{ g{ T% h{ U; i{ j{ |  }  |  |  |  k{ l{ m{ ', n{ o{ p{ q{ r{ s{ t{ u{ v{ w{ x{ y{ z{ A{ B{ C{ D{ E{ F{ G{ H{ I{ J{ K{ L{ M{ N{ O{ P{ Q{ R{ S{ T{ U{ V{ W{ X{ Y{ Z{ '% /= `{ @@  ] .] +] a. @] @] #] k! $] G; %] 2! &] *] =] -] ;] >] ,] O) '] !* )] !] ~] {] J+ ]] ^] /] (] _] :] <] [] }] |] 1] S; 2] l' 3] 4] 5] 6] 7] 8] 9] 0] a] b] c] d] e] f] g] O& h] i] j] k] l] m] n] o] 5+ p] q] r] s] h& :] t] u] v] w] x] y] R' z] A] Q$ B] R% C] D] B* B+ E] !> F] G] B  H] I] J] K] L] M] N] O] P] Q] R] S] $' T] U] V] p; W] X] Y] Z] `]  ^ .^ +^ @^ #^ $^ %^ &^ *^ =^ -^ ;^ >^ ,^ '^ )^ !^ '; ~^ {^ ]^ ^^ (% /^ (^ @  C) _^ -) :^ <^ [^ }^ |^ 1^ 2^ 3^ 4^ 1^ 5^ 6^ 7^ !@ %> 0% 7= 8^ u~ 6= 6= %> 9^ 0^ a^ b^ D~ => E~ ;> c^ d^ e^ J~ f^ g^ h^ p' i^ ",
"j^ u* k^ l^ Z> m^ n^ o^ p^ q^ r^ s^ E# t^ u^ v^ w^ x^ 4@ y^ n= L= N= ., 4) z^ }  }  }  }  6) Z  8) '; |] 0# A^ B^ C^ c  '{ !{ D^ X  E^ F^ G^ H^ I^ J^ K^ L^ M^ N^ O^ P^ Q^ R^ S^ T^ U^ V^ W^ X^ Y^ Z^ `^ /] v$  / ./ i; +/ L@ @/ #/ $/ %/ &/ @. */ ^] -# =/ &, -/ ;/ >/ ,/ '/ )/ !/ ~/ R+ {/ }  }  }  }  |  ]/ R& ^/ // (/ _/ :/ </ [/ }/ |/ 1/ 2/ 3/ 4/ 5/ 6/ 7/ 8/ 9/ 0/ a/ C{ b/ c/ d/ e/ f/ g/ h/ i/ j/ k/ l/ m/ n/ o/ p/ q/ 0{ |# r/ s/ A) ;= t/ g~ u/ v/ w/ x/ #] y/ z/ z/ A/ B/ C/ D/ E/ @) F/ G/ H/ I/ J/ K/ H. L/ M/ !] `+ y> N/ _* O/ P/ Q/ R/ S+ K# K# :] S/ T/ l; ]$ U/ V/ W/ X/ Y/ Z/ `/  ( .( +( @( #( $( %( G- &( *( =( -( ;( 4# >( !$ /- ,( ,# ^^ '( )( !( ~( {( ]( ^( /( (( _( :( E~ <( [( B; *, ., }( |( 1( 2( 3( 4( .] 5( E] 6( 7( 8( 9( 0( a( y~ b( c( d( e( f( g( h( i( j( k( l( m( n( o( p( q( r( s( t( u( v( w( x( y( z( A( B( C( D( U= E( F( /% G( <- H( i; I( I  J( m~ D) K( Z^ L( M( b* o~ |^ N( O( P( Q( R( S( 8% T( L~ U( c% V( W( V( X( Y( b% Z( `(  _ ._ +_ U( @_ Y( $@ #_ $= &@ #_ $_ %_ 8& I~ ",
"&_ /% *_ q/ T= =_ -_ ;_ >_ q$ ,_ '_ )_ !_ u^ ~_ {_ ]_ ^_ /_ (_ __ :_ <_ [_ }_ }  }  }  }  a  (= |_ 1_ 2_ ^% '{ /% ;{ 3_ 4_ 5_ %/ 6_ 7_ 8_ 9_ 0_ a_ b_ c_ d_ e_ f_ g_ h_ u% i_ j_ k_ l_ &= m_ n_ `^ o_ M. p_ G. q_ r_ s_ t_ y% u_ B@ v_ w_ x_ y_ z_ -# '% Z{ -/ l' A_ B_ C_ D_ E_ F_ G_ H_ 6) |  }  }  |  |  S) I_ J_ l& K_ L_ M_ N_ O_ w# P_ Q_ R_ S_ T_ U_ F& G& ^, V_ I& W_ X_ Y_ B- Z_ `_  : .: H& +: @: #: $: %: &: 7) *: =: c)  @ -: ;: >: ,: t/ ':  ] ): !: ~: {: ]: {: <! ^: /: (: <^ ^: @) _: :: <: [: ,] }: |: 1: 2: o! ~] ;# -# D' r/ A) Y  3: 4: 5: 6: 7: d) 8: i{ 9: V^ 0: a: b: c: d: e: f: g: h: i: j: k: l: E* m: /+ n: o: p: q: D  r: s: t: '(  @ u: v: w: x: @$ f! @_ 5] y: c( z: |* a: n' B; W; '~ {= A: B: C: D: E: F: G: v/ H: I: 6$ J: K: L: M: N: y: O: P: Q: R: S: '+ T: U: V: W: X: p: j^ Y: D' Z: `:  < .< +< @< #< $< %< G@ &< }*  , [@ *< =< _^ -< ;< >< ,< '< )< (^ !< K( v% ~< C_ #{ ,> {< ]< ^< /< L! (< _< :< << l= [< H$ }< |< a( 1< 2< 3< 7& 4< [( 5< '> 6< 7< 8< 9< U+ U+ +, 0< a< b< c< d< ",
"e< 0# f< g< 2_ h< i< j< g; k< l< m< n< o< p< q< r< s< t< u< v< P% V^ B> w< x< &{ }  }  }  y< z< j~ |_ A< i~ B< ;{ C< a) D< b{ #/ V{ E< F< G< H< I< J< K< L< {* M< N< O< P< Q< R< A) S< T< G. U< o] V< V< W< s_ X< Y< )( Z< `<  [ b{ ;; .[ v! 2& y_ @. U% t] +[ @[ #[ $[ M( %[ !~ &[ .^ *[ =[ |  }  }  }  }  -[ ;[ U) >[ ,[ '[ )[ ![ ~[ {[ ][ ^[ /[ ([ _[ :[ <[ [[ }[ |[ 1[ 2[ 3[ 2[ |[ 4[ 5[ 6[ 7[ 8[ 9[ 0[ a[ b[ c[ d[ '; e[ b) c) v* `+ f[ g[ p] h[ i[ j[ k[ l[ l[ m[ n[ o[ p[ q[ r[ <^ <^ s[ t[ u[ v[ w[ p: x[ G. y[ &; z[ A[ ;< B[ ;% C[ F( C[ D[ E[ F[ G[ H[ N/ 1_ /% I[ J[ K[ L[ M[ %' x] F* f] N[ O[ P[ Q[ R[ S[ T[ U[ V[ W[ X[ Y[ 3& Z[ `[ -)  } .} +} !^ ,* L( w@ [( @} #} $} %} C$ &} *} =} -} ;( ;} >} 3) R$ Y[ ,} '} )} !} ~} Z- {} F] K] ]} ^} /} &> (} _} :} <} T] #% [} }} |} B~ 1} [~ :# f; 2} 3} 4} `: 5} `: `: s( 6} 7} 8} 9} 0} a} b} c} }+ t! d} e} %/ s$ f} g} h} i} J( j} (^ (' k} g& l} O+ m} n} o} p} W# q} r} (+ s} t} 2} A+ u} @@ v} v} w} x} R$ T& y} z} A} P+ U$ 6( 3# ^$ K) ^$ Q; 3# B} [# C} 3  ",
"D} 6# a{ E} 7+ A+ F} G} H} I} J} K} L} M} N} O} P} Q} t< u< R} __ F} S} T} U} V} }  }  &{ W} 9) X} Y} Z} C@ @. `} {/ W} H) 4_ E< d@ d@ |  d@  | .| +| @| P~ #| $| %| &| *| =| w* (% -| r] ;| >| w* ,| ,| '| P~ /^ )| e.  [ !| ~| [& ># {| y> @. ]| i{ ^| 2] /| 9$ (| _| ${ :| <| !> [| N/ B) d@ }  }  }  }  Q= ~( }| || 1| 2| 3| 4| 5| 6| 7| 8| 9| 0| a| b| c| d| e| f| g| h| h| i| j| k| l| m| l| n| o| p| q| #< r| s| t| 1] u| -{ v| B) w| x| 2> y| %[ Y' z| A| B| C| D| m[ $^ E| F| G| G| H| I| ;] J| @) K| [# L| M| N| N| $; Q/ O@ ]] w: O| P| Q| R| S| T| x} U| R= o> V| B[ x+ N+ 4  W| X| Y| Z| `|  1 .1 +1 @1 #1 $1 M] %1 &1 *1 =1 O+ -1 w+ 2# y+ :& ;1 7+ j^ L$ >1 ,1 '1 )1 !1 _( ~1 {1 k. m. ]1 ^1 /1 (1 (1 _1 :1 <1 [1 }1 |1 11 21 31 41 51 a* |< 61 71 81 91 01 a1 u/ 4  b1 Y[ _1 c1 d1 e1 f1 g1 !; D. -{ h1 ,= 4} F( U; i1 j1 k1 l1 m1 n1 o1 p1 q1 O/ `% 0{ r1 s$ ~| f} s1 .  t1 +  u1 y! O) v1 w1 x1 y1 n. z1 A1 B1 C1 Q! D1 $1 E1 ,* ]] Y: Y{ t] F1 G1 %[ d= H1 I1 ]$ 2  ;# J1 K1 V> L1 L1 M1 }:    N1 V  K/ _& ",
"O1 P1 Q1 !< R1 S1 T1 U1 V1 W1 X1 Y1 Z1 `1  2 .2 +2 @2 #2 $2 %2 r% &2 *2 =2 -2 A@ }  }  }  U{ 9) R= r$ A< ;2 >2 U; ,2 o/ {^ =< W{ <% [  |  d@ H  '2 s] )2 !2 b) a) v: ){ G) ~2 ,# {2 >| ]2 ^2 t$ /2 ,| (2 _2 I  H  @  d@ z* :2 p_ -; <2 ^* L  @. U% X} U% {# c= [2 #> }2 |2 m' 12 22 32 42 6_ u1 }  }  }  }  }  &{ 52 62 72 82 92 02 a2 b2 c2 d2 e2 f2 g2 h2 i2 j2 k2 l2 m2 n2 n2 o2 p2 )) q2 r2 s2 t2 u2 v2 q| w2 x2 y2 z2 A2 B2 ~^ C2 E' D2 b& E2 F2 G2 _1 9~ H2 I2 J2 K2 L2 m[ M2 q[ W, N2 O2 P2 Q2  ] R2 )> 4{ S2 T2 z[ p! U2 w* u| [* 4: h, V2 W2 X2 G, u/ Y2 Z2 `2 9) */ N, >; ,* q(  3 .3 +3 @3 #3 $3 %3 &3 *3 =3 -3 ;3 >3 ,3 d  d  Q+ J) Q+ w+ ^$ >; F( ;{ :' '3 )3 !3 ~3 {3 ]3 ^3 /3 (3 _3 :3 <3 [3 }3 |3 13 23 33 43 53 63 73 83 93 ') 03 Q$ %~ ,_ a3 =~ b3 c3 d3 e3 f3 .& g3 z} g1 h3 h< i3 j3 '^ .. &: ,= j~ ]| ^| ^| X} p( k3 &< l3 m3 3( n3 o3 p3 @. #/ }! q3 <- T< 4+ V< r3 s3 J( u1 v* t3 -% ;= u3 v3 w3 x3 y3 z3 A3 B3 C3 H; `> D3 ~{ ]| ,* E3 >% u} /; W+ M+ F3 )% G3 ~$ ~$ H3 I3 J3 K3 L3 M3 N3 O3 P3 O3 Q3 ",
"R3 S3 T3 }! U3 V3 W3 X3 Y3 Z3 `3  4 .4 +4 @4 #4 +2 $4 %4 &4 *4 =4 -4 ;4 >4 )/ ,4 }  }  v> 8: 9) X} <* Z} *$ _$ '4 ,%  , Y+ B) x! y% )4 )4 !4 ~4 {4 ]4 X{ ^4 >; `[ /4 (4 _4 :4 ~= <4 [4 P< }4 |4 o] s_ ]2 R1 14 d@ d@ y% b& 7{ 24 34 44 y> ;% J) 54  , 64 u+ 4& F! 74 84 U. }~ 94 04 h< a4 b4 c4 |  }  }  }  d4 e4 f4 g4 m3 h4 i4 j4 k4 )! l4 m4 n4 o4 p4 q4 r4 s4 t4 u4 v4 w4 w4 +3 x4 y4 z4 A4 B4 C4 D4 E4 F4 G4 H4 f- I4 J4 K4 L4 M4 `: D[ N4 O4 P4 I' Q4 ]: 0. +] R4 S4 T4 U4 p[ .3 V4 N2 W4 X4 Y4 Z4 _> *+ ($ `4 $;  5 .5 +5 @5 #5 $5 %5 &5 x_ *5 =5 -5 ;5 w3 >5 ,5 '5 O@ )5 P) !5 R; i% ~5 {5 ]5 ^5 /5 (5 _5 :5 <5 [5 }5 O)  } h) h) |+ |5 15 25 35 -= 5} 45 |- e% L; S  55 65 75 G* 85 95 05 a5 b5 -} c5 1% d5 e5 f5 Q# g5 n{ h5 i5 j5 k5 l5 @, m5 n5 o5 p5 q5 r5 s5 t5 B' U* u5 T. v5 ;} 4# O@ w5 $~ '% '% m; J) x5 y5 z5 A5 L# -* B5 C5 D5 E5 F5 G5 H5 C' v: r1 I5 J5 L1 o] K5 L5 $; .  14 t: x; M5 N5 f{ O5 P$ P5 Q5 R5 S5 T5 y~ U5 I1 y_ V5 ;= m; z5 W5 X5 Y5 Z5 `5 A} O+ t+ A+  6 K) 24 .6 +6 @6 #6 $6 %6 &6 *6 .~ ",
"=6 -6 ;6 >6 u! ,6 '6 c= )6 !6 ~6 {6 ]6 ^6 /6 (6 _6 :6 <6 [6 }6 |6 16 C] 26 E[ A@ }  }  }  9# Z} R= &: 36 46 E/ E] b1 V* :' 7: 56 66 K( .} 5} D[ l} 76 Y5 .3 86 96 06 a6 b6 c6 d6 e6 f6 g6 h6 i6 j6 S< k6 =$ l6 [  }  K@ b{ H3 m6 o_ n] O@ }+ &+ 7~ n6 o6 C+ p6 q6 r6 s6 t6 u6 v6 w6 x6 y6 z6 A6 m~ B6 h& .> s( C6 D6 E6 F6 G6 H6 I6 J6 K6 L6 M6 N6 O6 P6 Q6 R6 S6 n2 T6 U6 w4 V6 W6 C5 X6 Y6 Z6 `6  7 .7 +7 @7 C= #7 92 $7 %7 &7 >* -* [|  , *7 1! x1 I' =7 -7 ;7 >7 E5 S4 ,7 31 '7 M2 )7 O2 !7 ~7 R2 v[ >] {7 m] /' ;$ ]7 ^7 +5 Y< 9# /7 (7 _7 D[ G2 :7 <7 n, [7 }7 |7 17 27 37 U> 47 ;# 57 !~ 67 77 87 97 07 a7 b7 c7 d7 e7 f7 f7 g7 h7 i7 j7 9: k7 l7 (& m7 n7 o7 p7 q7 r7 s7 t7 u7 v7 w7 x7 y7 z7 A7 5~ c* 1~ B7 C7 D7 E7 H- F7 #] G7 H7 I7 ]] T} J7 K7 L7 :| *+ M7 51 2! N7 >} O7 X! P7 Q7 2# ;= ^] R7 i% 54 S7 T7 U7 V7 W7 X7 d= S@ Y7 Z7 `7 S4  8 .8 +8 @8 /* #8 E^ $8 p_ %8 &8 *8 =8 -8 ;8 L1 >8 T7 K/ >8 ,8 '8 H; y$ )8 L- p, w3 !8 i% ~8 S< {8 ]8 ^8 V7 /8 /8 (8 _8 :8 B+ <8 n6 l' [8 }8 |8 18 28 d7 38 48 58 68 78 ",
"88 98 08 a8 U= b8 _{ x} c8 d8 e8 f8 g8 h8 i8 j8 k8 l8 I; m8 }6 n8 o8 C] T} p8 q8 }  &{ v> 9# R= {^ <* r8 s8 @@ t8 C+ u8 G[ 5: v8 w8 U3 :& x8 y8 _8 z8 A8 B8 C8 D8 E8 F8 G8 H8 I8 J8 K8 L8 M8 N8 b- v! O8 ~{ P8 [  v> Q8 G( {$ r: x; B[ ;% 2] (  R8 2; d1 S8 T8 U8 V8 W8 u6 X8 Y8 V] Z8 `8  9 .9 +9 @9 #9 9) $9 %9 &9 *9 =9 h3 -9 ;9 {5 >9 ,9 '9 )9 !9 ~9 {9 ]9 ^9 /9 ;^ (9 w/ $< _9 :9 <9 [9 `6 E4 }9 |9 19 29 |9 39 49 59 69 79 89 99 09 @@ L# R) _8 ;/ a9 b9 c9 d9 e9 f9 g9 h9 ,} p[ i9 j9 k9 l9 m9 04 n9 @[ 9: /' o9 ]7 p9 %; q9 r9 n7 s9 t9 u9 v9 w9 x9 y9 z9 A9 X= 17 B9 37 C9 D9 E9 y+ M( F9 G9 H9 I9 J9 K9 <5 L9 d7 d7 M9 f7 &% &% ^{ N9 O9 P9 Q9 k7 g{ F( R9 S9 T9 D$ U9  ; V9 V: W9 X9 Y9 Z9 `9 G~  0 .0 N] +0 ]< @0 i] #0 c} $0 r( `} `} %0 E1 &[ h  &0 46 '^ *0 =0 u+ -0 ;0 >0 >0 C! ,0 ~8 '0 2} v} )0 M( z5 !0 ~0 {0 ]0 T& m9 ^0 /0 (0 _0 :0 <0 [0 }0 F3 {| z_ E^ 3+ U< |0 10 20 30 b4 H3 40 50 60 70 80 90 00 a0 ^0 ') b0 c0 4  D@ W  d0 e0 f0 50 g0 /8 h0 e{ i0 j0 k0 l0 1~ m0 J- C9 n0 o0 p0 q0 r0 s0 t0 u0 v0 ",
"w0 x0 y0 z0 =/ A0 (1 <8 O- B0 C0 D0 E0 F0 G0 H0 I0 J0 K0 L0 <+ M0 N0 O0 >4 P0 Q0 }  }  A@ .> x_ ~{ w_  . :' @@ R0 S0 B' G[ Q, :% '| T0 9- U0 V0 W0 U  X0 Y0 Z0 `0  a .a +a @a #a $a %a &a *a =a ~$ f) -< w_ }! |  <% Q8 D^ y> B[ h) R< I) V; /| 2; p6 e! S8 y$ U8 -a ;a >a ,a r} 'a )a !a ~a {a ]a ^a w> /a (a g4 _a :a <a [a }a |a I+ 1a 2a 3a 4a 5a 6a 7a 8a 9a 0a aa d~ ba $< ca da ea fa ga E4 ha ia ja ka la ma na oa pa qa D6 ra sa S@ $. Y$ ta P* y} ua va wa xa ya g9 za +3 '7 -5 =5 F9 Aa Ba 04 Ca B; Da p] Ea Fa Ga o9 Ha Ia Ja E[ E[ Ka La Ma 6  Na Oa Pa Qa Ra @. V> 34 Sa |5 Ta C/ Ua Va ^5 Wa Xa K9 Ya Za %6 `a M9  b `^ |+ .b j7 +b @b Q9 #b ,: $b %b p$ &b S: *b =b -b ;b >b ,b 'b )b {1 G+ !b ~b I~ 55 {b x. 0~ ]b .& ^b e< n/ /b (b s8 _b :b 64 `> <b [b }b |b F] }2 1b 2b A' m; (* 3b 4b 5b B5 .3 H1 ^8 ~< 6b :8 E! 7b 8b 9b 0b ab bb cb db eb i3 fb gb B< :2 hb ib jb K. 30 kb H3 lb d& K/  b E  mb w' nb ob b0 pb qb rb sb ]^ 6_ =$ }: tb ub vb h0 wb xb yb #) 0~ T] zb Q4 ]- Ab Bb Cb Db Eb Fb Gb Hb Ib ",
"Jb Kb Lb Mb m! Nb Ob X* =] Pb Qb Rb Sb Tb Ub Vb a6 Wb Xb Yb _@ Zb [# `b Q;  c ~( }  v> [  W> .c .c +c `  @c :$ u/ #c $c |- Ia %c &c *c r/ P4 P4 =c -c ;c >c ,c 'c )c !c ~c {c ]c N^ q$ ^c /c (c J[ K1 {] V5 l6 |  [  L@ D^ U> n] _c ]- I) P. D! _  (> :c |~ <c n: [c }c A7 |c 1c l. A; 2c 3c 4c H< s3 N@ 5c 6c 7c 8c 9c 0c ac bc Z^ `{ c. cc t2 dc ec fc gc 69 ', hc 77 ic jc kc lc mc nc Z1 oc pc qc rc sc tc uc vc wc xc 8a yc G, zc Ac <! Bc Cc d& ^$ 2] Dc Ec Fc Gc Hc Ic Jc Kc Lc Mc Nc Oc Pc Qc Rc ra x6 -1 p] o9 Fa Sc Tc .> 9  Uc ~7 51 C* Vc Wc Xc Yc Zc `c o3  d Y+ y> I3 .d    1! B/ +d ^5 @d Va #d $d b7 %d &d *d 50 T7 %% 57 [8 4# Da X^ =d -d ;d >d )~ ,d 'd )d !d ~d (3 {d ]d ^d /d (d _d :d <d ~b .0 o' [d }d |d 1d 2d 2d H5 3d 4d 5d F1 )0 [= !~ t} $c 6d >] 7d 8d @> 9d 0d ad O. J) bd cd dd dd ed 4! fd gd hd 6' id jd kd 53 ld md nd od pd w[ qd ad D@ rd B< sd td ud vd wd xd V  yd ^$ k} zd Z! Ad W; Bd Cd db ]5 Dd Ed {# ^] -< Fd }5 Gd Hd Id Jd Kd Ld Md Nd Od Pd Qd Rd L( ;# Sd Td Ud Vd Wd Xd Yd Zd ",
"`d  e .e +e @e #e $e %e &e *e =e -e ;e >e ,e 'e )e !e ~e q$ {e ,] O. y+ s: 7: }  }  }  @  Y< =$ .c  @ `  ,% 4  m9 99 m' u} 9- ]e @~ ^e O) /e (e _e :e <e [e s< }e |e 1e 1e 2e 3e 4e 5e 6e 7e 8e 9e 0e ae be B) [  |  L@ z* L1 N.  & {$ -# e  +[ ce !8 J| D+ de ee -a fe ge he ie je ke le me ne oe pe C^ G5 qe re se te ue ve we xe ye ze Ae d# Be Ce De Ee ic Fe Kc Ge He Ie Je Ke Le Me 4[ }[ Ne Oe Pe Qe Re Se Te Ue Ve 7c We Xe Ye Ze #0 #^ `e =/ -# p1  f .f +f @f #f $f %f i4 kc &f *f [c =f -f J2 o: 1( G3 e0 A[ ;f {a K( >f >^ ,f f5 'f )f !f ~f {f ]f ^f /f (f 2d {$ t! i; _f :f 3} |b 8d <f n2 <f [f $d }f |f 1f M5 H' Y$ }- 2f z} 3f 4f 5f l] 4{ 6f 7f 8f 9f 0f af bf cf df |c ef ff gf i! f, Ac p+ hf 4! )0 ': if jf Ra ^% g) kf lf mf nf of E/ s[ 6& pf qf rf sf tf uf vf `} '; wf xf yf zf Af Bf Cf M- Df fd Ef Ff 6' id Gf Hf If Jf dd c! m[ Kf Lf Pa I+ 64 Mf 27 Nf Of 10 Pf Qf e0 s: ^$ ^$ m6 h7 Rf Sf x[ b1 R0 Tf Uf Vf Wf 32 t! V5 7{ Xf Yf 80 Zf `f g0 d{ s+ 6! :! F/  g .g B+ [# ^8 +g Zf @g #g @g $g %g ",
"&g *g =g h, -g ;g >g ,g 'g )g !g ~g {g ]g {c ^g /g (g _g 6$ :g <g [g ,3 s/ }g }  }  }  |  W> .c .c +c ,= ,% }b |g <: 1g R9 O8 2g 3g 4g 5g 6g 7g 8g 9g 0g '@ ag bg cg dg eg fg gg hg ig jg kg lg mg ng og pg i; L@ <% L@ =[ Fd H3 xe N, j^ +> S$ <8 S0 _> D+ 0~ qg O- rg sg tg ug R# vg wg xg yg zg h} Ag J4 Bg Cg Dg Eg Fg r> Gg =/ Hg Ig Jg Kg Lg Mg Ng Og u[ I6 D| Pg Qg Rg Sg Tg Ug 4[ Vg Vg Wg Xg Yg Qe Zg `g 29  h .h +h @h #h Y4 sa 2( $h T{ 4d %h I7 &h *h .f +f (a =h -h ;h >h ,h 'h )h H# !h  g ~h {h ]h p] A[ I< ^h yd /h |' (h _h ]d :h $} <} <h [h }h /f 3f 32 |h A) 1h 2h {( (b T& R2 3h 4h 5h 6h 7h 8h 9h 0h ah bh S7 =1 g~ ;* ch if g3 A+ R; dh eh fh gh hh ih jh kh lh mh nh oh ph -] qh ]1 2% rh sh th 4d uh vh wh C< O| D} xh yh .= |g zh l9 q[ 99 Ah Bh Q# Ch Dh A9 w: _] L  Eh G3 ;9 Fh %^ Gh -( <| fd Hh Ih Jh O= id Kh {: Nc Lh Lh Mh <! |g Nh Oh <= [| Ph Qh V> Rh |8 Qf k6 N5 ^8 !0 Sh Th Uh =% ;% Vh k3 Wh Xh Yh Zh q1 ^* s! G^ `h  i .i +i @i #i $i %i &i *i =i +) +) -i ;i >i ,i 'i #g )i !i ~i {i ",
"]i ,) T3 ^i sd /i (i _i :i <i [i }i |i 1i 2i 3i 4i 5i ^& *2 .- [# 6i %, O4 t9 }  }  }  |  x* =$ 1# +c >d Vh 7i 41 j[ 8i 5f S< $; ;$ K5 >8 9i 0i ai bi /_ ci di ei fi gi eg hi ii Q} ji ki li mi ni 0e ae g7 ,# d@ d@ oi j; k6 V> K1 O@ Y+ E. U| pi 6& Q4 sa qi ri si n. L- ti y3 M- u/ |h ui vi wi xi Ag yi zi Ai Bi Eg Ci Di Ei ua Fi R{ Gi Hi Ii Ji Ki Li Mi Ni Oi 8b ea Pi Qi Ri }[ Si Ti Ti Ui rc Te Vi Qe Wi Xi Yi Zi `i  j .j +j @j X% #j $j t| %j &j *j =j -j ;j >j ,j 5h 'j >h )j !j Q[ ~j {j 43 5  Pa )% sd J< ]j ^j /j (j m$ _j :j h] Y8 <j [j x4 C| }j {h 4f |j 1j 2j 3j 4j 5j 6j E] u/ 7j 8j &g 9j 7i C/ S7 G2 M  ': )0 =7 of 0j ]i $9 1d 8~ aj ,2 bj cj dj hh ej fj gj hj ij M- jj %. 04 kj lj 6~ mj W, .^ nj oj pj qj Y= rj sj tj uj vj wj ~h xj -5 .g yj Y& Z& _0 zj Aj l; 1  p_ Bj Cj Dj p: S0 99 Ej Fj ^8 f{ Gj W7 Y5 Hj H: Ij i9 Jj Jj :$ V4 Kj Lj Mj ;* yh Nj |h ]{ ib Oj Pj sd F  ~0 Q; Qj Rj Sj |4 [& i{ 3} Tj %0 P@ X+ .[ V5 Uj Vj Wj Xj Yj Zj Id `j  k .k +k 84 rh @k mj #k <@ $k %k &k *k =k Id `f O) ",
"S= 8) -k c) ;k >k ,k 'k )k !k ~k o+ o+ {k ]k ^k /k (k 47 P) N5 O4 h1 j{ i, _k Q= }  }  [  :k -< O4 ;1 <k [k }k |k w9 o6 C  Ab 1k 2k 3k !0 76 4k 5k 9g 6k L~ 7k 8k Z@ 9k 0k ak bk ck dk ek fk gk X^ 1+ hk ik (' d@ d@ K@ j; jk V> O@ ;% kk j^ lk ~5 @@ F] _1 1~ mk Pd nk fe g5 ok pk qk q1 z) rk sk tk uk vk wk xk yk Bg 9j yh zk Og Ak Bk Ck Dk Ek Fk Gk E_ B' J| C, Hk ea Ik 5[ Jk }[ Kk Lk Mk Nk Ok Pk Qk Rk Sk |[ Tk Uk Vk .f Wk c} 1d Wf Xk Yk n/ Zk &h `k =j  l .l +l @l 1a #l $l c! ^) %l &l *l =l -l ;l x+ q] >l ,l s3 'l )l !l ~l {l ]l ^l /l T# I6 .g <: ;l 4f V; 32 sb (l !/ bj _l F] :l <l [l }l |l 0j )0 N* |b |b |b ;* A/ of 0j 1l 2l 1d 54 E[ 3l 4l 5l 3; D$ 6l 7l 8l 9l 0l al _: bl cl dl &i el fl m> !; gl hl sj il jl kl ll 6c ml <l nl ol pl ql rl 8! sl tl ul za vl %h wl -; xl [5 h7 ($ 9i P* 6' ~0 ~0 g0 yl (e zl Al Bl 2! Cl Dl X4 *1 P2 <! o[ -^ El &9 o1 _b Fl Gl Oj Hl I, F  [_ 8' Il  ~ Jl Kl xg Ab 9- 6f C[ _* ]| !| Ll Ml Nl Ol  i  i Pl Ql Rl Sl (e 6' O= 16 Tl Tl 3) Ul =c zl %k &k Vl Wl f{ L+ ",
"Xl r] c@ Yl K< Zl `l  m .m +m @m #m $m *d %m Ol &m *m =m -m ;m >m ,m 'm f. !4 )m !m )4 x! `< 1# ~{ +c >d M4 2- -* Kj ;l i% .} T2 y[ 4g lb ~m 0i {m ]m ^m /m (m _m :m <m [m }m +2 |m #- ek 1m 2m {- 3m pg S1 b& d@ H  C) 1  ^- {] z_ z_ kk ,* +> $. F1 4m =+ ~> -( 5m 6m rg 7m 8m 9m -l e  0m vi A[ am ~^ bm cm dm em fm gm zk hm im jm km km ca Lh lm `> y} ~5 V4 mm +3 mc Ik nm Si Si om Ti pm qm rm sm tm um E4 vm 8a wm xm C< ym zm a) /% Am Bm B@ Cm Dm Em Dm 7) 1  #/ 0# Fm Gm +3 a. Hm Im Jm Km Lm Z] Mm i% `+ Nm Om J( y_ Pm Qm Rm Sm [c Tm +) Um Lj Lj Kj Vm Wm Xm Ym Xm Zm .^ `m  n A/ Kj .n }l +n |l @n )0 )0 R@ R@ Oh ;* |k of l!  3 S| P@ .. dh R/ l{ T;  ^ ]i G7 Ee s7 Bh &. d! @) (> #n $n %n &n *n H' *[ [! =n -n ;n >n ,n 'n )n !n ~n {n ]n ef ^n .$ /n (n _n :n {} <n g3 Q+ ># f0 [n }n Rf |n vb #i Ql Il 1n 2n (e 76 3n Bl Bl 2! %n =+ *1 q[ 4n C| 5n 6n 7n 8n Fc e< Y> *8 9n 0n an 7' &= (k bn cn dn [n en *c fn gn  [ `< hn in jn kn c_ Xj ln %m Rj Pl mn nn Ta on pn qn rn {~ >4 ~m ]0 d{ N+ sn &, E3 j^ ",
"tn un T2 A[ vn wn Zl xn yn yn zn 9_ An ib Bn Cn Dn En Fn Gn Hn +/ )m [] In C. Jn Kn G  _f q9 '( Y  X{ $b M4 2- Ln +d lm *0 Q/ ,< T2 Mn !0 Nn On {m Pn Qn Rn ^_ Sn Tn Un Vn Wn Xn Yn Zn `n  o .o +o ^{ @o Cj 2g d@ #o D) 1  S2 A) z_ z_ kk =/ '4 t] $o %o &o *o ed =o =o %l 7. A1 ,h w( <' W  -o ;o W< 7) >o ,o 'o )o !o [l Uf ~o {o ]o Y6 ^o /o .] (o )~ :8 _o g~ :o Ee <o [o 5[ }o om }o pm pm |o 1o 2o Pe 3o 4o 5o 6o 7o 8o 9o 0o E} ao Q1 bo Q1 a{ co do Dm do 8: eo fo e. U; go ho io jo ko lo [f Tf 41 zf |- mo no oo po qo ro 77 ~n io +d =7 so |k Fg o( to I+ uo vo wo `> Wm <b Ei :b of xo yo yo zo Ao Fg to Bo R@ Oh Oh 03 ;* so <= 46 f  =/ ,= t9 Co F' Do u> Eo Fo Go k! Ho H2 Io Jo Ko w} B/ '4 `{ Lo D[ Mo No sj Oo Po Qo Ro So To !n Uo Vo Wo @0 Xo Yo Zo y4 *. `o  p Nh u+ .p  } +p @p &d mn Id Il ,8 #p $p %p &p ;i ;i +& *p :| 6& =+ P2 .3 q[ Rd =p Vo n: -p ;p >p L4 u$ -8 )* b& Td &k ,p 'p )p !p ~p {p ]p y! w! ^p /p ,m )| d@ (p _p Kl .~  i Pl Pl Ql $g Hd ub Hd :p <p 7' `b ($ C} :8 S7 *0 @c [p .^ }p ",
"|p ;| 1p q_ 2p $m Cj 3p .b 4# )~ 4p p: k] 3& H] m] Q+ 5p ,* ,* (= 45 :f 6p 6p C2 v: 7p 8p G' B) X{ r9 9p 0p 2l ap +d ]i  , !| h} J, G. U7 bp cp 8g dp ep i= fp gp hp Un ip jp kp lp 4% mp np op Ad h7 u' P< Ha d@ #o L@ )( .c A) ^] Y+ =/ pp 2- E1 :b qp rp ;] [h Jf sp tp up vp K} V6 s8 ~{ jn wp ,< V2 xp yp em zp Zi T6 Ap Bp Cp Dp Ep Fp Gp Hp ;l A} [8 M+ V; :b 77 Ip Jp }[ @7 +7 Kp pm Mk Lp Mp Np 5[ Op Pp Qp yc Rp Sp B. Tp Up Vp :% bo :% h& Wp Xp &$ =n Yp Zp -[ `p  q A/ 7b .q +q lo @q #q Lm {5 T| <b w_ $q %q j} &q *q =q -q ;q %o *0 _$ E1 ch [b Y; 3f >q .& D@ 4f Ym ,q 'q H7 1l T| )q !q 0c ~q <n Oh Bo R@ Vm o( {q ;* E1 H[ Vh 3d S= h1 /7 In f. ]q }! F' ^q /q Nh F+ ed k! (q .= [= z' _q aj Z: :q Yp <q sj [q }q |q 1q Ro #f 2q Hp ee 3q 4q 5q ^n 6q 7q L2 cb G6 8q C  .p M5 E9 [5 60 tb Id ,8 #p 9q ,8 %p  k 0q S% 2! Ej t} aq |g S@ mm 67 v/ nl bq cq dq eq fq B2 `% T2 gq hq iq jq kq lq mq !p &% nq oq pq qq rq Co sq ,m x! l6 L1 tq uq vq %g .i wq ub ub xq .i tb 1f yq O. A+ P* u} ': <= zq ua c} k3 ",
"[@ P. R) `5 c= Aq Bq Cq Dq Eq Fq Gq Hq Iq Jq Kq Lq Mq Nq Oq Pq O7 C! Qq ta x+ Rq V| O8 w_ r9 +} '( Sq $b }% y' Ln [0 ]b @> S2 *8 Tq V  [_ Uq Vq 8g Wq Xq i= Yq Zq `q  r .r +r @r #r $r %r &r *r rn Sh =r Cj -r d@ u1 L@ _] .c J+ -# '% Vh ;r @@ u8 ~7 >r ,r 'r )r !r ~r {r ]r ^r /r (r S| Q~ $| un _r a) :r T6 59 <r [r ;h T6 @3 }r r2 |r 1r 2r 3r z' 4r )% 5r [| 6r V6 7r 8r 9r Xi 0r ar 29 rc br L} B4 cr dr er fr gr /q hr ir [* }] jr kr 6# t9 kr O1 lr mr nr or pr A. /b qr -5 rr <1 sr tr ur vr +3 a. 3( wr 4} i} xr (^ l{ yr 7i ]( :o @> L# c{ -/ ': U| Y$ Y$ Rq F3 zr Ar Wm .^ Br Cr #^ 8  Dr Er Fr Gr Hr 03 Bo [= Oh 03 Z] Aj <b [| =/ X} '= Ir Jr Kr Lr Mr _] _k /7 Nr &] B7 Or '7 Jo Jj *1 }b s8 ,% Y{ D[ Pr Qr hl +f Rr Sr fq &7 Tr 8d Ur Vr Wr Xr Yr J6 Zr  p `r I6 Gf G] :8 ]0 -= tb  s nn `f Il $p ,8 `j jq &p .s j% +s 23 D+ qf  % .g Y7 #0 #0 -l <0 }l @s c9 #s $s %s (% &s Yl *s =s jq 'p -s ;s >s Gd +g ,s +p F2 's )s F2 Ab Ab W  }5 !s !s 50 1f K/ N5 ~s an A* ,: [& L| Ab {s ]s  , [| |- if  3 E@ x$ _b ",
"3& ^s [2 [( /s (s _s :s <s [s }s |s 1s 2s 3s 4s 5s 6s 7s 8s 9s 0s as bs cs ds es [8 _& ;; .} !| .} +c fs 6j  n Ln )q gs [| U< hs is }5 *n S% js ks Wq ls ms ,c ns os ps qs rs ss Yn $r ts e6 us 25 h7 u' |4 I( vs ws [  Do .} v! Y+ Zm .^  ^ =+ m' xs m9 ys X| zs As Bs ]r Cs Ds Es $< Fs r$ 4> '2 c4 9o Gs Hs Is <f Js v4 Ks Ls Ms Ns Fp Os Ps Qs Yh Zh Ym `> zq Og V6 :0 Rs Ss Ts Us Vs Ws Vg Op s2 Xs Ys Zs `s `d  t .t va +t =* _l @t @^ [! #t $t %t &t *t Zi =t -t ;t r| >t ,t 't He )t !t 9+ ~t {t ]t y( ^t S; '< +9 /t 6) (t |( m' N* _t O* Ta M+ :t A+ x5 <t >( [t }t |t lk 1t 2t 3t 4t Cr +f 5t xh k1 6t l! =7 to =1 g~ x$ zq !; ^= D' D3 S= Ja $t 7t w: 3: Do u_ 8t O1 9t 0t si 9+ at bt Bo &[ s8 #. ^= i{ D. Xp A2 ct dt et ft [! gt [= ht it jt kt lt c! cq %< mt mt nt U* :8 U7 ~0 ot Yf !s pt ~~ == jq Vl Vl qt rt y@ &i y9 st tt ut vt wt l3 xt yt zt At Bt +f lf Ct Ag Dt i} .  Gn '* Sl Et X3 Ft 8' t' Gt Ht It W0 Jt t/ >/ 0h /e v% ub .i @i *% O) ~8 F2 Kt 9- i{ ~{ x_ 1# '( D[ ,= *[ Lt F[ M4 _q P@ Zh ^= ",
"{~ S* 1; Mt Nt Ot Pt Qt Rt St Tt Ut Vt Wt Xt Yt Zt `t  u .u )' +u ji @u #u $u %u |+ =% T> _' w% w| D2 &u *u [p zk =u t[ $. <& -u ;u >u .s ,u Vq ks 'u <e )u !u ~u qs {u ]u qs ^u /u (u _u .{ 0@ rt [4 Yj #m r] vs ws @  In .} -: J+ ,% .^ ;r Ij M* xs :u <u [u }u As |u 1u 2u 3u Rs i4 >p 1_ 4u }  @  d@ ,2 5u nr 6u 7u ml 8u 9u k/ 0u au bu cu du eu rb zq e~ fu gu 0. If X6 hu iu ju ku lu mu nu au ou pu qu 8a ru su tu // uu vu wu Cr Br xu yu zu Au Bu Cu Du !o Eu Is `i #< Fu Gu z4 Hu Iu Ju Pg Ku #: Lu Mu o/ Nu Ou (^ Pu c{ 3) Qu Ru |@ '/ Su 0& $~ ;3 Tu g& Uu Vu X^ Wu L# 5d Xu Yu :r Zu `u  v .v +v @v #v |k E/ g~ Z$ $v s8 >f ,% >2 e  <' %v &v *v qp [p Mo 7# =v -v Kj E+ =p <1 ;v G, s8 %: Xu .< q> *[ >v Xp ,v  v 'v )v !v Mo D' /; A: Vc ~v {v ]v 31 n[ ^v mt o: 4! T& d{ 6b /v Zf ot %g Zf (v _v *k Vl |n {0 ~m Md kj :v <v [v }v &^ bq 0} Lf 0j %o C6 Ct .l 3d %s 7p |v 1v un &c 2v `f 3v (& _v &k Gt 4v kq 5v 6v sn y5 [# Q; Qj ub  ~ 9q 7v .i >u 8v 9v 0v F2 i{ ]| 9- 9- av O4 ;1 +c ^4 $b $b *[ 3} Y+ I) ",
"!0 bv /| )> Ac cv dv ev fv gv hv iv jv kv lv mv nv ov pv qv rv sv tv uv vv h) ^* N. wv ^^ xv y% yv zv Kr [* Av nf 2( :l [| 7{ Bv 9_ Cv @& Dv Ev Fv Gv Hv )u Iv Jv Kv +2 Lv r< Kv Mv ^> Nv .{ us 7' k} uq }8 Ov @  #o |  ~4 .} -: V| kk F[ }* u8 M* 5& Pv Tm Qv Rv Sv Tv Uv Vv Wv Qi yp fq Am |  }  }  |  Xv hl Yv $j 4t 89 $< Zv `v  w Ku .w +w @w k1 Fc hm U6 d~ Hp <l o[ 5b C: ]v Ju #w $w %w &w *w Ge n2 =w 8a -w ;w >w ,w f| 'w mr Cr )w s| @^ !w ~w {w da yk j2 ]w ^w /w (w _w vm :w <w Ep Ep Je Ke l| [w }w 7f _% +9  | 6) R; 9i N* |w E[ h[ J+ N, E. [g *7 n] 1w ,6 2w 6( `> 3w Xh eu 4w %t 5w Ec D( 6c 6w 77 7w 03 F] R@ 8w x$ E@ _b 9w 8f Z] 0w pl aw }' ~> V% ,2 z0 hl T| ed bw $< d9 Wh cw L4 dw ew )^ r8 do fw gw &h Yk S; hw &: iw |- w} jw 9m kw lw &f 3( mw vg nt ]= %b ta :^ (8 Qj pt on nw ~~ Ht Gt .i ow pw >/ _o qw y$ ti rw sw ') tw uw <a vw iw C^ ww xw l6 W> r] Nu yw @| zw Aw pw ~~ $p (v Gt /$ 3v 7( Bw ~m *5 R; ]h 2# .i Cw Dw Ew Fw Rf Cv P) Td N5 Gw y_ _* _* O, _* ,; .} +} 7p v| D^ D^ Hw s$ jk ",
"y| w5 O* ;3 u+ Iw Jw Kw Lw Mw Nw Ow Pw Qw Rw Sw Tw Uw Vw Ww Xw Yw :; P; yd V> 3+ Zw -; -| |  }  }  56 qq `w F_  x aq t} >% xg .x +x H' +s @x Uq #x ]m 6@ '- $x %x &x &x *x =x -x ;x >x ,x 'x )x !x ~x {x M3 Ov @  #o |  }! -< ;= Y+ Y+ F[ @c qd ]x ^x /x X[ (x _x :x <x [x }x |x Pi !o 1x _= }  }  }  }  <] u| n/ t| 9  Vf  8 2x 3x 4x lw *w 'j +w 5x 6x 7x {t Qd  g ho S@ V4 q[ 8x 9x ~t =b C: 0x ax bx cx dx =w ex fx gx hx ix jx 3r kx lx mx 5* Ka z. nx >7 =w ox px qx rx sx tx p| ux 8r vx wx xx yx zx Ax T6 G_ Bx )< Cx `p Dx )/ Ex Fx )/ Jt t/ Cc ;3 Z$ ]h y+ ]$ ]h ]h j3 8w Gx Hx Ix @v >o 79 o1 Gr Jx 9. ,f ,} jd Y4 aq Q4 Kx Lj u/ Lx z| s7 Mx Nx Ox Px Qx :l :r )w ua aq Rx Sx Hp +; Tx Yu b# Dc Ux kf S= l; Vx ir Wx [| I1 }+ [@ 5# Xx Yx Tm )8 Zx T- =f m[ 4p g1 u8 X7 ;/ ta 6' z! t' Zf ~0 (8 ,8 `x Vl ]8  y .y x8 +y @y U8 sl #y Jc $y %y &y *y '0 F) in m~ @  (^ fo =y 1v -y 1v ;y >y Ud |n `! :p `b ,y 8' 7' pn O* Y{ aj j^ Q+ N9 Ql Hb Hb 'y )y Ud N) .i !y 80 N, U% U% ,* ]| :& .c  @ i; mo >< >| #~ Ll W< ",
"~y Y: {y O4 N, Wu S} ]y ^y /y P& (y _y :y <y [y }y |y 1y 2y <# B  =% ~x 7{ ~] 3y b4 '$ 4y }  }  }  h& _f P| 7t 3w t8 5y +> {8 6y @e |- 6d 5( ^: 7y 8y 9y 0y ay by cy dy ey fy gy hy iy &4 jy ky z! t3  b Q3 Ov B6 #o |  }! ~| M, Y+ N/ 3} ,% H: 51 ly my ny Or oy v2 yx 6[ Ss py Pi qy ry y< }  }  }  }  @  8# C< sy ty fq 9} u4 uy vy Ju >h @3 wy xy Ap yy zy =f nk xs I' [4 -= Ta z5 L# Ay By Cy Dy /x Im Ey Fy Gy Hy ,[ Iy Jy 8u at Ky Ly 4d My ,* Z: Wk Ny x2 tu Oy Py Qy sx Ry Sy Op Ty Op Uy Vy Wy Xy Yy [r Zy Vp c4 (^ <% ;, `p l{ `y  z ,3 .z +z @z N+ #z <t ;% [@ -# >% l5 Ko 5  aa du @w $z %z &z *z =z Ku &f -z ): Um ;z c~ `r >z 0! ,z 6. 'z )z !z ~z {z ]z At ^z b} Q4 /z a0 Uo (z _z 4w b9 Yh 'q p( :z <z 0  [z }z :t |z #z N, ^| 1z 2z ed 3z 4z 4z i5 F7 ;9 2} A} .p .p :8 W7 C} 5z 6z {0 (8 8' z; (8 {y 1# +c V0 Li ,r %^ 7z 8z 9z 0z az bz cz wf dz m~ }  }  }  |  ez _2 fz gz hz iz jz 80 Z! 1+ kz lz N; 9: 5{ F. ]| *[ }@ J+ h7 mz nz oz pz qz rz sz tz e_ Ft N~ }@ D' C' y_ ,; !| ,# ~2 t$ >< I( uz _r vz ",
"wz Y: Y: 5} !5 Wu xz V^ +, yz zz o. A| ed Az j] -} M] d' Bz B* y_ sd L1 o] Cz g} ~] Dz eo }  }  }  v8 |! `w *u 3w Nh Y[  , Ez Oj r_ %+ @) Fz Gz Hz Pn Iz Jz Kz Lz Mz Nz Oz Pz cy Qz }^ $# Rz ky z! t3  b $m Sz d@ ws |  }! S2 z_ 5p N/ Lt ,% pi L] +s Tz Uz oh |r Vz Wz Xz Yz Zz `z Jc  A =: }  }  }  |  }  |  |  |  !v U= H@ ;h g| Be .A +A @A ex 2a #A #: $A )j %A <| !0 &A *A f7 =A s/ &, C_ 3! &] /x -A H9 pb $< p2 8z ;A `o >A Hp ,A 'A }p '% Y: C[ dh Hg 4w )A !A ~A {A ]A ^A zx }x /A Vv Ss (A _A :A <A 9. [A h& @9 .| po }  |  }  Q, }A R) |A 1A 2A w$ ]$ ]- J+ >; >; q1 S$ <8 j[ 41 3A Is 4A m1 pd 5A P{ 6A 7A Pg l[ l[ R4 cb 8A 31 9A 0A aA bA cA dA eA fA gA (a 'q +8 vf hA hm iA yc jA .j kA 4w qr Tj 3d do lA T+ I7 I1 ta O. ]] 4} E[ mA nA oA pA qA rA Fh 2} 3  W+ .p .p :8 9i 9i sA j, Z5 :^ [_ Gt U7 %, Kt X{ U} tA Gf uA vA wA e9 8} xA yA zA AA Y< |  }  }  }  |  BA gz &c l~ 66 CA v1 Z! >s DA {- =# {- EA >( J) >; _* y_ !5 >8 Rf nz FA GA qz HA >u IA JA Ht O. ]] ]] kk kk y_ x_ KA LA MA ~2 X< Dt #~ jn ",
"NA &, G[ H, P. A  OA 8( PA QA RA SA TA UA VA WA XA YA k= ZA bv `A v! 7{ T> K( u$ f} t$ y% }  }  }  :%  B .B $t b9 +B Ij &_ @e Qf @B E_ p[ #B $B %B Pn &B *B =B -B ;B >B ,B 'B )B !B ~B {B ]B ^B Qj Q3 *d /B (B H  ws |  x! S2 ^] I) C' T= Vh 90 _{ A: qw Uz _B :B B4 |[ Xz <B [B }B |B 1B k; }  }  }  }  }  }  }  }  K# `] 2B m2 3B 4B hu s2 5B 6B 7B 8B 9B 0B Ju =i 2! /e aB bB cB {p 8v dB $d X4 12 eB vr fB @d jx gB T4 hB A( l3 a0 F] ap _q .. ^| iB 9p i1 jB kB lB ^w mB ]A nB oB pB qB rB sB tB uB vB wB $7 xB Q1 _% (^ @  |  |  }  _] ,0 P* X7 c{ %+ >% N+ ]h J) $~ ^= yB N7 zc >] 41 du zB So AB BB CB DB dr EB FB Ls 31 y( GB za HB IB JB KB LB MB ~j NB OB Fg K4 U= 9w PB >t QB Ae &t RB SB TB UB Ky $j 36 VB WB fw I7 54 F3 >% q(  . a# XB <: ^) }u YB ZB Df -1 [8 C  .p _o _o X5 76 <@ >4 w< B} qt It ub V> `4 Y  V0 @c K| ~b `B Mt /f  C A2 .C t> g) +C }  }  }  }  @  eo P~ @C =y x! q9 V  xq #C $C %C &C *C xq h) xe ;% A) ;% F  g& zd =C -C ;C >C ,C {p xq +o `b 'C i~ >2  - @. >; .c G) D^ LA b{ )C x* `< LA ",
"!C _o /; )0 N7 %a V, ~C {C ]C ^C /C (C _C :C <C [C }C f* |C 1C O+ |+ v% ~x ~| mo =$ F) C) }  }  }  :% 2C 3: yu 3C F] v} E3 ./ 4C p] 5C 6C 7C 8C 9C 0C aC S  bC cC dC eC +# fC gC hC iC jC kC lC %m @6 cB mC Yl (^ ws @  hz jk ^] I) =/ T= Vh ~5 |( e= h. nC oC !h pC qC iu <A rC sC Jx G5 C. }  }  }  }  }  }  }  }  !v tC uC -h f| P{ vC wC Uv xC yC <w zC AC Iu :! {% 40 P3 BC tq sz CC DC !7 @x EC FC GC !t 9. ]t HC :9 8u (9 =u ht <8 @@ }* q( IC D' %h }p 4w hm JC KC LC MC nB NC dc OC 9[ PC QC RC SC TC xt w: BA t1 '2 @  }  }  }  :f 1@ Al 2! s+ Bo Bo +& 16 v' UC I+ 4  !> C+ =u gu @w zB %f VC WC )  Sy XC EB YC Hk 4( U9 L2 ZC 4( Qd `C 6n ]v ]v pk ;~ #) Vm 9w ad i3  D ;v .D Fz +D @D #D 'j $D %D &D L4 *D uh o/ p( ch %b A} /; =D G; 67 _: Jf -D )j :! Hj Q; 6b W7 fd _o X7 Y5 6v qt ]0 0& }A ;D -= ~x 5+ ;k |# +} u: >D V* T& I+ wo )^ r8 wl .[ ,D +C }  }  |  d@ y% l~ gz 'D )D !D |p `4 C9 M3 7{ <2 pg hk Sa ~D K1 B[ =% j6 k} 50 !s {D {D ]D ^D /D V   } 2# %% d  i~ t> -# J+ A) V5 !| D^ b{ Z> >; J+ ;# J1 ",
"(D :  04 c1 p+ 7< _D :D <D [D }D |D 1D 2D 3D 4D 5D 6D 7D 8D 9D es 3# 9: j6 E^ X  T< ,D K@ }  }  }  :% qq 6: #t 1- 03 0D X+ 9_ aD p] :b bD Uv cD dD eD fD n& gD hD iD jD kD ci lD mD nD oD pD qD rD mC sD tD uD (^ +  @  66 S< 5p Y+ C' S= .. Y$ ${ vD wD xD yD *' zD AD l| BD CD f| DD &h sy }  }  }  }  L@ ED FD GD WB Nj HD ID JD KD LD MD ND OD PD QD RD SD *f m, 3) Z^ TD /B 24 T7 A+ id +s UD VD WD XD #D a[ 9. L2 YD ZD `D  E .E +E @E P@ F[ 3} e< o3 #E Sr Bt $E %E &E LC *E =E -E ;E >E ,E `o 'E )E gm +> Kn !E ~E {E |  }  }  oi `} 1@ X5 Hj B+ ]E l5 ^E 8( 8( /E (E 4  ]i of _E :E <E [E }E Ro |E 1E 2E 3E 3E /o ~t Y7 wj n[ db wj u[ Fh a0 Mc b. 7d mj ^E 4E Gg 5E s> 4  ;v 0. y$ 6E 7E  1 8. 8E 9E u/ 2l B2 Xp <* 9d ch H: n6 0E sa aE *o S8 bE cE <h dE O+ pg Qj (8 d{ eE X5 Y5 O= Z5 A5 V0 ^4 -< T> K( t_ gz BA fE gE ]q hE 7: Mo S& -{ _^ H( iE jE T/ gE kE l6 z* lE W{ '| '| /^ mE yv _f Hw ,( R1 ^^ `= nE oE o_ <2 m6 `^ pE pE yd v% qE {D rE sE rD ,: y_ I) d  i~ tE 17 ;2 V| .[ V5 I5 uE 0# 9) P+ A0 vE W; ",
"#, wE jw  % xE yE zE <> AE BE CE DE EE FE GE HE 2i IE JE KE LE ME 9: y) v% Nf T< U< d} L@ }  }  }  Bx NE 6: _; OE :$ 0D $~ 2p PE /' F1 c! QE RE k. SE TE UE VE WE XE YE ZE `E i>  F pD .F +F @F ^D #F sD $F %F +  &F B6 @5 S< ;% Y+ 5# Lt .. g3 u} D/ *F =F -F ;F >F ,F jm 'F )F !F ~F  l C. }  }  }  }  k;  l {F *D +^ ]F `D ~A ^F /F (F PD _F _F $A :F _! &l <F [F k> -= Q3 M3 ~x ~< )~ }F |F 1F 2F 3F 4F 't 5F yy 6F 7F 8F 9F R0 [: 0F b1 aF .^ $0 f  bF Fs fq yi cF dF eF fF gF hF iF jF kF ^0 .n b9  q %s KA hn x% lF /t <% Q8 C. V2 )^ M  Y5 O= L) }- z} }( mF nF oF P+ =1 2l G, >p pF qF rF gm ;p sF Qp kc Qp !: tF uF aq t8 _> vF J| J| #c w} t[ wF s+ bv xF |a 15 [8 5f )0 .= 3( yF O- zF AF BF <v a1 A] !~ CF 36 }z vo g~ 6& <8 M[ 5~ DF EF +$ %* FF [c h. /v =r ub ~m ${ Y5 Y5 *p L) rt GF C[ !^ -< Fd v* :% H  d@ H  d@ HF y% h& ~4 ]q r1 1# ;; Z+ s( W} hw iB i{ O4 h1 }! a{ gE BA )| ]/ 56 !( ~4 fE x* -; ae IF Sa JF Sh i7 Sf KF EA Rf wq Fw LF LF MF ,: O, /* V| NF %s ^% OF /* A) ^- '{ a) _= Tj <g S. PF QF ",
"c{ #c Ur RF SF TF Oq UF VF :h WF XF YF ZF `F  G .G +G @G #G $G ~~ Sh i7 60 %G hb Ml G) d@ }  }  }  &G -m 8p _; z. :$ V* F. ./ *G jk =0 K2 =G -G ;G >G b, ,G 'G )G !G ~G {G Sg ]G ^G /G (G _G :G <G 28 sD $F %F [G &F B6 )( O8 5p j^ =/ Lt p( e  E1 }G q[ 94 |G 1G 2G 3G Bk 4G 5h ml :b S= qo |  }  }  }  zm 5G 1B Wx 6G 7G 8G 9G 0G aG bG cG dG eG fG kd D| gG >] ]x O= T7 hG Xf =% A+ E] <: iG jG kG lG mG #: d# Kc nG oG o: uw zf pG qG rG K4 @l @l sG Fs  A tG uG At vk vG uG b[ wG xG 9. 3( Lf 1d iB /2 yG zG AG BG Cx @  <% 9# 9) CG <' z} *n U$ Z[ Y$ x+ DG EG FG ({ Qq ~5 _b H7 %o <= :o A/ o( Ij Nh 5b 5b Z4 Kh GG X; HG 4) pi ^E IG 90 W* R9 90 d= ~m !x !x 15 %% q= 5f JG S@ xt ^v ): 0w mt KG LG MG NG OG PG  l /a uo Y; @@ H: QG RG :! SG TG sp 53 UG &i pt }4 xq t' ${ Y5 Hj S% j% <@ ^$ O4 +} `+ %8 >| y% d@ [  '# C) [] u_ ~4 =: ;{ !{ Z> u! kk Yk 9  %j F[  d q( VG !v S/ gE Up u1 '# Zp 8t u_ Q1 #/ WG oE }4 XG Sa xq 3m ,y ,6 YG E  Ql Fw ZG sE Yf A* A) z_ L  f) ^% uk Z> `G E^ :2 b{ B@ U{ Em  H .H +H @H ",
"L# _> jd #H 99 $H n8 %H &H =~ *H =H -H ;H >H ,H 'H )H !H ~H {H [4    C9 8{ `+ g} w% Y< |  }  }  }  eo ]H ^H _; OE :$ V* ,0 Fd ./ jk /H B: bE Jy Qv (H W_ _H :H <H [H }H |H 1H 2H 3H 4H 5H _G 6H Wj 7H 8H #F %F 9H 9H d@ .@ ,* [@ j^ =/ 3} _q 64 $. }k Jj 0H aH i] bH 6m cH dH T{ @t $b A^ !D @  @  |  |  .> Xk eH xh fH gH hH iH jH kH lH cG KD mH h9 .g Y4 :l Ko !~ .p 2# `^ h7 nH u+ S@ @y +$ oH %* pH qH rH ca Lc -^ ]z <n sH tH Mm Mm uH Fs D(  A vH wH .8 vG vG uG vG xH yH k1 zH [E [l ]: `$ +> x_ ]2 AH BH Yl CH !E '2 DH >{ sb 4f ,q u+ V$ mb ^$ ,0 N, Bj I] 'l 4{ P. >% EH gl %: '4 h  +y +> 2] h% i[ =D FH 4) 7' `! <p 80 8' +o /$ O. ;% {y Lo %, [& Fd A) B9 K1 GH HH 8f +B 2B B5 IH Lj 8q ~% F! d< w@ JH KH >f f  Fr T| S@ m9 w3 LH V8 MH NH  1 :F {n qw nw Yj xq /v OH PH QH :^ z! z! CC 5_ %| s_ 6_ RH SH 8# TH B. -k -{ 6p hw o/ (= Lt iw kk wo K4 UH J4 x$ VH [| %h WH e. +C a{ :% !4 {4 l6 W> W> ,# Nf XH XH 3p le 1+ 1+ %u b- 5{ Qj Rf ln S1 V  K+ 1# ~{ s$ X  G( /% C^ 5_ =< H( ,D &/ a) 0# r8 U$ YH ZH ~% ",
"I) )0 .= 1l =1 `H  I }t .I +I @I #I $I %I &I *I ^k =I -I ;I bn ]* G. U> W  %/ ym +C e. }  }  }  }  @9 gn s9 T; V% Bo |b m; Of %8 S2 [g =+ B: ~h /z >I ,I 'I )I !I ~I {I ]I ^I :m /I (I _I :I 6H <I 7H [I #F %F J( &F d@ .@ {s j^ Zm 5# aj %0 <' 1d g  ]( }I |I 1I 2I wj 3I &{ &{ }  V} }  ]/ m~ B6 }  |  .> gt 1B xh ,^ 4I 5I 6I 7I 8I 9I 0I aI Qp }j bI N7 =1 Z$ L( -) y) cI <4 6( W* dI eI H/ F/ AF fI gI ca W6 hI k5 89  A iI jI kI lI %9 yH mI mI nI nI @f wH uG uG tG At J4 oI Bt 6c pI Vm U| q1 -< h} ;o AH uz _% *_ s= f< $/ J) yB 9d yB 4# F. 9- j{ /2 e}  @ l; qI rI `y sI R& WH R+ ); tI jr uI lE 6* Fx vI zd wI <G xI rD mz yI wI Ez x| Ll 3g zI y[ AI zG BI $8 .[ 0d Di <b CI vl CI DI ad 5r Rq 2  d  @8 tC EI FI GI HI R0 +j u[ II ,h kw )j lw JI TG 5& vq KI LI yd GF y5 w5 g& g& m6 V5 #9 _- MI wp $| #9 Hw `< %/ wl /* C' _* NI 3d  d jf 4f vw &9 gu Ci 41 R0 B' :' OI @/ Q1 Q1 fE z* 9{ .c 5+ q_ L1 37 Q< ~D 3p KF PI $u <4 57 F3 >( i7 H3 2> G  Jn ~4 e. DH QI K@ DH bo +e RI q3 SI s$ 0) |_ )^  6 ]y }( TI ",
"J+ >% <b 64 x+ ng UI VI WI 9D u; XI YI ZI `I  J .J +J !p @J #J H3 U> I3 W  -{ e. oi [  }  }  }  |  Nu $J :q x< Y{ -/ -/ ;# xd q_ sd s: U* 6& S@ 3! %J BF &J *J =J -J ;J >J ,J 'J )J !J ~J :I {J <I ]J [I ^J %F J( 9H H  l6 y_ -# '% '% >2 '% wo `> *0 7i qw /J 1< &e t[ m{ }  }  }  }  }  vs po #o |  vs (J _J eH xh :J <J [J }J yp |J 1J 2J >A wj {7 /E 4) 1@ }+ x+ yd 3J O9 4J 2w <g 5J )> j[ 33 6J 9+ 7J Y7  ] w[ 1l K4 Wx '5 9d  - jI Ei 8J lI 9J 0J lI aJ bJ bJ yH bJ bJ  A Yh J4 >p Gx z} |a ]$ V5 ;8 w% s1 _r P~ ,| X> cJ Z> 5{ s> f  9d 2j X} 8p +C )2 a{ In h, ED dJ eJ d4 }  &{ A@ V} A@ A@ oi Q8 R+ fJ N5 {x rD r0 <G gJ hJ yI iJ Mn W< _r jJ kJ lJ mJ H< nJ `= ^* 0d Wm z' VH b} ,^ oJ z_ J5 X  KA '{ O/ pJ JH S$ qJ ht 1( .= xj rJ sJ tJ Bf |r uJ vJ wJ $6 BC H^ 70 nn lb E9 D9 xJ G^ kb yJ CH 3> zJ G< AJ Of ~] MA U< b@ J1 ;% @. D' 3} H5 BJ CJ vf 8n [0 DJ 8i EJ }+ qo '# )| Bx gE (' %G L1 0m 0m FJ 34 JF 44 GJ HJ IJ JJ KJ ^$ GF y; LJ M1 |p yv MJ -[ |  }  }  }  |  <% D) DH k; NJ J5 42 O@ C@ #z OJ PJ yB ",
"S2 y_ `A Y+ $m c_ QJ RJ ^' SJ TJ UJ VJ VJ WJ XJ YJ ZJ {x  i $6 ./ `J 5+ Q/ .@ K# v> oi v> }  }  |  Bx Xl uI 9p Z: &, R; Z+  K ;k 1# s: :^ +& u8 .K +K 2% mH @K #K $K %K &K *K =K -K ;K >K ,K 'K Yj mC [I #F %F J( 9H (^ lE ~| v! z> v! I[ >; z_ d  I) _$ T& )K !K F! bt ~K {K [* OI F' -, ]/ B6 vs }  [  S& Xk tj xh vH 4I ]K Ro 8j ^K ZD .n zt Wf /K Y^ ,0 ^| _* V| K1 h) (K _K %% v+ i3 :K x' 0D S@ {: #H <! 4p E] if >f 3d R= R= ^| e< 9d _J bF fH fH sG <K 5G <K 6G #E 5G PG F[ 1t +^ IC ,* xe L  5+ t$ [K s1 _r t1 _% P~ }K `G i) |K p1 q> i~ g) !^ 1  )( y* .> hw *D r8 1K 2K &{ Q= &{ }  A@ v> v> v> +@ H, g&  b iJ @m 3K I^ 0e 4K =r {8 MA 5K 6K po @  |  .| 7K 8K O/ q1 3f Y; _b  C 5G |7 9K 0K u$ 5K :k H( GH  6 }0 $c 9t xo G7 .q aK bK cK dK eK fK 6h z+ +6 zn |8 gK }: hK iK M3 /B jK K5 kK +| lK mK nK oK _p '$ ,( Y> `= ~D xe O/ C' D' 5# D@ yB zq pK Mu Nh b1 T$ Y+ F' H  u1 (^ 4> R1 n0 4+ {* Ml J3 qK }8 rK M. Eh sK tK 1+ s/ {s xe }: uK !D '# vK :% -[ |  |  [  L@ @/ wK S/ Mb r1 Nf n] R< -# wg es xK yK ",
"@5 8: 1h A^ ^^ zK yn jb 2p }5 g7 AK BK CK DK BC 28 *m EK FK GK 66 x! !4 ~4 :] C) Q8 2h HK S+ }  }  }  |  Q= IK sI tI H_ -{ >| mo S2 t3 j, JK D! 5v KK LK d5 MK NK OK PK QK RK SK TK UK VK ,K WK XK $F [I mC &s J( BG +  14 Hw v* LA ~2 ~2 KA KA mo K( >= X} t/ [g +> YK E/ 7~ k] $~ Y  )( :% |  d@ }  -[ Pr D( At ZK b} 4I ]K `K  L .L +L @L sj #L $L G( u| l; /% !^ &/ Z> NF %L `; +. '5 e< e< %0 z. #^ UH b# z. %: (= 8) 7) E' -{ u| do uh uh uh uh oj &L *L VB uh VB VB =L -L ={ ty {/ ;L Do j; D^ mo f} K5 >L _r in !E in }K OF ,L 'L sb ]] V| @. D3 KA v| )C >= [@ V; {# Vh )L {( }  V} }  Q= }  oi K# U; >D U7 nn Yj wI !L Rj O; HJ KF xJ {8 LA gE @  @  }  @  ~L {L ]L AA ^L jI #E 5t /L 9) (L _L Cz /2 w* ~2 uk Z} +l Xk Xh pF rF Fe ]v :L <L B4 4x [L #v x5 zn }L |L *m z* @5 #| I( 5K h} 1L 2L lF CH 3L 4L 5L .x Qf Cz f} L, Bj Sh j6 R< -# j^ Y+ Zm 6L kA n3 x$ if <' U; [] H  u1 ws &G -| ;k r= >< >< q_ T< Ml 7L 8L T> 44 9L M, ^4 `y -{ G  0L [  d@ aL bL f. 8# !( 8# }! +/ cL b) P8 uE #8 L  ^] C@ 15 dL O9 R< ",
"D) QI !( &q cJ eL fL gL F< y* (2 lF J( ws fo y% mE HF HF [] hL Q= |  v> Q= v> K@ oi oi oi ,4 }  }  }  }  }  }  }  A@ A@ &q y* K( jk k} (v Ul V$ iL jL kL 5k lL mL nL oL pL qL rL sL tL uL vL wL D9 xL sD tD yL zL [G Cx P~ AG hn #| AL BL yJ CL vz X< 5K %|  [ Z< w: r( DL EL DL y+ 1# FL :% |  vs }  [  vh &y Sr GL HL IL JL KL LL nI ML sj NL OL PL RI a  _= V2 ;{ Z< !{ jE uk ,{ ,{ uk 2_ QL ~^ uh [! RL SL 7f `y C< k; +e SH 8# h, TL UL C. a  6# U{ VL WL W} a) _= Bm Bm WL 6# WH :] -, -, 8# cL r= '$ XL YL ZL )| y% u1 `L  M .M +M O@ u! @M ~# ;; Z> D< b{ B< ]$ 15 5E *$ [* IK }  }  }  }  }  v> 7# o> 5r on Sh Th hk #M og $M lz %M 3m -; ~2 e. }  }  }  }  &M *M =M -M zA U= 6G <K /a %s ;M >M ,M ]2 X< q3 'M Bm WB D} )M 6L !M n[ bD ~M {M ]M ^M v4 Ed CC /M (M _M :M r] BA H  H  (^ CH O~ mK <M [M +| }M |M 1M 2M 3M 4M 5M 6M #M hk pg o_ {$ V| '% >f ua Ux ^= '% Lt kr [  @  +   | (^ 4y #~ (% ;| 0n 1p Cz g} `% 7M !| {]  & {] !^ )v &q v8 vs }  |  [] >m _f W> >m )( W> x* l6 x* 8M 8M 9M O/ I[ `G 0M 1w aM ^* ",
"v> :] /7 u> 0{ &s r3 CL -k H_ .> 14 w8 l~ (p (p Fn '| x! bM bL -, A@ A@ A@ A@ Q8 S+ Q8 oi S+ }  }  }  }  }  Q= Q= S+ &{ oi }! 8- L| 50 It V$ ,] cM dM eM fM gM hM iM jM kM lM mM nM oM pM qM rM ,s xL sD sM uz Cx tM +  '< kK _r vz wp wp uM vM wM xM h} >| b& Ha 6: =/ yM f6 x[ J+ KA zM AM @  vs }  [  /b BM lf lf bF CM DM Mm tH ,^ EM ir 6) B. ym cL l6 ;{ -{ D^ n~ 5_ 5_ I5 I5 FM 0) 0) D< Z  o/ o/ t( o/ 1_ (J T/ <] )| mE GM 56 [] )4 !4 ,m c) cL -k hE 1  t* j; j; l6 l6 hE _] T/ !( `p F' )( MA Of Zw b4 5K @/ C) '# `L =< 1w HM ^] 2& Nf O/ V5 <- I5 4_ ;; wg b- '0 2d D. ); IM A@ }  A@ }  L@ k; @. lb i7 u' hk hk #M JM %M KM $M =r )$ Cz h& }  }  }  |  LM MM 8L iE CG <' '^ >q PG NM OM Cz zG ]2 PM u$ QM uE r1 |_ )^ gt VH Kj RM SM SM C: 0w k5 ,% Ez TM UM VM WM H. En @9 XM XM @| YM s3 ZM `M mK  N .N +N 2M @N rk #N $N %N &N *N ]* U> Z+ s/ j^ t]  , }+ -# 5} =N k{ (^ +  (^ '2 x% Fn FL ,( e0 %8 6_ NJ FL #9 i; <& {p 7{ B) h, Q= |  |  vs @  v8 {4  [ `< z* W> W> W> %| W> 1  .@ !| Nf /- :2 {{  / 6+ T< ",
"Q= UL u| ^4 `+ -N XG 5E 9j jc -( ;N >N ,N 'N )N !N Kl Bn ~N K+ {N /7 TL ;[ HK v> oi Q8 oi A@ }  }  }  }  }  }  }  }  }  }  a{ 8- `4 E9 ]N ^N H] /N dM (N _N :N <N [N }N |N 1N 2N 3N 4N 5N 6N 7N sz L3 8N $F uz (^  |  | 3> zJ yJ G< 9N ZL )# )# )# $| Sz @5 {4 0N kr }z `[ qn J1 ,D i; #| H  @  vs }  |  aN 9  bN &$  f cN 1j Rq  - %s a) 6) 7# TH +e cL hE (J -{ D^ Hw ~2 G) ^^ d} ,D ,D ,D I5 G( E' 1_ C2 Z  D< -{ 8# u1 d@ B6 B6 '# -, :% h& gE '| +C +C (p 0{ t_ t_ t_ 0{ 14 (p x! h& e. e. }! @5 (' &8 ib dN #~ '| W{ _2 *_ =| 4+ #8 H( {{ J5 J5 eN 4_ ~2 g} fN 6{ )5 O/ .[ Z> h1 In Q= }  |  }  d@ V{ eN xJ *d gN hN G^ iN $N jN kN tq lN b4 xM )| }  }  }  |  mN nN oN pN I5 R= Z} 9) A< FM QM 5K |v zJ uz RH 5K $| w* MA x_ iB NI 5d qN rN &v ,A sN r( n~ 3g !* tN uN vN wN gq xN s3 eL yN zN Tc &s G< eL oe L< AN BN nN CN DN .N EN b4 '$ 1p d0 mo O4 U% 5# ,* ,* Q~ r9 f. y% H  po (^ H  @  H  a{ xi td Of ,( Y< 0{ ym ww Hw ~2 7p }! Q= }  }  }  |  }  |  )4 FN cL cL 0{ +/ W{ c) Mb B. k; Hw t: d} NJ w* vz jn yJ ",
"Q= Pu (l GN xe HN U1 IN JN KN LN MN NN ON PN QN RN SN TN UN VN F  o/ w: )L WN A@ oi Q8 ~( 2h S+ |  }  Q= Q= -[ }  }  }  }  a{ mo r/ k} EA `[ 5z iL XN YN ZN `N  O .O +O @O #O $O %O &O *O =O -O Cv hK aB $F uz H  m~ @  D) @/ )| u1 u1 u1 @/ D) D) [  [  v> ,4 Q= Q0 ir E3 h~ @. F) i; @5 )| |  Q= }  |  K# ;O >O ,O |] o> rd OF 4_ cL D) d@ <% 'O t= SH ~4 qo b) P8 hE %| w* /2 {2 e} )O SI ){ t* -k 8: U{ Bm B@ B. L@ 4u d@ #o B6 #o AM fE gE '| P~ _2 _2 ,| ,| t_ E< E< (2 P~ !E HF d@ d@ @/ u_ +C FL /2 xi W< >| ,< ;8 BH !O $| w* u* =< {{ F^ J5 eN G) >< Cz <- #8 I[ ;; ~O $8 ^- )C In y% K# K# Q1 E< 7L T> {O *G PE EN *8 wN AJ zG RH 5K uz ]O (^ |  |  m~ .| }M ^O ]O /O (O )( B@ _= B@ _O cJ cJ in in _% ,| (2 l~ 14 q3 z* =[ t9 :O H_ <O x: Q| S& U{ Do |v yN [O [O J, gq uz i} un }O ^j gq gq r3 J, ;o ;o |O ,< 1L |O ^j zN uz @~ X< 5K I( Ha v* Q/ X} ^| *[ ^4 }] UL `p :% BA vK (^ (^ @  @  d@ l~ RH #~ W{ S/ Vp wK @/ e. <] K# }  }  }  @  |  vs }  }  |  [  [  L@ |  @  |  <% |  v> <% SH y* 0{ )2 x! )2 ]O I  ",
"Q= t9 5} `A z_ 1O 2O 3O 4O 5O 6O 7O 8O rs 9O 0O aO bO cO dO eO Sh :z 3d fO =g A@ v> oi oi ;[ Q8 Q8 -[ gO S+ [  }  }  }  }  e. t$ W  hG i7 -) R) hO iO jO kO lO mO nO oO pO qO rO sO 1) tO uO vO O* N. |4 wO #9 <% @  |  }  }  }  }  }  }  }  }  }  }  }  }  }  }  }  rj ,2 ~^ r$ D^ {2 FL <] }  }  }  }  }  q8 xO yO d) )O zO BI Cz t_ d@ [  L@ 'O Vp +e k; qo a  -k -k #/ x* =| %| dz QM )O AO BO Bm WL Bm Bm *: TH v> |  @  @  @  B6 &G _2 ,| |v AG uz uz uz pe kK ZL yJ BL zJ !E d@ |  d@ Vp +e +e }! y* )( Y< e} oK CO DO tk *| `% `% EO :- FO GO :2 G) pN EO F) X  <- HO GO 1& IO ^^ %| y* RI PL RI JO pN KO U<  /  / BI LO vz MO NO (2 X> OO l^ _% P~ F< NO PO NO QO _- X> q/ +e RO SO wh y< )v T/ wK Q1 Bx h& a{ ~4 +e c) 9# t9 O| jr ); TO UO VO U{ kr 6) ^p I( AH h} 1k R1 zI _r !O ,< h} 1k L5 w% ;8 ;8 [K -o xi h} am RH wp r] }& FL W> >m G' +} 1# }@ ^| p> u| /7 :] C) fE SH fE u1 m~ @  |  }  |  @  d@ |  <% |  L@ <% |  |  }  }  }  }  }  |  }  |  }  }  }  }  }  }  }  }  }  }  }  }  @  d@ d@ 4u u1 H  H  .| ",
"A@ P| -: d  ;# HN WO XO YO ZO `O  P .P +P @P #P <m $P %P &P *P *= >2 >q !; =P -P A@ 2h =v ;P TL !( Q8 2h Q8 Q= }  }  }  }  u_ t: W  hG v% y+ H' >P ,P 'P )P !P ~P {P ]P ^P /P (P fC _P :P @G OA <t F  xJ rK Y< [  |  }  v> }  }  }  }  }  }  }  }  }  }  }  }  }  }  &{ IK u> *: x* Hw W> e. [  S+ }  |  v> C) S/ Mb <P [P YL b4 ~] RH *_ '| '| Mb 0{ -| Hw v* ,( >< >< V< t$ MA 3y =; 7_ Ml U< #8 <- wl s$ !| ~2 ww SH )2 _% 6K 6K _2 Yl |O AH s1 s1 vi }P :M rk rk rk L5 V< AJ 5K @5 kE Y< w* Hw Hw v* ~2 G) V< |P 1P 2P 3P 1P |P |P |P 4P  / WG GO 5P HO hb hb o] T< eN 6P 7P  /  / 7_ _L zO X  OM ,D ,D B< #8 0m Uj rK 8P 9P 3y 0P aP u$ e} e} bP e} {2 yG cP dP BL eP PO fP gP cL 8: '; D. >v 45 Mo GD !( u_ MJ 8# ~4 F' UL #5 Pu O| Pu 4: hP iP jP A. kP !v !m /p hn r] gn -m -r #~ Ll Ll [K [K ^2 1p lP +~ 1p V< t$ >< >< s_ >| (% W> Kn =[ (J =[ -{ n~ 9p ^4 8p jr mP Q8 -[ MJ gE 0{ '| yv ws m~ @  @  |  @  @  D) D) D) d@ d@ vs [  vs [  |  |  vs ]/ [  [  }  |  }  |  }  }  }  }  }  }  }  @  @  '# 4u d@ '# @/ '# ",
"A@ 1h Z+ Q+ O@ we v5 nP oP pP qP rP sP tP uP vP wP xP yP zP AP z; !; BP CP DP EP FP GP HP IP JP ); Yp O| {/ &q v> }  }  }  k; 4+ T> V>  b 5r w+ hO KP LP MP NP OP PP QP RP 1D SP TP UP VP WP 5v O. H3 o_ {] W> [  |  }  }  }  }  }  }  }  }  }  }  }  }  }  }  }  }  }  }  }  oi fE FL zM x! gE ^p F' 8# +e l6 `% ]2 -o ~* ~* |L XP ;o vz _r kK I( -| s1 XP Dz *8 YP ZP }L `P  Q  Q .Q +Q -N @Q @Q 0m XL Of b4 *8 wN [O [O [O K< K< #Q $Q _M dN %Q 10 jb EN 10 zK zK %Q %Q b4 |0 |0 Of %8 Of td L1 3+ 3+ 3+ XL XL 5M 5M +Q z6 z6 2M 2M ud z6 &Q #N Gl 9P |0 ib #N An ib 5M 5M *Q @Q lN 3c G^ G^ kN G^ =Q -Q P< N< kN $N *N ;Q >Q M< @Q ,Q _p _p *Q _p @Q _p +Q L. jb 'Q 'Q 'Q )Q dN n0 9{ :& (* E. =/ !Q l{ -[ k{ y% '# u1 C) C) C) -, -, c- Q8 Q8 Q8 Q8 -[ oi v> v> @  '# )| a{ a{ l~ (p ~Q -| {Q b& ;8 (' ]Q ^Q -$ >| `< z* w* l6 ww c) c) }! }! ~4 F' u_ [] :] :] c- [  }  }  |  '# fE kE Sz hn _% !E H  @  |  @  @  @  /t D) 4u d@ @  vs B6 @  vs ]/ vs ]/ ]/ [  |  }  |  }  }  }  }  }  }  }  }  <% |  |  |  [  d@ '# H  ",
"S+ P, V> ;D  & /{ $H /Q (Q _Q :Q <Q [Q }Q |Q 1Q 2Q 3Q 4Q 5Q 6Q C] zk Gy 7Q 8Q 9Q 0Q aQ bQ cQ <O 1z |- Z$ w5 '/ >= h1 )C b{ mo ^- O8 V> m6 b- `b dQ eQ fQ gQ hQ iQ jQ kQ lQ mQ nQ oQ pQ qQ rQ sQ N~ C9 C9 ~N W> [  |  }  }  }  }  }  }  }  }  }  }  }  }  }  }  }  }  }  }  }  v> d@ '| 14 kE {4 G  G  fn s_  K 30 hs |M vn !] [O A[ zg ^j c@ ^j c@ ,< vi tQ $Q uQ vQ wQ xQ yQ zQ AQ BQ BQ CQ DQ EQ 10 FQ GQ =8 uQ uN HQ tN tN IQ JQ WM hs 20 KQ LQ Bv MQ Bv Bv .Q vd vd NQ .Q 6y Pf Bv @Q K3 K3 K3 J3 J3 _p _p _p Pf Pf NQ OQ PQ QQ QQ 2M 2M EQ  Q jb #N #N aD KQ .Q Pf NQ 0_ RQ SQ TQ UQ VQ WQ c_ XQ YQ ZQ 6M `Q  R .R +R @R #R ~a MQ LQ me me $R $R .x %R &R *R =R -R ;R >R ,R 'R Pf *G W  J+ R7 [@ Ia )R [  |  @  |  |  |  }  }  }  }  }  }  }  }  }  }  }  }  }  }  |  }  |  |  d@ d@ AM xv &c kE W> !R ;| ~R Ov s] u_ e. e. C) C) oi oi |  |  }  }  }  }  }  }  }  }  }  |  |  [  MJ {4 W> w* !R Y< V{ *_ BA E} Vp Up Vp S/ C) -, k{ k{ k{ -, k{ S) S) {R {R {R ;, -[ ;, ]/ }  }  }  }  }  }  -[ <] -[ [  [  -[ -[ '# y% ",
"[  |! ;= n] ]* ]R ^R /R (R _R :R <R [R }R |R 1R 2R 3R 4R L8 5R 6R 7R 8R 9R 0R aR bR cR dR eR Ki :$ Pm 86 fR y  m] )5 37 <2 z) V5 ~|    ]{ Z^ i) gR hR iR jR kR rL lR mR nR nR oR pR qR rR sR tR =A M< .d {8 x* <% |  }  }  }  }  }  }  }  }  }  }  }  V} uR V} }  |  }  }  }  }  }  -[ BA FN c) =[ G' 7p 6_ An vR wR xR Ml 8L d} G) ^^ =< _^ _^ 9M 9M ;< 4+ ~] yR zR wQ AR xQ yQ xn BR CR  Q DR ER GQ YL yR FR vi [O 4c [O [O vi FR yR r! q_ '$ td An _p XL GR ib ib Qf ud ud ud Qf An PE GR XL ib |0 Of  / b4 b4 Gl Gl Gl ER ER EN EN 8_ 8_ HR 4P IR nJ nJ '$ '$ kb b4 jb zK Qf aD -N lN }8 }8 XH 44 3p JR JR KR &R LR MR *R jK Uj ,Q XL 0m 0m p_ ~O NR L  x> OR PR *Q QR RR SR TR UR J5 Y+ 2d q1 [- A^ c- VR |  vs |  |  |  |  |  |  |  }  }  }  }  }  }  }  }  }  }  }  }  }  }  |  }  |  -, gE x! kE }& -r -| w8 '# -[ oi Q8 [  oi v> &{ }  }  }  }  }  }  }  }  }  }  }  }  }  |  Q8 Do _] W> x* r1 C^ `% <P zM q/ `L 7# 8t [% Q8 Q8 -, ;, S) S) {R mP WR I_ mP XR T) K# Q8 }  }  }  }  }  }  '# e. Q8 Q= v> [  [  -[ L@ ",
"[  |! U> L+ N1 IF YR ZR `R  S .S +S @S #S $S %S &S *S =S -S ;S >S ,S 'S )S !S ~S {S ]S ^S /S (S 2( _S :S <S H$ [+  & ~D 3p -; T> T> ># x; K) pn [S }S |S 1S 2S 3S 4S 5S 6S 7S 8S 9S 0S $= aS bS ]8 }: .d {8 x* [  Q= }  }  }  }  }  }  }  }  }  }  }  &{ &{ }  }  }  }  }  }  }  }  q8 d- O| R+ 3: 3: hw '( M< cS dS HM l' Ca eS fS gS 7F Ho S8 Y] yj hS Ac r+ D] 35 iS jS jS kS lS mS nS Ad O9 xK +b +b zr q: |a q: m] <4 ^N oS DG x[ pS <t 2  x+ v+ x[ ($ 6( qS rS rS i) i) sS <4 H] `b T} g% U$ Qq Da 5f 4{ Da Da Da `5 A} C  z} 4r ad V; e  Zh '^ _b if <= |- i[ i[ Z$ Z$ z} V* u8 Y[ R$ zc 0$ /1 tS uS a- vS yM yM Y! >_ k% B] wS 0F xS [2 yS yS F! U5 U. -_ ZH ;_ zS  I AS BS %a CS 6~ x6 h3 U= yu DS ES ,4 A@ }  }  }  }  }  }  }  }  }  }  }  }  }  }  }  }  }  }  }  }  v> Q= v> mP FS )C )C )C G  b& (' .@ d- 5j GS GS HS IS JS KS LS &{ }  }  }  }  }  }  }  }  }  }  }  &{ d- 4: ty Mo U{ _= 8M x* #9 #/ d) MS Fo NS OS PS QS RS 4l SS TS US VS WS WS XS e4 e4 Fo Q0 &{ }  }  }  }  }  Q= ~( A@ A@ A@ d4 d4 YS q8 ",
"ZS .> v! ]- 5p m6 S> Yc `S  T .T +T @T #T $T %T &T *T =T -T ;T >T ,T 'T )T !T ~T {T ]T ^T /T (T pd _T :T <T !3 [T }T 3p oE N< 3+ {8 ># ~$ ]h z! $e |T 1T 2T 3T 4T 5T 6T 7T 8T 8S 9S 9T 0T aT vO  } xg jK 9_ Y< <% }  }  A@ I_ l{ I_ R& &q !v !v !( !m TL h, ;P l{ GD {/ dJ iP bT cT dT #^ ;r 3C y' sN pp ,*    XG eT fT gT hT iT jT kT lT mT nT oT pT qT rT Z9 sT tT uT vT wT xT yT zT <T AT BT CT DT ET FT GT HT IT JT Vn KT LT MT NT OT PT QT RT ST TT UT VT WT XT YT ZT `T NT  U .U +U @U #U 3= $U %U &U &U *U 8= =U -U ;U >U _( ,U 2' 'U )U !U ~U {U ]U ^U /U (U _U :U <U [U }U |U 1U 2U 91 3U 4U 5U 6U 7U 8U 9U 7U 0U aU (C bU cU dU eU fU fU gU hU w7 iU [D jU kU %4 lU ^> 8% mU 7= <$ nU [3 }b 5d oU U} !w pU Q| .B qU 4: ~/ JP sI 2K IK IM 4j 2h 2h 2h IM DS gO :] `p TL u> GD >, h1 y> k} F  :& 2> rU %G i{ sU tU uU Tk vU vU wU xU yU zU AU BU CU DU DU DU EU FU -P LS GU UO HU $s mf @l {F  q Xp uk 0) %s Xp IU JU KU LU MU =w NU -z OU 7  <l PU ;7 ;7 c. Ny QU sj -v RU et SU 6# SU Q, kr H_ ,2 n7 th z.  n #^ ~w ",
"R+ 45 J+ J) 5p V| 9L 0D TU UU VU WU XU YU ZU `U  V .V +V @V #V $V %V &V *V =V -V ;V >V ,V 'V 7} )V !V ~V {V ]V ^V l' /V %C LI rK    xJ h) M+ B} (V _V :V <V [V }V |V 1V 2V 3V 4V 5V P' W( 6V 7V k} L3 28 9_ r] @  }  }  ;[ 1h w_ r$ S; 1_ D. 1_ 1_ 7+ C2 8) 4} `: aj if xo 2( .g 8V 9V 0V aV Ur Y0 Q4 ~5 2] -% M3 _c  ] bV cV dV eV fV gV hV iV jV kV lV mV nV oV pV sP qV rV sV tV uV vV wV xV yV zV AV BV CV DV EV FV GV HV IV JV KV LV b( >a MV NV OV PV QV RV SV TV UV TV VV WV XV YV ZV `V  W .W +W @W @W #W $W %W `V `V  W &W *W =W -W ;W >W ,W 'W )W !W ~W {W ]W ^W /W /W (W _W :W <W [W }W |W 1W 2W 3W 4W 5W 6W QV 7W 8W 9W 0W aW bW cW dW eW fW gW hW X9 iW jW kW lW mW nW oW 'U pW 5< r+ J- u} _o qW H: 2! =+ q[ ]( rW (5 cj  x sW kx Hg tW w: w: %$ %$ yu dh :q C2 uW fs w: `w %, 7' It nw an `J -g vW R; t7 wW xW yW zW AW BW CW DW EW t4 Bu _9 db U9 o[ FW c. GW HW IW Dd Lj H/ @j w[ vf >p dw r8 )^ CF 4t JW KW LW MW NW OW PW QW RW SW TW 6q UW VW WW #] &7 Sr qr &h I7 Ra )^ :z *[ `  XW `e E1 pG YW K- w6 w6 ",
"VG 7) u! gb ^] ]^ xe i[ ZW `W  X .X qT +X @X #X $X %X &X *X =X -X ;X >X ,X 'X )X !X ~X {X qa ]X ^X /X (X _W _X e$ ;} :X <X [X rK C9 Cj x; N+ z! }X |X 1X 2X 3X 4X |V 1V 5X 6X 7X 8X P' X( 9X 0X sz $F sM Rh (B @  |  }  ;[ ^4 _* X} (=  > &: Z  aX Z  Z  r$ iB D' ^= f3 db He kw Z| bX NB Rm bx cX 5! R9 ]h n] 8P y> k! dX eX fX gX hX iX jX [j kX lX mX nX oX pX qX rX sX tX uX vX U_ wX xX yX zX AX .( BX CX DX EX FX GX HX IX JX KX LX MX Q# NX OX PX QX RX SX TX UX ^W VX TX WX XX YX ZX `X  Y .Y .Y +Y @Y +Y #Y $Y %Y %Y $Y &Y *Y =Y -Y ;Y >Y ,Y 'Y )Y !Y ~Y ~Y {Y ]Y ^Y /Y (Y _Y (X :Y <Y [Y }Y |Y 1Y 2Y 3Y 4Y 5Y 6Y 7Y tX 8Y 9Y 0Y aY bY cY dY eY fY gY hY iY jY kY lY qQ M~ mY nY 0E D! H] J[ pn pn oY bv Tl pY qY S0 _> ]: 7b xo |k ap v9 gl T= *[ Q~ iB rY '= Z: Q~ sY tY Ia 3j /= 7' (v (8 Gw p] uY vY `{ T# wY xY yY zY AY BY .( CY m& DY p2 EY S# U8 oH H/ 9j gr FY GY HY 9E %^ 9E -p G@ o1  v oj fO Yk IY JY >w KY LY MY NY OY PY QY RY SY TY UY VY WY ;p C( XY 5c Ra YY aX o> 9M j~ p> ZY `Y  Z Lx 0~ .Z +Z @Z ",
"<z l; x_ I[ M, I[ )5 z} .q #Z $Z %Z &Z *Z =Z -Z ;Z >Z ,Z 'Z )Z !Z ~Z {Z ]Z ^Z /Z (Z _Z :Z <Z [Z ug }Z |Z 1Z 2Z 9^ 0$ X^ 3Z 4Z {] )5 Z^ 2# W0 C} 5Z 6Z 7Z 8Z 3X 9Z 0Z 7T 5X 6X aZ bZ !1 Y( 9X cZ 60 tD dZ 4C kK @  |  }  I_ ^4 U% :z eZ =L uh =L do `} fZ >v (= NI gt eq #A Ve gZ hZ 4z ~+ P& ~: Kj G] R9 #z Xf NQ ~N fh iZ jZ kZ lZ mZ {o rN nZ oZ pZ J' qZ rZ }Q sZ tZ uZ vZ wZ xZ yZ zZ AZ BZ CZ DZ EZ FZ GZ HZ IZ JZ KZ LZ MZ NZ %( OZ 't PZ QZ RZ SZ TZ UZ VZ WZ XZ VX VX YZ ZZ `Z ZX  ` .`  Y  Y +` +Y @` @` #` $` %` &` *` =` -` ;` >` ,` '` )` !` ~` {` ]` ^` /` (` _` :` <` [` }` |` 1` 2` 3` 4` 5` 6` 7` 8` 9` 0` a` b` I{ c` d` e` f` g` h` i` j` k` l` m` b% n` o` p` q` ~k M= B  J[ r` s` t` 80 &k 16 {= A: |% j[ Y4 #H #H <n |k >* sW Tj D' U% y_ y_ `A N/ `A =/ ^| '= fJ 5) E3 5z <@ 4) -% L| u` 8{ v` w` x` y` z` A` B` C` D` E` G# <o 9u F` G` Gh H` k[ I` ;7 QB J` {} K` +D K` L` n1 89 r| Yk Ct .< Sr >n M` N` O` P` Q` R` S` T` S! U` V` _n &^ W` 8n vH X` Y` 17 Z` =< FM D< o> {s  , %o %D ,f O# ``   .. .",
"!{ Bm r1 o> 2& ^] b- Qq j[ C: + .@ .# .$ .% .& .([ * .= .- .; .> ., .' .) .! .~ .{ .] .j! 4d ^ .JB / .( ._ .: .< .Tl [ .} .N< ,; ># ^{ Q; I' C} (V | .1 .2 .3 .9Z 0Z 6T 6T 4 .5 .6 .7 .8 .9 .0 .60 a .b .|8 X< |  |  }  &q Z  C' q> Fm Ct .< 5G kf Tj C6 kf pp %0  n )E c .wx d .e .j/ f .g .3h  3 G2 ta x; h .i .j .'4 k .l .m .n .o .@] p .q .r .s .t .u .v .w .x .y .z .A .B .C .D .E .l- F .G .H .I .J .K .L .M .N .O .P .Q .R .S .T .jX 'h U .V .SZ W .X .Y .Z .` . .....+..RX @.. ` #..$.. Y +` +Y +Y .Y @` .` %..&..*..=..-..;..>..,..~) '..Eq ).. ..!..~..{..].._` ^../..(.._..:..<..[..w .}..|..1..2..3..4..5..6..7..8..9..0..a..b..c..d..e..f..g..h..i..j..k..l..m..n..o..:8 p..j6 q..r..s..3K Cj <t t+ Qu 8i kj gG ed Ho -( t..Nd DJ -* u..iB x_ O, ]| ,* 5# *$ V% %: v..w..x..tA T& Hj :^ O. L| uY 8{ /= y..z..A..B..C..D..E..F..G..H..<9 I..F` J..+D nl W6 K..L..M..N..jx O..P..S4 Q..l1 c0 f~ Y; rG `$ R..HY S..T..U..V..W..X..Y..Z..`.. +..+.UW WY Kx >p &y ++.@+.#+.KO =< pN D^ <* I1 /| 04 43 lt $+.%+.&+.*+.",
"p> k; T/ uI w_ xe %u =+.bI I2 7m -+.;+.>+.,+.'+.)+.!+.~+.{+.]+.^+./+.(+._+.:+.<+.[+.}+.#n D2 t( ;a |+.1+.2+.3+.4+.T. 5+.6+.I3 H) ># %u 6z :8 76 7+.6Z 8+.2 .9+.0+.0Z 7T 6T 6X 3V a+.}+.M: b+.c+.>u d+.e+.0_ 5K |  }  }  TL p> m; 54 ch rG f+.qG g+.R@ h+.Di `> 46 n3 >A i+.j+.k+.l+.m+.n+.u7 k! '4 ;D >8    aD VM o+.]s p+.q+.r+.s+.:y 8V t+.u+.v+.w+.x+.y+.z+.A+.B+.C+.D+.E+.F+.G+.H+.I+.M{ J+.K+.L+.M+.N+.O+.P+.Q+.R+.S+.T+.U+.V+.W+.X+.Y+.Z+.`+. @.i` .@.+@.@@.#@.$@./W ...%@.RX &@.*@..` $..@` +Y +Y +Y =@.-@.;@.*` *..>@.,@.'@.)@.!@.5= c* Ei .8 k[ ~@.{@.]@.^@./@.(@._@._@.:@.<@.[@.}@.|@.1@.2@.3@.4@.5@.6@.7@.8@.9@.0@.a@.b@.c@.d@.e@.f@.g@.h@.i@.j@.k@.l@.m@.x7 n@.o@.p@.33 q@.1h }8 r@.s@.t@.u@.># '% E1 v@.Ac w@.}c x@.@0 >b }U 1^ y@.n; <^ %, O, ;= w$ A+ U* 8i e! z@.dl #c mm A@.Y[ R$ j% ^$ K+ B@.xg R; !r C@.D@.E@.F@.~. G@.}1 H@.Mw I@.$V gT ~f J@.If <l K@.L@.(r L2 M@.L2 cb L2 db o[ n[ Ye |( n6 N@.Z' WY bb O@.P@.Q@.R@.S@.T@.U@.q} V@.W@.-f WW +j mf z< X@.fN (L HO Y@.G) 7+ V0 O= Z@.%' `@. #..#.+#.@#.##.",
"9M C) |  L@ hE L  eT $#.q: 4p %#.&#.*#.=#.-#.;#.>#.,#.'#.)#.!#.~#.{#.]#.^#./#.(#._#.0f >4 hn k; :#.<#.[#.}#.|#.&e V$ IA 1#.Fd KA N. 80 ($ ta 5z $e 2#.3#.4#.5#.6#.7#.3V 6X 8#.9#.0#.a#.b#.c#.d#.Cj d+.e#.0_ 5K |  }  }  F' H) ]- |h JG f#.g#.h#.i#.f+.Vm $9 '^ jf Wh  p j#.(U k#.S` U@.l#.m#.n#.F[ v$ N. G. XP vQ o#.y_ p#.q#.r#.s#.Cf z, W| t#.u#.v#.w#.x#.S .y#.z#.A#.B#.C#.D#.E#.F#.G#.H#.I#.J#.K#.L#.M#.N#.O#.P#.Q#.R#.S#.T#.U#.V#.W#.f: X#.Y#.PX Z#.`#. $..$.+$.@$.#$.$$.%$.&$.*$.=$.`X -$.-$.;$..Y ;$.$..$..>$.,$.'$.)$.!$.~$.{$.]$.^$./$.($._$.:$.<$.[$.}$.|$.1$.2$.3$.3$.4$.5$.6$.7$.8$.9$.0$.a$.l$ b$.c$.b` d$.e$.f$.g$.h$.i$.j$.k$.l$.m$.n$.n$._` o$.p$.q$.r$.s$.Mw t$.u$.v$.6) PR w$.w$.x$.y$./- 36 aF qJ z$.yF A$.B$.C$.D$.E$.F$.G$.%' ]x P. A* E9 H$.w@ I$.z~ a1 J$.K$.a^ L$.M$.N$.Tl K] b- G. 2p O$.[@ %* P$.Q$.R$.S$.T$.~, U$.V$.W$.X$.Y$.Z$.`$.F` ~: ~n Km I6  %..%.+%.^0 @%.l1 v/ #%.=u $%./| D! M* &] %%./0 &%.*%.=%.AW S` -%.;%.>%._0 8. 4( ~h 2l Em jE ,%.'%.'%.7L Cz =< /% T= y@ )%.!%.~%..#.{%.]%.Gq v, ",
"p> -, }  |  qo A) GJ !$ ^* h~ ^%./%.H} (%._%.:%.<%.[%.}%.|%.1%.2%.3%.4%.5%.6%.7%.o< 6= m> (- ~4 c. 8%.9%.0%.a%.bl j, == Th S<  @ C9 :p t' X5 B} (V 2#.b%.4#.c%.d%.e%.f%.g%.h%.i%.j%.i* {< k%.l%.D9 /M m%.n%.5K |  |  }  B. I, N1 fb DI o%.p%.q%.r%.s%.{q Yh 1- r| jA 31 t%.u%.v%.w%.x%.y%.C8 S@ L4 T> v$ /' ^2 z%.VM A%.B%.C%.D%.E%.F%.fr M- G%.H%.I%.J%.@0 K%.L%.M%.N%.O%.P%.Q%.R%.S%.T%.U%.V%.W%.X%.Y%.Z%.`%. &..&.+&.@&.#&.$&.%&.&&.*&.=&.S .SZ &W -&.;&.%Y >&.,&.'&.)&.!&.*&.~&.{&.]&.^&./&.(&._&.:&.<&.-$.[&.=$.}&.|&.1&.2&.3&.4&.'' 5&.6&.{{ G( *D 7&.8&.9&.0&.a&.b&.c&.d&.e&.f&.g&.h&.i&.j&.k&.l&.m&.n&.o&.p&.q&.r&.s&.t&.u&.v&.w&.x&.y&.z&.A&.B&.C&.D&.E&.F&.G&.H&.I&.J&.K&.L&.M&.J) N&.O&.x$.P&..c t( &0 [2 n; T] Q&.f$ R&.S&.T&.3R ^3 0^ !b L( O. b- U&.A: D+ ]) V&.'U W&.e$ qi /z pY (1 X&.lb /' uY B@.Lo II Y&.Z&.`&. *..*.+*.@*.#*.$*.)b w7 X/ tg %*.&*.vr Q2 **.=*.-*.i^ B: #H ;*.R2 Ko Nh Y[ >*.R$ ]x eI WW Z& ,*.'*.)*.!*.~*.{*.]*.!j 9! 7J Qc S@ s8 Ag pN ^*.J  /*.(*.Cz $/ /% R| 3! _*.:*.<*.[*.}*.|*. * 1*.",
"Z  oi }  }  }! 2*.37 3*.J5 2& r: 4*.5*.6*.7*.8*.9*.0*.a*.b*.c*.d*.e*.f*.g*.h*.i*.-W j*.%b 9# k*.@$ 8! l*.j( /y N$.P* ,y pg ~| b{ H3 E  !x .p !0 m*.n*.o*.p*.q*.r*.s*.t*.UV u*.v*.w*.0%.x*.o~ y*.#m n%.z*.A*._r |  |  }  ~4 d0 {8 {]  - f3 B*.C*.D*.A9 8  E*.nx F*.c9 ]t G*.H*.I*.J*.K*.L*.M*.[= %h ,; {8 Fd N*.(M z%.O, z1 O*.P*.Q*.R*.S*.T*.U*.V*.W*.X*.Y*.P( Z*.`*. =..=.+=.@=.#=.$=.%=.&=.*=.==.-=.;=.>=.,=.'=.)=.!=.~=.{=.0Z ]=.^=./=.eW (=.e] _=.:=.<=.+W [=.}=.|=.1=.2=.3=.}=.4=.5=.w*.6=.d: 7=.8=.7=.+W 1Y 9=.0=.a=.b=.c=.d=.e=.f=.g=.h=.i=. > j=.k=.l=.m=.n=.o=.p=.q=.r=.s=.s=.t=.t=.u=.v=.w=.x=.y=.hU =W z=.m+.A=.B=.C=.Y..D=.E=.F=.G=.H=.I=.J=.K=.L=.M=.N=.O=.P=.Q=.L6 R=.S=.c# T=.Z! LF U=.V=.b& WH nj B* 1% W=.)6 mh X=.Y=.PX T` Z=.`=. -./| ]% U$ {7 Kw y9 .-.+-.@-.6l I* Kw Ye ^E (  Z[ an ;k #-.@e Y: $-.%-.&-.*-.=-.--.--.;-.>-.,-.)b '-.)-.!-.K2 bx H/ d1 [( R* ~-.9$ qd =1 |b S$ G] !~ U* Hj fT *+ {-.Oa ge `$.]-.^-./-.(-._-.:-.=o =l <-.M2 )0 GN SI 4M 3M tk [P /*.pN t* B@ yu 2z 7& [-.k. }-.|-.RZ 1-.ab ",
"4} L@ }  |  +/ sd L, 2-.{] v$ v% $u 3-.4-.5-.6-.7-.8-.9-.0-.a-.b-.c-.d-.A=.e-.f-.g-.l..[= /b Yp _z V8 !%.h-.^V 3) ~m i-.IF k6 n~ A* E  B} j-.>/ k-.l-.1 .m-.n-.o-.p-.q-.r-.s-.EZ t-.u-.v-.w-.a' }5 x-.z*.A*.gq |  |  |  x! +~ 2p W  iw Z] y-.z-.A-.Vm B-.C-.p[ :: WW N# [*.j+.D-.G: H` Oa E-.o7 Lt 2& {8 L1 '$ (M z%.Ab V9 F-.G-.H-.I-.J-.PC K-.W+.8=.L-.M-.N-.[y O-.}-.)U P-.Q-.RZ R-.S-.=] 0V m. T-.n5 U-.v6 V-.W-.X-.Y-.Z-.`-. ;..;.+;.@;.[-.#;.$;.%;.bH &;.*;.=;.R: -;.;;.>;.'f ,;.yD ';.bH );.!;.!;.~;.{;.];.NB ^;.he ie ^;./;.Q5 Nt ht ^= 0) 4} th yc (;._;.:;.X#.<;.s~ [;.};.K*.T: _< |;.+;.1;.z] &' 2;.%;.3;.4;.5;.6;.7;.j. !j 8;.9;.j+.0;.a;.b;.c;.d;.e;.f;.g;.h;.i;.j;.k;.l;.`6 m;.n;.o;.1#.p;.]e fE -{ y+ [+ )~ R0 rf q;.r;.s;.t;.u;.N' v;.w;.T* JK x;.LG i! y;.z;.A;.B;.C;.^1 u8 W* }2 :8 8v w| n0 xd P0 D;.E;.F4 Tg ju F;.G;.H;.I;.J;.K;.J*.L;.M;.N;.jG i^ O;.#) P;.Q;.R;.[_ _8 z! S;.n;.X; :| <| K| T;.p6 5; m#.W&.=;.U;.V;.S-.L- al Um 4n E| Ej qW @z mo YL W;.X;.tk Y;.>| (% 6) qU X, s[ :1 Z;.`;. >.H* .>.+>.",
"F( oi }  v> TH %| e} bP F) 0m P< we cI ]R @>.#>.$>.%>.&>.*>.=>.A1 ->.;>.>>.,>.'a '>.>~ x$ G_ Vx 2t {5 w3 NG )>.!x &% LI G^ f} 1  O8 xq H$.R) x5 (k !>.1X ~>.{>.]>.!V 7%.^>./>.(>._>.:>.<>.[>.(  N1 }>.a .|>._r |  |  v> ~4 x| @e ~| p( 1>.x9 2>.o( 3>._z L@.R# }-.N-.4>.5>.6>.[y K2 u[ 9t [: 2f )^ ,; Nf Fd N*.}L zR ^e 7>.8>.9>.0>.JD a>.b>.c>.d>.e>.f>.WW Va (z Xe %o of Z] Tf (q >* 1- z. yr v..gl S= Lt `e `e `{ ~$ >8 &%  b O) Su 1A nZ n> x< Fx g>.h>.Fx V0 P0 }@ ]| _* 9- `  i>.T; j>.k>.l>.m>.n>.o>.o>.p>.q>.r>.s>.s>.2t r>.o>.{K (; UL b) t>.t>.JP SS u>.v>.w>.'A v..x>.y>.z>.F_ A>.B>.C>.YK OE 1t oU v#.D>.E>.E>.F>.G>.G>.H>.I>.J>.K>.L>.M>.N>.O>.Ii P>.Q>.R>.S>.T>.U>.V>.W>.X>.Y>.1( /| ~0 ]p kE '| r] U> >8 =% _& Hj <: 5m R# LV Z>.y] `>./s w9 vF d1 +% S]  ,.cv .,.9t qd g~ |- 4r t+ G2 {y K( Dz =$ ,= +; +,.@,.#,.$,.dG <A Ss Ik `z .+.b! ]v ') x4 Qm n5 %,.mj X; qt $p ub ~0 (8 PJ l> #> S0 <: p[ 4n &,.*,.=,.-,.;,.m, {: {: nA qh z@.}I >,.,,.',.l} !| CO 4P ),.xi 0P /2 y* e. ^q qU F_ 3t !,.~,.{,.],.^,.}-.",
"U; IM oi `p 7# oi oi [  xw 5P /,.27 wv (,._,.:,._A rc pB <,.z, Y' M7 [,.},.[: Z8 R~ qd E( vh do yA Ux 3f pS GJ PR z6 jb yR X< ym ,; xq 5z :8 ah Nb !>.|,.1,.2,.]>.!V 3,.4,.5,.6,.7,.QC 8,.9,.;( ;# -u zn }>.(% |  }  v> B. E2 /' S2 Vh FW 0,.N- a,.b,.f4 c,.r, ie d,.^+ Y8 K*.e,.nA @j !8 '8 f,.Lt 2& Nf Fd N*.WM JQ n0 g,.h,.=Y i,.7a j,.uB k,.l,.m,.SA n,.o,.q8 IM R& OI A. := iP ); kr kr iP p,.UL ~4 u_ &q XR !4 (B wp pe uz q,._2 eo v8 '# -, MJ MJ :% hL y% mE &G _% _% XM eo yv vK vK 56 )m r,.WR I_ mP mP [] `p !( MJ u_ e. gO Q8 S) s,.!4 'm r,.;, Q= Q= ,4 ,4 ES S+ ;, t,.S) mP )m u,./7 WH {/ 2h Q= &{ V} }  }  }  }  }  }  }  &{ &{ &{ &{ Q= [] }] -q v,.w,.x,.y,.z,.A,.B,.C,.:0 Ye JK 40 '* t_ (p r] D,..~ M9 &d E,.|z GG Rx F,.M: O' h-.G,.yj <7 yF %;.H,.I,.J,.dI Di 1d Zh $. 4  U* ~5 m; Q/ r_ ;k 4} &D K,.l& L,.vy hu M,.[o N,.3E O,.fr $< o2 [h P,.Q,.}' mj +& B} ==  ~ Sh lb =2 N= ~% nb F7 ~t 7J =b U] R,.S,.n` m0 ko 6r wD o+ T,.U,.V,.W,.Q% c{ D3 eN :- Y> MA F) NJ 0{ '# <] I_ Pu R+ X,.Y,.#) d^ gf u7 ",
"Wk TO 6# A^ kr oi }  v> ww 3+ rK NR <2 OR 6{ Z,.=b 9m E+ `,.N= o;.h; L^ Wu {~  '.[+ C  D' VG &: %h j^ .b .'.+'.@'.#'.$'.W;.uM t_ ~| Uu pn ta N+ Nb !>.%'.&'.*'.='.[#.-'.;'.>'.,'.''.)'.#y !'.H: ,0 ui D,.~'.(% |  |  v> In |# p] ^- jf >^ Sx pk {'.]'.^'./'.y3 ('.P-._'.fA 'a G~ vF m' pi 3& R7 S= ^- 0m Fd N*.YP wn :'.'~ <'.Wo ['.}'.|'.|9 1'.i$ z7 s} zu Q= }  }  }  |  }  }  }  &{ v> &{ &{ }  }  v> oi ~( A@ gO hn 5K X< $| 14 hz 8# s,.k{ k{ -[ -[ d@ d@ d@ ]/ H  #o u1 u1 #o #o d@ @  |  |  |  Q= [  VR }  }  }  }  }  |  |  [  2'.Q= |  [  v> Q= S+ ;, 2'.t,.;, S) -, -, 2'.;, c- 3'.gO l{ TL ;P -[ }  }  }  }  }  }  }  }  }  }  }  }  }  }  }  W{ 7+  ^ Yr 4'.5'.6'.7'.8'.9'.~@.L2 00 N0 T7 '* t_ +C zM PE `Q e7 gN @o (v 0'.cl a'.b'.c'.d'.e'.f'.g'.g'.];.o$ h'.l= TI h~ Wf i'.&] ra j'.[: V; 4_ ;k d0 r9 k'.l'.GY uu #A m'.0[ nc n'.o'.p'.Fe dq dq W6 n, q'.5~ <8 }2 25 ZG r'.s'.mn Il t'.(  7d D| j5 pk -a u'.v'.w'.x'.R~ 07 y'.M* q+ z'.<u Dy A'.-i I1 @. 2*.5P U< hb o] e} s] m~ |  HF !D gE !m @+ L$ B'.C'._d ",
"sW F[ ]] h[ D'.`p v> oi -k =$ Fd eN GR 9P F^ 0d 4! T;.(  {~ +o !y I] kz kz /$ N; `[ -1 .. D. n/  > z> XG E'.F'.BQ G'.H'.L< kK zM jk E,.pn W7 ~< I'.l-.6Z &'.J'.K'.L'.M'.N'.O'.P'.Q'.R'.J@.z| FH l} D,.+x ~'.!R |  |  v> In |# p] S< ,* S'.T'.ol Ge U'.V'.)j W'.X'.L-._3 `C Y'.6d Ko qd o7 C  J) i{ V5 3+ Fd &8 YP Z'.`'.R;. )..).+).6. cG &-.+: TE @).UD #).A@ v> Q= }  }  |  v> }  }  }  |  }  }  }  }  }  }  }  &{ TH W{ cJ Mb ~4 !( =v c- v> v> ~( 2h Q= &{ }  }  }  }  |  }  }  }  }  }  }  }  }  }  }  }  }  }  }  }  }  |  }  }  }  }  |  oi Q= Q= }  }  }  }  &{ Q= v> v> }  }  }  }  }  }  &{ A@ v> }  }  }  }  }  }  }  }  }  }  }  }  }  }  v> FL K( <' V~ $).%-.%).&).T4 7r *).0w $c JK ~< }# cL +C hn =).iN tq -).tb %p v3 >*.:> ;).>).7m ,).ie ').)).!).}h `,.[' 2f e  ~).n9 {).]).^).m..A} >= F) d0 Sq .^  x /).k=.@d MX m'.z4 ().Zv (r hI Lm k5 gu '7 Gf Y' w@ &2 Et _).LF :).78 <).[).}).|).1).g5 1' <} m. Tm N@.*+ B' V* =+ T;.2).3).EC Dy 74 >*.G2 ;% K1 OR )$ p_ p_ Cz BA m~ @  ws )D yv )m fs z8 4).5).2G ",
"%o <' .& *7 H) B. v> v> Tp ww FL 6).gP oN '%.iE A+ [# Sf 7).JF M. ]* rK    V> 6{ O@ ;% (= WB 0# 8).,D 9).0).a).b).c).d).I  e).X> ~| 3m pn ]0 !0 f).!>.%'.&'.g).@U h).i).j).k).l).)-.m).yj &i OH !5 9_ +x 9_ !R |  }  v> !4 E2 5+ ^- ^| n).o).p).3q <*.j#.M! q).!@.r).s).t).nx %v Dc gt q( =/ C' D3 2*.Fd k6 e0 YP u).v).9' w).x).^n y).>-.z).A).B).C).D).E).Q= }  }  }  }  }  }  }  }  }  }  }  }  }  }  }  }  }  }  oi `L F).Tp Q8 v> }  }  }  }  }  &{ }  }  }  }  }  }  }  }  }  }  }  }  }  }  }  }  }  }  }  }  }  }  }  }  }  }  }  }  }  }  }  }  }  }  }  }  }  &{ }  }  }  }  }  }  }  }  }  &{ v> }  }  }  }  }  }  }  }  }  }  }  }  }  }  v> (% ;8 *7 >c G).P& H).I).J).K).:: |g pi L).T7 2> c) ~4 E< 30 M).M).N).M9 9q O).<g T* 00 M$.P).,>.Q).R).S).T).G7 S| fb {| [- +8 U).V).W).X).Y).B' |_ d} MA v* Tj Z).or `).f-  !.a[  !.Js Ap .!.B-.H7 Yu +!.c. UH =7 {7 zS @!.#!.$!.%!.&!.*!.(V =!.v[ -!.;!.>!.f( T).HI 03 <= }- ]E `$ Q4 my :u :u Ba i9 @@ >% q1 ,!.'!.!$ )!.2-.Cz ao |  @  @  ws HF e. n7 CS !!.~!.{!.",
"Bc $. $~ v! -< qo K# oi :] QI <] [  DH q3 BI {] |+ lb 70 G^ xg K5 r_ ~] =$ 9{ sd .c *< 1_ ft SU 6# d} ]!.^!./!.(!.ZM ao E} @/ +e ~| xq `b :^ [_ kq _!.:!.<!.[!.}!.|!.1!.2!.3!.4!.5!.Sx .0 6!.9i an vY +x -u w* |  }  A@ In x| k6 O, Vh 7!.8!.9!.b#.{*.u;.0!.W*.a!.b!.c!.>o d!.kx ,) R| ,) p8 .. u! ]^ W  5+ e0 :'.u).en e!.f!.g!.h!.w. i!.j!.k!.l!.m!.%1 #).Q= }  }  }  }  }  }  }  }  }  }  }  }  }  }  }  }  }  &{ 7# cJ V{ y* TH Q0 &{ }  }  }  }  &{ }  &{ }  &{ }  }  }  }  }  }  }  }  }  }  }  }  }  }  }  }  }  }  }  }  }  V} }  }  }  }  }  }  }  V} &{ uR uR A@ A@ V} }  }  }  }  }  }  }  d4 I_ DS &{ &{ }  }  }  }  }  }  }  }  }  }  }  Q8 Ll ;) '/ n!.o!.0l p!.q!.Q&.l. r!.qw T* 16 Ta s!.14 +C t_ K5 t!.t!.N).uq u!.Ht S;.}2 Bl 1g Tm v!.>!.Q-.a5 a(  Z N/ hG )5 N/ Bc Tm w!.x!.y!.r5 H: r$ F) Y;.,# T= R| G_ z!.A!.B!.C!.H4 L..iA 5u c[ &$ 4d s| Ly 4t D!.A0 E!.F!.G!.u0 H!.I!.J!.K!.L!.M!.N!.o} O!.T5 2I j[ }b (t L# y} R@ ;* A@.$] go pF %v sW 1- 32 _K P!.P!.J1 x> K( Bx |  @  @  '# -, I_ mx Q!.._ {1 R!.",
"zq <b j^ ~| mo +/ Q8 [% I_ QI L@ v> K@ `< 6+ N. [4 vq vq 24 ui 3k 4g =$ r_ ^e 5+ S2 9- C2 }] WH C. ~2 _p vR S!.;o ,| /^ d@ |  S/ ~{ xq /$ :^ $i T!.U!.V!.W!.X!.Y!.Z!.`!. ~..~.+~.@~.o+ #~.T~ %p V  ui L3 |8 jn |  }  HK }! i; `J ,; jf F*.B!.J6 $~.Z>.=' f$ %~.&~.|^ *~.=~.5w +!.u( -~.3t L4 kf D3 ]^ T> 5+ e0 =8 ;~.en It >~.,~.'~.)~.G..!~.qA ~~.{~.2@ E).Q= }  }  }  }  }  }  }  }  |  }  }  }  }  }  }  }  }  K@ ]~.jn zG ]2 X< 6) ~( ,4 &{ Q= V} d4 ^~.XS /~.(~.XS d- uR }  }  }  }  }  }  }  }  }  &{ V} &{ &{ }  }  }  A@ ,4 ES 4j ^~._~.d4 Q= 2h TL UL UL #+ &5 t>.&5 ;P ~( }  }  }  }  &{ ~( l{ 6) l{ uR }  }  }  }  }  }  }  }  }  }  }  }  :~.s1 t: wo n!.<~.6; !).|' i] f>.[~.Kw $c N0 Ta 8- 14 +C #| &8 h .t!.N).D9 ]N }~.0q |~.O= y@ 1~.SA ij 2~.3~.k, $. J+ ~x )5 kk %v n. w!.4~.5~.*~ B' G( Cz 0P >| NI E( or 6~.7~.+w 8~.9~.@w qb G, mf  q @^ mx Nr {F Nj  H o;.0~.Ib Gb a~.b~.#!.5Z c~.Dy 4F d~.e~._d f~.6& (t P. Y$ I1 B/ ;* E/ =D Ln Xh cw g~.{F h~.i~.j~.Fl k~.$8 =< Q1 |  }  oi I_ GU l~.m~.]1 n~.o~.4z ",
"p~.Y, [@ 1# 2> >m c) Do sq c) 8# oi QI 8M KA t: .c `J 4g q] ;k _' K( 0n |# |# 0n y! q9 .@ #5 WH &5 )( w% L5 -o (B s] 4u <% |  e. Ab Hd It [_ _v q~.r~.s~.t~.u~.v~.w~.x~.y~.z~.A~.B~.0: k_ C~.F!.60 L3 .6 zn zI |  |  oi B. +} Ab y_ #. eu Ap D~.E~.F~.P: G~.*} b( H~.y-.JW Wh I~.1l J~.zq g  f  q> u! T> p] xd Tq ;~.en Gt c< K~.L~.M~.N~.O~.P~.Q~.R  R~.y>.V} Q= }  }  v> }  }  [  !( B. l{ A@ }  }  }  }  v> 2h W{ kK BH yg FR AJ w* cL ]q ,m hz !D Do Lr Sq 6f 6f :q 5: $5 d4 }  uR &{ &{ }  }  &{ S~.l{ /7 F' )4 u_ u_ fE }! }! ^p Co _k /7 MJ MJ FN Ha 0n (' FK *c FK y!  [ Co Q= }  Q= `p a  qo _] P8 _k 4j }  }  }  }  }  }  }  }  &{ }  }  }  C. 1p =$ 8w T~.U~.V~.e, Xo )+ W~.X~.C;.09 ,] 0h 8- |v _2 AG &8 h .24 f0 vq $p Y~..s Z~.|~.&n `~. {..{.+{.g* d< 2] M, Cj 5r +> 6h T# X/ @{.#{.r5 N7 !{ W< h} Ha q> g   x ${.%{.&{.]o *{.#3 77 go  ^ a# Ka ={.Ex ~^ F[ j3 V$ *k -{.ZG ;{.G!.>{.,{.'{.){._B 2F !{.~{.{{./; 2] h% Y$ S7 -/ -/ ': 4m qp 1- mf ]{.^{.AA wf /{.({.%L T> 4_ Mb oi Q0 A. $t _{.:{.<{.z, [{.}{.lH ",
"p~.g~ *7 =$ ]p x| K( 8- I, 8- _f Q8 |{.1{.TH `p `p u_ !( MJ MJ u_ u_ `p !( `p `p `p mP K# 2h ZS =v Q8 e. :] [] C) v> }  }  }  !v :& Il 2{.3{.9' 4{.5{.6{.7{.~& 8{.9{.0{.a{.0{.b{.c{.-+ d{.e{._).*d $F #F a .r3 |  |  [  B. CA S< Y+ wo f{.1a y( zb ed +) :c 04 g{.!b Kx 8  h{.(o +B Kx i{.Oh 'q C6 rd T> k6 e0 N*.j{.en (v k{.l{.L~.m{.n{.o{.p{.q{.y+.r{.s{.Q= Q= }  v> oi Q= oi 8# W> P, Jn u,.DS S+ c- K# `p MJ 0{ ZL t{.u{.!] v{.5K FL I( (B Ov 1v un {Q ;k e0 ^e 8- -m !D d@ |  }  }  &{ }  }  }  2h Do )( Dt hn |v |v 1v 2L 4y 66 x! x! x! l~ eo w{.J, -8 '] x{.y{.x{.z{.2k A{.mE y% x! hn lE }& 14 w8 /p S+ }  }  }  }  }  }  }  }  }  }  &{ &{ zm ~] 4+ l5 *U B{.C{.D{.a+ E{.F{.G{.xD 4! Q. >u _' Fn Nu AG dN h .M3 H{.vq It I{.oY .s }~.Ul |~.5$ (| X0 #{ L) ;% W  hG M5 Bo B: Qm G$.J{./C 4% S$ Z< uM |O -| GN 03 K{.'j Be Vz gZ L{.M{.U6 |k 2- sN *0 P. Sq u_ 6) E( 3# qn <).N{.O{.$!.P{.Q{.R{.Tz S{.T{.U{.V{.Md A5 !5 ;# O. ]h A+ :t Z$ *0 pp Em W{.X{.Y{.Z{.3_ `{.jE ,{ <- G) y* QI kP Av Ua ~n  ]. ]..].+].@].#].",
"of t+ w$ @e Oj =).uY uY 8{ G. E2 !( oi K@ Q= }  v> }  v> v> v> |  v> }  }  }  }  }  }  }  }  }  }  }  }  }  }  }  }  }  }  }  )v (* $p $].76 %].&].*].WP =].-].;].>].,].'].)].!].Iv ~].LE {].iL `h LR BK ]].T2 |  |  <% k; '( Z+ $~ _b f{.^].{w #] hA 0j of zf JG TI U| rG Vm Q4 S@ Nh /f ;l S| E( +. T> k6 %8 N*.'] en It k{.=] );.eA /].(].g] A$ _].:].<].,4 Q= }  I_ WH l{ `p C. A^ u| 3: qU [].iP #5 &5 kr uI -{ Hw ^^ 8L 4+ I5 Z  7) 7p z* Ha @~ #~ x| e0 Fd W  1# Hw hz y% oi ~( ~( gO :] mP mP F' ww `% `% jn X< =| X< X< #/ Q, P8 t9 8: Kn @5 (% ;8 Dz ;k  K d0 d0 ;8 (' gn I( @~ {Q Ll }].-r -| *s _f C. |].XR mP ;[ IK d- d- 1].e4 2].52 3].t* {* q] M  4].5].PV [=.6].7].8].9].0].V4 26 E9 ]Q AG '< .  Pj BK M3 H3 v% Ht R;.]~ R{.oY oY a].cp js b].b].t' Gw K+ Cv 6z {% z9 D* P' [D c].d].90 r1 c@ |O zI ]s ,r e].f].D4 Mp g].Vz  w T'.|k Y, *0 u} I' Sq [  ~( >v 4# qn h].;s i].j].k].l].On m].n].n].o].p].H1 ,0 q].r].t3 y+ #z :t :t *5 3} W} F).4u @  D) s].t].8).C^ G) LA zM S/ ); u].v].NH Ju 3E Ms >9 @,.w].",
"B/ O+  } ./ x].~'.+x Bn O$.2p x| 8# oi v> Q= |  [  Q= [  v> |  }  Q= Q= v> |  |  }  }  }  }  }  }  }  }  }  }  }  }  }  }  }  C. -: $p $].~m y].z].A].*].B].C].D].E].F].)].G].H].|> J: w) I].J].Yj BK ]J tD 3g |  |  v> C. Q/ J+ Xm _b n3 I4 gm -l 0j {q h+.vw BJ I1 d  e  h~ H[ -* K].[0 8f gt }z f) E^ 5+ xd *8 '] L].It M].1F N].O].!V Z#.P].Q].R].S].T].,4 ,4 ,4 Jr >d U].U; r( Zm !; V].W].&v &v X].;q qp 1l )0 x' A' $%.Y].Ye  ] p[ Kh 5! w} u8 qd l' ., T. s' c= A} +> ^| T= M4 5d Y{ '% /= Z{ Z].54 2# 5{ 5{ %% 57  6 (E Bo A@..= `].Ko u8 @@ ~5  ^.]y -0 bv S;.HG UC :^ -1 -) Q; pn pn pn ta -1 -) [# =1 }G *0 =0 [| &[ Ln qp .^.7u qF ,A z. I5 CO 4+ 8~ E~ +^.@^.0=.#^.$^.%^.&^.*^.Y, 6z }5 0n (B ,| (B Pj @6 Q3    lb I{.=^.]~ -^.;^..s .s .s >^.,^..k $i L+ s/ 50 qt N$ I~ 0^ ]C '^.)^.$@ :^ Kn X< 1L -| :' .] f].!^.Vg ~^.{^.pc lc cx .= G1 [| l5 B/ x< aN /b >f 2} 26 $].]^.^^./^.;g (^.On _^.:^.<^.[^.;/ ^$ H3 8{ }: hG d& y+ :t M+ /H ZY U{ QI v> |  v> 8o }^.RO p/ x* Y< *_ @/ kP 'A |^.1^..A mH 2^.3^.4^.5^.",
"[= R9 k} Bn x].20 ~'.=).O$.uY d0 Do K# Q8 -[ Q= Q= Q= oi -[ K# c- S+ }  }  }  |  }  |  }  }  }  }  }  }  }  }  }  }  }  }  }  P8 ~8 6^.$].~m y].7Z 7^.8^.9^.ep 0^.a^.b^.c^.d^.e^.f^.u) g^.%# h^.i^.j^.k^.l^.-o <% |  oi a  Y  I) Zh W% Vf Dd #%.m^.bI C+ )~ g3 %0 }@ 4_ r$ &: Yk =* -q -l Z] @l z< f) E^ Of Of =; '] o0 Ft 0: n^.~;.o^.p^._&.1W q^.r^.s^.t^.4j _~.u^.IC %b S$ m' |% E-.v^.w^.x^.9!.y^.z^.A^.q. ZB B^.e3 C^.D^.@-.E^.F^.U` G^.H^.]l H^.~%.E7 )d I^.J^.!3 r7 K^.v^.L^.0~ K- M^.t5 %,.N^.s} C;.f* O^.f* P^.n5 UA o; g'.Q^.bX R^.S^.>%._'.T^.U^.V^.W&.v6 W^.X^.Y^.Y^.B~ e^ e^ J~ d$ t6 e^ Z^.`^. /../.v'.M^.|< %,.5; i^ +/.G~ T8 w3 E-.@& ,; CO 4+ $. nW @/.@^.#/.$/.%/.a+.&/.{) */.(8 =/.-/.uz |v kK K5 M3 Q3 s: !0 ;/.>/.P;.,/.'/.5$ .k '/.'/.'/.)/.oY ah 0& Wl w< x} jw K).|' !/.~/.f' 2] )( kK _r :k  ^ *l {/.39 ]/.^/.//.(/.#: Pc 7w E/ z' go  Z Ln <b V* `c 4! qW .s Q{.^^._/.k-.:/.</.[/.}/.|/.1/.#i `f Q3 }: {p sz x; K) W0 I' A5 sN 2/.)v !v &q sy W{.3/.B@ B. t_ W{ BA '# ~/ 4/.Im 5/.Dp 6/.yy 7/.|| 8/.",
"[= |z  } wd WM is 9/.4g @e /' ;k .@ T/ u_ u_ <] -, -, e. `p !( :] gO oi S+ |  }  }  }  }  }  }  }  }  }  }  }  }  }  }  }  }  {4 <& u!.It ]0 e!.0/.5{.*].a/.b/.c/..~.MT d/.e/.f/.g/. /.h/.i/.j/.Wj j^.k^.j^.0P <% v> [% =: x_ -# ,q VH Fc >t 2B k/.l/.m/.OG E@ yA `} a) Am +@ n/.`).o/.yo 1>.p/.aX H( 1&  /  / *8 wN q/.!y r/.s/.|y t/.u/.v/.w/.x/.y/.z/.A/.d4 uR ^~.Z{ W; Aq d* B/.D$ H,.C/.D/.~U G*.zD E/.F/.G/.H/.I/.J/.K/.e( L/.M/.N/.C1 O/.P/.Q/.R/.S/.jh T/.U/.V/.W/.X/.Y/.Z/.`/.n~.*;./y !/.G%.e,. (.<( 9f r7 .(.!/.n~.~d +(.@(.|*.J;.#(.~l $(.%(.&(.af 5>.*(.=(.r; -(.;(.>(.,(.>a L: H,.U^.'(.)(.!(.~(.{(.4+.&' ](.^(.e^ |} /(.((.l{. %.r^ _(.OF yR t: <b x] :(.<(.$/.[(.}(.|(.1(.qi E1 [# =/.^Q uz #| X< %8 Q3 C9 N, .p ;/.2(.3(.4(.5(.6(.7(.5$ 5(.8(.9(.oY 0(.O* 6b C} !~ <! ~: 5m Pd Od 04 aj c) AG (B .@ G, M@.a(.ha }[ b(.br L} Pg NU #v of J~.c(.d(.IH e(.@j f(.Lf `$ 0'.I{.sQ g(.I'.I'.tR h(.4(.i(._v Vl tb 24 hK wO hG ~$ %% 57 -/ }G y' dT `Y .^ %0 j(.q1 C@ Am Mb '| !E BG @  IK k(.+q l(.m(.yy ~t n(.o(.p(.",
"=+ 4) O) #-.q(.wd r(.s(.B@.vY }: S< *< ;< 1# '(  @ v| v* v| CA )C Jn qo _] !( Q= }  }  }  oi c- mP Zp [] mP :] -[ Q= }  }  [  >m ~8 Il t(.bh u(.v(.8g w(.x(.U@ _].y(.z(.A(.B(.H].C(.p' <> :P D(.E(.k^.F(.k^.V< [  v> [% qo .} 5p .& S| UH cF n#.R~ 0F M7 4p %o z2 ^ .hl i1 j1 >o V) {w G(.9j Yk H(.<- 6+ o] =; }P n! I(.6^.J(.K(.L(.M(.X#.cW YV N(.O(.P(.Q(.d4 d4 R(.GN 3& '8 F! S(.T(.U(.+% V(.f'.)V A^.sf rf W(.X(.Y(.Z(.Z(.r^ `(.T)..-.[j  _.L;.KB ok  _.._.3~ +_.@_.#_.S(.C* C* }~ it $_.$_.f~.m, Tm |~ f! 1; %_.2; f! f! 5~ <c OB &_.sg .-.ge ge <v *_.=_.!/.0^ o; UA +% TA (~ (~ V! -_.,_ }' ;_.;_.Y(.>_./h ,_.Bq a* c' 8$ M[ P$ F! m0 4< '_.)_.#8 f} .c g~ => !_.~_.{_.]_.w*.%^.^_./_.a9 ~m jz ]Q _r (B w* k6 Q3 K/ m; -1 ;/.K' P;.(_.__.8(.8(.:_.9(.<_.[_.'/.d{ j-.}_.76 X7 X4 Z4 X[ T8 |_.lj q( c) AG Sz >m s8 ^0 Y>.1_.XC _;.s2 |r =b ~: 2_.Lm <l 3_.@d b0 HY cq l3 El u/ ,u k> 4_.}).:_.4(.5_.6_.Q% v3 <@ pt >8 o_ FJ wO {p _& x; :t -/ */.w#.7_.[f ]( of D!.ch ^b 7) b) (p ez 8_.B6 ;[ 9_.0_.a_.b_.l& t).c_.d_.e_.",
"=+ |z t3 @B f_.Oj ~N N).{p xJ Th 3m ^{ g_.HJ HJ $C &% xJ ]* K/ ,: h_.K( .c )C L@ }  }  }  Q8 F' P8 )( >m )( )( ^p :] }  }  K# W> W  E,.]0 i_.N* ]~ j_.X0 k_.V` l_.m_.n_.j` o_.p_.2H q_.r_.s_.D(.rD k^.t_.u_.L5 <% v> [% In Y  J+ -# jf `m $s >p }b Aj K].9j 3( -^ >z %< ^0 v_.w_.X6 x_.:0 kB y_.z_.;M zO d} K( {2 !O -/.!y r/.~k %,.T5 A_.7=.B_.C_.D_.l+ u].,4 ,4 Q= R+ Ex R| mf Yu H7 E_.pF Ek F_.G_.H_.c. ~w z. I_.j^ $~ D@ m; [@ :' Li J_.K_.L_.M_.N_.O_.3C Bc z' 2- t] ,% =/ =/ s8 3w P_.Q_.Q_.R_.S_.O_.Z].R; =0 t] *0 =0 =0 $v  = @c @c I_.Z].={.Z]._5 (t :o G; T_.go lm *v (5 Bc Bc p~.5C @> '4 @c &0 :' @c Z{ Jt /= E. E3 Z{ @c sN Li V% :' U% ^^ CO U< A+ S' |+.@^.U_.V_.W_.X_.Y_.[F ': w< Cv +~ T2 _r R1 k6 b@ )5 }A j-.-4 L$ 6_.Z_.h(.:_.:_.`_.:_. :..:.'/.+:.fd t(.$k 9i @:.&i N^.2I V! !b q( =: E< Dt #/ F[ #v n(.+w 69 +w n(.3h @] y/ #:.8d J2 8. Ip I..$:.%:.hB ba B5 &] #) &:.q+ $1 9~ -p *:.H@ Z,.Wm sb ^* $8 XL 3+ {8 v! I) D@ g3 <= Ua ;v aa eq pK #j sG 5c =:.JO #| ez j} @  [  ~/ -:.;:.>:.,:.x2 ':.):.su ",
"xs B  n] @B o+.Rh !:.~:.sz [4 E,.^{ Z^ ,y {:.X^ Vu KF &% ~x 60 C9 L| `J V> 8- Q8 }  |  }  K# ,m W> (% #~ !R -r FL x! '# [  ~4 fn `4 mn R) 6- }G ]:.^:.Ba /:.(:._:.::.<:.[:.}:.|:.1:.2:.2$ 3:.4:.s'.5:.6:.t_.7:.<% v> A@ In 8:.;= I) =/ r( dw qr ua UH >o 4h 9:.lH 0:.a:.OD 5. b:.c:.d:.:w Js e:.f:.g:.$/ SI 5_ u* @~ h:.== r/.i:.s/.j:.k:.fW l:.m:.n:.o:.p:.Q= V} }  V} A@ uR q8 -P GS GS 5j GS q:.q:.q:.{( {( 2h ;[ &q `p :] :] -, Q8 A@ Q= }  }  }  }  }  A@ ~( i& R& R& 2h -[ Q8 r:.Q0 {( YS S~.s:.s:.,4 mP MJ C. a  t9 t>.UL :] S+ v> }  }  }  }  }  }  }  &{ d4 YS 5j YS d4 uR A@ V} A@ A@ A@ &{ &{ }  A@ A@ 4j ES 2h 2h 2h ES 2h ES DS IM TL FN aP  Q t:.|z W-.u:.v:.7=.w:.~z x:.y:.z:.T& }~.nn @B wN J, ;8 L1 hG t3 m; j-.5$ P;.(_.A:.(_.B:.C:..:.D:.D:.D:.8(.Jh E:.F:.&p Nn G:.,,.H:.[-.1I I:.q( =: 14 Dt FL r8 .^.+; +< J:.D6 Vf zk Ed f~ (5 K:.L:.zy wx M:.N:.O:.ix kc NU P:.>).Q:.R:.]) 0! S:.T:.U:.V:.W:.bz X:.]L Y:.$/ ;M Ag Em r( 2l rW k! 3h w4 d(.qb k1 1x Z:.`:.r1 5K P~ j} @  [   <..<.+<.@<.#<.$<.L..%<.S4 ",
"4! B  )5 Tq ZP Rh [n S1 hG E9 Qj 57 >D 4{ h; &<.L^ *<.B[ N, t3 xe Ab 1# 7{ '( -[ }  v> |  wK cL lE FL `% /2 jn Dt x! y% <] +/ G' O4 nn ^$ _$ p~.^: F9 $B =<.-<.;<.><.,<.'<.)<.!<.~<.e$ {<.]<.^<.s'./<.(<._<.wN [  v> &{ 6) ;1 s/ 5p C' '= T= gt S| UH k=.Tk :<.<<.[<.}<.|<.1<.2<.3<.4<.<A 5<.6<._$.7<.8<.3_ =< )O -| -$ Gt 9<.0<.a<.(+ h] b<.c<.d<.+^.y+.e<.uR V} }  }  }  }  |  &{ &{ &{ uR LS LS LS &{ }  }  }  }  }  }  }  |  }  }  }  }  }  }  }  }  }  }  }  }  }  |  |  @  |  }  }  }  }  }  }  }  }  }  }  @/ 4> W{ 4> /^ |  }  }  }  }  }  }  }  }  }  }  }  }  }  }  }  }  }  }  }  }  }  }  }  }  }  }  }  }  }  }  }  }  }  }  }  }  -[ Dt f<.#'.jK B  S' g<.h<.-=.i<.7 .j<.k<.*o X5 }~.50 is ~* FR Y;.{8 }5 -% m; L( %i 4(.(| (_.(_.l<.m<.n<.o<.p<.q<.5(.r<.6g %p &k >i s<.wE }d N] t<.dl F[ RI #| F< E< |_ 2l n3 f{.VH Ei ,q if if if qp M2 [h |r u<.v<.w<.O:.x<.q| 5/.B| Bh ;G q;.y<.z<.A<.B<.C<.D<.E<.F<.G<.H<.I<.g:.J<.K<.L<.sj UH #q Hp o2 v4 M<.bm #s F*.Z:.36 >{ `% _2 j} @  |  N<.O<.qa P<.Q<.R<.S<.%f T<.",
"qd B  )5 Dz ZP 4C U<.&d }5 -= t'.]y B* V<.W<.X<.Y<.{' A> /$ {- DA Gw `J V> ;1 -, }  <% L@ Mb %| z* Y< dz {2 e} x* )( hz ww ww =[ sY nn 4{ L# 4  5! :1 Zv Z<.`<. [..[.+[.@[.#[.$[.%[.!%.W/ &[.>N d_ sD *[.#R w% [  &{ &{ kP iB s/ 5p -: i{ Z: 5#  , 3w =[.-[.;[.}<.>[.,[.2<.'[.)[.![.>[.4[ ru ~[.Y{.{[.][.SI OM g} #~ h:.Gt ~-.^[.I~ D1 4q /[.([._[.!_.:[.<[.,4 }  }  }  }  |  |  }  A@ uR d4 [[.}[.JS LS &{ &{ }  }  }  Q= v> oi S+ Q= }  }  }  }  }  }  }  }  }  }  }  |  u1 ez &G k{ }  }  }  }  }  V} }  }  |  '| Sz 5K kK Ov mE |  }  }  }  }  }  }  }  }  }  }  }  |  }  |  |  |  }  |  }  }  }  }  @  '# L@ [  }  |  }  }  }  }  }  }  v> Q1 V< |[._<.iN g% W-.1[.2[.~_.'b !l 3[.2;.Pv m> oY >8 is ,$ |L 1p z) ~x t3 m; R) %i h(.h(.P;.(_.B:.4[.5[.n<.6[.n<.7[.8[.3n 0i %p >i Uq 9[.0[.a[.b[.jw k'.e[ gP F< 0{ o> x$ f~ yh VH if _b if 1d <= fh W| XD c[.Tg ![ d[.e[.N:..A #: f[.`;.oC Y| R- g[.h[.i[.j[.k[.l[.m[.n[.($.o[.`{.8<.K<.p[.q[.K4 z/ ~: ') r[.L@.C-.At 1x /L ,v 3/.LA $| ws m~ Q= s[.Fi // N..8a Uk xG t[.u[.",
"!~ O+    v[._M Oj B@.w[.=A Qj x) x[.y[.ji 96 z[.A[.~B @{ 4Q B[.C[.>8 `4 <&  @ -[ }  |  L@ +/ s_ v* (% =| dP e} LA f} MA >< #/ hE Q~ >8 ta i[ +B D[.<< E[.F[.G[.H[.I[.J[.K[.L[.M[.N[. >.O[.n; ;4 [4 28 k^.zn ;| <% |  }  u> Q/ ~8 A) r/ i{ sY Y{ E3 s8 P[.Q[.iu R[.>[.S[.T[.U[.V[.W[.X[.Y[.Z[.`[.9o  }..}.){ =< Cz !O +}.Gt @}.}d g! U-.#}.$}.8] {&.%}.&}.%3 *}.}  }  }  }  }  }  }  Q= 4j eJ UO G_ X,.&{ }  }  }  }  }  |  -, }! %c gE }  }  }  }  }  }  }  }  }  }  }  |  @9 =}.q,.vK }  }  }  }  }  }  }  |  d@ l~ -| w% [K }P -}.;}.@  }  }  }  }  }  [  -[ |  }  }  }  }  }  }  }  }  }  }  }  }  d@ ,| (B '| [  }  }  }  }  }  }  }  }  }  Up >}.,}.'}.TQ =2 W-.)}.!}.~}.{}.]}.^}./}.k9 :^ }~.1f YP (}.5L ^2 u` ~x t3 }A M+ _}.#{ __.4(.:_.C:..:.:}.4_.<}.[}.}}.|}.%k 1}.2}.3}.Nn 4}.5}.[-.6}.:d b# 6# 0{ E< t_ x_ 8w vl yh b} $9 VH _b _b 4  03 v[ 9! 7}.Z1 py 8}.9}.0}.a}.aI e].b}.MH 't 8C YC c}.d}.e}.f}.g}.h}.i}./{.X@.j}.g:.7<.k}.l}.6G Z] .g >A Fe ml m}.n}.o}.5t I7 Y} I5 (% (^ @  oi pU Mh /o lc j| Jc p}.q}.u[.",
"}b R7 L1 -8 _M #-.r}.HA +p (8 l%.U~ }' W( 7k s}.t}.u}.v}.2T w}.x}.^$ :* r/ D2 Q8 |  |  L@ cL ~2 G) u* jn =| v* hb K  M. 5+ l6 9# j~ Z^ 6( @@ 09 g^.y}.{z z}.A}.B}.C}.D}.E}.e=.F}.G}.,..oH H}.X; 47 9/.I}.Cn }& v> |  }  !( 8- K+ <& O8 *< _* `A R; @c #h [L J}.K}.L}.M}.N}.O}.P}.Q}.R}.S}.c# T}.wK t= PL >{ 4_ t$ ;o j{.== 1C U}. {.V}.%} $}.W}.X}.Y}.:[.Z}.,4 }  }  }  }  }  }  }  A@ I_ `}.4d q( t( S+ }  }  }  }  }  ]/  |.;| +~ 3g AM }  }  }  }  }  }  }  }  }  }  @  Nu gq @~ x! }  }  }  &{ V} uR A@ GD _] z* GK ;8 s1 >L AN n! 6K |  }  }  }  <] 8: -{ O| S+ }  }  |  v> |  -, Q8 [  }  }  @  ,| ;8 ^2 lE .|.}  }  }  }  }  }  }  }  }  BA +|.@|.#|.$|.z; %|.&|.*|.=|.-|.;|.}I L7 sn ]0 7' jz >|.uQ XP MA <& 24 K/ 47 Ta v3 #{ __.__.7(.8(.:_.q<.,|.'|.,|.)|.,i Sl Fb !|.~|.{|.5[.]|.^|./|.Q:.(|.T+ y* #| Y< y_ @@ 8d k5 89 8  pK Ed ]i Bo 22 +) _|.7}.:|.<|.'z l_.[|.}|.Jf 7J ||.1|.2|.3|.4|.5|.>w 6|.7|.8|.+8 *y i~.42 NF I<.J<.9|.0|.o3 ;* v[ H/  ] [0 )q a|.b|.Q@ 2f fb  & 1# 6K B6 >, A/.ny V` c|.#w d|.S..q}.Du ",
"p~.}+ o] vi JQ :'.e|.f|.g|.pt T~ h|.m. i|.j|.`!.Mv *) K* _@ k|.l|.^$ y_ jk )C oi }  |  L@ xw ~2 g} m|.w> #9 NJ HO O< XH T< ww b) |_ |5 U$ h< 4b LE n|.o|.p|.H[.q|.r|.s|.t|.u|.v|.g/.*_.6n ed 6& %, w|.x|.U3 &5 v> |  }  [] |# G. u` %G .c _* J+ d  Z].6u Fu vx rm y|.z|.A|.=>.B|.C|.D|.E|.F|.Y= G|.D) H|.>{ !| 6_ AH :M == R* N^.A] I|.1c :=.8] J|.K|.L|.M|.uR }  }  }  }  }  }  }  -, u,.6* ^| [g `  S) vs vs VR vs VR v8 Hn 4g N|.Pj O|.}  }  }  }  }  }  }  }  }  }  @  1v T2 !O x! }  }  }  &{ &{ d4 4j aN 8: `< /2 >| 0P PE .6 *G kK [  }  }  Q= -k H) ^| t( DS }  }  }  &{ A@ =v P|.[% }  }  [  Y< +~ ^2 (% v8 }  }  }  }  }  }  }  }  }  d@ Q|.R|.S|.T|.2{.U|.V|.W|.X|.Y|.*] R2 /; E3 M+ D  r].Cn Z|.XP MA z) 24 K/ ,: d& *n #k M= 84 }F `|. 1..1.+1.@1.g,.#1.${ ta ~0 pt _8 S% J7 $1.5!.x. =} lm Vx ym FL >| ^] +B Fe v4 5h RB E6 Ci vf l5 0D {-.nk %1.[9 &1.Z- *1.=1.-1.t7 ;1.}= >1.^: ~7 +j -l Ci Hr ,1.Wf ,q 54 Q+ O@ '1.)1.!1.X{.~1.}z l5 Ye m^.nt F] `c $%.^s (  o8 mb N9 [& zw #o ;P {1.]1.3O ^1./1.[w (1._1.:1.",
"4m N~ 5+ vn <1.Pj r(.[1.}1.pt |1.e' P# 11.21.&/.31.41.51.61.:P 71.U7 J+ -: D2 oi }  }  'O )( i; ^^ NJ pN =< ,D HO {] {] ;< l6 a  &: ^$ <g 81.{-.L= 91.g=.01.a1.b1.c1.d1.e1.f1.g1.h1.i1.G: p. j1.|w N4 k1.l1.m1.&{ |  }  [] |# G. u` L| O4 av [@ ,0 Z{ n1.fK o1.~^.p1.q1.A|.r1.s1.uc t1.u1.v1.w1.!< t= d) jE <- 7L s1 v[.== R* =F T,.x1.y1.*W z1.A1.B1.C1.D1.uR E1.}  }  }  }  }  }  ~( sI [! r( &0 1K d4 }  }  }  &{ &{ IM 1] >; ># eN )4 }  }  }  }  }  }  }  }  }  }  Q= Do /2 Ha /7 &{ }  }  &{ &{ GS o,.kP U{ '; W{.S; r$ L  ~D 2& /b GD 2K 4: }] U; T= L4 HU ^/ GS 5j GS 52 F1.G1.HP o,.&{ &{ A@ 9# b{ Q/ A^ H1.}  }  }  }  }  }  }  }  }  oi I1.@'.J1.K1.`x L1.M1.N1.O1.P1.Q1.,r /: g. W0 C} R1.Cn BN XP MA U> 24 Q3 P) u3 L) >*.23 A'.nk Or al aV S1.T1.U1.V1.ys #c wD W1.X1.Y1.0[.Z1.C8 `1. 2.V4 1] cL /2 !| }- ;5 kF 7A .2..2.h9 db gA =7 Y, dI +$ $-.7}.(! +2.7m UG q6 vF @2.:8 d{ fd _o /; d= l5 Y; Wm e  ^b h~ */ ^] 9M e) Y{.zm f:.}z 4  _1 #2.dI )0 @@ B+ $2.m^ %2. 6 y+ S2 w8 )| := Xa &2.`& vp *2..A =2.59 yk ",
")0 L+ e0 *; -2.WM r(.[1.TD nw ;2.I~ )8 +' >2.,2.'2.)2.!2.~2.{2.]2.z! N, Gw Sq oi }  }  oi 8M =< '{ I5 J5 !$ i~.k~.[- Z; '{ ^2.OI *D s> qG /2.+= (2._2.:2.<2.[2.}2.|2.12.22.32.42.52.T^.62.K} Um [p 9p X{ :q {/ }  |  }  `p |# Ez K+ W  _* ^| [@ R; Z{ 72.82.92.02.q1.a2.b2.c2.}<.uc d2.dG @s 'M eP e2.f2.Y@.4+ J  AJ >L 25 /_.Qv G~ 0V g2.OY h2.i2.X. 3' j2.uR V} &{ DS k2.l2.2K dJ Nr qr Wf Z,.m2.n2._l x..o2.p2.q2.r2.@<.s2.t2.w[ zk Ny Y,.u2.-:.v2.w2.x2.y2.z2.A2.or 3t c} 54 wo 3>.B2.C2.D2.r2.E2.F2.Br s8 E@ 8w Wf +B s%.[T hf |g Dd rW G2.|k ]b !> +B #0 .n H2.;^ Gm ;^ #] @] b. Uf P[.I2.Ny g~.sN #. L# x$ J2.K2.L2.l>.M2.or F2.or 6j n/ 9) N2.O2.P2.Q2.=# R2.S2.T2.@/.95 si U2.M2 V2..p [_ ]8 n0 BN FR MA 7{ #m }5 P) W2.m> L7 I# X2.`& Y2.Z2.`2. 3.LX .3.+3.@3._0 #3.$3.dd oh %3.4~ +I qQ &3.u+ C2 -r ,( U< )~ =p #3.xC *3.=3.UY -3.;3.x$ 46 |b 8i gG J2 7q m[ wj u/ b1 C  on v% *% *% -= lb 2# A+ F3 :t :t V; i% P. w$ rd Ag 8).WL <z 3d <b Ye pf 4p so to b1 >3.,3.'3.Xm J) *< +/ '# #  )3.!3.t, ~3.a}.{3.]3.^3./3.",
"!~ T7 K5 K, (3.>|._3.:3.-)./v 9<.OB <3.hj X_.[3.}3.)2.|3.13.+- *r rt d& ~$ Y  -[ }  }  oi Bm |_ >= ^% 0M 23.Dj uo *$ C6  > [z No bN 33.43.WY T).7* 53.63.73.83.93.03.a3.b3.c3.d3.e3.f3.g3.h3.AF i3.j3.%$ Q| sI v> v> }  l{ +} m! [& W  ,; =/  , /H k3.#:.l3.RD m3.n3.o3.o3.p3.M}.W[.q3.J}.y/ r3.s3.t3.u3.8L ~] (*.tk r! =2 v3.X& f5 ri ld w3.)` x3.y3.z3.A3._~.^~.B3. ^ *1 |g p[ }j %,.VA v;.>;.C3.D3.,;.E3.F3.G3.H3. #.SY I3.J3.K3.L3.+Z R-.M3.N3.O3.P3.Q3.R3.2G {1 3' 55 S3.l..W^.v!.FF tp T3.U3.V3.}c .{.W3.c^ R: m#.3[.75 X3.Y3.Z3.`3.#}.};. 4._( .4.NV +4.W&.V: V: @4.y: 75 {< #4.$4.z3..-.m. O[.n!.}<  2.D* '>.H- q;.!).V] /y !/.%4.4~ Y(.n8 &4.*4.=4.iN *# -4.;4.>4.,4.'4.)4.q, `;.!4.qd j% u3 #-.FR :M 1p I3 S1 sz 47 9h Hj ly ~4.{4.]4.^4.+*./4.(4._4.:4.=-.<4.[4.}$.}$.PD }4.F/ _> $c R$ B  N, '( d0 &8    $c |4.14.24.34.lH EW ol ^v 1d :' G2 T* 04 H/ Lx Lf `$ V* 3  on Th i^.Yf iJ ot %g Sh !0 z! T} n;.${ 44.]= :8 _$ q> r$ Y} D' e< z' )> j[ w} 4p dI Y[ fT F] so [| 2  y_ FS y% EU 54.^) T- 64.*2.TC 74.84.94.",
"U* >8 30 K, (3.YP _3.04.N3 6b ~-.j! J6 #}.a4.b4.c4.d4.z/.e4.9y f4.It T7 [4 u: oi }  }  oi B@ w_ o> aX j(.3b g4.h4.`]  l D. i4.j4.k4.zf l4.&^ Dq m4.n4.o4.p4.q4.r4.s4.t4.u4.v4.w4.Yn i!.x4.y4.fa z4.u>.A4.u9 JP v> |  }  `p E2 G. [& S< ,; H, >% g~ }G +d B4.C4.D4.E4.02.F4.G4.H4.t1.I4.J4.Fg K4.L4.M4.N4.O4.Y> J  tk r! w< P4.Q4.R4.S4.9b Z) T4.U4.V4.+{.X2 4j W4.X4.q+ 4+.g( Y4.0A Z4.`4. 5..5.|$ 4^ }U }U /d +5.g] @5.#5.>' $5.%5.&5.h$ *5./U =5.=5.-5.;5.>5.a+ ,5.'5.)5.!5.OV ~5.{5.]5.j/ ^5./5.(5._5.q; :5.<5.[5.}5.|5.Z#.15.25.@S 35.45.55.65.75.85.95.05.D= a5.b5.05.01 c5.6] d5.e5.Y8 f5.g5.(+ W^.Z0 o4.h5.#{.4^ X$.i5.|$ .5.j5.k5.l5.m5.n5.o5.p5.q5.r5.7( s5.t5.u5.v5.w5.x5.{%.y3 y5.aq ]x ~< e0 -8 :M 3y I3 D9 ~:.z5.H' :| A5.B5.C5.F .D5.E5.F5.G5.H5.I5.J5.K5.L5.M5.N5.O5.P5.Lj {F Ag &/ G( G) V< Pj An b@ 09 Q5.R5.S5.Op :w da >z f3 _b d  ^$ R9 00 7d 1( h3 :K v+ j7 Yj V3 *A qE Xj iJ u' Sh T7 `b J] D] Dv T5.*F U5.H[ %0  d i~ sb p1 if {h )> V5.)> R$ W5.`$ -* g  `> ]$ z> _] -[ ;O =q zF V` X5.Y5.9u 74.vU ox ",
"]= >8 WM Z5.`5.o+.p;. 6.[5 ]0 /~ .6._y t%.+6.@6.#6.$6.%6.~B &6.i/.Ht nn D9 N4 [  }  }  Q= hE |_ j~ (= p1 *6.8f =6.U= +^ S& k*.qj -6.0j gS ;6.#' E> >6.hh ,6.'6.)6.!6.~6.{6.]6.^6./6.(6._6.:6.<6.[6.}6.|6.16.eJ oi |  |  MJ E2 G. [& S< O4 `A A+ 90 /: -5 26.36.46.56.66.76.A|.86.I4.96.06.y/ a6.b6.c6.nJ d6.{* |P tk r! HG kt [1 9b e6.f6.~, g6.h6.i6.j6.k6.l6.m6.n6.T(.4= G$.o6.&Z p6.yT q6.r6.s6.s6..' t6.u6.Y$.v6.w6.#5.x6._#.y6.z6.A6.B6.C6.D6.D6.E6.F6.G6.nX H6.W_.W_.I6.J6.K6.L6.k4 M6.N6.Vw O6.P6.Q6.rL R6.S6.T6.U6.V6.W6.g` X6.Y6.Z6.`6.p^. 7..7.+7.@7.#7.Y|.b3 $7.%7.&7./C s6.`4.*7.8l =7./y W^.Y( -7.~; ;7.y=.>7.#{.,7.Y$.'7.)7.!7.~7.)3 {7.]7.$N $m -4 ^7./7.(7._7.:7.<7.[7.q} uJ Rd }7.j-.n0 |7.FR XP N|.*d &d =A Ta id 17.B5.27.37.47.57.Q$.67.77.87.<4.97.07.a7.b7.c7.d7.!~ -{ E< Sz $| h} yR Qf Pf ~x 09 lG e7.f7.f].g7.@s &7 bF h~ .b <4 X5 @@ Aj h+._b E. */ K1 hK a_ LR M).AK g7 &% v% U7 3v h7.i7.4}.j7.k7.l7.m7.!; Zm }+ }T @8 g3 pi n6 Tl ^s Tl R$ G] &[ <' (t )% C' _] C) dJ i3..q Qp Ms *t i4 `d su n7.",
"W, d& :'.o7.<1.WM p;.p7.sz d= `C a}.q7.r7.,' s7.t7.}!.u7.v7.w7.tO A> 50  } X{ v> }  }  v> U{ |_ :z 36 fH uw Gr b} Yh +^ OI oi HK x7.Hx bw zj I).y7.z7.A7.B7.C7.r4.D7.E7.F7.G7.H7.I7.J7.K7.L7.M7.N7.O7.u= 6~.;O oi v> }  `p E2 L1 [& jk sY /= S$ w' 4! p[ NH 36.br P7.02.OC Q7.4<.R7.S7.T7.;^ U7.V7.W7.X7.:- Ml CO tk zO fT Y7.Z7.M:.|r [w `7. 8..8.+8.qi @8.#8.$8.%8.E-.V( u6 &8.)U *8.=8.-8.F~ ;> ;8.&> >8.,8.'8.5^ c+ )8.J3.!8.5>.~8.{8.]8.)~.Nx ^8.m{./8.(8._8.:8.q~ <8.[8.W@ 1c }8.|8.OX 18.28.H^.38.(( 48.%7.58.68.~*.Y. 78.-5.88.98.08.b+ a8.|#.b8.$} !@ ^> c8.d8.$- e8.f8.g8.h8.x] T: gf i8.^}.j8.w-.k8.l8.;8.V: m8.V: n8.V: M-.o8.b'.w'.PA p8.q8.qK A* s+ r8.e` s8.t8.u8.11 v8.w8.zC Rd A: W0 @B vn rk XP N|.M9 &d +p x8.id y8.=o V# 4z z8.A8.B8.0:.C8.D8.E8.e .F8.G8.H8.I8.a( t+ z* Dt @~ r3 vi J8.K. aD b@ 00 sp K8.$w HB 7j >p ew 3d ^] EA S> `5 H[ S| %0 3d o> s$ _L ER z6 2M |8 $R G^ Cj k} j-.;4 6$ L8.M8.N8.O8.P8.XB s8 jf $~ 5r */ cN %b 90 JK (  4& IG *1 p~.E@ =0 }+ D' 6) oi JP Q8.R8.S8.Js su 'w T8.vu U8.",
"}= x5 @B V8.<1.WM W8.Eb Cv .3 X8.Y8.Z8.`8. 9..9.+9.@9.#9.$9.%9.&9.xF M5 t3 *9.&{ }  }  v> Mo S= X} r8 ,^ zo +n =9.>p dw -9.}  &{ ;9.>9.,9.'9.)9.!9.~9.{9.]9.^9./9.(9._9.:9.o@ <9.[9.}9.|9.19.29.39.49.59.69.79.A@ v> }  `p +} W  L1 O, }@ `{ pi |( Ej $^ {v 89.99.66.02.b2.//.09.a9.b9.c9.#] d9.e9.f9.g9.7P 9P {* oK HO 8i M:.Lk E|.h9.i9.j9.k9.l9.m9.Ca n9.o9.ES iP %o 00 9t Rd #0 #H 41 A@.|k W, s[ p].y@ k> 3) X0 ^1 e! 04 kj M$.:c I| p9.Aa q9.r9.s9.dE t9.h. aE ly my I| E| K:.q9.u9.io <-.K:.#H :l !8 ~> 4< I:.dl ny v9.ql w9.x9.ql y9.z9.A9.3).B9.C9.)K L] A8 3] D9.E9.F9.g! `B G9.H9.5( zh &o Ay 44.I9.*o 33 C, J9.K9.L9.6m :! 9~ 23 ^E PJ M9.N9.N. !5 eI q{.O9.P9.Q9.R9.S9.tX T9.U9.W| -i V9.L].K< DN XP N|.f7 `a jz W9.X; 1g X9.{j Y9.Z9.`9. 0.Mx .0..0.+0.{4.@0.ab #0.N].$0.-1 |# ;8 $Q %0.3P '$ Rh 9_ <2 Q4 &0.*0.=0.-z B: E1 1z Z: w$ == O0 4) (t 1- p( :z _^ X  6P 2P 2M xR Bv hK N< k} d& ~< e!.z8 L!.:  -0.;0.>0.Ua %o ,% R; d  A< ^% CG E. ,0.y} S$ '0.v} }b &[ `> {# aj &5 u_ uI a# y' D6 hm 6t C( !M hm v1.",
"Kj x+  K I. JQ dN iq iJ z+ )0.!0.~0.{0.]0.^0./0.(0.i+ Iv _0.:0.<0.j, O. N, !Q &{ }  }  LS _= 9) `; r( o}.[0.}0.|0.>p `m 10.}  }  20.30.40.tl 50.60.70.80.90.00.a0.b0.c0.d0.e0.f0.g0.h0.i0.j0.k0.l0.m0.n0.o0.GP A@ v> }  &q |# /' S< ,; i{ e  fT M* xs 9x -!.p0.b(.D4.b(.02.q0.H4.r0.s0.t0.n#.u0.v0.w0.x0.7P 1& 7_ y0.z0.#2.A0.Mk 2[ vu B0.C0.D0.E0.F0.r+ G0.Q= 2'.S+ ;P qU iP 4: eJ JP GD GD ;[ ;[ gO mP `p MJ fE F' `p !v h, {/ I_ I_ 2h ES A@ A@ Q= ES H1.$5 >, WR H1.H1.DS XR 4j 4j ~( d4 d4 d4 ~( ~( 2h ;[ ;[ l{ H1.i& k2.H0.XS I0.J0.[].(; K0.K0.L0.P| |! G  s9 M0.<k ye U}  q Nr ze N0.SS O0.;P #5 3l P0.UO Q0.TS R0.S0.ze [A .B R+ T0.P8 .@ E' f) M, `A eI U0.V0.W0.X0.Y0.Z0.`0. a..a.jd +a.Ta v[.o! o! rk t:.f7 @a.rz W9.L) #a.aE :! &. fe fe T# A^.$a.u'.%a.f5 R:.&a.&a.*a.=a.Z^ x| :'.kb EN Gl 30 zK _p Zw R@ -a.;a.>a.&,.H/ ;* '4 H, R7 j, sA ': 5C Dc F[ :z o> ,D 5P 8_ 8_ 9P 8P x> N. N, w$ h% .p X5 FH G; ,a.'a.tr @q )a.&0  , J+ v: ~1.!a.g) S= r( I_.z' Oh h{.=7 Wm y} U% C. Q1 0{ l6 uI e[ O| 7f _J ~a.Z,.S'.",
"<: H1 h_.)* {a.&8 u` iJ x5 |g ]a.^a./a.(a._a.:a.<a.[a.}a.|a.1a.2a.${ J) !5 u| &{ }  }  HK |] D' U% 3d rb 3a.}0.C( o1 >f {/ }  }  OS Tr 2J =f ;6.O^.4a.5a.6a.7a.8a.9a.0a.aa.ba.ca.da.ea.fa.ga.ha.ia.ja.ka.la.BU HK |  }  :] |# /' k6 S2 i{ e  Y[ m' ma.|^.na.oa.pa.qa.ra.sa.ta.ua.Nk |o Sg +j u0.va.W7.wa.xa.3+ Ml ya._L !b za.Aa.Ba.M2 pU %t Ca.;6.Y^.|= Da.Ea.Fa.vs |  v> }  v> }  S+ Q= [  |  VR VR vs B6 H  po H  m~ d@ [  d@ @  @  |  }  }  }  }  }  }  |  |  |  }  }  }  }  }  }  }  }  }  }  }  }  }  }  }  |  |  |  |  Q= |  |  v> [  -[ gO Zp MJ aL  |.=y Ga.Ga.Ov }& Hn C. 6) >, >, r:.gO k{ hL hL hL Q8 S) S+ ,4 d4 A@ }  }  }  }  }  }  Q8 G( ~8 Jt Z4 Ha.Ia.Ja.Ka.La.Ma.Na.Oa.Pa.aq #[ >/ *m Ea Ea vi K3 M9 Qa.Ra.^8 Bl }F aE +$ +$ Sa.8V al u'.0l g!.Ta.N] Ua.J%.1F 0( Va.b- t: q_ K5 =; 4P N*.K5 *G z) B/ Wa.Xa.Ya.'7 ;z  ] m9 X4 B+ :| FH 2z Za.y' &0 F[ X} D3 ;; ^- {{ 2*.t! 2j *7 s/ ,3 ;3 y5 *5 `a.w#. b..b.+b.Ma Xa ;r /H ;% D^ E) OM j~ :z *D 0p V2.:$ !~ !~ z} ]% N/ cL @  |  }  }  }  }  }  sy NM `] lr ",
"Q2 %[ (] 2k @b.Tq s(.f7 L+ =+ #b.$b.%b.&b.*b.=b.-b.;b.>b.,b.,b.'b.c{ N/ (* 6p v> }  }  v> _= D' U% 3d $9 Ao Ci C( BP _J T/ }  }  LS zU )b.@,.)F W` !b.~b.{b.]b.^b./b.(b._b.:b.<b.[b.}b.|b.1b.2b.3b.4b.5b.6b.7b.v> |  }  :] y! xd k6 sd *< wo B' :| 8b.vr 9b.0b.ab.bb.pc o1.:w :w ga F4 jc wr cb.db.eb.L4.FO GO Ml MM (L p+ fb.gb.=1.R2 hb.g, ib..-.jb.J7 kb.Ea.2'.|  }  }  }  }  }  }  v> oi [  c- -, AM mE CH )< c4 CH ez E} Bx mE fo |  }  }  }  }  }  }  -[ -[ [  VR [  [  2'.|  }  }  }  }  }  }  }  }  |  |  [  '# )| '# '# k{ hL Zp :] `p Co Co FN cL FL $| En lb.;$ j{.]Q ;| W> _] a  k; ^p x!  |. |.gz '|  |.&G BA Bx d@ }  }  }  }  }  }  @  z* :& ={.mb.nb.Ia.ob.pb.qb.rb.sb.tb.}4.By <@ O) H. ;f ;f o! 4C O3 xl R1.x8.}2 ub.Rc 9~ vb. ] p[  g i. wb.U[ xb.yb.s6 V,.M# zb.z8 <t $/ 8L ~] MA 7L (*.hb q_ V5 Y, mb.Ab.Bb.6h @y |~ Vc j] |~ |g fh fh A@..= &[ !; p( iw ({.t> Z; Cb.Db.kf =/ ,% R; O* GF w5 *5 }k >r Eb.Fb.;1.@q $o `> O@ BO 6).e} KA 0) ~^ ,) }G +& b1 ;l |b Gb.k~.=: |  }  }  }  }  }  }  }  Q8 Hb.QU ",
"6J %[ Kt Ib.u).Hl Jb.w[.=A Hj Dq Kb.Lb.Mb.Nb.Ob.Pb.Qb.Rb.Sb.4a.Tb.6i ]| 2& 6p v> }  }  v> (J U% Z; )^ Zh Mj pI =9.1d Mf F' }  }  }  Ub.Vb.Wb.Xb.Yb.Zb.`b. c..c.+c.@c.#c.$c.%c.&c.*c.=c.-c.;c.>c.,c.'c.)c..t !c.v> |  }  :] ,# /' k6 r_ .c X+ U* 6& mm Mc ~c.{c.46.br :|.f].De ]c.]c.jx IH g  ]L ^c./c.ya.7P  / %8 /*._L %_.(c._c.jX :c.4/.6u 5m x@.<c.[c.}c.Ea.Ea.VR }  }  }  }  }  |  k{ !m ;L FN bL (- kK |c..9 .9 1c.uz c@ W< V< AH Bx }  }  }  }  }  |  [] MJ ]/ }  |  [  Q= }  }  }  }  }  }  }  }  }  }  -[ u_ +C #| (p 66 2c.2c.hz qo qo qq =[ G' `< W< zG $; 3c.4c.-8 -8 Ha z* n~ >= !| '( 0n w% n! wN J, y[ }O }O i} +  }  }  }  }  }  }  |  !R O4 |@ 5( 5c.6c.7c.8c.qb.B+.9c.0] |4.*1 sA jz I. 0c.0c.o! 4C #m xl =/.ah M* &i =i fS vb.p[ ac.m;.oC bc.@4.cc.dc. {.dE ec.#& V$ d  1_ ^^ =$ t: F) F) =$ :2 ,; T=.fc.gc.hc.Gz aE ic.j6.4' nC |^.jc.>r wF By 0D Ed S| gt H5 zA <K kc.#E lf $0 @c _$ c{ Ta x5 c{ lc.F| mc.nc.eB >r 4m =1 2  C^ @/ 4> cJ zm Vx L4 +[ k' R$ x' g~  6 Y+ c) }  }  }  }  }  }  }  }  }  A@ s| ",
"~t :$ sY {Q -8 Hl ^e oc.nq B} Bz pc.IN qc.rc.sc.tc.uc.vc.T1 (& ^$ C[ Q~ _* S& &{ }  }  v> a) U% ]] )^ uo ~q ^t wc.Di Mf +e }  }  }  xc.yc.yc.zc.Ac.Bc.Cc.Dc.Ec.Fc.Gc.Hc.Ic.Jc.Kc.Lc.Mc.Nc.Oc.Pc.Qc.Rc.U8.lr Sc.v> v> }  &q B) xd %8 q_ 1# I) V* 0D <-.NU Tc.Uc.Vc.Wc.sC i4 /9 K4  C FI if %0 AO Xc.m|.aP _L U< Ml /*. M p+ {4.Yc.Zc.tr n1.at M- `c.Q6. d..d.Q= Q= |  }  }  }  }  }  }  hL ^p @5  [ 0n ;8 AH +d.@d.#d.$d.%d.oK &d.MQ xR (2 }  }  }  }  }  '# u_ SH -[ }  }  }  v> }  }  }  }  }  }  }  }  }  d@ '# a{ P~ BL Dt X< 5K !O /2 ;| q9 E2 mo d0 MA r! DO |L *d.J, AH 3g l6 x* =< `G ]^ T> 3+ XL zK jb }L =d.-d..9 ;d.+  }  }  }  }  }  }  |  hE 5} [k >d.,d.'d.)d.!d.~d.rb.{d.|5.{j q[ Z5 sz 7:.0c.]d.L/ 4C P3 P3 ^d.0h e= &i }h /d.7  +3 (d.*).A^.1G o8._d.^} 13 `$ id T$ [# aj W} ){ s$ !| F) K( `+ -< f) &[ :d.<d.Dk ac.9~ xD t<.[d.}d.Ya.|d.1d./x xs !> h{. C Ux 2d.Fs xh +f ll va jB c} H[ (t z+ z5 I1 Y, 3d.EF 4d.EF 8b.}b |b ,!.8<.<% 4u L@ 8t -9.Tj 3& YH |( g~ >% R7 @. Do |  }  }  Q= &{ &{ }  &{ &{ 5d.6} ",
"4( .3 q( ;| j{.1p ^e 6d.Db Hd 3$ 7d.Yw 8d.9d.0d.ad.bd.cd.Wj Rf ]- 9- O, ,; 8p &{ }  }  &{ _= u! @.  d PB dd.ed.wc.if 2j B. }  }  }  KS IS fd.gd.hd.id.jd.kd.ld.md.nd.od.pd.ea.qd.rd.sd.td.ud.vd.wd.sx +< U= ir oi v> }  &q !^ k6 ^- -< ;< -# Q@ :$ K{.kc $A xd.br yd.DY <l f{.^b J+ j^ ]] X} v: AO N@ ;M H( V5 Ml Y:.%L f! zd.Ad.`| Bd.oH &a.T! Cd.Dd.Ed.Fd.V} Q= }  }  }  }  }  }  |  aL }& Gd.L].:'.GQ Z|.Hd.Id.Jd.Kd.nN Ld.TR Md.Nd.w* }  }  }  }  |  Q1 66 kE :% }  }  }  y% <] [  }  }  }  }  }  }  [  a{ P~ _2 @9 ;d.^h .N 10  Q hs :'.^2 ^2 ^2 1p Y;.}P rk -8 z{.-8 h} Ll %/ D< B< t! k~.O/ 0m Od.ud DQ Pd.Qd.Rd.Sd.Td.j} }  }  }  }  }  }  |  hE Q~ Ud.=l ,d.'d.Vd.Wd.Xd.Yd.{d.Zd.8m By <@ 60 ~* `d.]d.L/ 4C P3 w[.@p 0h >*. e.H+ W` F7 If c! |4.g ..e.C'.+e.0<.@e.Mi X; P* U7 i{ .> -{ KA d} F) !| ;< H( f) lc.#e.$e.$l kd oH %e..6.&e.%1.*e.=e.Io ;] _> .3 vl n3 Yh -e.#j F*.va Rr #s Fc f{.&[ $. O* <t R7 i[ 8b.v].Dy ;] -5 E/ )~ 15 Cm v> v> L@ TH ft 3} o7 3& TI 64 E. F. *< sq -, :] jr _; =n -6.;e.>e.,e.'e.cF ",
"l[ u/ Vh q9 y{.XP ^e q0 !:.Rf )e.!e.~e.{e.]e.^e./e.(e._e.:e.mz k} :& r/ O8 8p &{ }  }  }  8: D3 @. X} <e.a} ^t BP EI p3 ~4 }  }  }  }  }  LS [e.}e.|e.1e.2e.j@ 3e.ld.4e.5e.6e.7e.8e.9e.0e.ae.be.ce.b} 5E de.){ oi v> }  &q B) 5+ eN =$ s$ (* BJ l5 !4.jx hu ee.:|.YC  8 8  i~ ^- t: Q/ 7p -{ fe.ge.BO $/ B< #8 eN 6_ NF p+ he.ie.G^.je.ke..7.le.me.ne.x. Fd.V} Q= }  }  }  }  }  }  d@  |.I( w% f_.ZP oe.pe.]7 ]d.qe.re.se.te.=R ue.ve.A[ @  }  }  }  u1 _% q,.Ov ez m~ mE 1v !O -}.gz B6 }  }  }  }  Zp Sz Ll BH >$ we.&; Qd.AQ xe.ye.ze.Ae.~* vn vi tk BH BH sk [O 3g -}.;| 8- ~| ]^ wl {^ rd Be.xa.Gl EQ BQ Ce.De.Ee.Fe.Ge.He.|  |  }  }  }  }  |  )( u: Ka Ie.Je.6c.ob.8c.Ke.Le.Me.Ne.g .4! T} 60 ~* Oe.Rd.L/ 4C P3 w[.nq >/ @& rh v[ .] v_.g5 Pe.Qe.Re.Se.Or @k k0 .K :t A5 ,0 1! H) =: F' =: NJ F) d} ;< s$ {^ so Or pl II P).%e.Te.Q4.Ue.Ve.We.Xe.Ye.C, aq .3 1l >p Ze.bJ yH Bt E*.yi At wa I~.yh E1 A5 O. )= 3f of 67 @) Rd m9 T| b1 '3.%j OL RO B^ %s q> E. [| 54 H5 jf 9) z> s$ cL -, {/ W2 [k K4 Fc At wa vG !M s2.",
"db t[ ,% v* z{.XP ^e `e..6  f..f.:@ s* +f.@f.#f.$f.%f.b~.78 &f.ot P) s/ A) 7+ v> }  }  }  8: *< 2& {^ *f.=f.^t lI uo k~.}! }  }  }  }  }  &{ xc.-f.;f.>f.,f.'f.)f.!f.)f.~f.{f.]f.^f./f.(f._f.:f.i{..b <f.WQ ;8 D) <% }  7# B) e0 o] =; t: y_ {# i[ rW w/ Ie Sg EB 4|.&7 [f.}f.,M (B E< +C =: Bm v: 7) D< %L 2*.5+ d} {^ q+ |f.1f.2f.3f.4f.5f.6f.7f.8f.9f.0f.V} }  }  }  }  }  }  }  :% @5 Gd.'] af.bf.cf.df.ef.ff.ff.gf.Qd.hf.if.jf.;R kf.x% po po po `M un |c.|c.s3 lf.Nm uN mf.nf.y[ of.HF d@ -, S+ ,m FK Cn pf.oe.qf.rf.sf. m tf..m uf.vf._M ,$ uQ %0.FR FR |7.XP -/.}].fn ,# f) wf.%L {^ wl eN %8 An 2M xf.yf.zf.Af.Bf.Cf.Df.J( 8_.H  d@ @  @  [  W> h_.Ef.Ff.Gf.Ia.7c.Hf.If.Jf.Kf.'5.v!.K| (v S1 u).0c.Rd.o! -u #m w[.@p >/ {% T;.4n +] 0! Lf.W'.^< Mf.:y !t !> N7 57 }@ $b C2 H) /% u_ oi oi 1  F) F) 1# s$ D' )0 Nf.Of.Pf.Qf.i. }4.7. Rf.Sf.Tf.Uf.Hu 6C t[ *1 z' nf c} n3 n3 +< 6c 1a 1a 89 zk <= 8w lk )% pS Vf.Gx 7w {: ~h  ] Ij dI 2} *$ )^ Db.Mf lk 2f f,.wo '% Wf.9) R= u! 9M {4 56 u,.7t Xf.>p F5 6c *9 Yf.`D ;p ",
"Q2 =+ H, Hw n! '] ^e `e.xL Zf..f.O7 nU `f. g..g.Qz 9y /& )p +g.`! CC A* ;= n~ v> }  }  }  6# ~{ f) R= *f.=f.@g.kI 0d #g.V{ }  }  }  }  }  }  LS $g.%g.&g.*g.=g.-g.;g.>g.,g.'g.)g.!g.~g.{g.]g.^g.lS /g.(g._g.rk D) <% }  e. ,# o] 7_ {* ~] O8 Gg 3f Ed gm :g.*. hB n#.,5 }f.<g.vM MO *_ a{ B. WL -L fZ Y} %L f) eN F) X} U5 )4.[g.}g.|g.YV &$.1g.2g.Z#.NV 3g.V} }  }  }  }  }  }  }  7# U{ r9 G) f} Dz |L 5L 4g.5g.6g.7g.yg yg Y;.),.YL AJ 1v '2 '2 '2 /O vz xM CL G< 8g.vi 5L is Tq !O s] )| -[ ~( A@ u> +} =$ f} >L BN _M 9g.aD Pf $R Bv PE Y> 7L V< /*.xi LO [P ,( 7p -{ Kn 7+ wl %L tE |_ G( D< =< d6.4P `P wQ p9 0g.ag.bg.cg.x% !E !< @/ L@ oi [% fe.i{ dg.eg.fg.gg.6c.Ma.Me.hg.ig.d5.q* H: `b |4 ~* jg.#d.ne O$.sz [5 ~s W2.pi K| -5 +3 wA kg.lg.mg.ie p).hI of  6 ]$ i{ C2 u| C2 .> TH K# K# ng.d} d} t: !| Q~ $. dl og.pg.H~ mk N# Bs qg.rg.sg.tg.pC 9+ S@ to 1d aF Yh zq o}.C( |0.Tr eq CP ug.f~ ]F vw yf vg.wg.sH FW Fg yt ]b [b 8~ [| Zm iw ^L xg.32 ad |h */ `; uk ;M !| I5 $/ cL <] I_ h{ 5d >p yi yg.zg.Ag.;p G@ ",
"<-.T=.Bg.q9 -$ ^2 m! Cg.28 {D .f.L* v'.)7.s7.Dg.Eg.Fg.Gg.Hg.Ig.(k x5 CC ;% r9 v> }  }  }  9# i{ _* S= Jg.)q Kg.h4.Xm k~.gP }  }  LS Lg.Lg.Mg.Ng.Og.Pg.Qg.Rg.Sg.Tg.Ug.Vg.Vg.Wg.Xg.Yg.Zg.S4.`g. h..h.+h.@h.#h.:M )| oi }  `p Hw MA MA f} ~] V5 42 J) e  wr w[ $h.81.Q@ I[ J  sk wi ^j jn q3 r$ 3d C6  f q> %L ;; V5 Z> F[ -} %h.&h.*h.+W *$.=h.-h.;h.>h.,h.'h.}  }  &{ Q= Q= A@ Q0 j& Ki _z S'.nx H7 tA 46 ^= 2d 2j CG jf Ux ua >p G,  3 _b 1- {F Wk hl Ct jf 46 kf ew e< g3 Y$ o7 8~  = mf u( *q )h.n>.!h.Ln :o :b 5C g  H[ }G %] ': /; V* =1 g  !; ^b Xm 0d yK ~h.,% OE z. [p tA 1d DI uo $9 gt .< $0  - @8 B[ {] jk n~ Pr ,2 G_ {h._{.]h.]h.>e.^h./h.xA q( YK (h._h.:h.<h.[h.}h.|h.i5.O' }< 1h.7' &d :M 2h.#d.3h.O$.sz jz 4h.=/.R) W+ E/ S@ H+ (~ O] MV T~.5h.t[ %] u} R) *7 H, Z: '= ^4 r9 5_ 4_ ;< 4_ ,# K( '( H) '% .3 xj Ba eI I:.Y] Bf g3.6h.7h.P$. 3.7J |k l5 Di E@ aF W% pK v( DD *9 8h.^t _E vl ]F  D vw 4E 9h.ue Dr 0h.J4 k3 c[ 1t 3d Tj 3d '5 [f.*/ h~ q1 sb D3 %/ u* SI )O NJ cL :% H1.ah.dg.b9 bh. j ch.dh.eh.nI ",
"%o ,% iB Hw -$ t$ s: tb @6 %m fh.86 v!.gh.hh.pV ih.]@ jh.kh.kh.lh.M5  } ;# ^4 &{ }  }  }  U{ _* _* NI 9w <J mh.kI nh.@M oh.v> ph.jl qh.rh.sh.th.uh.vh.wh.xh.yh.zh.Ah.Bh.|2.Ch.Dh.Eh.Fh.Gh.Hh.Ih.Jh.Kh.Lh._g.~* E} -, v> QI In }! ~4 ym y* hE j; -{ '; Xp  l F[ '5 Mh.,%.Nh.H< eL )# tk ~| }+ |j 9w Oh.Mf [- /- V5 ;< q> w;.Ph.Qh.Rh.Sh.QX Th.Uh.Vh./U Wh.Xh.S+ sq 5} 2d 2] 8w hA m[ 0l (-.B$.Yh.Zh.`h.~+  i.Wo .i.~~.+i.@i.#i.$i.%i.&i.*i.=i.ab -i.;i.m& >i.,i.1-.'i.28.fD )i.!i.};.~1 >!.>!.R5 ~i.{i.;` ]i.^i./i.(i._i.:i.<i.[i.<i.}i.|i.B3 1i.yD 0^ 2i.S,.qR l..o@.3i.4i._d -F MV 5i.6i.D1 7i.dD +% &' l..k<.8i.m5 9i.0i.&l ai.bi.up t, ;!.ev ci.Q..+v c} 3C Oc di.ei.fi.gi.4( &z Y2 Pm mj W* pn xJ }P hi.hi.;o 2p sz 24  y .y :& O, H) (= +^ 1- 2l [b <= XB %: L4 E. 5r R7 2] j^ 5# U% `A y> b@ v$ v* hE z* r1 Z< 8) q( yr ii.t] '0.^v 9u <A ji.ki.li.g[.$< FI x$ E@ E@ aF W% BP zk :E mi.>9.)A )A s2.CP uj  D ni.ni.oi.7G pi.G5 Ct r( E( 9) Z; t> C@ C@ h~ qi.sb k~.<- q3 #9 dz g} u* +C D) [% iP 0p $s ri.si.ti.ui.vi.wi.",
"*$ ]] `+ b& ^Q ~] g& Hd aB Ql xi.yi.!;.`*.zi.Ai.1W Bi.Ci.Di.,P Ei.~0 M5 _& F( &{ }  }  }  (J v! 2& Q~ yB Fi.*6.uo j~.I[ `% C) Gi.R3 Hi.Ii.Ji.Ki.Li.Mi.Ni.Oi.Pi.Qi.~S Ri.Si.Ti.Ui.Vi.Wi.Xi.Yi.Zi.`i. j..j.+j.uQ _% gE ZS A@ V} v> v> [  Q8 :] &q !( !( h, u> U{ Bm e) @j.#j.~E O~ $j.X< ,D Gg %j.&j.|j 0d L  v$ 3+ ~| =/ '> h] *j.!z =j.F=.Th.-j.;j.>j.g!.,j.I_ Sq ^$ c= Q$ Cd pk G# 'j.)j.!$.!j.~j.{j.]j.^j./j.(j._j.:j.<j.[j.O9.}j.|j.1j.2j.3j.4j.5j.6j.7j.8j.^j.]j.9j.0j.]&.=j.aj.==.bj.cj.dj.[h.ej.fj.gj.hj.G&.ij.jj.kj.lj.lj.mj.nj.oj.pj.qj.v5.a+ rj.sj.tj.1W uj.vj.wj.xj.yj.zj.Aj.&W Bj.Cj.PX 3R Dj.Ej.Fj.Gj.Hj.Ij.Jj.Kj.Lj.Mj.Nj.Oj.Pj.Qj.Rj.Sj.2q zq $v Tj.Uj.Vj.Wj.7q z2 `} CF UC [' Xj.P;  b XP hi.hi.;o u` k} ~:. y q] Hw W> +C h& C) IK ^q FD -9.A. k*.z0 r$ x+ Yj.3& U$ L( +> d  yK n] A) Z< T/ xw ym ym hE ^4 n7 i>.E[ 8~ Mj 74.Zj.=>.`j.&-. k.}w zq <' ^= if _b 1d ap J~.kB .k.>9.<f ]5 5h Hs aa [0 +k.@k.#k.H6 lI BM  q &: (= |_ o> :z +. OF C@ wf.#g.OF wl LA u* g} Y> g} w8 '# S+ $k.i>.nj .f %k.5t #E &k.{F ",
"Z+ ~| ;k xi }P ^- 57 :p *d #p *k.K~.=k.-k.;k.>k.,k.eA ms {].'k.cM 6z |+ <t >d &{ }  }  &{ ;{ v! :& Q~ @8 h< &j.)k.0M 9K !k.bo ~k.{k.]k.^k./k.(k._k.{S :k.Oi.Pi.<k.:k.[k.}k.|k.1k.2k.3k.4k.5k.6k.7k.MR 8k.9k.:M OO hz <] q8 uR A@ S+ K# :] l{ u> C. C. P8 Kn `< dz `% 0k.AL yJ BL (O xw D< Gg ak.bk.*f.'C L  NR s! ]^ p1 ck.dk.ek.fk.gk.hk.ik.jk.kk.lk.*a.mk.I_ CA 2# *, YA y9 X8.nk.y6.I .ok.pk.qk.rk.sk.tk.O9.uk.uk.uk.[j.vk.wk.<h.xk.yk.zk.Ak.Bk.Ck.Dk.Ek.Fk.Gk.Hk.Ik.Jk.Kk.Lk.Mk./7.cj.Nk.Ok.Pk.Qk.Rk.Sk.Tk.Uk.Vk.Wk.Xk.Yk.Zk.`k. l..l.+l.D=.@l.#l.$l.%l.&l./X *l.=l.-l.;l.>l.,l.'l.)l.!l.~l.{l.]l.^l./l.e: p^.fY *5.(l._l.:l.<l.[l.}l.|l.1l.2l.3l.$z g  Xx 4l.5l.Y*.6l.OU Wx (J o> bc 1b != es g7 X;.$d.$d.zG u` O) }5 z) 9{ /2 }& *_ fE e. ~4 +e W{ ~4 k; u_ {/ `: 2# X&.7l.3{ }( :t 2d [- V| ]^ ;{ Tp ym }K !2 y* n~ C2 r9 p> F. vf p'.8l.9l.0l.al.bl.DD bF .& ^= _b _b x$ 1l e~ Hx $z {w w4  ;  ; pb T6 <0 ]z cl.dl.zo el.>v vh Kn Kn qo k; sy fe.v_ ^% fl.Z` Z` <- Y@.^^ d6.2P t$ Xl '# Q= XR jr [* gl.$$ )^ iw s( do ",
"q_ =; *8 XP |L 3+ D  ,8 ln hl.il.jl.kl.ll.8` ml.nl.ol.pl.{].1T ql.8' -) ^$ %h uR }  }  &{ P8  @ X{ Sq ]| @8 54 Fl @M (L q3 cJ f:.rl.sl.tl.ul.vl.wl.xl.yl.:k.zl.Al.yl.Bl.Cl.Mi.Dl.El.Fl.Gl.^k Hl.`! G^ Il.WQ :M P~ gz -, &{ V} A@ Q= oi oi c- K# :] `p F' ^p FN (p Bx s] LO (*.g} %| t* j~ 32 %j.HH 0d yK ^* /] -; I[ ^= `^.{*.O~.Jl.Kl.Ll.Ml.>. Nl.Ol.i^ Pl.mP j{ N5 ($ @& <: 43 Pp y).Ql.x` [/ Rl.Sl.Tl.a, Ul.Vl.Wl.Xl.Yl.Zl.`l. m..m.:i.+m.@m.#m.$m.%m.&m.*m.=m.-m.;m.>m.,m.'m.)m.!m.~m.Z+.{m.]m.^m.9>./m.(m.(m._m. @.:m.<m.[m.q{.}m.|m.1m./3 2m.)).3m.E{.)5.4m.5m.6m.7m.8m.9m.0m.am.bm.cm.dm.em.v,.k!.w5.fm.O! gm.hm.im.jm.km.iZ lm.mm.nm.om.pm.qm.J~. , rm.sm.tm.F* um.G+ Xk 7f r( v' v5 OJ S> V3 5L .9 oe ,< ~N >u sz {8 `+ `< -r }& 66 :% D) d@ <% |  |  }  ZS ,= L+ [# C] vm.vE O+ wo C' [- z> D^ 'O L@ L@ @/ 0{ n~ F( +c 9- N~ E] `r X6 wm.xm.ym.I6 ~F %0 I) d  $~  , [| &[ of ]( z/ Lm k! 77 ^5 $D 77 #%.zm.vg Ye 8f f  8) Kn >m ]q SH y% C) p/ jE jE W{.3/.G( H( 5P 8L )O u$ x* gE '# -[ Q= r:.{( IK ED aX {^ n~ 8: ",
"ZL Am.Bm.9g.DO -; Cm.*= Xj Dm.Em.~{.Fm.Gm.Hm.Im.Jm.Km.Lm.V!.Mm.h^.Gt H$.Q; '= A@ }  }  }  ES :] :] K# ;L &5 .@ #/ :k dz dz e2.Z{.xh Nm.Om.Pm.Qm.Rm.Sm.Tm.Um.Vm.Um.Cl.Wm.Xm.Ym.Zm.`m. n.i_ .n.+n.4K AK @n.WQ :M in eo -[ }  }  }  }  }  }  }  }  }  }  Q= v> [  [  }  Q1 J  :2 ^^ Hw KA rd GH #n.sb wf.~# x> )$ 8P /- *$ &[.$n.PY %n.bj.&n.*n.=n.l_.+>.-n.Kr VR S) ,m Q, 3: ;n.Q0.>n.,n.Bp De 'n.)n.!n.~n.{n.]n.^n./n.(n._n.:n.<n.[n.}n.(n.|n.1n.2n.3n.2n.4n.5n.6n.7n.8n.9n.0n.an.bn.cn.dn.en.fn.gn.hn.in.F_.^n.^n.jn.Gz  b.kn.ln.Z}.)a.)a.V].u].YK Uc Gx R2 B: 0. _n.mn.nn.on.pn.C>.J2.L>.H_.K>.qn.rn.sn.tn.mb.5( Aa un.vn.wn.xn.yn.zn.7n.An.Bn.hA #^ th {y 1! bp 3X '-.Cn.U# @] ro ]( Dn.|3 J/ +o }4 rk 8g.zJ jn ~N Cv }5 %G 8- :k w* !R t_ D) }  }  }  }  }  }  P|.8) i{ -2 pp  6 U$  6 54 kk C@ I[ !k.|  }  }  |  M@ -k uI A^ v| r/ }+ Vm n1 k[ W` 7d :b Ja &/ .c ,; :& :* Y: H, Z].En.E_ s8 V].5l Fn.S_.Fn.y' }b x' G] 8~ Gn.r9 P, lE }& hz h& e. uE ,D ^% uk aX _^ iE GO c  Hn.S/ C) ]/ }  |  }  }  }  }  ZS b{ ,; w_ 7: ",
"l^ In.Jn.Kn.3P rK KF ng 3K Ln.Mn.Nn.On.Pn.Qn.Rn.Sn.[;.Tn.Un.Vn.j/.Wn.Z! Sf av ~( }  }  }  }  }  }  }  }  }  }  |  -[ 0k.L< PM D< D( mB Xn.Yn.Zn.`n. o..o.+o.@o.#o.$o.%o.&o.*o.=o.-o.;o.@G >o.,o.'o.`a WQ 9k.$Q mE &G [  }  }  }  }  }  }  }  }  }  }  }  }  }  }  }  Tp MA 4+ mo K( ;< #8 M, .[ D3 r$ ,D F^ )o.PR {8 j^ lY !o.~o.Cj.F6.{o.]o.^o.Tf.)V xs ;L }  }  }  }  }  }  }  }  uR JS HS JS JS LS LS &{ uR A@ ES d4 _~.*}.*}.d4 S~.d4 uR }  }  }  }  }  &{ &{ &{ &{ V} V} uR uR V} &{ &{ &{ &{ }  &{ uR d4 JS YS d4 ,4 V} V} &{ V} V} Q= E1.Q= v> IM e4 FU GU uR }  }  }  }  }  }  }  }  }  }  }  q8 WS /o.#  k2.V} }  }  }  &{ uR *}.d4 ES 4j IK '; 8v 0& Al (o._o. @.:o.L|.$r 6% <o.[o. H I] g7 -o ;d.|& Y< }o.-: %G 2> y! /2 Hw /2 FL '# }  }  }  }  }  }  TH ^4 <k qI U].:' 3  5f ]h J) N, O/ r1 }  }  }  |  'O u_ =v `p 8# )( (J uh n/.`u |o.Qr kP wK 4> hn ~Q |p >m Jn FS Jn T0.P0.H_ 1o.!/ p,.O0.p,.(; }_ gl EH iB +} _f (- w8 2o.xv u_ ~4 Z< 9M Z> ^% Z> B< t! E^ 5_ Tp <% <% -[ |  |  }  |  }  }  Q8 G' !| n~ 8: ",
"~E 3o.4o.+|.FQ UR !a 7k.5o.6o.7o.8o.k:.9o.0o.)j.ao.bo.d#.co.do.eo.*C Z! `! :* 2h }  }  }  V} }  &{ }  }  }  }  }  '# )# 6g.3h.OM o}.fo.go.ho.io.jo.ko.lo.mo.no.mo.oo.po.qo.ro.so.to.(@ .o 70.uo.iS aB Nl WQ :M '2 )| @  }  }  }  }  }  }  }  }  }  }  }  }  }  }  }  e. G' 7p n~ b{ w_ KA >= !^ Z< y* ww hb @Q -N 0m C@ Pq vo.95.wo.wo.y3.xo.yo.zo.Ao.X4 l{ }  |  }  }  }  }  }  }  &{ Q= oi &{ &{ }  }  }  |  |  Bo.d@ ]/ vs [  [  [  Q= Q= }  }  }  |  }  }  }  }  }  }  }  }  }  }  }  }  }  }  }  }  A@ c- -, hL k{ Co.2'.2'.2'.[  Q= [  vs [  ]/ Q8 Q8 2h A@ Q= }  }  }  }  }  }  }  }  }  }  }  Q= IK u> e. Q= }  }  }  }  }  }  }  }  }  |  Q8 (% G. =A _| Do.Eo.Fo.Go.Ho.Io.Jo.Ko.&e UC n_ |4 jn I  )2 +e uI P| 7: _] cL l6 z* I( 0{ <% }  }  }  }  }  }  8t 0# 3: kr Mo T= Q+ ]h 5r J1 y> f) cL }  }  }  }  4u K# ~( -, e. FN Kn 1h S& `y kr Do h& /^ .| eo 6K %c 2c.!D aL yv 56 MJ [] S) ;, c- S+ [  S+ s,.)m ^p !4 xv fo HF #o Lo.d@ -[ y% y* j; A^ fe.3/.D< <- !| :k :~.<% 4u d@ }  }  }  }  }  }  |  u_ ^p 8# K# ",
"s= zg 9g.Kn.FQ 8P Sh =r Mo.No.Oo.Po.Qo.pT Ro.So.'-.To.Uo.Vo.wL Wo.u!.~~ Z! r/ gO }  V} &{ Q= }  }  }  }  }  }  }  kE uQ Xo.Yo.-< 8  xU Zo.~g.`o. p..p.+p.@p.#p.$p.%p.&p.*p.z6.=p.-p.7D ;p.>p.,p.*C `a Nl 'p.'] u1 y% <% v> }  }  }  }  }  }  }  }  }  }  }  }  }  }  [  e. &q !( T/ B. B. In !v :] [  @/ >< -u t:.{O Y+ R, )p.!p.~p.{p.]p.A).^p./p.(p.N8.R/ }  }  }  }  }  }  }  }  &{ S+ Q= |  |  }  }  }  @  po _p.:p.<p.[p.}p.O|.vK ]/ Q= }  }  }  }  }  Q= |  Ea.2'.;, VR VR Ea.Ea.}  }  }  }  }  Q= )4 66 l~ &c |p.1p.2p.3p.'# -, -[ -, -, )R )4 MJ )m Co [] 2'.}  }  }  }  }  }  }  }  }  |  [  ^p h1 '( ;| mE |  }  }  }  }  E1.}  }  }  VR '# z* iq 4p.5p.6p.7p.8p.9p.0p.ap.bp.cp.,~.UC Z! |4 !R in BA Q8 DS 4j ;[ 2h `p !( x! '| h& }  }  }  }  }  }  |  Zp Do f. F' O| 9p y_ [@ ;% >; O8 w_ ^p }  }  }  |  [  K# S+ Q8 mP ]q NE ^H P, |! ]q dp.yv ez J( )D w8 -m 2C ep.dp.fp.gp.=y s] aL v8 v8 v8 .|.Co.hL k{ hL ]/ H  @  @  |  |  |  B6 d@ Vp e. u_ TH 6) C< 1  )( FN u_ L@ |  [  |  |  }  }  |  oi }  |  |  }  }  ",
"s= hp..N 'Q Bm.8P aM Sa ip.jp.kp.S: lp.mp.np.op.pp.k= qp.&f.rp.sp.E,.,y `! h[ 2h }  &{ }  V} }  }  }  }  }  }  |  ;o S!.tp.o9 ;< wc.8c up.vp.wp.xp.yp.zp.Ap.Bp.Cp.Dp.Ep.Fp.Gp.Hp.Ip.u] Y! Jp./4 pn |4 }4 H^ '] D) C) |  &{ }  }  }  }  }  }  }  }  }  }  }  }  }  }  }  }  }  }  }  }  }  }  }  }  }  |  /2 ./ _p GR i~ PA Kp.Lp.M} A$ Mp.^! Np.*n.Op.Pp.m1.}  }  }  }  }  }  }  }  }  &{ &{ }  }  }  }  }  }  H  s3 Qp.Rp.K, *; ;o w8 v> }  }  }  }  }  }  }  v> [  VR d@ [  [  |  }  }  }  }  }  }  [  0{ r] I( -$ tQ Sp.*; Tp.Fn hz gE In qo P8 P8 7: .@ .@ ]q Xl gp.Up.Bo.Vp.|  }  }  }  }  L@ qo s$ n] IF M< (B @  }  }  }  }  }  }  }  }  }  L@ :k L| =A O= Wp.Xp.Yp.Zp.`p. q..q.+q.}' ($ mz tq I( Bx hL }  }  }  }  }  }  }  |  |  }  }  }  }  }  }  }  }  }  <% [  [  K# T/ Q, =[ E' r1 =[ a  gO }  }  }  }  }  &{ }  Q= ~( !( !4 ^p !4 )4 v8 y% u1 (^  | )| 66 Hw +c D'.8p Jn hz 66 66 dp./p /p !4 hz  |.x! fE yv AM ws B6 @  @  @  @  #o AM Vp Vp h& u_ 8# 8# }! ~4 W{ Vp }  }  }  }  |  }  }  }  }  }  }  }  }  |  ",
"_% @q.J8.Bm.Bm.!# a4 eT H^ #q.2m $q.%q.&q.*q.=q.-q.qJ rn Jl ;q.Zd 50 on E,.:& 2h }  V} &{ V} }  }  }  }  }  }  -, >L ]].>q.vN T> *f.ml ,q.'q.)q.!q.~q.{q.]q.^q./q.(q._q.:q.<q.[q.V. ,_ L[ S} ]y |z [4 g7 *N ]Q L@ '# v> &{ &{ &{ }  }  }  }  }  }  }  }  }  }  }  }  }  }  }  }  }  }  }  }  }  }  }  <% /2 @e {O p_ Gn.%~ }q.hU K6.|q.1q.2q.3q.4q.U0.5q.3l }  }  }  }  }  }  }  }  }  A@ A@ }  }  }  }  }  |  fo 1L 6q.7q.8q.9q.tQ ~Q Q= }  }  }  }  }  }  Q8 `p )4 56 h& 56 aL gO S+ }  }  }  }  }  <] l6 2g -$ |L i .0q.aq.hs wN 3g *s !R Hw i; ,# B) v| v* 0n 2> x{.bq.cq.dq.eq.]/ }  }  -[ k; n~ ># JM fq.ZQ AH H  |  }  V} }  }  }  E1.}  }  K# G' L| CC Al gq.hq.iq.jq.kq.lq.mq.nq.oq.!x MF O3 *s &G v8 Q= }  }  }  }  }  }  }  }  }  }  }  }  }  }  }  }  }  }  |  }  }  }  [  oi K# Q8 Q8 A@ Q= Q= Q8 ~( S+ |  Q= &{ &{ }  &{ }  }  }  }  }  }  |  B6 m~ -, f. <k pq.pq.qq.3j Do hz hz hz ^p _] qq fn gn !R W> W> cL hz vK HF AM mE mE yv yv  |.'| W{ }! qo }! !4 +/ cL fE |  }  |  S+ K# S+ S+ Q= A@ }  &{ v> }  }  ",
"'< @q.@N .N 9g.ud =Q =Q ;Q rq.M8 sq.tq.uq.vq.wq.xq.[: rn O; yq.Jl Cv >8 i7 O4 ~( }  &{ &{ Q= }  Q= }  }  }  }  -, ^Q 20 0_ zq.-u F  Xx F5 Aq.Bq. +.z3.fb.Cq.Dq.Eq.Fq.Gq.Hq.:+ Iq.@= S(.., &2 !% ($ =% be XG H. d@ '# v> &{ }  &{ }  }  }  }  }  }  }  }  }  }  }  }  }  }  }  }  }  }  }  }  }  }  }  d@ RH PE -u GR +. Jq.Kq.9T ]< Lq.Mq.Nq.Oq.Pq.Qq.{,.:O }  }  }  }  }  }  }  }  &{ v> A@ }  }  }  }  }  |  (^ Rq.cf.Sq.Tq.AQ vn gz |  }  }  }  }  }  }  Q8 8# !4 h& vK /^ yv Zp Q= }  }  }  }  }  -, FL Ha h} %0.aq.Uq.0_ af.7:.$; zI T2 J, L5 ;8 Ll R1 -$ -$ j{.cq.Vq.Wq.Xq.dq.of.vs [  DH qo Z< v! `^ Yq.Zq.$; H  |  }  }  }  }  }  }  }  &{ ZS a) }o.~8 @2.`q. r..r.+r.@r.#r.$r.%r.&r.($ mz DK I( Bx Zp }  }  }  }  }  }  }  }  }  }  }  }  }  }  }  }  }  }  }  }  }  }  }  }  }  v> &{ Q= V} A@ A@ ~( A@ A@ &{ &{ }  &{ &{ &{ }  |  }  }  }  }  }  |  |  Q= I_ n7 M4 u..m/ qI F' u_ Q1 gE 8# cL fn q9 q9 |# Hw `< :k l6 /p xv vK 56 yv aL yv  |.x! x! }! ^p ^p ,m +/ t_ s] |  }  }  [  ~( A@ oi &{ }  }  }  }  }  }  ",
"jn -o XP 5L GQ z6 *r.XG $N =r.-r.;r.>r.,r.'r.)r.}v >c I{.!r.~r.>s D9 v% i7 sY ~( }  V} &{ &{ }  }  }  }  }  A@ h, h1 ;k |8 {r.K. B@.@p }+ Ci gB =*.]r.);.^r.Dq./r.(r._r.:r.<r.9% [r.d' }r.|r.oF ($ ~$ P< |4 H. d@ d@ }  &{ &{ LS &{ &{ }  }  }  }  &{ &{ }  }  }  }  }  }  }  }  }  }  }  }  }  }  }  <] >< +x 1r.Zw z> .H 2r.11.mg.(m.l+.3r.D5.4r.5r.6r.P| }  }  }  }  }  }  }  }  A@ q8 [% v> &{ }  }  v> oi Q1 -| AN 7r.8r.DO b& FN ZS A@ &{ &{ &{ A@ =v u> 9# .@ _] FN W{ FN tI 9r./~.k2.4j 4j DS kP 7: i, r9 =$ p_ 7{ ~] K( LA ;| /2 Ha Ha s_ >| >| Ha 2g 2g {Q EK 0r.2k )* gn kE !4 UL 6) ); H_ s( ]] M, L1 Ha Vp Q8 d4 YS YS YS YS {( d- Eo ;O V2 w_ ^| s[ ar.br.cr.dr.@r.er.fr.gr.hr.!x JM }n I( Bx {R &{ }  }  }  }  }  }  }  }  }  }  }  }  &{ &{ &{ }  }  }  }  &{ Q= d4 d- ir.N<.RS RS jr.kr.lr.mr.2].2].5j q:.q:.q:.GS YS A@ &{ }  }  }  }  }  }  |  A@ o,.l>.nr.6u /).lx qj DH e. In qo j; Z< B) NJ b{ D^ 7+ '; fe.a  Do !4 !4 ;L In ^p Do +/ f. t>.5: .> 7: l6 G' ]q gE 8# FN 8: kr Pu ); ;P GD IM IM IM H1.>, ",
"T> 6+ k6 r! YL ud qK K  %R or.pr.qr.rr.sr.tr.ur.V).XA K[ m_ -d >s E9 &% &% (] A@ }  }  &{ 2h >, i& DS /~.M2.jB c} t] ^= A) d0 ^Q vr.t!.r:  D 8F wr.]r.xr.yr.zr.Ar.<s Br.Cr.Dr.)f Er.d' z  Y! zS 4{ _& o_ gN z{.d@ vs }  eJ +@ SL G_ A4.:= Fr.l>.Gr.Hr.Ii Ir.Jr.>n.Kr.Lr.10.oi oi v> Q= }  }  }  v> }  'O g} 9_ M3 Mr.z_ +H Nr.&Z Or.P*.Pr.Qr.Rr.Sr.+: Tr.u9 }  S+ R/ jr P| 5: R+ [* th _q gt c[ Cr @$ Cr +!.%: :' y} O+ mb 5f z} &[ 1l B-.&D c. Ur.3>.Yu s8 i[ V* R9 2} N* /H g  Vr..b.Wr.Xr.Yr.2_.#q mm S@ *F xs {-.0E n' |d S0 !8 R$ )> B+ H: id N7 B+ pi l' B* 3) v3 Ev 90 ${ /; |b =1 Bo A/ A/ A/ !~ fT O).N; b- z_ Y+ sN Li Zr.`r. s. x s8 Zh p( oj W{.E[ q[ .s.+s.@s.#s.$s.%s.&s.{@ *s.H$.MF O3 r] y% ;, }  }  }  }  }  }  Q= [  }  DS U) =s.>n.-s.@<.;s.Ji >s.>s.,s.'s.)s.hn.!s.o).~s.y5.{s.{n.]s.^s./s.(s._s.:s.Jr./s.FY -s.<s.q>.l>.[s./o.}s.FU FU IP FU |s.1s.2s.+3 D| .g (q 3s.4s.Wp =< Z> u! D3 (* ^- wl D3 w$ i% *0 Z].={.[k  z Ka Ka Ka [k q( Xf.;r =0 i% [g iB F( X{ .} B< {$ }+ ,% G[ 2] 54 &_ Y{ /= E. [g P. ",
"3# 5{ n] L1 %8 ib FJ PR -N c_ 5s.w3 6s.7s.8s.9s.0s.as.bs.;s cs.-{.k} ~x 24 l1.Q= }  }  }  4:  . p8 g>.$o m^.ds.j'.es.fs.Y; ye 8p @e gs.3m f3 6  L* hs.is.js.ks.ls.ms.ns.S).>8.os.*~ yi.OA L8 ps.4{ F  C9 .d w% [  |  &{ fO <b <= zq y' #^ rF tF p, qs.Z9.=. sJ Ku &f p[  s.bT /b _= :f 9# &5 :] Q8 v> DH ,( GR M3 N< i~.rs.ss.)*.ts.us.vs.ws.xs.ys.zs.9!.Fd.r:.uI l} 5z {~ B* ]x [(  -.r7 S] As.Bs.Cs.=( =( Wr Ds.ij S] !%.1i.NB g'.Bs./;.TW Es.N].!).6; n~.f>.<~ @_ (j Fs.%' %;.Xr Gs.Hs.Is.Js.1G Ks.2~.Ls.Ms.Ns.pm.!l t/.:o.t/.=' {*.%~.05 Os.Ps.hj G$.N: Qs.Rs.Ss.Ts.<c.Us.c'.3~.3~.MV =;.3' :*./y Z( PT zE Vs.Ws.!e.O7 V+ Xs.>~ t5 C;.d* Ys.Zs.L).Fm `} p8 @) `s. t..t.+t.@t.#t.U[ ,> Hz nw Pl $t.~Q '# 2'.}  }  }  }  }  S+ >, WR >, %t.&t.*t.=t.-t.;t.>t.,t.K8.92.'t.o1.)t.!t.~t.E%.{t.]t.N/.^t.<L /t.(t.*{.Xe.5F &{.c .Iu *l C: RM Qc a. 87 du nx _t.ro >t Ap O,.g5 :t.|i.<t.`C Cr [z aX N9.q= 9: >( 2# ]- E. ]% [t.}t.'> 5< |t.[o.7& d5 7& l0 l0 YW ic.0<.1t.2t.Va.N* {s h[ s: x; N; }2 44.-i 3t.3- 3- 4t.Va.5t.K8 6t.",
"<g Xj.j7 {] Of 9P -; 8P An Vj 7t.8t.VY 9t.0t.at.bt.2a.ct.(& dt.^' F  V> >: {N v> }  }  }  H_ :' 64 $o JG et.ft.gt.ht.it.jt.1K `}.k6 kt.g_.Mm *:.wr.lt.mt.nt.ot.pt.qt.rt.st.tt.ut.vt.l= wt.xt.yt.#z A* wO N|.}].[  |  &{ s( z} )0 ]i J~.f{.8d U).n~.^-.zt.aA At.Bt.Ct.q6 ]( -6.2/.VG D. 7) S& T/ Q= }  [  NJ {O 8P 34 Fl Dt.Et.Ft.Gt.Ht.It.Jt.Kt.Lt.Mt.`& Nt.2K ye =c ;0 >0 7< Ot.Pt.Qt.Rt.St.Tt.Ut.Z..iV wY wY Vt.Wt.pT Xt.Yt.F7.Zt.`t. u.L6.V4.R! .u.;%.+u.W9 @u.3U f=.#u.$u.%u.&u.x%.*u.=u.hU hU w7 hU '7.-u.;u.>u.'j.a] S` ,u.'u.)u.!u.!u._#.~u.!u.Ne.le.{u.]u.^u./u.p6.i* (u._u.:u.<u.]< 5>.5>.X/ [u.2r.}u.|u.1u.2u.3u.4u.5u.ST 6u.7u.8u.9u.0u.au.PG =:.r( t} bu.cu.du.eu.fu.)h m#.8& gu.h7 rD q0 Gn [  }  }  }  }  }  }  ,4 T) !m /7 'A hu.iu.sJ ju.ku./i.z3 $* c7.lu.mu.nu.ou.pu.qu.ru.x3.su.tu.uu.vu.A0.Tv .a._y + .wu.t, n{ 8m E[.A^.xu.si db yu.ba '..A( 8A Lb.zu.Au.L! Bu.Cu.#j Du.Eu.}T Fu.Gu. H zr d  e< :K Hu.Iu.D1 *;.X^.c!.X^.D1 (+ (+ S] ],.(+ m#.L: Ju.7u.p: ^= `A w$ |h ($ l' $c yS 9& Ku.Xs.'> Lu.rR Mu.{> ",
" ^.H] Sa p_  / 9P rK Zw {O Nu.Ou.4< Qf.Pu.Qu.Ru.Su.*B 5v Et 5s.KJ Gw u` L| P, v> }  }  }  vh R; (t 5C 0D Tu._S +%.Uu.Vu.wr *u Jr jk f7 Q; ~q Wu.Xu.hs.Yu.Zu.`u. v..v.zZ ]+ k%.+v.@v.l= #v.$v.yt.M+ U> I3 xg }].[  |  v> Ja }- )0 Ln rW >^ )0.hS =_.38.R!.@0.n{ %v.&v.yF -l A2.J# 1K  q `: F( h, A@ }  Q8 u$ O$.Zw M< V| *v.=v.-v.;v.>v.,v.'v.)v.!v.~v.D-.Ky {v.'s 6v ]v.^v.RT ._ J^.WT /v.(v._v.g$ :v.<v.CW Y#.[v.7; }v.~8.k( |v.|v.Au.Au.1v.t/.dk.z$ 0!.2v.dU 3v.4v.5v.6v.)d i|.7v.='.8v.K'.9v.K'.Rs.Rs.0v.av.bv.0v.cv.g-.(u.dv.ev.fv.ev.v6.gv.v6.hv.iv.jv.kv.lv.mv.nv.,a K3.5>.ov.!l SW _( pv.qv.rv.Pt.sv.tv.uv.vv.wv.xv.m= yv.r_.B'.Lu.zv.Av.Bv.Cv.*/ D. Z).vF Dv.Ev.Fv.Gv.Hv.Iv.Jv.Kv.gu.*% rD q0 (- Q= Q= }  }  }  }  }  }  4j r:.XR Lv.Mv.Nv.f7.=i.m{.d,.Ov.Pv.Qv.Rv.Sv.Tv.Uv.~q.pu.Vv.Wv.Xv.3q.Yv.Zv.Zv.Vv `v.qC  w..w.+w.@w.pC #w.$w.'_ /n Lu 'E *t {} |E za I..F^.5q |v.R).m9.F@ %w.^L V; 2f g+.w; B' <b f{.Gf X: &w.a%.*w.2G =w.-w.-w._3 *} T^.T^.]}.E~.Ls.Us.Ot.N$.ch [| `> [| %[ R0 {-.W(.s/.{,.i^ (~ m5 d^ M~ 2y ",
"2} w+ {8 XP oK EN iK )o.Zw dn 5+.#> G9.;w.>w.,w.0g 'w.)w.!w.~w.^' A* W  /' |! v> }  }  }  S& wo [| $o Vm B*.{w.]w.^w.uC ua ;n.kr -< m6  6 /w.(w._w.:w.<w.[w.}w.|w.nt.1w._s !' +f.2w.~k 3w.4w.5w.K) >: 7{ +x Ib.vs |  &{ VG <' g  G, cj ug.+j H+ (~ 7i.J} &_.Vo 6w.{n 7w.IH 8w.Wh %o  = F[ Ja O| !( `p xw 6_ td 9_ {O #8 m/.Q] U4.9w.0w.aw.bw.cw.dw.ew.fw.s>.ES gw.hw.(8 n;.2! T;.**.a<.D, p, w` iw.Q5.Q5.|4.iw.T# jw.0i.X| ]1.al V8 Bd.pl p. y9.oh ~v al 0t v3.$_.{,..0 bl vF kw.Dy ny z@.iG |F #) H}.Vc M] o+ j] ;).:d qh <7 K).a~ z~ ZB lw.OB mw.A$.nw.nw.ow.J} <~.[u Rx og.r6 ed =i Rc pw.M$.Y0 ;] &] N$.M$ qw.J] V$ 16 /| {= >*.+s R$ /| V$ =# y) Mh.E' 0p .3 rw.sw.tw.uw.vw.ww.gf )%.-4 70 rD @6 xw.v> |  }  }  }  }  }  c- &5 =N yw.zw.Aw.Bw.Cw.H^.^3 3q O-.Dw.M,.Ew.ua.Fw.M6 Gw.Hw.Iw.Jw.!. Kw.Lw.Mw.Nw.Ow.Pw.Qw.Rw.Sw.b:.Tw.Uw.Vw.Lb.Ww.ul [w Xw.Yw.z( te +h {w 6w.Zw.`w.'_ L` @n 9h. x.kI 1B .x.j[ 4< +x.Cd z-.1} *} ij S5 ef =w.=w.gT ij ij T^.ij gT ij fA @x.Q,.d1 {h 5J n6 w' ub.#2.#x.q%.v'.Qm v!.5a.H/.P: Ls.6l ",
"8~ m; 0n s3 Yl W;.$x.%x.iK V3 ~r.k> 3).q*.&x.*x.=x.-x.;x.>x._).-{.Gw W  /' |! Q= }  }  &{ 6p $~ `> $v I+ 43.,x.(w.'x.C( w..#5 Pu '= 8~ Mj )x.!x.~x.{x.R3.]x.^x./x.(x.st.<$ _x.:x.<x.{) [x.}x./N y+ <& ui K3 Ib.[  |  }  Mo .^  n S'.89 #%.|x.7b v[ 1x.gG ;z :: 7  WW H2 Kf H2.Kj @) m9  = g>.^4 X{ i; ~] r! kb kb 9_ #8 xS 2x.3x.4x.5x.6x.WE 7x.8x.2, 9x.o2.V} ,4 r,.m1.$k.{v.I0.bj 0x.ax.bx.cx.dx.ex.cx.fx.gx.hx.ix.hx.jx.kx.lx.mx.nx.ox.ox.px.qx.rx.l6.sx.tx.ux.vx.{v.wx.4j DS rx.sx.sx.tx.xx.yx.W4.H0.tx.H0.tx.I0.mr.W4.1].yx.W4.tx.k2.tx.sx.tx.m6.I0.zx.u>.u>.Ax.Bx.Cx.1].Cx.1].1].{( 1].^~.^~.S~.$8.H0.hP O| jr O| }] ;n..B 9_.k>.<O Q| VG &/ n~ C^ j; (l X].Dx.Ex.Fx.Gx.:|.Y| @x.J'.9' Yj gJ @6 xw.vs vs }  Q= }  }  Q= NE Sd Hx.Ix.G| @1 f[.Jx.w!.Kx.x] ij 9x.62.<x Lx.Mx.Nx.Ox.Px.Qx.Rx.Sx.Tx.Ux.Vx.Wx.S$.Xx.Yx.Zx.`x. y.<4..y.[1 .a.^1.6. +y.@y.#y #y.$y.d9 mr w( >A p2 L2 %y.Fi.&y.*y.9w $s v( ]1 y~ 4+.Fs.F,._-.=y.he =y.-y.2G 2G ;y.ij T^.T^.*} 2G >y.z;.*;.Q,.qi ,y.v; 'y.Xb rR )y.y-.!y.>a 8l 8l (-.P! r} Ps.&(.",
"Ei Gn.W> /^ t1 @N $x.~y.M. IF {y.bv z:.$1.]y.^y./y.(y.)w.!w._)._y.Gw W  jk |! v> }  }  &{ w: R; _$ '4 E1 $h.:y.<y.[y.%9 Wk u,.;L +^ ug.Eg }y._1./~ |y.1y.pv.t/.hj :( 2y.$@ 3y.k<.4y.e5 5y.6y.-s x1 m! z) D,.1k [  |  }  A. dw 5u >o 5h bq -p #%.gm kB n#.7y.mt 7  k[ 6F {} #A Qp jc 8y.9y._l s( _* Z> sd ~] K5 b4 ud {{ 0y.X/ ay.by.cy.dy.ey.fy.gy.hy.7m <O }  }  }  }  }  }  }  }  }  }  }  }  }  }  }  }  }  }  }  }  }  }  }  }  }  }  }  }  }  }  }  }  }  }  }  }  }  }  }  }  }  }  }  }  }  }  }  }  }  }  }  }  }  }  }  }  }  }  }  }  }  }  }  }  }  }  }  }  }  }  }  }  }  }  }  }  }  }  }  }  }  }  Q= v> Q= A@ A@ d4 d4 ,4 ~( Q8 u_ Tp gP %| '= iy.jy.ky.ly.my.ny.EW oy.f* A> `h rD @6 Ov @  @  }  |  }  VR S+ D'.j-.B} t+ :c.)t =0.y, %~.01 %7.*(.py.Jp _A s0.qy.ry.sy.ty.F{ D{ uy.vy.wy.xy.Pw yy.zy.Ay.By.Cy.Dy.`x.Ey.<x Ik ux Tf.Fy.Gy.Hy.Iy._9 o/.Jy.CP #] '..sF =u Ky.Ly.23.>q $j qF 5~ ;;.I^.5] &8.~%.My.OX OX (h -y.2G 2G ij ij ij ij 1i.>y.>y.~!.Ny.%4..) 0* #I Oy.q' -_.*f H- Py.j5.g-.R! G- CW Qy.Ry.",
"I~.jf hE @/ in 0P 34 aM o_ ,6 Sy.M= Ty.Uy.]y.Vy.=x.Wy.Xy.>P /N Yy.F  Z+ jk 1h v> }  }  V} hw [g >%  = g~ :7 .,.Zy.xt 1>.i1 ;P ;L ,) mi.`y. z..z.+z.@z.#z.$z.L~ %z.&z.*z.=z.3[.-z.;z.Sm >z.,z.'z.-% W  ~N ui 1k [  }  }  A. mf nx )z.a[ `7 M- m[ 7j aa 7j ib.WW Sx 6n h4 kc -[.m| !z.~z.${.S{  q *[ >= x_ ~] *G #N ib 2& a* {z.]z.^z./z.(z._z.:z.<z.[z.A^.}z.}  }  }  }  }  }  }  }  &{ V} &{ }  }  }  }  }  }  E1.Q= VR VR }  }  }  }  }  }  }  }  }  }  }  }  }  }  }  }  }  }  }  }  }  }  }  }  }  }  }  }  }  }  }  }  }  }  }  }  }  }  }  }  }  }  }  }  }  }  }  }  }  }  }  }  }  }  }  }  }  }  }  |  d@ '# ]/ -[ S+ c- d4 ,4 ,4 gO Zp h& 8# w* r= h[ ^].$,.|z.1z.2z.3z.4z.5z.g* xF }4 rD BK .  @  @  }  Q= Q= A@ -P 6z.x$ of vl 7z.8z.9z.0z.}v.az.bz.cz.dz.;E ez.fz.gz.hz.iz.jz.1. kz.&! lz.mz.nz.oz.pz.qz.Fp.rz.sz.tz.uz.vz.E4 Y[.t0.wz.xz.yz.zz.Az.Bz.Cz.:E gu IH Dz.u[ 1( %j.}T 'C U% t| b# [o.Ez.7^ E~ M-.(3 28.@(.RZ Fz.(h (H _3 x@.{1 T^._3 E~.T^.T^.2G (+ S] Gz.B~ g' u] Hz.Cd Xc ~f Iz.'7.K6.:v.Vt. u.Jz.Wt.",
"VH '% 8: )| CH am FJ P< n] 'l Kz.#> z:.$1.Lz.,w.Mz.WP !k /& Nz.T1    [& jk |! Q= }  }  A@ hw ,0 54  = y} A-.es.Oz.~q wr Wk {v.$5 g, /w Pz.Qz.Rz.2>.Sz.Tz.Uz.pl.Vz.Wz.Xz.o8.Yz.Zz.E%.`E `z.__.26 Gw @e 9_ K3 1k [  }  }  A. Ux +< //  A.'9.F` <l :E iy.Uf m[ ed L` L` ') @3 -[..A..A ]v /5 Ur.fO F( ^4 !| q_ aD Qf b4 2*.+A.@A.dj.#A.$A.%A.&A.*A.=A.-A.yF ;n.}  }  }  }  }  }  }  }  }  }  }  }  }  }  }  }  |  }  }  }  }  }  }  }  }  }  }  }  }  }  }  }  }  }  }  }  }  }  }  }  }  }  }  }  }  }  }  }  Q= Q= }  }  }  }  }  }  }  }  |  }  VR Q= oi S+ K# <] K# Q= }  }  }  }  }  }  }  }  }  }  }  }  y% BA aL h& [] K# ~( A@ ,4 Q= S+ -, )| bo ]2 f} ~{ aa ;A.>A.,A.'A.)A.!A.~A.qi &+ 70 E(.a_ {A.@  |  |  T/ a  ); ]A.u( hA #0 .] ^A.Zx 27./A.(A.W] R] $V _A.:A.<A.[A.}A.|A.1A.2A.3A.4A.5A.6A.7A.8A.9A.0A.aA.bA.cA.sz.Dy.dA.0l.yo.M:.Tv eA.fA.gA.hA.h9 x( 7j $z :#.:#.u[ Ni !q ~h.Z> KA G' C. [! e= 4).;,.!!.O] {1 H^.@(.RZ Q).iA.iA._-.jA.Lf.kA.fA E~.jA.lA.E~.fA (+ mA.a<.(> K| :| 7w V6 &_.{< 4^ 0!.nA.k4 Yz.w, i!.",
"$. $~ j; E} in AH FJ P< o_ i-.oA.#{ g,.pA.qA.rA.sA.tA.-O /N uA.K^ H3 {8 k6 P, oi }  }  ~( uW w$ >D +> M  A-.es.vA.5  wr nj {v.sI Zu Oy wA.xA.yA.zA.U}.AA.BA.CA.DA.EA.FA.GA.HA.IA.JA.KA.)3.lc.i% Z+ 3k |>.vd LA.vs }  }  O| &0 J~.DD !A Jx {w va d!.cT $h 2( %%.F7 _9 MA.wy NA.Gu  1 kd OA.PA.d[ uW r9 Q/ 7_ 9_ ib kb T> h/.QA.RA.SA.TA.UA.VA.WA.XA.28.jw YA.}  &{ }  }  }  }  }  }  }  v> A@ }  }  }  |  }  d@ ]/ vs |  |  }  }  }  }  }  }  }  }  }  }  }  }  }  }  }  }  }  |  }  }  }  }  }  }  }  v> ;L Kn P8 )m [  |  }  [  [] !4 ^p qo zv _k f. Q, (J 7+ n~ u| t>.F' ;[ Q8 }  |  }  |  |  Q= |  |  L@ +C lE -r lE P8 UL %5 DS R(.S+ S+ @  '# a{ am N*..} lm 34.ZA.`A. B..B.+B.@B.~h A} pg E(.a_ {A.@  |  '# ~2 ]| }@ a# 4m &] M# t<.#B.$B.%( %B.&B.Y5.6w.p2 6/.*B.=B.-B.;B.>B.,B.'B.)B.!B.~B.Hw.3, {B.]B.Rx.^B./B.(B._B.:B.<B.[B.W# z3 OX )).hj }B.F` jc |B..g G(.I6 Oi ;5 ^v 0D Lt a) gP W{ y% F' tA 13 W=.M$.jw Ny.j#.Wj.1B.2B.>!..i.j:.F~.f( f( lA.]}.lA.f( ]}.2G 3B.mY L$.t} )0 */.qp Ee ZB 4B.9T @0 5B.E# 0:.Yv.b, ",
"ch }+ A^ Vp 6B.wi iK XH  & O9 B! 4& |= i= }) 7B.8B.uO 9B.0B.uA.tK xe Z+ jk G' oi }  }  ~( F( ;# ,3 E3 {# aB.f(.Mj yt uH  q yx.yx.]X bB.cB.xA.dB.'9.=] .6.&l j6.eB.fB.gB.hB.iB.jB.kB.lB.K>.if q1 S< Tq K. 20 mB.@  }  }  6) >2 4f nB.oB.pB.*g &L hl s| sU )q qB.y( wy N..rB.jc v_.A, $^ 1l k'. . `: n~ '( =$ b4 ib '$ O8 sB.tB.RA.uB.vB.wB.xB.yB.nd ]) nt ); }  }  }  }  }  }  }  |  oi &{ v> }  }  }  |  '# vK xv aL HF ]/ vs [  VR VR }  }  }  |  }  }  }  }  }  |  |  |  |  <% }  }  }  }  }  }  }  <] +} -: O4 j{ !( Q= }  Zp ]q P, {N {N j{ {N  [ CA Q/ S2 2& u: 6: t9 TL K# v> v> }  }  |  [  v> Q= e. Y< 0P [K s_ :k qo ;P DS A@ &{ Q= }  @  zB.AB.yR i; $. ok BB.CB.DB.EB.FB.px 89 f,.oE YQ tD GB.@  |  '2 Y> N, j^ &0 {q (> HB.IB.{*.JB.KB.V4.LB.84.ID !A 2a px MB.NB.OB.PB.QB.RB.SB.TB.UB.VB.WB.XB.YB.ZB.`B. C..C.+C.@C.#C.$C.]8.%C.pm.m8.U~.H/.K` $y.&C.F7 cq k[ 6  :: qk 1l  . #/ BL 4y mE :% ZY @& e= }= &] 4+.*C.=C.-C.2B.>!.T5 j:.!%.&} =7.=7.lA.jA.jA.fA E~.E~.5).F+ Y4 S@ =+ :l nA w^.;C.m( E7 py.>C.Op 8}.,C.",
"!~ 2] -{ Q1 4> am )$ _c xe ($ s' #> |= )u 'C.)C.!C.~C.0X {C.]C.T1 F  <& :& )C C) }  }  2h h1 h[ (* i{ C' [b Mu 0h.^t wr i1 yx.H0.^C.rx /C.(C._C.V` :C.kG O# <C.[C.}C.uv.|C.1C.2C.3C.4C.hc so ]h -: Tq wd 20 5C.|  }  }  In 2& 2  .& Yv 6C.ir ~^ 3} L4  s.@] J2 Lc 7C.N..Is _9 K2 tF W| :o u..`  &: C2 4} 1# xd td %8 O8 8C.9C.uj.0C.aC.bC.cC.{f U9 33 &[ dC.}  v> &{ }  }  }  v> v> oi A@ A@ A@ A@ Q= Q8 8# c) c) hz @/ [  v> [  v> Q= v> oi oi ~( Q8 Q8 Q8 K# -[ C) C) C) DH 8t [% &{ }  }  }  }  }  C. :& N1 /* F( O| 2K i& Yp hw F( ^4 Sq n~ r9 B)  @ H) ~| rd (= +@ ty -9.I_ Q= }  v> K# =v R& R& !v In %| xi u$ x* -k 6) ;P WN A@ }  v> Q= Q1 eC.[P ^2 r= O. fC.gC.hC.iC.jC.kC.r[.T| |z !a lC.$F mC.@  |  !< 8_ O. X+ s8 Q4 j] U& /l dk.nC.*=.oC.pC.t4 !A {w i4 g7.Ve qC.NB.rC.sC.Z<.tC.uC.vC.wC.xC.yC.Ml.`) 07.zC.AC.BC.CC.DC.Qq.EC.FC.1c GC.Ls.<~.VW A( HC.N;.VW j5 :g.ib.@] -* T= )C kK 4y IC.vK Kt $i j% !7 #> #_ um.Ph.JC.KC.LC.2~.MC.F~.F~.F~.&} &} N-.iA.x@.x@._-.NC.)6 _: d1 qi OC. (.PC.u7 QC.QC.9x.RC.SC.TC.UC.",
"dI e  0# S/ s= wM -; 37 wf.G3 rn <g 51 m) VC.@- WC.XC.!k JA =a I] ;% /- jk )C C) }  }  ~( .> F( Sq h1 >= (f  D .x. D tH  q l2.k2.YC.ZC.`C. D..D.kF pl _|.s7 /h +D.@D.8d.#D.$D.%D.&D.*D.7/.F]  6 ~8 r_ K. 20 =D.}  }  }  u_ `+ NR /* 8) B@ j; ){ rd Gn.r| aa 9+ fr Bu -D.T8.t).dq #] `].Y% A. ;D.R& d- lA >= S2 T< #8 u! r_.C{.&Y >D.,D.Jj.'D.o2 n#.go %: {v.}  }  }  oi :] :] u_ T/ e[ lA ft No EU #$ ir .l >2 [- q> >v ir fw $$ Sc.;e.bT IU Qr Qr bT )D.fw )D.fw $$ [z fw Xp Zk /q -v bT R+ ); VO $$ (= D@ {# Zh .< 5w F2.!D.g, mf c} &0 Vh 3} 3} }@ ,* 2j D@ uo W% rb 2- _b z. SL ~D.{D.s| yA %j hl hl %j tE '1.A< 8) >v nj (b yu Fr.2K kr %| EO ^*.4M LO 0P <2 ]D.I|.g5 =. ,).!%.^D./D.(D._D.Th lN :D.|  }  @/ hb Rq #. H7 <D.&#.+{.P,.[D.}D.|D.ku._0 'E $y.<0  8 T6 #A f| 1D.2D.3D.dc Mw.4D.5D.0l.6D.7D.8D.9D.0D.aD.bD.cD.dD.eD.n@ =' pm.g( PC.<v p!.C5 GB zj E/.fD.U! F` gD.dq @n '5 D^ -| Nu ez mE 2> (e sA GF D! >+ B3 hD.iD.Op.LC.2~.X] X] ]}.F~.lA./+ kA.~%.jD._'.N-.z;.xu.j5 0~ y~ =7.38.`$.9!.#w.$w.Zo U3.j4 kD.lD.",
"Lf =0 -{ e. I  |O td Nf -< J) `[ |z |2 mD.nD.oD.1m pD.X$ P; L^ N9 Z+ v! ^- z* Zp }  }  oi _] G' 8p P, +c @8 Ky.DM qD.4r >d XR !m +@ rD.sD.tD.uD.2q io H9 Va M* do.vD.wD.h- xD.yD.zD.AD.92 wj S$ w$ GR -u }>.]e }  }  }  `p (' %8 :2 ,( 5K #~ 2g sd {^ )w 7u ): x4 GB 6w Hr.BD..j Fc CD.fw }  }  }  }  4s.>= O8 ^- u! 5# ms DD.ED.FD.GD.HD.Y| d~ Lm rW [p >, }  &{ }  T/ 7p B) +} KA %L e< `] G5 nr 79 Ix &z ID.JD.ID.o: |l KD.LD.MD.tu ND.Is OD.6w mi.CP 8|.}0.%7 %7 PD.zg.1q QD.So RD.'x.7y..n vj -l u/ @j nb 5b Kf Bz.') SD.7q WW TD.@; dl _1 M* IG |( B; yS j'.de OC.[~ +_.pc.v/ du v( <n 5  X% 3a.[y.yt <a V= UD.h+.8f 4p H: ;* y' _q I) de.O< 1& '%.VD.0P /B >x.WD.XD.YD.0= ZD.`D. E..E.h; Uu iK (B @  }  8t OF 4r H[ (q y-.+E.@E.]}.#E.SD Sv $E.w_.A( sF Gr &7 +t c9 x2 %E.&E.1D.Y1 ND *E.=E.-E.;E.>E.,E.TC.'E.)E.!E.~E.{E.]E.^E.u;.V~.]n Rm &_.R# =p %*./E.+' >b *7.5;.*).0w R0 j^ B) #~ 1v _p.&G s!.pt ~m x5 n;.ck.Pe.(E.&i.%B.`c._E.2~.g5.&} F~._-./+ <*.<*.:E.:E.~%.fA Rm M- <E.b( [E.W'.}E.pC.6A Lu |E.M;.{n j4 53 ",
"S@ [| Pr C) ao 1E.xi d} ~2 O/ b- K) -) yM 2E.3E.4E.=, D  >( ,y =% 2& ]^ ~{ :k Zp |  }  [  )4 cL Kn l6 B) -# Dj 5E.Ly.)= 4} K# Zp .> fO ^ .6E.{k.Aj :$ [f 72.wJ j/.7E.8E.9E.0E.aE.bE.cE.dE.m[ W5.]h v$ J3 9_ lE }  }  }  u_ /2 [K 0P AJ uM !O h} MA 9M n/._t.H/ Yc YD }0.R3 |o.eE.lf fE.SO }  }  }  }  ph._^ /- ]^ D3 Zm <> gE.hE.iE.jE.kE.OB 5  f~ .= k'.H1.}  &{ }  =: .c W  [& O/ lE.Vf.mE.nE.Eu fo.fx oE.pE.qE.rE.sE.tE.iH M` uE.vE.wE.xE.yE.zE.Xw.AE.hx BE.CE.DE.EE.FE.GE.HE.IE.JE.KE.x_.Iy 1| |E.6n Gh ;6.7E LE.+y.]a.f6.ME.h5 NE.G,.OE.PE. %.w;.n; ;_.4] QE.RE.9%.Z=.Z>.;C.J..SE.RD.ob TE.UE.VE.WE.XE.YE.ZE.`E.QD.<D.Cd ~b C+ Pa 2f  F..F.y6 (,.+F.@F.g} FJ #F.$F.8(.~-.%F.&F.*F.0^.=F.X&.N9 )$ X< |  }  QI t> 2f  3 >^ {,.,@ -F.;F.g5 >F.,F.>F.r[.8G 'F..x.lf )F.>e.q[.7&.!F.2a ~F.+2.,E {F.jF  k.UY j4 bb ]F.^F.d-.37.4'.*n.`t./F.2B.8m U3.M- A^.{n 0! `w.lg.M} bf NE.K2 l1 o%.2d b{ ]2 un c4 ez x| 5g 2# ,0 2} (F._F.TC.j/ ;Y :F.<F.2~.}B.f( =7.lA.T5 :E.R!.[F.T! l*.kA.f'.E[.}F.@-.|F./5.1F.2F.ea *z Sx Ho Ho *f &. ",
"/: }+ hw <] @/ E} Dt #9 oh.Y@.;; B< B< )5 YG ng ,y R< u! ]| v! Z> D^ D^ z* k; L@ |  |  [  fE +/ )( hE b{ _* -# i~.*<.w+ p> mP Zp hE <* I7  v Ux  ^.I9.P2 G; m> 4:.3F.4F.5F.6F.7F.3A.8F.kc Fh x6 5{ rK Zw -u !R }  }  }  u_ #~ -/.s1 0P h} h} AJ :2 x_ or -q Fh G+ ^f Hr 7} 9F..v <K Mf SO }  }  }  }  q8 r$ L  Z+ z> E. 0F.aF.bF.cF.&s.dF.f' IG )~ Hj  = {v.}  &{ Q= b) sd k6 V5 T> {| r> mE.eF.Oy ,w fF.gF.;+.hF.iF.jF.YE.%f >w j9.kF.lF.em mF.nF..z.oF.x<.pF.qF.DE.rF.sF.tF.uF.vF.wF.KE.x_.a! a! |E.6w.Gh &^ J../n '9.LE.xF.'_ -1.d7.yF.SA a<.v^.}~ I~  %.`( zF.AF.BF.m$ Z>.AF.J@.fm CF.DF.gS Na EF.FF.GF.HF.IF.JF.e(.Zy.~)  0 [: W5.KF.LF.2c MF.NF.z0.]L d} Xf {H OF.i7.PF.QF.RF.SF.TF.UF.oS g_.b@ %| |  }  VF.rd ]% &[ WF.it 9% 8{.XF.6; HB @3 YF.p'.ZF.`F.sH BM )D. G.6C.(T .G.;h %*.%*.+G.>F.^M {n EY &. '_ ]+ Z..@G.#G.$G.%G.OY &G.is.Rv *G.R- h5 (/ '_ =G.~l _v.jh Pe.K2 n1 nt .& KA xi uz }p.@9 w| nn ^$ 1! mb Y3 -G. * ;G.]U >G.,G.Ns.'G.b( 3~.X] 2~.&} (3 `9 `9 `9 ;C.)G.!G.~G.}B.P-.{G.R).]G.$w.od TD.-] E+ :d <F ",
"H[ '% hw Tp a{ `L t_ <P ^G.u* '{ /% r1 G( D3 wl B< =< C^ %/ 5_ x* Mb Mb B. <] C) L@ <] e. e. h& ~4 +/ D^ >= ,= u! h) =% '( [] -, ww '{ )^  l p1 16 '~ 0'.*p /G.(G._G.:G.<G.NV [G.Qv.Gu eI pY U/ yd I3 ui -u G  }  }  }  u_ #~ ;8 0P xi W< am 3y Of -< 4d b9 j[ qf 7d Ix S'.nB.33.}G.U&.V2 }  }  }  }  }  '; $8 Nf ;; J+ P> |G.1G.2G.k+ ls 71.3G.}~.l] /H 2K }  &{ |  }! i; d0 ;k 4_ ]^ xg.*y aJ `i 8c A( SF h|.s* Y3 hf )q Ci %7 ND.5<.4G.]c.wU m2 fm Ca.%<.y( 5G.E5 Bg 6G.7G.8G.9G.0G.aG.jc (r bG.B5 wj wj B: u[ Lx mt c~ Af 7w.|~ j] ;).U5 4< &i N@.I$.Nd f! cG.<E.dG.F,.W1 P5 wj hm 8  i{.81.eG.fG.fG.gG.t2.a|.f3 K].Vm $c *+ S$ z} Q+ ]$ !$ hG.iG.jG.OM F) ik kG.U!.jh.lG.%6.mG.nG.oG.pG.=2 b-  & %| |  }  oi %s 3f 2l pF |_.$r 2G.=U 'h qG.YC FB Ls CF.yo rG.qr )F.-v sj sG.tG.8j h4 Xc #3 wy C| uG.|_.si &v.]F.vG.Xv.wG.xG.yG.Oq.zG.AG.LD eA.lD.~U   .BG.CG.S/.DG.=' ti W6 <n 33.j^ 5_ tk ^j :D.yw Hl ~:.M5  } z; EG.$V FG.GG.N& HG.IG.g5.c!.B~ JG.{).X^.Ny.gf O] X^.H/.6i.KG.D, $' a1 1' gT NB |y =p ): H/ LG.Y' qY rh ",
"w: <k  @ u* NJ e} ^^ 4+ d} ]^ J1 {$ Q+ wg <4 bc <4 G3 ^] k~.^] ;< u* u* NJ q3 u* NJ B) j; u_ [  K# F' 7p x_ ;1 C2 &/ +} .@ -, e. 1  >= 9) :z >2 oS .- I: ct.h^.MG.NG.OG.PG.:V QG./~ }2 7' $p RG.sz SG.D,.O$.z* }  }  }  MJ -r w% 0P xi W< g} Y> T> y_ 3} 2l #H #H Tf Hs Ur TG.5u.UG.VG.EM }  }  }  }  }  rI 0m 0m T> A) WG.>b.XG.Nv YG._@ Fv #b IJ 3G.w5 $5 }  A@ v> :] ,m 66 zM #/ )C ~^ .l ZG.*g I2.4w 2- [# Sf 5{ 5p '= s( g~.`G.E2. H..H.6~.A2.O<.2t g~.3t `m c[ j1 rD..j +H.@H.#H.$H.-s.%H.Ly 6j @t 4d !w i>.d[ *D +^ `m Yu sN tA 1- &H.*H.1z 1z E_ :b &[ lm {5 Lj <: 99 o( =H.gl.Pr r8 q> Gn.Gn.9d e< p( Wf.3d *D s( p8 u..36 hw (% dz -H.*M ;H.@F.zO 7_ E(.>H.,H.'H.)H.!H.~H.TF.{H.d#.pn b- 6{ j; }  }  }  ir S| ~w H_.;5 /y ,;.7;.]H.q2 m'.Qg Ie fr bG.Ao jB ^H.q[./H.(H._H./w A( >A Bu (r t..|; z9 E+ J6 {+ Wt.:H.<H.<H.[H.}H.|H.C5.,E.1H.nA.Ry.L6.F7.zX 2H.dv.5>.!G.(r Mu x' -# i; ),.+5 >l >$ j .HA O) }5 m] }3 3H.4H.X_ F .5H.93 )8 zb eI S0 &] %. ;z pw.Rc D+ |~ ~b N@.HI 99 6d 7  U2..g Y7 #v ap [| (t >% L# i% ",
"oi Z< `+ :2 Fd 9P `= Q< ># 6H.7H.8H.|6 9H.0H.vv.aH.bH._{ Xj.vv GJ E^ GO WG 1& J5 E^ V5 7p Q8 }  |  ;[ )C 9- H) .> !( K# S+ v> e. j; 9M tE YY t> P; -s 0B.P9 cH.dH.eH.fH.gH.hH.iH.jH.$6 kH.f|.lH.r(.is PE PE G  }  }  }  `p :k Ll xi xi s_ u$ (*.GO v! aj $o .= Wa mH.77 P5 nH.oH.&b pH.qH.}  }  }  }  }  OI eN U< U< ;; rH.tO VP sH.tH.mD.$G uH.vH.Ht ;3 i& }  }  }  v> -[ oi C) L@ VF.Xv ^i ;D.2K wH.d. 1h ;) v[.y{.=D.l~ 8# !v ~( A@ A@ d4 A@ d4 ~( ~( c- gO h& ^p +C }! O| <q kr.xH.o,.wH.DS r:.~( -[ [  [  |  |  |  v> K@ h, WH {/ R& >, XR T) ;P P| U; nj  q @t g~.}p E(  . C. [  D) SH +/ xw -k ww -k 8M JO ]~.SH SH T/ !( C) <% |  4u /t ao 0o yH.O4.CO @n.zH.AH.BH.13.CH.DH.EH.aT FH.Q; G3 ^* b) }  }  }  0  BM g~.`).d(.7q GH.jm iu.Fp m'.#w DY +] .n K].HH.IH.JH.KH.LH.MH..G.+h @%.CF.^v NH.%_.~> Lx 6n gA.OH.!~.PH.QH.21 RH.md F: |u SH.Gp.TH.P( UH.2H.}+.g-.=(.S# K{.-* U| ^] 6_ uQ K,  5 tN vd -).V> 8v 5p Y; yp VH.WH.XH.YH.ZH.`H.hm lf aj %: b# b# 3w ;r t] *0 2] 54 54 e  *0  C H7 Dc z. M4 X} B< ~| sd ^- S2 ",
"[  G  `J ^- Fd Uj XG eT 5r l]  I.yE =z..I.1{ 1{ +I.$@ @I.B] #I.3J ^* P/ /,.$I.~O I[ O8 )C S+ }  }  gO P, 1# .} Jn gO }  Q= Q= `p r1 j~ +. z< [- `x T!..f.%I.&I.*I.a~.=I.-C 58 -I.XK ;I.>I.6d.,I.j .is Bn =).G  |  }  }  `p !R b& ,( ,( s_ ,( 7L 6+ O8 GN $v |k 6h 'I.a. )I.!I.~I.O' ](.HL v> }  }  }  }  SU U< td V5 v! V^ 5' {I.]I.^I./I.jh.(I.,p |~.DC /~.}  &{ Q= v> oi v> Q8 K@ K@ ph._I._I.Q0 S+ ;[ zM $; %; :I.<I.[I.@9 v8 Q= A@ Q= [  [  [  [  d@ B6 ws }I.kJ 1v ,| hz 8# ~( A@ A@ ES S+ oi Q= vs |  |  |  |  |  |  D) +e +/ Do e. =v Q8 K# !( 1h >= Q~ |_ S; S; <* o> !^ Do <% 4u /^ SH (2 (2 (2 V{ E< 0k.Dt (2 s] y% d@ |  |  |  |  |  4u |I.1I.4+ {* Nu.iO 2I.3I./m 4I.5I.6I.7I.8I.on j6 M, qo }  }  }  lA Fm g~.B0.9I.0I.5F jm aI.bI.C4.7}.Gu ,f :#.Mu ri.cI.dI.wm eI.fI.gI.hI.ba uC |x.22 H: v} !> v/ Yc *G.Dw.pC _x iI.'} DY >h c .#w.y3 ie 28.T! jI.r;.T^.0l 8V kI.}b 2} F. f} _M tN p! vQ lI.Cg.Gw P) }A g3 ID mI.nI.Zx.s#.oI.~z.7_.%h u: pI.My pq.x8 Sd CC N1  } _& k} N1 -% E3 ,% aj Q~ 9- jk o] %8 kb *G e0 ",
"v> l6 !| <- 2*.6+ ~D qI.Rq %2.rI.sI.Pt.tI.bU uI.YT vI.wI.xI.yI.+M zI.AI.P/ BI.iE I[ ;; -{ v> }  }  A@ sq i, j{ _k S+ }  Q= Q= !v '; ^% Db.}z [f.35 CI.DI.EI.FI.|X GI.HI.5Z (V 4$ e!.~0 ~i jH.d7 D,.9/.wd 3k !R |  }  }  e. lE Ll ,( ,( Hw %/ Y@.{{ 2& }@ g  `].Lm 6h T'.<3.II.mg.JI.KI.J:.HK }  }  }  }  ^2.Ml 6+ U< z> Q> 4- LI.<C.MI./> NI.M; |( @& i% GD }  &{ }  oi K# =v &q w1..e .e OI.Gi.WH /7 b) dz !] K, !* PI. N P~ u_ ZS =v =v 8t <] Vp :% Bx x% I  YM 1c.eL G< gP k; R& i& Eo GD GD h, :] K# [  |  |  |  @  D) bo RI ww -k 6) 6) )v OI 9# D^ _^ Z> wl R= _^ j~ g) '{ b) K@ DH Mb gP Z= #9 w> `% dz dz `% JO y* e. L@ }  }  }  }  |  4u 0o QI.8L ya.XG RI.6@ $_ L: v6 V[ w~ SI.Xy.70 ~x v$ ]q }  }  }  e[ }z B2 s| J2.0w &f TI.UI.&w %1.%1.*l ,} H@ [0 +t VI.WI.]X XI.YI.ZI.T8.`I.m}.pI Ed E1 Zh z' 1>.IH T'.,t #l x/ w4 w4 77 3h 3h a. !: 8b v_.]f [h N;.N;.A| Rd mm ;* )~ {$ (*.%Q  J.p! vQ |8 =/.Gw Gw M5 u+ yu..J.+J.T$.c7.As db 1l Lt Q/ Ab %, h[ ;: @J.xl xl P3 hG xJ P< Cj m; U% R= .c ~] q_ K5 =).*G PE PE ",
"oi P8 !^ KA ;< {{ <2 a4 fb qD.Aq #J.e$ ;8.$J.`. %J.*~ t5 F! &# sS &J.*J.=J.-J.~# O/ I[ E' Q= }  }  }  c- T) ;J.S+ Q= }  Q= Q= h, 0# g) i~ `; [- n_ 7( B> Sy.>J.,J.yv.Yb lY UF.L= 1C #[ O0 'J.%m [n =).;u vr.)J.|  }  }  [] W> ,( ,( ~2 Hw %/ D< x_ }@ u..5C *1 8b.io Gp !J.p#.~J.As W@.TB {J.lA aN h, u> C^ %8 td U< I) 3- gh ]J.^J./J.]}.yz =F dl r+ _o #5 }  Q= Q= !( 8: '; ~^ (J._J.:J.<J.[J.Z> f} r! AN -2.AR }J.|J.+5 zG /2 t* fe.Am ;{ C^ q3 q3 jn |O ;o 3h.!] !] sk yG u* S& 0# 0# 6p -{ -{ .> b) 8# a{ Q1 BA l^ NO 1J.dz NJ ,# 5_ +} KA _^ s$ -< eN U< T< H( 4+ T< T< X  Z< l6 %| {2 2J.g} aP aP aP ^c.,M 2J.e} %| c) !4 C) [  [  K@ Vp !2 ]~.=< ^- :2 ^$ 3J.~@ W@ 4J.{%.I*.0+ 5J.6J.r0 t!.Zw lE }  }  }  *: `; %h 6j y' wD ~4.7J.8J.9J.0J.aJ.bJ.C, y8.J| ;v cJ.-t +v dJ.0z eJ. t #< wa o1 2l g3 `> $. -* +j {5 )0.:#.)0.1d.#H IH {: {: 9x .] 43 R4 ): R4 D| ): d! W| |g =+ 1h.]- `+ DR fJ.gJ.ZP hK pw x1 Cv %g `5 !> kc hJ.Y1 F%.iJ.[f V% x_ f} s(.~s Td jJ.@a./D iJ ln  s Yf nw Sf x5 N/ 9- S2 r_ K5 K5 *G Qf _p J3 ",
"v> ^i 9# e[ 1  LA L1 ^* z> D@ kJ.bI t5 WA sv.T( /@ g' N$.S$ `b a4 I[ lJ.2*.(L {{ f) ^- G' &{ }  }  }  }  }  }  }  }  }  |  oi h, Bm o> rd {^ wl N. hG O) T7 mJ.5e nJ.oJ.zE !9.pJ.5t.w@ A  {y.#C [n ./ ~'.wd *s |  }  }  7# j; v* b{ ~2 %/ 7+ G( o> NI M4 $v V4 i9 -A qJ.rJ.sJ.tJ.uJ.m(.Ng hl  > |_ !{ v: s_ N*.b4 U< d  Aq vJ.)h wJ.B).ju.xJ.yJ.A^.5~ qW #5 }  Q= d@ gE `< '{ Z>  M zJ.AJ.BJ.CJ.EQ DJ.EJ.FJ.GJ.HJ.GJ.IJ.G'.J8.|P 8L zO 8L 8L 7L J  ),.X;.|7.BN Qp.Qp.JJ.|7.KJ.J  d} !| F) `+ 4+ 4+ ^^ >| Dt ,| F< ;d.LJ.%d.%d.@q.;o XP {* %8 b4 |0 |0 *G dN dN DO DO ya./*./*.Y;.[K V< /*.J  ),.yR N4.W;.W;.Bm.Bm.3P *8 f} d0 E2 Ha |p Sz FL <P =| (% ^^ k6 x_ Oh e, MJ.NJ.OJ.PJ.QJ.RJ.SJ.TJ.UJ.b .Pf I( |  }  }  co wl `  @^ nf <: pg.%1.UI.7J.VJ.WJ.XJ.my YJ.#a.m9 Og qF xp I- ZJ.`).`J.s>.^ .Yk kf  K.]h (t E1 `$ @) @y J| Kh 7b 7b 2( 5( @) v[ ;z _: K9.bx D| I# K9.Um Q2 I| =+ 1h._& ~] 10 o#.o7.JQ .d v% N+ u3 nn D  Q@ Qs 7~.cH .K.*q #t v: g} K5 s(.vW nq c7 d7 r0 Xj  i zd *% -) 6b 1! }@ w_ mo f} &8 K5 J3 iK iK s! ",
"Q8 K@ K@ v> oi +K.!k.){ ng.7) r( c[ -* X% ht ht R~ l5 .< 3d _* G) E) &| oh.RI xw hE W> In Q= }  }  }  }  }  }  }  E1.Q= oi oi !( W} '{ NF ~{ 9{ m! p] f[ >: X3 @K.#K.$K.as T^ %K.q$ &K.WI -d t` N|.9_ K3 Bn hq |  }  }  `p =[ v| G( 5_ n~ C2 ^4 NI T= 1t y' s[ ;1.Hm qJ.*K.=K.-K.;K.>K.,K.eh VL S& 8: W> R1 =8 30 Of {$ %= X^.'K.)K.lu.!K.kl.B1 RZ ^l z:.L0.}  [  -, kE ;| KA s$ Z` ~K.BI {K.Ld.]K.^K.^K.AR AR /K.(K._K.:K.|M yR J  3y 3y yR ),.5L X;.<K.[K.:K.Rp.:K.<K.:K.%0.yR XP 1p 3y >L >L >L s1 uM 8g.}K.|K.1K.2K.3K.4K.5K.K< 5L J8.AN %0.AN 9g.,$ BN 6K.!] !] DN FR tk vi vi rk t3.rk rk @N JJ.7K.7K.:K.:K..N .N *8 1p 1p [K h:.Tp.@~ Dt Dt |v jn t: 0p +] Wv.8K.9K.0K.aK.bK.cK.r; dK.eK.e#.}>.@~ |  }  }  JO R= (= 4d %o <: :! $e.7J.fK.gK.hK.iK.jK.kK.h(.Z_.6& rW Zu lK.mK.79.~D.nK.nK.+@ NI '0 Y$ |- <= Ko Y0 jj v[ Y0 @) p[ 7b :c.W| |).jj Um K9.oK.pK.qK.rr rK.W| k7.By L) ~$ r_ %Q o#.sK.nf.$m 2# A+ ^8 40 !x z} sW tK.Gs 6z.VG (J q3 uK.30 @e vK.nq HA wK.^D LJ LJ lb ah L# M( ]s (= E' 7p Hw 2> td |4 Bj ^{ ]- ",
"Q8 v> |  }  }  D) 6).JO Mb t* %s r8 E@ rG fT g1 B' <' %h r$ s$ dz X> xK.zB.<% |  v> [  v> }  }  }  }  }  }  }  }  }  |  Q= Q8 TL SU ;{ uk 4_ mo /'  K ]p m! (& !- yK.zK.AK.BK.CK.DK.@[ DL JA mz wO 9_ +x O$.-r Q= }  }  &q j; b{ 5_ 5_ 8) 8) &: (= -2 u( 3C ^: E| Lh Aw.EK.FK.GK.HK.IK.JK.hP kP }] a  hE ,< _M 10 %8 {$ %= A7 OX KK.LK.MK.NK.N& OK.Ps.9i.zu &{ Q= Q8 In -{ Am fZ H(.fl.Z` (L X7.|M PK.Rp.QK.RK.SK.Rp.4g.BN |7.rk tk oK oK }P oK FR rk |7.|7.pe.Z|.pe.Z|.<K.X;.J8.FR }P rk rk !] sk TK.|c.oe oe UK.$d.Kd.VK.4K.+d.t{.!] KJ.FR tQ tQ |7.JJ.kf.WK.DN DN sk AH wi BH am vi yg rk DN 6K.6K.7K.7K.QK.QK.QK.JJ.|7.wN wN -o $; pe .  ,| *_ 8# Bm  q p(.XK.YK.ZK.`K. L..L.+L.@L.]F.#L.$L.lI.*G I( |  }  }  p/ j~ 36 Wk n3 cX 8V AF %L.-a.WJ.&L.*L.=L.-L.D:.;L.Y[ >^ >L.,L.'L.TS TS pr dJ ); 1] /* 2] p~.rW Lj ;z  g .g Q2 $^ p[ xj xj )L.Q2 6J Oi &*.d! d! rr Hf Hf )L.!L.t[ +[ R7 1# {* Kn.[K.Pj y> A5 y} .p U7 Q; }-  n j1 u( nj >d a) #/ Nh.X;.@e an z5.~L.{L.uq v% b- I' wJ A/ }= %o E[ T; u| 8p +c O8 `^ Cm.y; Q+ ",
"-[ v> |  }  |  `L E) JO ww D< @. jf =1 IG CS k' fl R9 E. y_ /- >< AL ]L.l^ 4u <% v> v> }  }  }  }  }  }  }  }  }  VR |  -[ ZS u> SU _= '; '( /' f0 B@.^L.nq /L.(L._L.:L.[> y^ <+ <L.0- S} dt.Jl hK 4C t:.-u #~ [  }  }  `p :k b{ D< D< G( F( (= S= gl a# 3C =5 i9 -5 [L.}L.|L.1L.2L.3L.4L.eh ty _= :f q3 AH _M WM %8 F. M[ /y 28.5L.6L.7L.8L.9L.0L.aL.bL.cL.JS JS xH.dL.eL.fL.gL.hL.iL.jL.kL.&j |_ KA 5_ SI 5_ $/ 5_ G( n~ 7) fZ fZ ~^ ~^ *D Z   > Z  &/ &/ 4_ d} F) F) X  X  9M 4_ ^^ KA 5_ LA u* x* ww xw oh.#9 =| dP lL.mL.nL.{2 LA SI 5_ SI SI e} s_ e} aP u$ ,( u$ ,( LA !{ 7) hw fZ 8) G( $/ G) Cz Y@./*.O4.7L 7L d}  @  @ &/ B) `< )C A^ qI -v oL.pL.qL.rL.sL.tL.uL.vL.wL.xL.yL.zL.$F.AL.BL.K5 !R |  }  }  *: j~  . @t pF B: og.CL.DL.EL.FL.GL.HL.:^.=L.9(.3(.t8 >^ #<.IL.JL.p2.KL.LL.G_ )L .B Vh g  (|.;^ '..=b bD 43 5b 0w '7 =l >d.W| Um d! K9.6C 6C Hf ML.6C :d.NL.Io {: Nh V; {^ o] hs 9g.zK l} D_ E1 :8 Da Q; Z$ G, Uc Yu `k B2 VB V2 OL.7L S2 Tu yq PL.1f nn M5 j-.U5.GG Kh ;1.F9 QL. < 5* V0 My m; ~< 5{ y; h% ",
"}  |  L@ 'O RL.^G.e} 7M oh.,D [- >2 8~ |( M; SL.j' <g `> V| v$ 7L *| lL.TL.NO (O +C ~4 K# }  }  }  }  }  }  }  }  }  }  Q= =v Bm W{.fZ W{.`+ .d `h S1 24 vq lh.I].t% UL.yK.e6 CK.K8 qw.zS =a yI jK Pf me -u #~ [  }  }  [] r1 ,# 5_ '{ uk Z  S= 5# pp 1- 3C 2z `].3d.7b :c C, VL.WL.>s.{D.[* TO rI -{ QM BH ,$ %Q '$ y> XL.%' ^n YL.ZL.`L. M..M.S .+M.~~.@M.#M.;:.$M.%M.&M.*M.=M.-M.;M.>M.,M.'M.wU +w @d T'.R4 WW ed )M.I2 C| l[ U4 K2 C5 j5 WY Ho v9.B| 4( U9 ib.n[ -^ cq %< Q..H/ p6 !M.Bd C+ |g #v hA -l 2( t8 1( 33.vg.~M.Di ~5 B* 0$ M$ pY A: m' qd E] :K U| :K |b F] 03 Tf ur K9.6m ed H+ 04 c1 ke m^.{M.{M.bI V5.#2.nb e! j[ Ko 03 q[ Kj Rd RD.]M.^M./M.(M._M.:M.<M.[M.}M.|M.1M.|8.2M.3M.#-.sd W> |  }  }  *: j~ `: ,) y' Gf /z nA Dy j1.XJ.j7.y1 GG ^x |d 09 =7 S'.5> 4M.R{ j2.O_.5M.Nr 6M.x: cw R8.ZW 7M.a[ =z YC rH m;.iJ.Ge gD.RM W| Z4 d! 6J Hf Hf 9+ )t m;.*).iJ.4|.}w 8M._b NM #8 '$ GQ Ml }+ */.T=.L( [8 [8 I1  ^ oI 1x xh &h #L k}.9M.^*.<- N~ N~ >u D9 M5 x5 N* 5& 6d 0M.>d.aM.bM.cM.`a.Cc y5 2] A5 {# I1 >% ",
"}  [  Tp b  7M m|.g} QM !k.H( z_  - BJ (1 dM.eM.fM.x@ 2} h% ~x  / ya.gM.va.db.hM.y0.7L hE Q= }  }  }  }  }  }  }  VR v> v> I_ o> V| [- *< <& i^.iM.Pl -I.Zd _i jM.{].kM.&B `n lM.mM.0- nM.]' !p FJ -u ]].4C hq [  |  }  `p z* i; i; 4_ D< r$ C@ v+ u+ E1 Bc Gx )0 lc.$v h  b# Fk oM.Y,.j3.6M.VO /b 7) pN rk =8 YP Pj A) R% pM.0l 8%.qM.rM.sM.m| tM.wW uM.vM.wM.ZH.;E.xM.yM.zM.AM.BM.CM.DM.EM.FM.GM.HM.IM.JM.Ll.`/ KM. ( LM.-'.MM.dj.NM.OM.Kl.PM.D=.QM.RM.SM.TM.UM.UM.VM.WM.XM.`) YM.JB.}#.Dd.ZM.`M. N..N.(U (=.jv.-u.k5.h( +%.Vr Gz.*> @U jU +N.@N.b#.]*.Ks.ij 1' >y.i! Ny.+Z #N.$N.%N.&N.*N.P].T&.=N.X. ;u.-N.;N.>N.,N.U*.'N.M} QW Wo jI.2m.N! o6.)N.!N.~N.{N.]N.^N./N.(N._N.El.:N.<N.[N.}N.3M.#-.r_ !R |  }  }  *{ U% aj g>.$o 6& 12 y8.Tz dE |N.1N.2N._|.%* Ho ;z G7 kA I2.3N.4N.5N.6N.k6.@t yu cT nx H2.Bk 3B 4B t2 B4 JI 't bD -f c!  g fc.@1 Eb.fc.fc.d! l[ $l qH NH B4.y5.Bp Hs Yh 7N.2*.'$ |L Fd x+ ]= d= :8 R) -1 GF <' $s 6} 8N.&L  G.9N.0N.=M ~| g& x5 5g D9 f{ >/ I' 5& #c v[ v].Xr.3d.aN.Yx PH OH Z$ (t G[ [g A5 ",
"}  DH b  JO N@ QM 2J.Xc.N@ '1.B9 xg.A' _w.Oq bN.cN.Q7 UC v+ le 5M dN.eN.fN.gN.hN.iN.jN.e} Q= }  }  }  }  }  }  }  }  }  }  Q0 9M O@ gb D3 /- Yj mz =C rE /i +g.kN.GI.x}.lN.mN.!- !e.1b /4 N8 } .]* {O xL 9_ *s v> |  }  `p `< i; d} ^^ =< 0) R< nN.J/ '0.z' Ed l5 4f  d t( Vx $$ bT j>.6M.x: eh vh <z 5_ FR GQ _M {* W  {= s/.SA `C oN.}  }  pN.-f qN.N,.rN.qC r7.sN.tN.uN.vN.wN.xN.yN.zN.AN.BN.CN.DN.EN.FN.GN.O+.HN.IN.^Y JN.KN.LN.MN.NN.ON.PN.QN.RN.SN.TN.UN.VN.WN.XN.YN.ZN.`N. O..O.+O.@O.Y6.#O.$O.%O.&O.*O.=O.-O.;O.>O.,O.'O.t~ 95.)O.fW Bj.gW !O.~O.]U !~.P/.>G.{O.nA.]O.^O.(7./O.(O._O.:O.<O.[O.}O.|O.1O.1O.}O.2O.3O.4O.5O.6O.7O.:v.KB.8O.9O.xG.0O.aO.bO.cO.dO.JS eO.fO.gO.&8.c( hO.iO.jO.is  K !R |  }  }  Bm OF ]] 3} <' 0D X4 p9.:u ;] zF Gu 0b.kO.lO.mO.t[.nO.y2 oO.7&.M>.n1.N>.v..1K xB _{.cF $< >F.pO.qO.u1.J4.rO.sO.dd tO.%*.CL.eB /x uO.uO.Z4 fc.Hf B4.*w &f {t ex vO.wO.G5 xO.6P YL :M e0 -) Q. Z[ V7 50 >8 <t X+ +^ ,2 yO.<q Gi.k}.9M.zO.wl J) <t e{ Cg.50 x; ah QH vD By E| q[ AO.BO.BO.wJ N* >% Y{ CO.N/ <t ",
"|  wK 8M #/ dz QM EO bP )O u0.0M Ym -0 cN..{ g= pJ.,~ 3& m] Eh DO.EO.FO.GO.HO.IO.JO.KO.>< [  }  }  }  }  }  }  }  }  }  }  [% o> */ wf.9M S2 uq Fw rE &f.W3 ^^.LO.4$ (D.MO.NO.OO.>J.qw.rH.PO.tK $m -u 1r.~'.lE v> |  }  TH 7p d} F) (*.G) X  le @!.&<.%2.tH -* l5 {# u! -{ k; e[ U{ T; #t x: #$ ,2 1] 4_ YL 10 ZP &8 O8 w@ s/.SA rf x..}  }  QO.'..*z RO.SO.QD TO.V_ Px.UO.VO.WO.XO.YO.ZO.`O. P..P.+P.@P.#P.$P.%P.&P.*P.=P.-P.;P.KN.>P.,P.'P.)P.)P.!P.~P.{P.]P.^P./P.(P._P.:P.<P.[P.}P.a; )$.Sn.|P.!l.1P.2P.3P.4P./W 5P.x!./-.6P.}U 7P.)O.8P.Bj.==.>h.9P.@( 0P./< ]U n@ aP.TE Kj.,D.bP.!..cP.dP.eP.*K fP.gP.hP.hP.iP.[O.jP.kP.lP.c=.a] w6.mP.nP.oP.pP.qP.rP.sP.tP.uP.}  Q= 3d vP.wP.0= ~& xP.yP.Oj r_ *s @  }  }  ng.@. {s aj g  @@ )7 Aa zP.6J -!.{M AP.BP.CP.DP.EP.FP.GP.HP.IP.JP.KP.LP.kx cT MP. H.NP.t[.}'.OP.PP.QP.RP.]M sO.9! od P:.oK.17.wD wD j1.uO.eB J9.6C C: *l e].'n.SP.TP.[q g) hb UP.VP.x|.mn WP.Il XP.PL.5g >u ,3 V0 5: h, h, ^i P1 YP.ZP.v_ *7 1! pw `P.zd 50 f{ ah OH OH H| H|  Q..Q.Fj OH z5 6i rY C[ `A K) ",
"|  RL.zm ng.!k.)1.,%.+Q.+Q. M 2j cN v' @Q.tO P% #Q.$Q.j, q= GJ *Q 1P %Q.&Q.*Q.fN.=Q.-Q.s_ v> }  }  }  }  }  }  }  }  &{ &{ w1.g) Fl i~ _^ S2 *d Fw Jl W3 ;Q.;s 4v >Q.,Q.;p.%# 4a.,z.J] rH.PO.'Q.M. -u 1r.9_ I( <% |  }  u_ Hw f} (*.r! ^^ zO )Q.!Q.~Q.LF.D!.FI ch Rq #8 Z= E} zB.C< +@ SL {K 3I A4.Wk x_ 1P zK WM &8 2& |( {Q.0V Od ]Q.&{ &{ ^Q.e~ at B!.9. (/ /Q.(Q._Q.:Q.<Q.[Q.}Q.|Q.1Q.2Q.3Q.4Q.5Q.6Q.ok.7Q.8Q.8Q.9Q.0Q.}P.aQ.bQ.cQ.dQ.eQ.fQ.gQ.hQ.iQ.jQ.b..kQ.lQ.mQ.9A.nQ.oQ.pQ.qQ.rQ.sQ.Sh.tQ.uQ.vQ.wQ.xQ.yQ.zQ.AQ.G$.BQ.j( CQ.DQ.EQ.7P.~o.w:.FQ.GQ.:j HQ.:F.%C.kE.IQ.`3.lk.JQ.KQ.LQ.RX MQ.NQ.OQ.PQ.QQ.RQ.SQ.TQ.UQ.VQ.WQ.XQ.YQ.7 .G$.ZQ./u.`Q.z). R..R.+R.@R.Lr.}  L@ 7L #R.JE 1= C].$R.%6 Oj sd (% @  }  }  zm f) aj E( s8 V4 By ]: RM !: q2 %R.&R.*R.=R.-R.;R.>R.HH.k4.I- Jg M>.,R.,R.=~.** 'R.w2 )R.!R.~R.{R.8F.]R.mc [h od Qd &,.qK.:1 ly ly ly j1.j1./x ^R.6C &f 2^./R.xG (R._R.A< |P _M u).Pj !s `j |n :R.Cg.Qa.,s =A :* D'.G' uI a  C< <R.[R.Z> t/ w$ nn `P.M9 vq  s wb N) W2.V9.}R.}R.}R.W0 z+ vI |R.0v S2 y> xJ ",
"<% VF.RI zm k~ )O 1R.=M =M r3.`G NM 0d  F.l] Xj.g% ]h $~ I[ 6+ '%.2R.M4.3R.4R.4R.3R.5R.q3 }  }  }  }  }  }  }  }  GD eJ rj 7f Gg  6 ad V|    Cw ZG W3 6R.!w.7R.8R.6J.9R.0R.4a.2m (D.J] /4 aR.bR.M. -u 1r.O$.I( @  |  }  u_ v* q_ r! r! 6_ (*.-Q cR.vv 3  if VH 9w V; `G oh.E} t= sy %$ 6z.or oN._z }* X+  / jb hs K5 :& .K ^[.lw.f~.3d.dR.@t =P SL Ki *g 0D d' w;.n!.y$ ~F.[w ;E dc 9r Nk eR.fR.gR.yd.hR.|*._U )b X. (v.iR.kh jR.i* i* kR.lR.Q! %C.mR.di.OX nR.oR.ok pR.(0 qR.rR.sR.Q' N' tR.nW ]*.;F uR.vR.wR.cF.!1 xR.W(.bI Bd yR.zR.S3.'f AR.|G BR.mX u'.)6 0t Nf.Vc .0 Vc 0t C'.CR.@N.!1 q; ,a b: `=.>a ]).[r.< .AE l..v;.DR.^( 4; '> RT 6u.!(.*~.ER.FR.GR.tG.T+ Vp F< YL HR.:P |3.IR.JR.iJ -u p] :k |  }  }  xw D3 ^| }p %o 5! 6! H2 L:.Ku KR.LR.MR.NR.*o.OR.PR.Ag.Z,.g  Og c(.QR.io Ee [l $< gc <r RR.SR.TR.UR.Xy VR.Ju I# F/ )M._: EF 12 1g kw.1g 12 wD cX ^R.TG WR.NA.R6 XR.YR.ZR.Eu.4P AN u).3k 5g `R.yl !s Qa.1f ~L.pw L+ q].-: m7 8:.^4 SI #8 M, 0& H' %g  S.^D ln Qa.}1..S..S.wb i0 i0 +S.9h ,/ ,/ N5 V  ]* Xf #m ",
"}  |  @S.{[.N@ pN 1R.,%.#S.$S.1R.c  ,D Z> iE iE O/ B< !| LA jn yJ %S.&S.*S.=S.-S.4K.s3.]~.}  }  }  }  }  }  }  }  O| :f rI s( Dj ($ q: a4 LJ Dw bn 'o.;S./& >S.%'..o ;p.WG.RI.RI.yM Ul C] *# HJ    O$.M< {O ]e |  |  }  Q1 ,( =; CO =; 4M V< 0m GJ s> D!.J:.&7 I~.'^ ,S.b  t= t= PL C2 (b kx dT >* _b d  *G )Q `P 30 jk Ev 7& v3.&:.zb.Zb C  lA v> q8 z0 U% y+ y+ [4 m6 |5 G3 N+ c{ M  ;* S@ +j 03 of Vm W5.[3 '_.-_ |3 Dn.'S.)S.M7 R~ C+ )> id qd !~ @@ }b H[ if [| Wm 3f !S.~S.Ky.S$ b1 G] ':  Z 3C `r.X].w#.;r z. D. a  Tp a  9p ZY M4  < Fx oU {S.q@.*u t( 1K mx 6* Ir $b @^ $v -i 51 A: x} w; A' kJ.A} Da Da z! 6z w< w< >4 H] yd x; Q; m] 2w  F.17 ;D.2h ZS +C PI.L/ G'.]S.W<.^S./S.(S.qE -u k6 :k |  |  }  ym -< U% 1t E_.:c |~ 5n _S.A4 :S.<S.[S.}S.|S.1S.2S.3S.j3 (t 6r @q 4S.ho 5S..].+].6S.8l.7S.8S.9S.i2 0S.YC 43 @y eI _: 0M.M$.*o 1g ly ly GG *o H/ @1 aS./o bS.@R.cS.dS.eS.fS.:- AN tQ @B &d Vd :R.PL.1f  s Qa.+g 50 +g *% T7 ]8 %, Q~ O/ <t Ta z5 *%  i Wj .~ ,C W8.oq f[ .y gS.hS.1A @z ,3 L+  } |4 AK tq @6 ",
"|  }  v> iS.AO c  1R.=M jS.jS.Y:.Y@.O4.7L HO 7_  / hb r! ]2 jJ '< kS.lS.mS.nS.oS.pS.4K.P~ }  }  }  }  }  }  }  Q= 1h Sq :f uh yB Dj 4# j6 Th qS.DA ~~ ct.0X rS.sS.gQ 6{.tS.}X uS.B> Z[ |z !x [4 Nf z) ]* 2p >m |  |  }  u_ ,( ~] {* YL /*.Cz X  OF _J Fc vS.wS.dF  A xS.7<.yS.b  hE S; nj zS.3>.n3 rb kk b4 AS.`P wd S2 L) R~.U{.BS.CS.uS I1 2K A@ A@ _I.Bm D^ /2 Hw >| [K 3y =; =$ k6 L1 <& y_ :* _* r/ 5p {$ {$ R< )5 {$ ^* gb .[ @. {^ iB >= w_ F( !^ n~ 8) n~ G( G( v_ DS.ES.!a.aX Ag 7) S& rI GD I_ DS ;[ ~( oi v> |  |  |  v> oi Q= Q= Q= Q= Q= oi oi oi ~( Q8 Q8 Zp K# r:.`}.N/ j^ ]s 5# Y+ C@ Y+ (* v! v! G. m! <& ~8 U> ;= jk t: 9{ `+ 6+ 5P wp @  |  |  I  FS..5 GS.~y.mD.HS.IS.|1.Xj NQ *G w* @  |  }  W{ =$ _* g>.>* Y' G9.{f z4 1_.JS.KS.LS.MS.NS.N_ gB Fr lk +> V2.Xa OS.-5 7z.PS.QS.RS.SS.TS.3[ US.)o VS.WS.I| K| w} M$.M$.XS.YS.v@.#a.YJ.ly T;.e! qK.!t )t j| /3.cS.ZS.`S. T..T.}L #Q `'.Qa.Ql Gd +T.`P.@T.@T.:R.`f @i pt 80 ~0 Gw O, M, y+ N+ x5  s .~ Xj `a -).Ez #T.$T.U0 %T.&T.*T.=T.IC Y{ (* u` -u t:.Bv ",
"}  }  |  -T.;T.VD.Y@.[R.+Q.2J.^*.,%.u3.aP oK *8 dN dN =; L5 ,< '< >T.,T.'T.)T.!T.~T.{T.ao }  }  }  }  }  }  }  Q= 8p >= V2 3/.ad ]T.^T./T./{ HJ ,y -= I{.f6 (T._T.:T.I].bs.4v <T.[T.q: 4# 4{ ]- <& {8 I3 G. >m v> }  }  e. ,( =; DO =; Cz EO aX 36 .v nO.}T.]A |T.ZC.1T.l}.2T.3_ /% ~^ Zk dw ;t xh Dc u! 8_ {r.(M hs O4 1h.M8.|F ^1 |2  6 *[ ~( A@ v> ZS =: @5 Dt I( -| xi MA 1p [K t$ V< t$ ^^ i; ,# t: F) o] Ml %8 eN o] hb Y> F) ,D =< 5_ v* LA Hw D^ Z< Z< r1 Z< k~ SI ;M ,%.EO $/ SI ){ -{ (J a  /7 !m l{ ;[ -, [  |  |  }  }  Q= Q= S+ Q= [  Q= Q= Q= A@ A@ ~( S+ Q8 -[ S+ kr i{ D' Q~ p> x_ Z> ~{ 1# .c .c `J g[ p] jk `4 jk `+ i; x| K( Y> =; #~ H  |  |  >) 3T.se.nN ~O V+ SJ.E$ fl S1 vd Oj #~ @  |  }  +C 4+ i{ gl E_.c1 n. z4 C4 mZ JS.4T.y|.5T.6T.0}.8A uw 4E if E_.rN 7T.vr yy @].8T.9T.0T.7Q Ce aT.Hs =q WF.t+ Z5 1h.kw.&] dE j1.v@.#a.#a.v@.+s j[ Z4 C, 9+ 'E ,o bT.cT.dT.xO.eT..N uN `'.O3 $g fT.uq `P.@T.mn ot ot Zf on Qj -= A* S2 A) g& x5 N~ -).q0 N3 .d r].-: pI.V0 )/ `e PA.O_.*q T{ 0p <* s$ 7L YL dN ",
"|  }  4u ^G.g} EO Y@.[R.[R.[R.EO EO Cz AJ L5 vi rk n! vi r! Hl r3 8g.{a gT.hT.iT.~T.jT.4u }  }  }  }  }  }  }  Q8  @ ~8 }@ E. kT.lT.mT.;_ ,p qp.B} -) o;.nT.oT.pT.qT.rT.sT.tT.dt.uT.H$.Q; nw k} C9 V> H{.G. qq v> }  }  7# ,( N*.3y r! 6_ =< r8 Ct xp vT.wT.xT.mF.yT.uG -j zT.AT.uk U; D} 4t 4t BM ew OF EO.S!.`P wd O4 :^ 6!.BT.6& &0 W2 }] 1{.&q P|.yO B@ 1  #/ (% 5K s_ G) ^^ K( F) f} t: d} Q/ f} eN 6+ 0m 0m {O GR GR 9P Of eN {{ H( ;< X  !| 4_ 4_ KA =< 5_ 5_ 5_ ^^ ]L Y:.$/ LA k~ Z< r1 r1 hE _] sq 9# C. F' QI -[ oi ~( =v l{ :] =v ~( K# K# :] K# =v &q ^q !v TH !( T/ '; ]| /* (* u! 2& V5 T> Fd /- L1 [& [& <& u` u` m! S< 5+ 5+ e0 Of *G r= Bx d@ !< PO 6K.f<./*.2j +H CT.w-.,u q].|8 Oj ;| [  |  }  ~4 .} }@ Z)..^.:: ~v {M oc 4[ br DT.ET.Q7.FT.cD p2 &C.5  Tf Va GT.HT.WS.Bw.IT.JT.KT.LT.MT.Bp Fi B>.dR.,0.W7 26 L) L7 wD N8.N8.}F #a.#[ >*.M= <| F| Mh )0.V6 w4 .L :a _J ,D wi +5 |: n0 M9 NT.ot !s +g OT.Sl vb nw Zf @i ~0 x5 PT.QT.Gw M5 ~< O. Db RT.ST.[n +p 0& (D Z{ J_.TT.V2.~w @$ *q $j s( r$ u$ 0P 1p ",
"<] Q1 cJ =| pN ;M pN )O pN [R.[R.QM e} e} aP [P am c@ ,< r_ Fd r_ XP AN G'.&S.)T.UT.I  }  }  }  }  }  }  }  }  -, +} V| 2  Q. VT.Gh.WT.XT.YT.s' UC s> &<.ZT.`T. U..U.+U.Nb Wn.Yy.ng `^ _& E9 /] Fd =$ q] 8- FN |  }  }  e. s_ 3y oK V< G) _^ e< K4 b[ @U.#U.$U.w<.%U.&U.&k.*U.=U..C fO [! .f A2 -j z< iE EO.7r.{r.hs h_.-1 '{.A8 ~5 mx TO 7) v_ o> aX ^% Z; /* .[ Nf Nf x> K1 ># N. 6{ K1 N. y> /] N. M. o_ XH G^ XG XG |4 XH XH N< JR _c -U.]{ ]{ de.6{ )!.6{ )!.N. t! ;; Mh.2*.2*.T> E^ $8 J5 O/ I[ Z+  } r: n] z_ ;; B< j~ R= D3 k~.k~.@. wl B< D3 u! f) rd rd rd f) f) {{ {{ O/  & ]{ 6{ O@ K1 ^* K1 N. b@ b@ =% k} Cj xJ xJ sz k} o_ Xf }8 Mr.]* td >< ]2 LO 5P 5M *Q WG Qh _(.;U.>U.I' XL 6y jb -/.H  |  }  Tp '{ T= w..9I.~t Jf VR.9[ p3.b2.,U.'U.4[ )U.X6 m).9z SE.YF.!U.~U.]o jm {U.]U.^U.OB./U.R6 $<.xB (U.4} <t t' rt 3n Dv _U.j7.:U.I9.5p.6v 0q _}.${ G[ *H.OE u( ,) Zk *D aX m|.<U.[U.yL *m -).LJ vq >u lb Hd Vl (8 2# 2# K) M5 }A :* Ab V> lb U7  } B@.}U.j .B@.>u ~m m> Bo :b ro pF &D rD.`u 6} eZ BO &| PM ]2 ",
"*: B@ uE C^ NJ k~ %/ AO ){ AO 3_ k~ NJ )O Y@./*.V< ;| (' [& L+ N1    )o.OQ |U.1U.2U.@  }  }  }  }  }  }  }  [  [  G' ]^ Da vE 3U.4U.I; 5U.6U.9& ;( qd o^ WG.7U.8U.9U.0U.;s Jl $C xJ V> [& ~N E2 ~4 mP mP S) c- |  |  }  <] !R W< ,< s1 >< '1.wo z' Wa aU.N:.Tw.^1.bU.cU.rl.q[.|] VB B2 ct nj -j I7 9) iE Gl 7r.S!.hs ^e u3 C] &2 I' W2 6p {{ de.(K dU.(K *<.xK y) KF 1+ cI cI KF Uu eU.Uu Uu g_.@o LI Uh @o Sj I^ 7k.7k.#M ae ae 7k.HN HN cI fU.fU.!a !a !a gU.cI 1O eT t! {{ 5P 3+ 37 wv Q< 34 JR =% 7).lS hU.[ .iS O9 iU.we 2c `8 jU.kU.3J 7).we !a cI cI lU.lU.1O mU.HN nU.oU.Eh !a IF pU.pE le GJ Sa &% pg @o xq xq Uu Uu Th =r =r =r =r oE ik tq /B PR Zw -; M. qU.KR rU.)!.}T 3  lk [@ 9P |8 zK v[.!E @  }  TH 2_ nj 9F.sU.NU na.J}.F4.n .tU.uU.Ty fa dK vU.er Ip Qg wU.xU.yU.zU.AU.BU.R=.CU.DU.EU.FU.4M.{D.w: '= ~< 26 0q S% #a.1g GU.:U.`~.Uq 76 =c }~.C  {s 8:.h1 u> Q8 -[ u_ fP HU.IU.$q .  JU.K/ mn [4 L+ -= 25 rn ($ I1 2] $~ $~ N/ My L| K/ mn Hd 50 KU.LU.;u B@.!s *n @& E] f~ ro Dd -q @L MU.6} gw V2 oh.u* =| ",
"9M H( ~| <- t: 4_ !| FM FM D< uk G( '{ =< G) 7L 3y ,( x| M, ~< B[ =% NU.OU.PU.QU.@  |  }  }  }  }  }  }  }  |  |  In ;M nH RU.SU.TU.UU.VU.WU.TG.[3 xs &K.*r XU.YU.ZU.`U.yI Rj wI ]* {8 {] I3 >< '# |  Q= }  oi }  }  }  -, Y< zI vz -o r= wl Rq g~ F, y( Az.}{.@y. V..V.{k.NS q8 <q nj +^ %j .l Wf.-M 9K +V.AS.DJ.jb n0 ~8 y+ b- N,  @ ^^ xa.@V.#V.4Z 4Z J[ bc 3J YG 0e 0e /{ hk IF IF Uh IF oU.IF @o [X Uh I^ I^ 7k.$V.$V.%V.%V.%V.%V.$V.nU.nU.&V.pU.@o oU.nU.lU.*V.=V.^- ^^ 6_ 5P ~O NR rK rK N. )$ -V.;V.9e 'Q.sK /V cI >V.Eh >V.,V.'V.,V.nE oU.mU.)V.)V.!V.~V.{V.~V.~V.)V.]V.HN $V.oU.[X ^V.-V.4Z Bj g7 LI IF g_.Uu /{ Uu g_.@o @o &% Sa Sa 2+ /B %R 3c 3c )o.)$ `= /V.(V.~O J5 O8 ]^ ;;  / Qf kb *8 OO @  |  7# `} _V.:V.#H.Lc B5.{M b(.76.S5.<V.:x .A Pg 8b w_.m< vC ^o.[V.}V.|V.1V.2V.~R.3V.4V.5V.6V.7V.<Z a# 8V.%[ pi |2 ;( 9V.aE Cy ){.+s id ;/ qt >4 >( >; =$ i; '| |  @  !E LJ.IU.1U.3L 0V.^2 r].vq =% k} T7 25 oS 4{ *$ aj )^ 3} 3} :* -g aV.Eb )y uq bV.TM cV.dV.vq (v HG Y; >p S'.~F UH ^ .eV.8N.*L fV.JO 7M q3 ",
"xq Uu eU.pg  b xJ m6 _c R< O@ z_ z_ 6{ /- ^^ 7L Of sd jk _& 6z Q; %g gV.hV.t{.[M m~ |  }  }  }  }  }  v> Q= :% fE l6 +} |+ iV.Yb jV.kV.lV.)(.mV.^y Y' nV.<L.oV.0U.pV.Dm.g_.Th i^.{p <& H3 .d x| '# v> S+ S+ c- }  }  }  Zp (% #~ vz s1 MA ,; )= 2} so )0.qV.ol rV.TE.sV.y2 q8 }  i& nj r( +^ :z 7N.tV.2*.'$ ZP }L  Q K5 %8 S< [& V5 eN o] ,Q PR uV.hG.KR 3p GJ qI.Sa ik eT aM P< P< XG 2+ ik Sa vV.be be wV.dn xV.&N YQ Sj &N &N ^V.yV.zV.be XG =Q XH XH XH be oE ^V.]* `+ LA LA `+ L1 3+ /- /- v$ 7{ o_ 1+ AV.1O ae pE aM BV.~D ~D =Q zV.=V.NU.qU.qU.*r.CV.DV.EV.FV.EV.EV.zV.DV.=Q =V.XG =Q N< KR rU.`= )$ 34 N< P< JF JF j6 j6 P< xJ Xf }8 )o.-; Zw -u _p 8P Uj s! s! s! F^ $8 E^ V5 6+ /- |0 30 kb N*.0k.!< DH k*.`} k4.u= GV.l[ ^) HV.IV.JV.tJ -t.,h NH 4( A, <h KV.LV.MV.b2.NV.OV.PV.IT.QV.QV.RV.SV.TV.fK 77 Gm G9 sr ,r !8 ^1 dl UV.VV.T{.z:.3! ]= HG *n 3# -# :& =$ zM '# )| WV.@q.YM zL CH kK K( r]. s b@ k} lb DA P; #z D'  . S; <* X} >; M1 XV.oc./D xl gK YV.BL.vY #m -) f,.46 mf Y% Yh .< .f ^H.ZV.*U.i=.pN Y:.,D ",
"z; `V.S> N; n_ ,y KF Cm.Y^ nH nH wg  W.K1 v: g} {O A) N/ P. W+ R9 nw .W..T.Nh.{E D) e. :] l{ >, WR WR ;P C. v| f} I, `< ;1 )% YT.+W.CT.@W.#W.@W.$W.2; %W.v) &W.*W.=W.rE {x `h Kl ]* 7{ wO hK V< L@ }  |  Q= Q8 }  }  }  e. -| /2 vz AJ :2 ]^ 15 P+ i[ -* 0j 2( ;p I` -W.MP.&{ }  q8 t| )^ T= A< `; Mh.E^ 7_ ),.AN dN {* '$ sd 5+ T< o] eN 9P Od.Uj (,.8P p_ O@ {$ <2 C9 $m <2 C9 C9 $m b@ }8 C9 b@ b@ o_ 34 }8 Xf |4 XH P< JF JF XG P< XH Xf $m M. )$ )$ rK )$ rK rK 6+ ^^ `< >| >< !| X  .} t: ;< =$ ^- <& V> /] N. K1 y> L  ~O ~O -; x> L, 0m U< T< U< IO  / 7P GO GO xa.GO GO IO U< U<  / U< 2*.E^ J5 /- {8 0m Nf {8 Nf Nf Nf 0m 0m GR 3+ td Fd o] o] o] o] o] 5+ eN eN U< U< ^- k6 U< 6+  / td &8 Hl FL eC.JO B@ `} RL oO..j nb G9.=o {v NH ;W.DF Ur 2( 7b ]: U2.8E +2.>W.,W.'W.)W.TY UY .h !W.~W.Py {} Hk ,f ca {W.{W.Io Z4 @j D+ Q1.T1.]W.:> y@ ]= Z[ Q. >( `A u! {{ LA (% uM tk wi O~ @  /t E} )( ;1 /' T< ,; N, E,.Cm.F. Z}  . S; (= {^ {y SG.W8.^W.aV.}: ST.Rh -u 8{ y> J) ^= X= C6 p/.ew  f &L /W.)F.0|.H(.Mh.x> K1 ",
"90 :^ |z 5f 4{ w+ 5{ %% 15 )% lk {# (W.d  `} uk 5{ 1h.03 F, #H Y0 _W.:W.,%.f2.F).B. aN A. R+ H_ /b P| qI 7) s$ @e ~] 0{ In 1] CM 9u.k8.+_ ]).]).4+.<W.U~ [W.<!.6y.}W.Dm.!s `h V3 hG /] b@ gN Dz @/ |  [  [  Q8 }  |  }  s] RH ]2 Nh.oK eN ;; #z ($ L# zq n3 zt 89 &9 (a MP.&{ }  q8  q aj  d R= %L iE @M hb r= 0P ^2 [K _' K( mo d} F) (*.~] hb 7_ 7_ T< =$ 9- ~{ 9- q] .c 1# 1# 1# .c sd `J S2 S2 .c sd ~| ^- V5 T> W  [& /- /- /- 0m L1 Fd k6 U< eN sd sd sd =$ 9{ E2 `< j; :k )C v| 7+ D2 v| B) v* +} l1.Q/ Q/ Y  Q/ Q/ _^ !| !| s$ `+ `+ K( 5_ b{ 5_ ~2 $/ b{ b{ LA LA NJ NJ D^ NJ NJ NJ NJ Hw NJ LA LA G) i;  @ K( _' _' d} mo mo mo MA t$ x| x| K( 5_ +} |# +} ,# i; KA  @ 4_ !| Q/ =$ Ml |0 K5 L].-| dz pN G( ~^ n/ |W.b9 ht U5 1W.B8 dE N8.2W.p].*/.O2 Ij H+ 3W.Ct.Es Tw.4W.Mx ^A.%* Ls 7M.Lg 5h o[ ): 5S.>h 1r  w Ye.=l jd +) Pp.U{.%B b' B* W* i) es >( -# H( eN 4+ ~] CO  / tk mK @  |  }  oi &q Do B. -k x_ R< B[ ;% kk kk ,* kk kk s: U<.6d.N).g|.}: vY K3 wO K1 O@ C@ CG PG PG Wx  d .l Du.,O JH.5W.QL 6W.7W.v+ ",
"_  X* 3{ B! S} WI 8W.9W.0W.J/ != aW.v' ad )D.eZ U/ a<.a! bW.5A V3.[,.Eu.8<.cW.k~ >= .. kk X+ }+ Rq Rq 2  Q+ <2 -; U< `% c) R& r( =a.dW.}C eW.Y^.l..fW.gW.|C hW.iW.jW.yq.`a Kl :e.}8 -; %x.G^ 3P E} @/ <] }  v> }  |  }  s] RH vM Nh.ya.6P 2*.%% Da i% !; 1- n3 n3 BP yH `J.JS }  QS {F %0  d 9) rd wf.~# {{ s_ #/ @5 t_ kE c) cL kE zM @5 )( )( FL ww ww b) a  &5 &5 _k ,m Do Do Do qo qo c) qo qo =: b) b) -k -k hE .@ 1  l6 Kn 1  W> 1  l6 .@ {4 P8 ]q cL cL c) FN }! )4 [] u_ MJ !( !v l{ !m l{ `p l{ !m !( l{ !( !( h, !( T/ T/ In k; Do In ~4 8# F' B. u> ^i ^i TH u_ 7# 7# 7# 7# u_ u_ u_ a{ Tp 8# 8# +e +e ~4 x! W{ W{ W{ W{ ym hz 0{ +/ hz hz ^p Do Do In /7 /7 In In In /7 UL Co t>.)( >|  K Dz (% e} zO AT.kW.Dm _V.p1 j, *n 6' lW.I' fd (D mW.Jt 1@ pi Z8 nW.oW.@y.pW.qW.rW.y4 K2 So  L C-.89 -* Kj ib.{t sW.tW.6/.$< c0 -l qk |d {% D! qS 4# *<.xK nH wf.Z` H( zO Ml uW.4P [P >) |  |  }  }  [% `p <] H|.$/ <2 K1 V| 'C |h F. I) Y+ 5p xl O3 Mr.S1 b@ }5 I3 37 27 yK Mf AA /{.@+.vW.YY 2_ 9N.wW.xW.yW.l}.zW.AW.!S.",
"BW.e4.CW.&B DW.EW.FW.GW.HW.IW.JW.KW.{e >3.|o.YC.LW.3q MW.NW.OW.]l ~k D' ng.KA z> <t :^ j, #k K] &2 qw.&2 '6 *= &% N1 {{ (] ^H z^ Z$ PW.QW.n!.RW.L~ SW.TW.#K.l%.UW.VW./i f7 qE Ol tq rK G^ iN Oj Dt =| !R K# &{ }  v> |  E< 0P zG WW.nJ Gl #8 2  Da i% !; s8 >* I~.K].Ix +t XW.QO.F2.E@ wo =/ `; i~ wf.k~.;; v: B. :] Q8 S+ oi oi Q= oi oi oi oi Q8 Q8 Q8 ~( A@ A@ A@ Q= Q= Q= Q= Q= A@ Q= A@ Q= Q= Q= A@ Q= Q= A@ A@ A@ A@ A@ oi oi ~( ~( Q8 S+ ~( S+ S+ oi S+ A@ Q= v> |  }  v> |  v> &{ &{ }  v> &{ &{ &{ &{ &{ &{ }  &{ &{ &{ &{ A@ A@ A@ A@ ~( ~( ~( ZS ZS [% q8 &{ A@ Q= Q= Q= A@ A@ A@ oi S+ Q8 Q8 Q8 Q8 -[ S+ [  [  [  oi [  [  oi oi [  [  [  [  Q= A@ A@ Q= &{ v> A@ v> &{ &{ }  &{ Q= 2h P, ;k :k ,( #8 ]^ ES.tE YW.`; >; 9- D2 ZW.!Q )s  c Bg.`W.:t 3& 2; de  X..X.+X.@X.#X.v_.4( (9 $X.=9.n3 3C {1.gu m;.%X.&X.EB ,f CP (a Xh %o #. wo [- OF V| i~.42 %L _^ {{ U<  / 7_ 4P zG _% @  @  }  A@ u> cL +C W{ ^^ <2 ># v$ 9L >( G3 O. 5p ;# {x iJ wq E  g_.3m a4 a4 B[ ]$ GH @M '1.X:.aX uk Ag *X.OI.=X.=X.=L GH s> <e.",
"-X.|3.;X.,x Rz  U.>X.,X.'X.)X.!X.~X.{X.kT.=n ]X.X(.^X./X.(X.Z# _X.'> AT.AL G) A) %% j, c= &2 Q> V^ Q> B! 9W.nN.XG N. -; I3 sd 8: /b ^| '^ 1( 7u.xP :X.<X.[X.lT.WP.;s JM |4 }4 I^ G^ rK >Q Zq.}>.RH 4M t$ ~4 }  }  v> <% AL ),.7K }X.|X.1X.X  gb G3 $~ Vh S| Ed yh 1>.s2.eq +< o1 wr `c 2f H5 '5 t> AA p3 OF 2X.ED ZS &{ Q= }  }  }  }  }  }  }  }  &{ v> v> v> &{ &{ }  }  }  }  }  }  }  }  }  }  }  }  }  }  }  }  }  }  }  }  }  }  }  }  }  }  }  }  }  }  }  }  }  }  }  |  }  }  }  &{ Q= Q= }  Q= Q= Q= &{ &{ &{ &{ }  &{ &{ V} &{ A@ A@ ,4 A@ d4 4j ZS Q0 q8 A@ HK }  &{ }  &{ &{ &{ }  }  }  }  }  }  }  }  }  }  }  |  |  v> v> v> v> Q= Q= Q= Q= Q= }  }  }  Q= }  }  }  }  }  }  }  &{ Pu q9 cL `< #8 #8 u0.DS.3X.g) 9M (% a{ TL !v jr qI Q~ d  ($ 4X.p+ b~ 5X.6X.7X.,E Ie jc v4 >9.F5  A el.6L LP./5 U9 z4 [9 8X.GB }0.eH @l f  i~ t> 3X.ge.){ =< 9X.,{ ;M 5P WG 9P CO oK Nh.3> m~ |  }  Q8 A^ ,# -| 14 /2 %8 L1 3+ XH Eh j7 x; M, V> f7 rD 78 mz be ~x rK qU.h) 0X.0M <- `% 8M X{.j; a) Wp aX.bX.cX.l}.p3 xg.Wx ",
"dX.c( {b W&.v;.61.]& wv.eX.60.fX.gX.hX.YR  . 9  Q&.#G.iX.jX.F{ kX.lX.Z> yJ NJ @. {# T$ A' B* (  W; _{ T. 0W.[t -V.P< lC.4K `h h_.R/ t>.`}.so mX.nX.oX.pX.qX.rX.O0 (& Dw vq }4 #J {x FJ >Q kt.Pf wp jn /2 8# v> v> v> D) *| 1P db.sX.tX.1X.Y:.u! J) E. q( U= Wf 1>.pI s2.pI Ci [0 22 p: (E Xm Db.Db.;2 xg.[f.-L FD 4j q8 ~( }  Q= }  }  }  Q= Q= A@ A@ oi oi ,4 V} Q= Q= Q= Q= Q= Q= Q= }  VR }  }  }  }  }  }  }  }  }  }  }  }  }  }  }  }  }  }  }  }  }  }  }  }  }  }  }  }  }  }  }  }  }  }  |  &{ }  }  }  &{ }  }  }  }  }  }  }  }  }  }  }  &{ &{ HK &{ &{ &{ &{ &{ Q= &{ }  }  }  }  }  }  }  }  }  }  }  }  }  }  }  }  |  |  |  |  |  |  |  }  |  Q= Q= }  }  &{ Q= }  }  }  &{ &{ uR %5 Jn 6) j; :2 5P 8L OM $/ H( s$ *s BA !m `p FS :q ]| @8 UC {7 uX.vX.wX.xX.@y.2| Ls %<.yX.SB +< &7 +8 z. Lv.c(.m[ w_.iI.zX.p2 9F =6.,q 54 fb AX.FM uE #/ t* e) >{ =< lJ.F^ 0m ~] 0P vz ,| G|.@  [  In +} ;k jn (2 #| >< MA Ml 44 1+ Cm.yd t3 }5 .~ gJ BX.`h k6 ,# NJ X  V5 I[ Z` :k BA bo PL 1  -k C< w1.CX.CX.z_.DX.Z; eZ ",
"EX.FX.GX.HX.IX.JX.#- KX.LX.4* MX.5U.NX.OX.1x PX.QX.RX.SX.TX.UX.VX.a1 X  F< k~ i% 09 |% 0E P$ 1% fR V+ #~.WX.XX.{- KM YX.ZX.JM K+ _k `p )m *$ 7@ `X. Y..Y.CW.(S.Tb.kN.+Y.3m Th r'.}4 )o.@Y.`Q .Q (2 Vp [] oi v> &{ <% @/ jn #Y.Q|.sX.W7..T.d} x_ >; Gn.u..gt rb &7 I~.o1 v( o1 ug.h+.V* lk h~ Db.j(.Mf ~h.kf $Y.qj H1.d4 A@ &{ }  }  Q= Q= A@ Q= A@ oi oi A@ uR A@ V} V} Q= &{ V} V} }  }  }  }  &{ &{ }  }  }  }  }  }  &{ }  }  &{ v> }  }  }  }  }  }  }  }  }  }  }  }  }  |  }  }  }  }  }  }  }  }  &{ }  }  }  }  }  }  }  }  &{ &{ v> &{ v> &{ &{ &{ &{ &{ LS &{ }  &{ &{ v> oi oi -[ oi L@ L@ L@ oi L@ L@ -[ L@ L@ L@ -[ -[ D) D) D) L@ [  <% v> |  |  }  }  }  }  }  }  }  }  }  }  }  &{ YS WR K# k; %/ EO )O g} pN Y:.{2 in |  }  |  ~4 -{ i{ -# Y$ kJ.)S.%Y.&Y.*Y.+D HC Fe $z Cz.wa Fc c} 2d.V% j=.nx #] ,f /o jc l1 rG.kI =Y.0d 6{ =J.AT.NJ !k.k~ e) >{ ){  M E^ 5+ mo ,( #9 0{ t= QI F' 8p _^ F) NJ #9 `% r= Y:.{{ K1 w+ |a 4{ ]h N~ M, H3 hG >; VG C. -Y.RI e[ 9# T/ <] [  d@ wK xw j; A^ OI yO OL $L B9 ~O T< ",
";Y.>Y.,Y.'Y.)Y.!Y.~Y.{Y.]Y.^Y./Y.(Y._Y.:Y.&9 <Y.[Y.}Y.|Y.1Y.2Y.3Y.>%.d  `% i~ +A.6V 4Y.S, 5Y.6Y.t) 7Y.8Y.9Y.0Y.aY.k7 #b bY.%C E9 B) {4 UL Lt l> cY.dY.Pq eY.d#.:4 fY.gY.T1 !w.hY.r` ]* @Y.`Q }>.+C v> &{ }  &{ &{ v> |  (2 wM iY.=S.3o.AB.nL.C^ !{ VG hr +^ .< mf jB ^z *g oO.=P [A d[  . 9) R= ({.[f.[f.s( ft &q I_ 2h S+ }  |  [  Zp [] [] Zp Zp K# Q8 A@ uR V} V} V} V} V} Q= V} Q8 :] `p 8# C. C. In F' F' ~4 }! }! +/ W{ W{ +/ 0{ !2 :% y% y% Vp Vp )| Vp Vp )| )| Vp Vp E} )| @/ oi v> v> A@ &{ &{ }  }  }  }  &{ K# 4> s] )2 *_ l~ E< 14 #| 0{ (p x! gE u_ u_ <] y% u1 )| Bx x! (p |v |& zJ BL BL BL BL BL AG BL G< G< yJ 9N )# )# vz pe ZL BL (2 a{ )| d@ [  v> Q= }  }  }  }  }  }  }  uR V} S+ Q= !v cL q3 m|.VD.6_ /*.,| |  }  }  }  <% Mb D^ aX X} j(.*f.mE.IL Mj Ci 6t 4w $j )w xA =n VB  > n/ n/ t| dT 9I.P[.oI G5 /a ,S.fl.0) D< $/ I<.AO ){ jE k~ >{ >{ 9M ,; 2& s$ %/ ym a{ L@ 8t 8: iB ,; T< Y;.Y> 7P ,Q jY.2*.^] d& G3 5f  6 -# 4} 4} p> C2 aN 2h }  v> }  v> }  [  d@ -, [] cL +} .c Q/ K( G) eN M. $N lN ",
"kY.lY.mY.nY.oY.pY.qY.rY.sY.Q^ tY.uY.vY.wY.o1 xY.iX.yY.zY.AY.BY.CY.Yh. 6 %/ j^ DY.EY.FY.G{.GY.7U HY.7U =H IY.JY.KY.A  Ad Sf Z^ b- ># 47 Ab '/ o7 j, LY.'8 MY.NY.OY.PY.RI.]' gY.QY.RY.)$ Mr.hN wd SH |  }  }  }  }  }  }  @/ PO SY.<U.LJ.WV.E< +e T/ ;[ GD U].9d U= f  &h TY.GU LS Q0 jr 7) |_ _^ R= Cb.'5 hr 4s.v> S+ Q= }  }  }  @  fE  |. |.xv yv Vp C) &{ &{ &{ &{ &{ &{ V} }  &{ MJ }& -m ;| _' K( >< 2g Ll W< AJ vi tk vi rk KJ.tk UY.G< G< 9N }K.}K.}K.G< BL }K.zJ }K.}K.}K.|& _2 Q1 <] L@ v> &{ }  }  }  }  }  &{ +C Rq.3h.3h.!] WK.[K.G'.zR (}.~* !] ;o kK ,| _% s] /^ /^ _2 gq $; [O +5 H'.H'.6g.6g.6g.6g.WK.WK.VY.WY.7K.QK.G'.XY.YY.ZY.ze.te.(}.zg G< !E m~ @  }  }  }  }  }  }  }  }  }  }  }  }  Q8 Vp W{ AL *M `Y.4M '| }  }  }  }  }  D) xw C^ b{ G( %s  Z.+l EM  v RL Qr rI VL .Z.ED k*.SU u> aN rI nj L4 `Y ew C6 ^% fl.+Z.Ag D^ ){ >{ ){ k~ /% ge.uE 7+ jk    N. V5 v| ~4 -[ |  L@ hE .} 5+ '$ J8.EN @Z.2M 8_ hb $8 t3 J1 Z^ wg y_ |! .@ 1h .@ `p <% }  }  }  }  Q= aL  |.xv '# fE y! 3+ M< N|.{O GR z6 +Q 10 ",
"#Z.$Z.%Z.&Z.*Z.=Z.-Z.;Z.>Z.,Z.'Z.)Z.j8.!'.ro !Z.~Z.{Z.]Z.^Z./Z.(Z._Z.Ul 4_ ={.M*.:Z.<Z.b!.[Z.:Z.G{.}Z.}Z.|Z.1Z.eX.T. |z O. M5 [T.<T.`U.~r.f).ta R; GN L# 2Z.mN.3Z.i/.4Z.x}.5Z.6Z.RY.]* /B DK 3k gE }  &{ }  }  }  }  }  @/ CL iY.WW.%d.PO t_ 8# !( ;[ TL Z  d  }+ wo Tj eh A@ &{ ;[ .@ B) Y  H) D3 Z; Z; do =v v> [  }  [  |  }  vs &G xv  |.xv yv mE C) V} &{ &{ V} &{ &{ V} V} Q= !4 Ha -/.H. :'.=; ^2 rk }P FR |M BN [K.Rp.:K.7Z.<K.zg zN 8Z.CN hp.^h 9Z.%d.%d.{a %d.Rq.{a ^h Rq.G< +C u_ '# [  }  }  }  }  }  }  Q= (p 4c kf.Qp.Rp. J.0Z.FJ.aZ.fJ. J.6g.ne pe 4y in in /^ mE ,| r3 U2 +5 bZ.6g.VY.GS.GS.GS.SK.QK.cZ.RK.dZ.eZ.eZ.fZ.gZ.hZ.iZ.jZ.kZ.fZ.)] 8Z.t1 ws |  |  }  }  }  }  }  }  }  }  }  &{ &{ oi '# h& )2 ZL uK.J  4y }  }  }  }  }  D) zM LA F) X  ;< '1.wl Z} r8 *D C2 E' fe.RI T/ TH k; T/ TL t>.,= Vh pp %0 U% g) A< 0) '{ &/ =< $/ 5_ %/ 3_ /% -{ +} /] &% 70 q]. @ )4 [  |  d@ cL .} q_ %Q W;.Bm.lZ.@N L< eT.!# o_ n] `^ E9 :& qq ]q >m sq [] |  }  }  }  }  fE (' ;) -m yv gE $J ui g7 V3 3c td |P ),.wi ",
"mZ.nZ.oZ.pZ.qZ.rZ.sZ.tZ.uZ.vZ.wZ. _ D, +x.Yu xZ._l.yZ.zZ.AZ.BZ.CZ.DZ.EZ.Y@.F[ FZ.)p.(C GZ.HZ.Ko.8U 7U IZ.Sn JZ.KZ.uS W* x+ G3 LZ.MZ.NZ.OZ.^<.N9 6f 3: -# W^ PZ.QZ.RZ.SZ.q^ _4 TZ.RG.{] N|.@6 xd !4 }  }  }  }  }  }  }  D) yJ cP UZ.)# 0k.x! u_ !v ;[ l{ 7) kk -# Y+ 36 A. &{ }  Q8 P8 :k r9 +} u: {^ Q~ .> oi }  }  }  |  }  @  |  #o mE &G mE mE fo D) &{ &{ }  }  }  }  }  }  }  8# w* Ll H. &8 N*.1p }P XP ),.5L 5L |M <K.:K.|M BN @q.pe zN %d.%d.%d.Rq.UY.Rq.UZ.%d.Rq.1K.9Z.zN |v s] :% -[ |  }  }  }  }  }  }  &{ P~ J< bZ.6g.pe.Rp.VZ.fJ.EJ.VZ.(}.kf.DN AH (B !E fo (^ u1 '| 0V.T2 U2 U2 +5 +5 bZ.bZ.6g.6g.6g.VY.GS.GS.4g.SK.}J.(K.WZ.gZ.XZ.YZ.ZZ.=d.J< O~ @  }  }  }  }  }  }  }  }  }  }  }  }  }  }  <% <% @  H  _2 LO W< BA }  }  }  }  d@ t_ v* d} F) s$ 9M 9M _^ r$ 1_ 8p #/ xw T/ C) @/ wK =v ~( h, 7+ '= 3} X} x_ _^ '{ D< D< b{ $/ SI SI ){ v: fe.j; b{ v$ Cj Cj <& v| u_ |  |  |  }! ,# 7L J8.`Z. `.db.AH |O `Y.8K )$ 6{ E9  } `J }& ,m f. In K# |  }  }  }  |  &c 9{ ^e Gd.gE MJ G  7{ g7 LI G^ 2p V< W< wp ",
".`.+`.@`.#`.$`.%`.&`.*`.=`.-`.$(.a1 $_.qd *T.;`.>`.,`.'`.)`.!`.~`.V*.*# 4+ u..{`.]`.^`.(C ^`.[Z.^`.G{./`.(`._`.$K.5t.j_.D] C] Jp.:`.<`.Hl.*W.t' ye (U.CC [`.SZ.}`.|`.C[.1`.[`.-d i7 V> wO 24 Ez 0N V} }  }  }  }  }  }  L@ *_ |& /O )2 Q1 Zp 2h ;[ 2h ;[ 9# !^ o> Q~ o/ JP &{ }  Q8 Co Do _] ]q =[ A^ =[ )m [  |  VR |  vs d@ #o @  #o #o HF HF HF #o d@ &{ &{ }  }  }  V} }  V} Q= [] 66 Hn R1 t$ r= ,# 2g 2g ]2 h} h} zG ;o ;o ,< xM Dt ,| ,| |v E< |v 14 14 14 hn hn AG zJ AG 4y l~ :% -, Q= |  }  }  }  }  }  }  &{ fE G< &s .9 Rq.Tc $; [O K< [O J, 3g $; !O Ov AM u1 H  '# 56 dp.14 hn G< uz uz pe pe pe 0V.^j ^j Rq.Rq.Tc Tc TK.J< A[ Nm J< TK.A[ TK.Yl in d@ |  }  }  &{ }  }  }  }  }  }  }  }  }  oi v> [  |  |  u1 ]2 Dz GK 56 Q= }  Q= e. c) W> z* r1 :k ng.hE xw a  B. 8# :% '# v> <% d@ '# oi oi K# _] G' h1 7p `< w* :k %| =[ W> :k W> :k W> 1  -k 8: G' `+ %G [& (] |! Zp |  |  |  F' fn b& s1 yg yR oK 0P xi Y;.6_ t: `+ `4 S2 y! ^p MJ )4 !m S+ v> }  }  }  Q= !4 $J $J w! ;L ;L 2`.Ab }: Q3 <& 9{ Hw -r 5K ",
"3`.4`.5`.6`.7`.8`.9`.0`.a`.b`.c`.d`.fu W2 !m Ea.e`.f`.g`.h`.i`.j`.d5.[ .r! NI ~k k`.l`.m`.n`.o`.p`.q`.r`.s`.t`.u`.fM.NY.Y<.^c Jp.CI.6y.v`.w`.Qj Y: :* >8 j7 nw y) Vu x`.{- $M i-.&% <2 $m Xf G. ]q &{ }  }  }  }  }  }  }  -[ @/ D) L@ |  }  }  }  }  &{ Q= :] F' C. h, 2h }  }  v> -[ L@ -[ -[ e. e. mP |  }  |  vs |  |  #o #o @  |  |  @  @  @  |  |  }  }  }  }  }  }  }  &{ }  v> [  -[ <] Tp TH `p :] e. e. e. e. a{ Q1 a{ Q1 u_ C) L@ L@ -[ L@ '# '# y% <] Zp Zp :% :% Bx )| '# |  }  }  }  }  }  }  }  }  }  }  <% D) u1 D) u1 u1 :% Q1 '| s] gE gE l~ s] y% |  |  |  |  }  oi -[ -, @/ )| Vp Vp )| :% :% :% :% Bx Bx Bx Bx BA BA BA fE s] Bx BA BA :% d@ |  }  Q= }  }  }  }  }  }  }  }  }  }  }  &{ [  C) @/ Bx gE -| (' ;| @5 ^p !( !( TH h, F' B. T/ TH 8t C) oi oi v> }  }  }  }  }  }  }  }  }  }  [  -, Zp Zp :% fo y% @/ y% y% y% y% y% y% y% C) <] [] ,m {4 qq _] )m Q= }  }  }  Q8 !4 +/ hn ZL oN V< MA g} >| ~4 Zp :] T/ MJ -, |  |  v> v> }  }  }  }  }  }  oi :] gO gO 2h ;[ I_ &5 t9 qq .@ _] F' ~4 gE ",
"y`.z`.A`.B`.C`.D`.E`.F`.G`.H`.I`.J`.K`.oi VR VR L`.M`.N`.O`.P`.Q`.R`.DV.H'.Hw S`.;@ T`.U`.6= X( X( >> >> 3y.wP.lY ^v.tO V`.W`.X`.oS Vu Vu mJ.{y.JA Wo.-d J+ -{ w_ )5 1+ JM ae og Sj Bj g7 `h 8{ G  A@ }  }  }  }  }  }  }  }  |  }  }  }  }  }  }  }  }  }  }  }  &{ }  v> &{ A@ v> v> }  Q= Q= |  }  }  }  |  vs 2'.vs vs |  vs @  |  |  vs |  |  |  |  }  }  }  }  }  }  }  Q= &{ }  }  }  }  }  }  }  }  }  }  }  }  }  }  }  }  }  }  }  }  }  }  }  }  }  }  }  }  }  }  |  |  |  }  }  }  &{ }  }  }  }  }  }  }  }  }  }  }  }  }  }  }  }  }  |  Q= [  }  }  }  }  }  }  }  }  }  }  }  }  }  }  }  }  }  }  }  }  }  }  }  |  |  Q= v> Q= oi -[ Q= [  Q= [  oi S+ S+ A@ Q= Q= Q= V} }  V} A@ ~( S+ 2h [] x! Dt #~ #~ R1 *s (- 66 f. Do Co TL TL :] I_ :] K# v> |  |  v> }  }  }  }  }  }  }  }  }  }  }  }  }  }  }  }  }  }  }  }  }  }  }  }  }  }  }  }  }  Q= Q= 2'.Q= Q= }  |  |  v> }  Q= Q= K# gE :k NJ LA D^ (J oi }  }  }  }  }  }  }  }  }  }  }  }  |  }  }  }  }  }  }  }  }  }  }  }  V} &{ v> v> v> |  ",
"Y`.Z`.``.  +. ++ +@ +# +$ +% +& +* +!4 ws Bo.VR /~ = +- +; +> +, +' +) +! +u* $Q.~ +o:.{ +] +BW.^ +BW./m / +e4.( +=F.Vs.'X.Ws._ +qS 25 P; oA.gY.: +< +[ +/- +C #9 Of yV.} +{V.| +1 +r` YQ V3 N|.-r L@ }  }  }  }  }  }  }  }  }  }  }  }  }  }  }  }  }  }  }  }  }  }  }  }  &{ }  }  }  }  }  }  }  }  }  |  }  }  |  |  |  |  }  |  |  }  }  }  }  }  }  }  }  }  }  }  }  }  }  }  }  }  }  }  }  }  }  }  }  }  }  }  }  }  }  }  }  }  }  }  }  }  }  }  }  }  }  }  }  }  }  }  }  }  }  }  }  }  }  }  }  }  }  }  }  }  }  }  }  }  }  }  }  }  }  }  }  }  }  }  }  }  }  }  }  }  }  }  }  }  }  }  }  }  }  }  }  }  }  }  }  }  }  }  }  }  }  |  }  |  |  |  |  Q= Q= Q= Q= Q= Ea.S+ A@ S+ c- Zp :% l~ Fn Yl Yl Ov ;y 2c.x! /p 'm )4 MJ !m :] Zp -[ [  [  vs |  }  }  }  }  }  }  }  }  }  }  }  }  }  }  }  }  }  }  }  }  }  }  }  }  }  }  }  }  }  }  }  }  }  }  }  }  }  }  }  }  }  }  |  L@ }! c) P8 t>.UL }  }  }  }  }  }  }  }  }  }  }  }  }  }  }  }  }  }  }  }  }  }  }  }  }  }  }  }  }  }  |  ",
"2 +3 +4 +5 +6 +7 +8 +9 +0 +a +b +c +Xl mE d +Lo.e +@$.f +g +h +i +j +0).GS.e} ., k +l +IS.m +C].SI.SI.n +YG.o +p +q +r +s +t +{~ `[ z; S> LO.CI.u +v +w +]* s_ ;8 @Q dS x +y +<f.Yq.YQ KI hN 2p -| u1 |  }  }  }  }  }  &{ &{ &{ &{ &{ &{ &{ &{ &{ &{ &{ &{ V} A@ A@ A@ d4 Q0 {( YS q8 A@ A@ A@ A@ Q= A@ Q= A@ Q= Ea.Q= A@ Q= Q= V} Q= &{ &{ }  }  }  }  }  }  }  }  }  &{ &{ &{ &{ V} V} &{ }  &{ &{ &{ }  &{ v> Q= Q= A@ Q= Q= &{ Q= &{ }  }  }  }  }  }  }  }  Q= Q= 2'.[  [  |  }  }  }  }  V} &{ ,4 A@ ,4 uR uR V} &{ }  }  }  }  &{ Q= ,4 4j DS H1.4j S+ }  }  Q= S+ A@ uR V} V} V} V} &{ &{ &{ }  }  }  }  &{ &{ V} V} V} Q= A@ A@ S+ S+ 4j c- DS r:.r:.S+ Q= &{ &{ &{ &{ V} V} A@ d4 d4 4j DS XR H1.!( !4 66 @5 }& }& >m {4 w! FS gw.z +z +A +(7 B +WR mP XR oi v> |  &{ }  }  }  }  }  }  }  }  }  }  }  }  }  }  }  }  }  }  }  }  }  }  }  }  }  }  }  &{ V} V} V} V} &{ V} &{ &{ &{ &{ }  }  }  Q= Q8 {/ ;P 4: eJ  <.&{ }  }  }  }  }  }  }  }  }  }  }  }  }  }  }  }  }  }  }  }  }  }  }  }  }  }  }  }  }  }  ",
"C +D +E +F +G +H +I +J +K +L +M +;O  |.x% &F vs N +]&.O +P +Im.bW Q +R +S +]2 A> T +U +V +W +sR X +*B Y +Z +q +s_.WP ` +'w.c+.N0 qS es 'l pn  .+X3 ..++.+oE %R %R LR @.+#.+xR +Q 8_ r! 4M }P ]2 ,| u1 @  @/ u_ e. :] =v GD d. #  X,.4l I0.4l ix.$.+%.+&.+yu 7t Hg @^ Wk w..Br *.+=.+/).=.+,R.LP./).Lv.j=.j=.v9 v9 *H.v9 v9 `Y 'A A>.Q8.Gk -.+zu lx L2.Hg -.+m/ Gk kx A>.v..dT Lv.Lv.N>.Zr.La PA.#^ S'.6u Zr.#^ #^ #^ ~w O>.S{ ]Q.%H.;.+%H.>.+,.+tW Q| _; n9.q@.!w m/ oU oU i>.45 sq K# }  c- u,.t>.Mo fs U} =T.yr '.+).+x>.mk.!.+!.+X, g>.dg.dg.1z sN *H.gl x< w: 9p `: aj dT Ng a_.a_.~.+{.+].+%H.A2.n>.l>.^.+&.+%H.tK.S{ S{ !,.Fd.x>.B>.La /.+J9 bt zh 3d.}= Ua (.+/.+/.+/.+V]._.+(.+w#.:.+<.+OS.r[ H| Yx [.+m> Ev *n b].L) }2 Ev j% 0'.$n y1 ,u Qu %n O2 }.+mA Q_.@t 16.$t L2.p2.p2.|.+1.+2.+2.+bx.3.+2.+4.+Kr.5.+6.+ix.I0.yx.;P qU UO Q0.7.+gx.8.+LL.L2.x..%8.'h.Fd.9.+9.+9.+9.+Q8.Q8.0.+4/.0.+!,.]Q.;.+X, 5d tA Li Q_.&H.qN &.+wH.YS H1.;[ ;[ ~( 4j 4j {v.JP qU eh G_ A4.A4.YA.j3.KL.~K ~K l>.a.+%.+$.+$.+A4.A4.8.+8.+Q0.",
"b.+c.+d.+e.+f.+g.+h.+i.+j.+k.+l.+z0 Nu &G m.+#o tT.n.+o.+p.+q.+`1 g; r.+s.+1K.%% 9<.t.+u.+v.+w.+x.+y.+z.+1C A.+;2.:i hW.T~ a- [+ mb ^N n_ Z^ R< ,y IA +.+B.+C.+D.+cS lZ.wp TL.uK.*| 0k./O |v E< P~ '2 /^ E.+/*.6_ ^^ KA S= aj &0 z. sW ~w  x T=.s[ :| K| m' M* M* *+ *+ _1 +) yj %^ FF X8.F.+G.+Q# Rm sg je yF.P5 (~ (~ !y.Qm L(.m. H.+K).%3.%A I.+jw ;).C;.a( t; .{.^}.J.+^}.h! ;G 'h P& 'h 'h q;.Ch i+.M3.'~.H).Rm q. K.+B5.L.+M.+N.+M.+<d.Ff.[L.~: Hf 6J rK.nA +$ pw.M$.dI |b =/ }] IK 9# F( }@ `A :8 {= fl b* 6!.6_.@e.@e.+1.O.+P.+Q.+R.+Q.+S.+T.+=!.N0 90 ~5 O= JK m0 *f U.+V.+Vc.<x {M N.+8b Hk 7z.{W.3|.Io 6C I# t7 :! o. CL.#e.al L`.W.+bL.X.+Y.+Y.+)+ @).x#.Z.+`.+ ++IQ. 4..++n@.+++]d @++#++-U $++%++&++!@ ;@ 7% a% 0% 0s.R2.*++=++-++.U ;++@U >++3= a% ,++$_.+) '++<7 <h {v GH.)++Ku #D Be Be Be !++c .*w 7z.~++{++Fk 6L Ed Z] +j Km ||.]++%. }I jw Uz X[ ^++0H Az l, /++Qv B7 (++[-.aH h! _++[u :++|< &e C;.9i.N^.N^.Z4 <++].+_z 3t m/ 6j _l Fk pF #q R2  ] Lx ;z I2 A| nk Or ]1.[++%3.0H Rx z@.D+ kj }++#c aE M$.",
"|++1++2++3++4++5++6++7++8++9++0++Xv !E HF ws vs 1f RE.a++b++c++d++e++f++g++1K.h) h++5_.'~ }).]~ Q;.4(.i++>/.c~.S.+;2.b= ;0 h7.T} 3# x[ ,6 m6 F  =r 6+.j++k++l++m++n++t3.MO 9N t3.aP #| )2 E< |v OO {E o++7K 2M 5M XL 0m ]{  6 @E '0.E] :$ =+ N$ MY.J$ 9& ~' p++~' fR D[.q++v^.Dq r++py.s++t++]G.^;.+(.$V u++!d BQ.(Y.v++>a >(.kg.}B.kA.z;.1' J} V(.:3 D* w++x++y++s5 u6 d+ T: GC./3 ]8.z++z++A++B++-Y -Y y).C++,i.zu.{!.D++uM.MB E++F++~3.X5.#w.U3.`7 !-.G++A$.H++.-.I++J++YA T. %% 7) sy -{ {^ I) 5r o8 O7 K++Hu.2t.L++L++M++3< N++m) O++u) O++r% LE $G P++z  qw.M; I$ +{.2F.97.Q++Q++R++S++T++U++7X.qN.x_.V++0! M- vA W++m9.H++)8 Rm QC.;(.!l ]>.X++'5.Y++Y/ D{.D{.Z++D{.`++ @+.@+G6.e>.$}.+@+@@+ 7.Y/ Z++#@+$@+%@+3v.&@+#u.&@+*@+f=.=@+-@+;@+>@+,@+'@+)@+!@+~@+{@+Fs.QE.dv !/.Re.]@+$+.^@+/@+(@+_@+:@+:@+9}.<@+[@+}@+P..tw Dd f~ vg Y2 x9 =p O- f, (~ +% dD )I.dD dD T~.yD ~!.z;.P: X] a5 m8.|@+K*.;(.g5.U^.1@+1@+(Y.!%.E~.W^.z~ c0 +; zk I~.zq >p /5 gu ;z 2@+q* 3@+._.+-.4@+Bs.gT x@./+ /+ F~.],./y 1} +_.[~ %4.5@+/(../.",
"6@+7@+8@+9@+0@+a@+b@+c@+d@+e@+f@+y< |v =y g@+Vp.6d.G,.h@+Y) )N.i@+j@+k@+l@+L< h7 z8 m@+n@+bS o@+p@+p@+q@+m@+8I.7y r@+3$ s@+]D.>4 3#  .+,y [4 K/ =r sE t@+u@+v@+w@+x@+nN 9N UZ.L< vz s] )| '| l~ in .| cg.7g.2M &Q xa.3+ _c 5f LY.}G.Nh +B :l ~% 8$ >U.9& fR y@+F; 2Z.o..R8 z@+Nt I).Eq m&  +.A@+=( n$ 6; 1y V] 1} C3 r7 <( r7 mA.c!.0^ B@+s; (~ l{.l{.C@+w-.Iu.Iu.l..>;.|* {z NV D@+]i.z++:;._i.a;.E@+E@+2B.Q).jI.S5 Bs.Q5 ME.vC PD F+++w.D: F@+G@+Gh y$ rf vA J).ZB cG.H@+}3 I@+.b `< Q1 +/ r1 &/ D3 J@+ZH +A.K@+U~ >~.~k [c.L@+M@+O++N@+O@+P@+eY.4Q ,z.*2 }~.!= |r.@I.V(.Q@+R@+S@+T@+U@+V@+.y.At.W@+X@+I..bl.:0 @D jt W++U] U] }c Q&.*} ,U Y@+Z@+`@+x:. #+.#+05.+#+@#++#+##+$#+x:.%#+d> $r.&#+*#+=#+-#+;#+$n.jW >#+,#+d8.^> 9* '#+)#+!#+`T }Z.~#+{#+]#+^#+EY./#+(#+VF -_._#+mA.U;.:#+fw.[y <#+tl -G [#+}#+|#+1#+At.2#+,7 kB _t.l'.R0 3#+uA +D 4#+;a J.+(~ !y.Qm e,.:3 ow.bH 5#+u7 =w.x@.O: 8l C$ g5.1i. >.c!.Ot.d^ 6#+{).%4.e^ q'.F, Jy.ro H7 S|  n ~F G2.vb.it 7#+.(.Z/.8#+@' PC.2G =y.9#+-y.-w.,..B@+TA 4] @% `( K^.-_.-_.",
"0#+a#+b#+c#+d#+e#+~v f#+g#+h#+i#++. dN v[.j#+9H g|.(~ _c.1*.BG.Ny.k#+l#+m#+n#+`^ f& o#+=!.tR p#+,/.)/.Q;.Q;.}).=!.n@+R. q#+I: B} w+ yd h7 ~x I3 *r.wV.Nu.r#+q5.s#+DR (!.|K.SY.MO '2 |  }  d@ u1 u1  | QU.%d.J8.`Y.>M 8L ^* 4r :K ;9 ;l Vm 0D x} 0$ (1 W; (  A0 L).3& t#++[ $c ke u#+6n 1| {f K2 J2 I2 OU H~ 5~ v^.;_.v#+h|.T(.w#+/h YA xI.x;.`,.|% |% x#+_w.y[.v; U~ =*.MG y~ NC.;y.y#+z#+A#+B#+C#+H# {;.Q:.N] {,.{,.|_.m, )M.K2 Hy <o D#+w/ of =9 *6.rG 8f ;9 ;9 33.i3 E#+v+ _K /- '| }  }  }  |  L@ *{ P@ b|.pG [: _1 T;.ub.b* a$ K$ fl F#+0' G#+e& 6z }A Ab O4 w$ B' *:.PR.H#+I#+J#+K#+RC L#+2S.M#+fm )E S8.2q (r ^v kj H+ qf 9~ y-..{.Y^.AE 9% N#+k%.O#+c% P#+>> k<.>> X( l8.;@ Q#+4].3= => )@ ;> R#+S#+%@ x++2w.7D T#+2$ U#+tH.V#+<> W#+K* ]G X#+;X.k +Fg.&4 :P 5t.,~ y[.PA 3; $_.q6 k[ &C..k.=t gF Y#+Z#+`#+ $+%f `i 5w bT n/.I~.(o }j 7q [h Pd :d Oa z9 2>.T8 yF K).jt OB }c x^..-._S Qm Qm qg Rx 9~ !b O$ p+ `,.Ac !b S`.$c _z dt 6z.VG 1_ do Yk xh -* }7 wS .$+D*.#; hS y9 ;a f'.+$+L~.m. rf @$+@; Ah #$+ID.8t.Kw $$+",
"%$+&$+*$+=$+y..-$+0: h5 ;$+>$+,$+]$ BC me '$+)$+gK !$+:F zy b! @$+~$+{$+]$+^$+<2 Z5 Al bp 76 6' Jh j0 Jh 6' Y5 bp 5p.<@ xF w< G3 ># H3 NR {8 Y> hb 3P ER /$+#Y.Bm.W;.6K.nN v{.F< |  |  }  [  |  [  m~ G|.ZL /*.bP q3 ){ u! ^= if if z'  3  3 8w ;* }b <= 64 ^= 5# 5# =/ GN .^ Ux Ze.C-.Z[.($+_$+:$+69./).8  W5.M7 [3 [3 xS wS ^s k] o7 `> 54 +> +> $~ 4r Qq =+.t#+w; IG ^1 sa G9.V8 Of.<$+[$+}$+y9.L9.XS.=+ d= u} :8 C  u} H[ B-.D6 6t oI p8 4} 0) uk 8) 1_ uk 2_ &: Z  |_ >= ;< >| #o }  }  }  }  }  v> |$+ZK .8 ^t K].=7 Bo K| ;( >*.X; m> %b P* I1 Y: ^H dp.%c uW :' eq .D.xA.1$+2$+3$+4$+)b.5$+6$+PX.IW 7$+7$+%t E*.o1 pK l! 0j >] p+ YW d* V#+T  2{ d< F#+nV.3(.nV.8$+d< 7& k, d* }< o' 9$+>c /}.:> ~> 0E [3 yS yS x@ _{ (   ^.j, Z[ L) N0 0$+#k ;/.K[ l_ a$+xz =# =# ~- b$+o..x;.Mi b9 c$+d$+dL.e$+f$+g$+h$+i$+j$+wm WN &{ Y= =n [q C-.[E L@.Ee IH #%.22 Lj o[ Y7 Dz.db F7 C| &,.I6 I6 %y.o[ Uo wu j=.!; P@ #. aF  3 x$ 8~ 46 `}.K# 7# S/ Q1 SH 2X.Ra CF ,5 vo =Y.xg.k$+Di Aj El A, v_.=b 0w Hx Vf Xh Yh #j rb -e.]F l$+",
"m$+n$+o$+p$+-f =^.b= q$+r$+s$+t$+(K E'.$x.u).u$+ui qJ Ie =z *z $h.v$+w$+x$+y$+NR QH G| t+ :8 .p OH z$+;/ ;/ :^ z! ~m 6z t' N9 P< iK rK F^ 9P J  4M /*.N4.N4.1P nJ 3P N4.eT.xi t_ v> }  }  }  }  A@ }  L@ %| F) SI ;{ 2_ j(.Zh z' Ed 8w Ed Ln Ed Aj [b [b aF .. NI NI <* <* d[ s( Yk HH.Kb D2.A$+B$+FP _{.Yu '0.{7 +E 7~ 7~ {7 C$+bd Xm `; )^ NI Z} j~ rd */ GH 0d V; ch Bo `].Y4 d! AF )++D$+6C rr ]++i9 1d F. ;# g& B[ Q+ P@ bF E*.E$+1T.36 ^4  > ~^ o/ 1] =L uh D. n~ D< $/ =< 1  |  }  }  }  }  }  F$+G$+H$+I$+(w.vA.m^.S0 mj b* Aq S* T. /| D! ~5 [g F( P8 {4 +c h~ ed.J$+K$+L$+M$+N$+O$+P$+Q$+R$+S$+Go T$+T$+az ri.1x J4 I~.wr Ye !b O$ c' PA eM.CS pi |z |z 3{.90 HG X; JK zc pY zc A: ;( x} B+ qd U* ~5 V* U* g1 g1 ~5 '3.{# D@ '% ,% '% E. E. ;3 R7 5{ 6H.P; _D.:X U$+XX.j' V$+Xj..^ NS -P HS W$+X$+Y$+Z$+`$+ %+.%+v> }  [  WB p/.+%+@%+d9 $z Mu K].~).h{.;* ]b #%.7y.B5 H@ l1 :#.7y.8M.Hx 79 Zu D} 36 r8 3} q> Zm Zm E. U% .@ '# H  (^ /t lF VD.iE wf.iE B9 #%+lJ.u0.OF f  zk $D $%+@d S8..j ^ .k4.]{.]{.ZG.*j >j  A ",
"%%+&%+*%+ar <h tR ;2.=%+'z G;.-%+;%+>%+>Q f_.,%+[n qY '%+He -z !8 -Q )%+!%+`Z.37 -1 fd 0(.!0 R) fd ~%+]0 6b nw Sh i7 pg u' vV.{%+$x.gV.hV.An r! Y;.Y;.|P |P hb =; YL yR 3y u$ c) v> }  &{ V} V} A@ &{ Q8 D^ ;< w_ 8) j~ Rq o7 U* '0.g1 b1 b1 b1 $c w; l' u+ +> U% Z: S= S= `: %h T= c[ 6} E2.|s.GP ]%+QU }* fT 0- n^ ^%+|3 0y.A! u5 s> >q  - kk Y+ C@ I) fb }T 5E v+ 2} k] )> ht 0H J%.[d./%+a[.fC.(%+N^.K| B  /$ oS =2 %2.U| uw }0._%+:%+qr }p c[ Z:.{F s| or s| 4d  . NI ,= >= (J v> }  }  }  }  }  <%+[%+}%+|%+1%+2%+3%+2; V/ 9< 9D 4%+5%+9@ M; W; z! ,* Sq v| ,; s> e(.6%+7%+8%+9%+0%+a%+b%+c%+mB d%+e%+f%+MU.va f{.vf =9 i{.81.[3 ,y.@I.K@+g%+h%+i%+$2.,] V$ e& }( l> N= CS a$ a$ CS 9$ k0 n' '8 w@  ^.pi N7 pi t#+LY.S$ ~5 I+ V; *$ Y{ pp &_  , >% ]h ($ N; [T.Ou.j%+k%+l%+LE m%+YR ;3 No Z% OI.n%+o%+p%+q%+r%+s%+8N.Q8 |  -[ l;  - tH pI Lj C+ o6 g1 _W.t%+k] w; u%+u%+m^.HI HI 99 vg Kx ;*.89 lr Yk S= i{ ,* j^ }+ $~ ;3 N/ h1 SH mE Cx (^ cg.3M 2*.E^ 1& `= qU.-Q -Q a4 HH :$ IH +3 hI Lm >p c[ {F  f z<  f o3 el.kI ",
"v%+w%+x%+TV.9t Il qp.N@.s7 v_.Mm NU.s#+_p '] 1p.vY #[ 1N.d! v[ X; FJ y%+z%+s3.,Q ]- ,3 m; Gw ;% ;% N, ># /] /] {O GR 8K &Q 1X.A%+Ld.Ld.#Y.YL 4M u$ oN ,( e} xi W< #~ AL #| (p :% }  }  }  V} V} Q= }  K# )C Q/ KA +} ;< ;# ]h #z #z 5f P+ T$ A} Hj pi t#+A+ 5p i{ u: H) H) >= iB j~ Lt fO 2/.EU G1.{h.=n  ^ w@ 3{ V<.YH YH uS B%+l] v+ d  I) ^] ^* 42 lE.-U.|5 15 *<.rS X&.D] x@ C%+D%+E%+F%+G%+H%+I%+J%+F#+X$ Vu X3 uT.O).Qq bd rG.Bt z2 th 4d +^ nj fO 6M.A4.UO u9 w: h1 7p 7p (J !m }  }  }  }  }  ph.K%+L%+M%+N%+#k.M7 [' S* 2Z.x) :g ,z.vO O%+l_ mb 5p '( B) jk nH P%+VC Q%+R%+R%+S%+T%+U%+V%+OD.W%+oL.`u k4.mf ,q ]E U| }G.5J x@ QW.#~.V, %K.X%+x[._{ ,] V$ X$ X&.., s' 3{ 3- 4t.Zb S* L] Tl $2.(  |2 n;.1h.HG U$ Q. &+ X; B' ~5 8~ |- Cc c{ R) 2# Z^ Qj O; Y%+Z%+`%+ &+.&++&++U.]' _& Mo 10..Z.@&+#&+$&+s%+%&+&&+%k.2h }  v> -{ 2d I+ ]b DJ |( S;.5f J[ sS 35 ME }( *&+7~ =&+zc bI -&+C+ 9t FW cw  q (= iB {s h[ Lo [@ 5p ]| n~ }! !E Cx ;&+>T.wi Y;.V< 6_ 7_ &Q gV.>&+,&+r: o7 T| t[ :l F] Zh e< Wf.NF NF D3 rd C@ 2j ",
"'&+)&+_E !&+v+ zd eU.Qq Ij gs ~&+QR xR 4P -/.{&+3k z5 bM.G7 Za.+> Ml ]&+^&+/&+O4.~{ x_ Z> wl ;< -< #8 lJ.(&+8_ nJ N4._&+N4.eT.N4.lZ.lZ.Q|.),.r= 0P >< >< ,( g} s_ zM @/ d@ @  |  }  Q= Q= ,4 ,4 S+ [  -, ^p sq }! k; c) =[ A^ -{ A^ -{ A^ 8p u| n7 T; 9p 6p t9 !4 ~4 SH gE +e Mb B. B. =v ~( &{ A@ q8 rj Ja M  |z Da %% ]h P. $~ @. >= u* D^ NJ 5_ KA <- HO ^- #8 T> =J.`^ <t GF |z JK :&+K' z.+<&+[&+:i W7 M5 D9 D9 r].<& u! Cb.yA nK.yO.aN aN O| OI m1.IK q8 d4 gO K# !m MJ dp.66 +C -[ }  }  }  }  &{ }&+|&+|&+1&+&j p( GN &_ h% R) !0 pt nw 80 -= L+ S< t: x| `J {] ,!.2&+3&+4&+4&+5&+6&+pB.7&+k4.Qr 10.IK 8t WH -k 7+ !^ S= Gn./H {# -1 pn 3G.qp.t' w$ !5 P) Gw }A Tu 1! x1 O* x1 1! ,3 l} l} '/ *7 `A %, h[ %, ~8 N~ ]h J- G] V* y} -/ I' _8 T7 v% Q3 {p @6 cB 8&+9&+t@++Y.;Q.!y [4 h_.qo TH sy 2X.0&+a&+b&+c&+d&+$Y.oi }  v> t9 NI _q Dc Bc =0 t/ .c U< {O )$ K1 O@ I) I) ^= ^= P@ #. S| ua j1 e&+SU 9# Bm A^ A^ s9 i, h1 8p hw t* -| uz A[ kf.AN r= b& /2 ,( 0P 3y /*.'%.KA <* th cw cw E( 2_ <z uE uE E) =| 5K /2 /2 ",
"8~ Gb.4# %% b- tb 1#.rS t#+qD.0X.-N z6 2P Dz 2k Pj s: $v G, }* Y{ =; sX.f&+3o._&+~| B< _L 7_ hb :- 6P g&+.T.uW.nJ nJ CO nJ N4.h&+nJ YL N4.r! MA MA mo MA mo d} K( Y< C) |  }  |  }  }  }  Q= Q= S+ Q= v> [  Q= }  |  }  }  }  }  }  }  }  }  }  v> &{ A@ &{ }  }  }  }  }  }  }  }  }  }  }  }  }  }  }  IM VG S; 8) l; -{ _= Mo sy a{ Vp +e ym cL 8M q3 2J.8L 8L 8L T< 34 /] <& y> -% N~ x5 W0 6v 0q i&+~8 Fd {8 ./ `+ K( %/ 3/.j&+-P HK ES A@ [% A@ A@ &{ }  }  }  }  }  }  VR -[ +C (p u_ }  }  }  }  }  }  }  q8 Z% SU C. Q, A^ h1 r9 N4 .} S2 9- .c I, MA }P Dz {* 0m k&+l&+m&+n&+o&+p&+yO.T3 =v ~( }  }  }  }  }  [  d@ e. !4 P8 8: (J W> ;| `< G  kE 66 &c kE 14 %c 66 FN 66 66 ,m ,m +/ ,m hz hz !4 gE yv  |.2c.]q C2 '^ Aj of yh Q@ A} 4{ =% wO ui ./ 30 20 vd tD h .2+ t3 Gw 1# iz FN qo b) Am q&+r&+s&+t&+u&+/b |  }  }  `p kr VO T+ v&+v&+3: 0{ BL oe ^j (B FL t_ c) =: *: VL Vx gl.gl.v$.o,.[% QI DH <] Zp `p Zp I_ yx.U; D3 -: %G K3 Bv -u I, K( g} mo 6_ J  `Y.^*.u* ;{ ={ v&+Qr rI PL Tp bo 0o zB.ao .| /^ )| ",
">% Rq x+ i% w5 ]8 nn Z^ R) x+ xe {O An 9P r_ *m =).N5 mW.h  '4 1A r_ AB.(!.@q.4M =$ -< <- _L HO hb BI 4P hb 4P CO 4P r! r! J  eT.yR r! XP _' x| K( i; x| 0n i; (' l6 Zp v> |  [  }  Q= E1.,4 ,4 S+ S+ S+ }  v> }  E1.}  }  }  }  }  }  }  }  }  }  &{ }  }  |  |  |  |  @  |  |  }  }  }  }  }  }  }  }  v> O| 8: 9# 6) WH GD ;D.ZS L@ D) 8# Mb =: e[ 1  dz F) zO 4+ eN 2+ xJ       ]8 t3 d& W2._8 :8 w&+P) U> ~N ~N 5+ .} Z  2_ TO q8 &{ &{ }  }  }  }  }  }  }  }  }  }  }  }  }  UL fn j; Do [] }  &{ }  &{ }  &{ q8 ;D.l{ UL UL Q, P, *9.+c u: u: 9- 9- %G PE *G wd D,.;;  l jl x&+y&+>O ty C< 'O |  }  }  }  }  }  |  |  [  -[ mP K# [] :% eo !E yv mE mE fo g@+#o #o [  [  vs vs vs vs |  vs @  vs vs vs B6 H  [  '# iP Yh /2.Fh jd nt p: 1h.u3 r].G. B@.*G SG.Oj vY N|.Q3 N5 w1 Kt D'.j{ !Q 8p D. r8 .l eZ B2 Ra Q, |  }  }  gO $5 wH.o,.wH.DS !m Bx l^ I  `M eo s] vK 56 s,.;L 6) O| A. dJ mr.4j oi C) -[ c- -[ o9.Q= uR WS ;r W+ .p P. }A S< 1# +} 6f ;1 Y  d} hb Y> :2 K( KA Ag S; VG :f }! gE Bx E} '2 fo ws fo #o ",
"Z; Gn.>2 >2 ,% (* Nf t! J+ /* V5 7_ o] :2 `+ d0 r_ m! :* Ka ZY sY i; PO YM z&+dP 8L !| 8L '%.(*.4+ 4+ Y> |P CO Y> (*.|P 3y /2 FL #9 #9 FL )( _] ]q ]q P8 kE FN ,m )4 [  }  }  |  }  }  }  V} V} Q= Q= Q= }  &{ }  &{ }  }  }  }  }  }  A@ Q0 q8 A@ A@ d4 A@ oi |  |  |  |  |  |  |  }  }  }  }  }  }  }  v> 8: 8p 1h uI 5: aN Eo v> |  }  C) -Y.PL -Y.PL gP {2 Y:.4_ s$ ~x xJ V>    t3 ># L+ W2._8 d{ w&+g{ A* V> >: 1#  @ C2 7) ); YS uR uR V} uR &{ }  }  }  }  }  }  }  }  }  }  sI z* i; Z< ym S/ K@ v> &{ -P j&+D} 3} Bg.H, GN :' 2d P. J) N~ 'C '0 )5 M. 3c LR NQ _p v$ *$ $s <Z A&+z2 ew YW.}^.&{ }  }  }  }  }  }  v> QI GD WH {/ {/ MJ fE Bx h& Bx Bx y% y% -[ S+ Q= Q= VR VR |  |  |  |  |  |  |  |  @  |  v> ~( 4l hA `( QE.T8 9~ W5.U* 1@ R; C' (* O8 (* 2& >; O8 (* U% '= x< 6* C2 &: C2 fZ Y} <* l; Am -{ !4 }  }  }  gO eJ F1.52 }| WS ~/ 6) =: }! +/ +C Do ;L !4 !( mP [] !( !( TL DS A@ v> |  |  |  }  }  Q= uR J_ Mh H; H; V5.!~ I_.m/ 1K gl %h $b ^4 ,D :2 :2 H( {^ o> S= <* -{ qo F' !v `p QI Q8 oi [  Q= ",
"|_ 0) ^% %s :z R= #8 `G *< -< T< 7_ q_ 4+ ;< f} ~] `+ u: -2 Ex qq.7p q/ u1 '2 #9 s$ =$ 4+ 4+ F) 4+ :2 hb Y> Y> Y> Y> q_ (*.cL K# <] :] -, c- c- c- c- c- -[ c- [  Q= }  }  }  |  Q= r:.H1.l{ >, $5 R& 10.10.G_ or w..w..<O Q0 }  &{ 10.bT [* EU yx.1].XS yx.2K !v !( wK u_ e. 8# u_ Zp v> A@ &{ &{ }  |  u_ ]4 O4 u: C2 dh @+ 4: }  |  |  D) Tp u> !v T/ B. Y< u* uE 3_ )5 m6 ]- t3 ~$ d& W2.Hh lW.B&+~%+w&+Ta 50 >: 1  TH I_ R& d- IP M2.C&+C&+x>.D&+'h.z>.G>.#).N0.FU QS 7.+E2.5> 3>.=/ >;  M KA q3 1  =: w1.*L E&+@H F&+M].~x.G&+O.+wS H&+]y D] Q. PJ /$ HJ hJ Il.#R ]].xg P. J~.(q l'.G2.F] Zh 7f Q0 }  |  }  &{ K# h, SU t| Lv.J2.I&+N>.dg. < 5* !.+oU U} fJ )/ J&+'.+C&+z@ @+ jr u,.WR I_ I_ :] Zp gO [] e. F' 8: mx c. &*.K&+L&+LH 0t Y' 5! !> By u/ u/ !> 22 0D zf of 1l  n dT kx J_.#. V; &_ %h S= i{ i, qo fE -[ }  }  }  l{ 1K s>.A!.M&+hc .!.nf aF !; I_.q( u..*[ O4 ]4 .|.}  }  }  v> }  }  }  <% |  Q= [  Q= ES 2].N&+oh [N.2~.O] B;.z@.Jo I&+{1.%o [p 4d S= v! E^ B< {^ o> :z 36 fO Wk Br =* >L.m~.4L.O&+S0.Lr.",
",D ,D !| _^ H) s$ :2 H( T< q_ 7_ {* {* T< sd =$ :2 `+ h_.qq.V0 fJ .@ -[ |  <% xw `+ -< -< {{ T< 7_ T< T< sd eN q_ =$ T< F) qo A@ oi oi S+ S+ Q= Q= ,4 [  |  Q= }  }  }  }  }  }  -, P&+Q, 6p 6p 45 1] uh Ct $c n;  -.1t.kw.{K &{ IM VG u..`e 1K [].Cx.}s.}s.[].R+ 0# fe.r1 Kn G' =[ }! Q8 ~( ZS ;[ -, )| +C ;k U> A) }A j-.:8 p8 v> }  |  <% S/ TH 8t 1{.8t T/ p/ RO V2 J1 Z^ y+ _& y+ y+ M+ W0 d{ j0 X5 ]0 H$.pn N1 k; }  }  V} q8 gl.$. Q% 2(.Q.+K$ @}.Q&+R&+e' 9~ S&+T&+U&+V&+W&+9b z| 4! Rq M, k6 k6 K( hw lk tH.4Y.X&+'@ 9% h^ Y&+,y.U. ^%+4t.$2.&+ OJ Z&+`&+or. *+vd }>.~x M  T& ~5 90 *<.]- '; K# }  |  }  In C[ j^ <' J| nh .*++*+@*+#*+9i.O[.Qv ]1.ph z'.N] BR.$*+$*+o!.-] P8.%*+`r.qN TT.OE OE OE tA $o t} 9$+o; E^.L3.zt.dz.s^ mk 9~ Um Pd l. +8.U` ['.&*+Pe.,>.&_.{n gD..q k! LG.b' Jq.'8 @c X} _* D^ h& |  }  }  }  }  !m Gk =[.**+=*+Ba.R- BF ee -*+Zc Fh 00 '0. .+   ;*+}  }  }  }  }  &{ }  v> Q= ~( c- DS DS >*+,*+'*+Z3.Qo.X*.)*+:*.al +1 jj X' .3 sW %0 2j .[ Z> '{ Z  Z  ~^ Ec y/ 7w.G: Ue.Le F4 !*+~*+~*+",
"hb HO :2 :2 =$ :2 q_ 7_ eN o] Ml 2P  / Ml %8 o] o] q_ .c C[ rY 6f Jn Q= |  <% qo x_ ,; ^- ^- ^- U< ^- k6 ^- ^- ~| sd -< '( Do oi S+ S+ S+ S+ ,4 S+ Q= 2'.Q= VR }  }  }  }  }  }  hL f. .@ h1 n~ Z  2_ .l '^ {*+.I.]*+UT %,.%8.d4 WH *[ G[  = ,) R0.^*+B$+,L.n>.xu Ex w_ '( |# (] ;1 qq `p h, u> t>.,m 66 lE /*+Cv R) Z5 &3.(*+Hj oi }  |  @  S/ sy sy wh OI 6# lA 0  t( Da V$ T} UC 1h.|z 1h.X5 bp sm.Dv Ev `x ;4 t' kr }  }  &{ LS 7b.E1 3] _*+:*++, cY.@{ .E.<*+W8 [*+B= }*+|*+1*+2*+md Rx i[ Z+ G. ui MA n~ 3  3*+@9.4*+Y|.5*+6*+/} 33 bt ]E *&+7*+M7 b8 8*+9*+!L j^.KQ |8 [4 26 +K ZT.(V hk 8{ v| fE |  @  |  -m Z^ sA id t<.2f.0*+a*+s$.b*+05 |@+%} dX.(H -F c*+R( d*+e*+f*+*w.L9.vr )0.{: p[ ]: Gf Gf eI +x.g*+@7.h*+#^.i*+j*+A3 rA P,./++`;.~f k*+l*+m*++T n*+o*+d-.BZ p*+y, y..fe J.+LI.}C 9<.zq F[ (* B) [] }  }  }  }  }  )m 5* 3A q*+o{ r*+s*+L/.j( >T t*+LG }~ N$.C] ~x gp.}  }  }  d4 lr.UO qI C2 n7 W2 w: u*+N0.}6.v*+i+.85 :U lR.E* f5.$;.w*+>I x*+YW Oh <' qi.2j Z> '{ !{ ,= fO  n fS y*+z*+A*+B*+C*+D*+E*+F*+",
"!k.dz dz q3 z* `< LA LA ~2 >< Cz Cz V< ^^ i; b& 2g RH  [ 1h 6: 3: (7 v> |  }  :] 7: i, 7p Hw `< )C )C E' 8p )C G' =[ Kn FS I_ Q= Q= S+ Q= E1.V} E1.}  }  |  }  }  }  }  }  }  |  -, ;L Do S& Am ~^ =:.`:.G*+H*+I*+J*+0v.I++(S o,.:= Tj 46 'q ri.K*+L*+M*+N*+~W.F|.O*+*D w_ E2 ~{ x_ P, In qo uI Kn _f fn /2 P*+s/ z5 }2 #@ Q*+rh ~( }  |  |  S/ 8: l; U; uh 9  -v e&+$j >3.S`.[3 .E |% x} T* H: p].%n R*+#[ ]~ R% +[ xB l~.S*+We T*+U*+`m r+ C%+9& >U.>~.U+ 5' M*.mw.V*+W*+X*+Y*+Z*+`*+0l.:n e~ %0 :&  / ^c.zm )k./D. =+3Q (8..=+^d N-.Fz I- A2.{q 1~ ZB +=+'3 @=+}4 -N 9_ |0 `^ 3G.{m #=+$=+yd C[ 3} S& v> |  }  ]q [8 pi qk A$.h: %=+&=+*=+<v.==+m: h] B3 .).-=+c*+;=+>=+,=+'=+G3. g <l b. 8d {5 [0 }7 Pa Nh $h.)=+@u.8W !=+~=+{=+A3 y3 `@.]=+,h ^=+/=+N%.(=+_=+:=+<=+[=+}=+|=+1=+ME.<3.i] eW.^V a* aF Lt ]| %/ hL }  }  }  }  }  mP `  bm dE.2=+3=+4=+5=+6=+d+ 7=+8=+ -.zc rS    'D |  [  q8 Fr.Fk W, }2 .K S;.${ Y, (.+O>.9=+0=+Ch pm.a=+b=+c=+E3.aw J%.d=+e=+f=+to 46 ]] ]] g) {^ '{ r$ n/ fq q6 g=+h=+i=+j=+Ar.k=+l=+m=+",
"C) K@ K@ K@ ZS ZS DH 8t e. e. wK wK wK S/ :] -, C) '# C) oi 4j ES c- Q= [  }  &{ d4 d4 ,4 S+ [  [  Q= A@ A@ oi Q= Q= A@ ,4 Q= A@ ~( c- S+ c- S+ Ea.Q= Q= |  Q= |  |  }  |  }  <% :] Co h, H_ 0# D. $Y.n=+Z:.o=+p=+q=+ZQ..-.r=+^/ Ki z. ap I~.79 s=+t=+u=+v=+w=+x=+<{.]h.1K 4} {s _* M0.Lr 1h {N CA D2 8- b& 8:.a# X].k! Q:.D1 Y' ;[ }  |  |  e. -{ <* _q 6L nx 8w.P[.G7 Ca xE W(.j] j] &i Df :| 3! y=+z=+/: +& *+ uF A=+}r I3.B=+3O C=+D=+vb.E-.7& d< %= 8$ E=+MG P- F=+G=+H=+I=+J=+K=+L=+g[.Hp H[ yq -N xi .@ E3 Z@.M=+w~ `3.N=+O=+P=+Q=+S&+R=+S=+F` /r T=+U=+[3 pn rK u` [& !0 q@+V=+W=+X=+8b.||.Y=+pK.Z=+}  }  WS 8w G] -5 p, `=+ -+^O.p{.lk.x#..-+b=+z3.';.+-+z] ]C @-+#-+oW 6}.gG t[ I| S@ 67 ;* x' x' |b Pa $-+%-+&-+*-+7%.=-+,*.G3.q;.R# Q5.--+;-+11 >-+,-+h/ B..'-+Or.RH.y, ^A.T# )-+pM.q` @}.h  4d p> A^ S) }  }  }  }  }  `p ye 79 !-+md ~-+{-+=%++% P^.]-+^-+QF X; Ta -g /-+2c.Jn YA.0_.(-+d5 :*+_-+=a.Q.+1g :c.:-+<-+[-+R-._-.6}.]1.al 0t lw.{,.}-+y. wE }* p8 5# d  j~.2  Y+ H, 0p qF oH L3.|-+FX.1-+2-+us.Ar.3-+",
"v> v> v> v> &{ &{ v> v> &{ &{ v> }  }  }  }  }  }  |  v> }  }  }  Q= Q= v> }  }  }  &{ V} Q= Q= &{ V} Q= V} &{ Q= Q= Q= Q= Q= Q= Q= oi -, -, c- gO -[ VR }  |  VR |  }  |  }  |  -[ )m =v OI |] `} 4-+5-+s&+6-+e3 {< 2x.0i.Ng z2.c[ U= _J H7 7-+8-+9-+0-+a-+b-+c-+d-+e-+j1  q q> .. <k hw <k B) f-+]4 b& 7p 1z *i #;.Lw nR.ym.d~ d- }  |  |  <] a) S; 5c yi RB [l ba yu.Af OU yj gS Ah g-+vF By xs *F h-+6L Yu D6 cc i-+g# j-+k-+l-+m-+n-+UW o-+~) ht Bd ~b >c .{.UG p-+q-+r-+s-+t-+u-+9l.SC.db 4p ^$ M3 -o )2 j~ #k v-+T,.{r w-+{l.x-+7D.y-+z-+<B A-+=n.B-+C-+D-+f1 )k.u! !C C} U  W!.E-+ub.F-+&B.G-+-k.H-+I-+J-+K-+@] of {q L-+l. Ch ti W++z~ 5< M[ &:.o+ U5 d< '> J~ S  U[ M-+|t.Hj R) -1 ]% Bo &[ 64 >% ]% 1j N-+{(.u6.'j.E` /5.ff $' W8 o, fe Y| Mf.O-+zG.P-+(Q.93 bX ,z [c Q-+C, eI bl x;.k{.S* z. {D.Pr 8: [] }  }  }  }  }  u_ C2 dT zB R-+(n *t dq +B '0.p: S-+A' 4r J+ 8- *s hq ;1 L4 /5 0w a<.T-+8< [< -} Rc K9.[L.Bk U-+H).jt U2.gu k5 _> qi #J.V-+,_ 23 ro 6L |- zr W-+Gb.4E E1 s8 OA.Ho ~%.k4 X-++*.Y-+Z-+Z-+97.",
"v> v> v> v> V} &{ &{ &{ &{ &{ }  }  v> &{ }  }  v> v> |  E1.Q= V} Q= &{ Q= V} }  V} Q= Q= Q= Q= Q= E1.}  V} Q= V} Q= Q= Ea.Q= S+ Q= S+ ;, s,.)R ;L [] S) Q= 2'.Q= c- d@ [  -, -[ |  K# =v a  l; ~^ `-+ ;+s&+Gr L-+.;+I).D| PU ;q Gx *$ H(.+;+eL.@;+Y_ #;+$;+%;+&;+*;+=;+.{.Bc jf ,% ^| 5} My av c& -;+;;+=N %] >;+,;+';+ne.wJ.Kc dJ [  d@ d@ e. Mo t(  n gu N;.hA.$w.er ]v o2 +] d~ cq ib.cX Kh y8.);+!;+oM.%.+gL.~;+XA.{;+];+^;+/;+8A.(;+=i.F` -l pI F6 y-.)y.B;.)V _;+:;+<;+[;+};+la |;+Tc.ib.E! N~ 2p @~ l~ 5_ +S.M( {1.=t.1;+2;+3;+4;+6c.5;+6;+z&.7;+8;+9;+0;+QZ Q4 64 I' _}.v3 w&+oU a;+b;+c;+d;+e;+f;+g;+h;+sw.x3 :o BJ $% >] =u X% +B U| 5f 5f T& u8 T* {% 9$ }< MI.i;+j;+:| :q l6 gn NJ '= Vh :' [- @8 Rq O+ x#+7i.ij ^,.je {,.Mt #) qh E+ E+ V8 9! dd If B| v[ v[ aq ^: G1 k;+D/ @2.2! 4& n6 }* #t i>.<* 9p B@ h, IK $5 I_ &5 !Q =H.:E pd K2 .k.]i y} y} o7 j3 u+ N~ ;= l;+m;+2> >/ u8 Dz.c! m. v'.n;+}-+o;+OB #;.H.+P- p;+%* 9+ mH.7!.Jy.6& yi.Kv.3 .J~ 4' CL.;z 2% 2Z.O+ BJ f+.Mt [( f~.p, O-.q;+ok !h Pp X6 r;+a! ",
"}  }  }  }  }  }  }  }  }  }  }  }  }  }  }  }  }  }  }  }  }  }  }  }  }  }  }  }  }  }  }  &{ }  }  }  }  }  }  Q= Q= Q= }  }  }  [  vs v8 56 )4 [] hL |  VR |  k{ ]/ '# 56 ]/ }  |  <% +/ fe.3/.k}.s;+t;+u;+v;+Wu.Kf @] rF z/ {q Wf.C. h, w;+x;+|x y;+z;+A;+B;+C;+D;+E;+12 gt -# *7 -# $~ m; >; B) _k DS 07 F;+G;+H;+rX I;+2x 6C.S/ s] 66 b) 6p [! F*.W6 )V J;+6s.K;+aU.aT.Ap L;+}E <0 n1 2( 12 :u J9 {h.e4 dL..A.M;+N;+O;+P;+Q;+R;+S;+T;+aG.U;+M&.ug.z-.[~ J,.OE.K} V;+W;+X;+Y;+RP.Be +] n#.}b >; }P ]O Up e} ;= %, @t hc Z;+`;+ >+.>++>+@>+#>+$>+%>+&>+*>+=>+'i.%< ->+A0 '3 A: ;>+uR >>+[1 fQ.,>+'>+)>+!>+~>+FX d'.Ln 'C zr {>+]>+^>+ad q1 '0 2  A+ :K B+ +[ 4& />+w;.4~ ^y Gn.}  }  }  }  B. :z cN 'C x+ 2  Ph E#+hf (>+IN #x.C+ Df 74 Ac A] ~b sa Kh Ko @@ QH ah H' Cv k} ]8 O) O) e{ W0 4) S$ 2- [k $~ ]h |h +. l; dJ #  d. eJ :f -2 Dc 41 #0 Mu l5 t+ :t t+ f,.O. Lo F2 |# T0 r_ 8' !M.S# ol G++_>+B;.B^.X^.y@.&> 1$ ;(.EY 4h gr :>+c$+2t to [< <>+,++C3.Pu.Bs.tg V] H$ x' $9 I/ ./.S3.o8.!).Zo tO.Qd %y.:l {q of Gx ",
"}  }  }  }  }  }  }  }  }  }  }  }  }  }  }  }  }  }  Q= V} }  }  V} }  V} }  V} }  }  }  V} }  &{ &{ }  }  }  }  Q= Q= A@ Q= c- -[ hL fo  |.dp.{4 ,m 'm S) hL d@ v8 :% h& hz vK |  VR d@ SH Z< |_ QL  Z. T.E#+IL ;*.z/ Tf vl xo ;* 36 ~4 !4 Xv [>+8-+C..}>+|>+1>+2>+3>+4>+@k U= N~ Ta K) O+ f,.w5 P= yx.JS 5>+6>+7>+8>+,$.Y&.k/ =.+9# Y< `< r1 S;  q Fc K2 9>+V@.0>+vm a>+aT.@s !n s2.Hr p[ ]: Q2 Rd Yr.b>+eO.c>+eG d>+e>+f>+g>+h>+i>+2$.j>+k>+JS {( ap l>+m>+n>+o>+#;.p>+Pa.lH M_ q>+!t k! rW }b !5 ;8 @9 CH RH Mn r>+_; s>+t>+u>+v>+w>+x>+y>+z>+A>+B>+C>+D>+E>+@(.F7 .3 D] F>+|F G>+q:.H>+I>+J>+K>+L>+M>+N>+O>+P>+q;.>* )5 E,.j7 Q>+AW.L( x+ 5r ~$ `5 +[ R$ ]x pY I$.-} PE.(>+Fx }  }  }  }  :% `+ 5r ^$ 80 y; R>+3  ^s ~x.n; 6~ rh ~> S>+d* y. k, 13 2! d= ah x8.5g T>+M9  s `P.U>+!s 40 ^8 _8 d{ _o -/ P* O+  6 ({.2/.V>+W>+dL.zx.VO uW E( t] }G wr 4  N* I1 R7 wo pp (b @^ v&+Ia -: X>+Y>+W++E[.sg !y.W[ G%.rv.Z>+n`.48.K$.ZC `>+eL.kl HP.%t 41 e'  ,+.,+c'.+,+@,+%B.#,+a1 ;*.8  W=._~ $,+c+ Yo |4.Y] !$+.E /| qS #z O* ",
"}  }  }  }  }  }  }  }  }  }  }  }  }  }  }  }  }  }  }  }  }  }  }  }  }  }  }  }  }  }  }  }  }  }  }  }  }  }  }  Q= }  gO ,m @5 Sz @~ `+ W  s/ y_ i{ Y  8p 7# C) :] :] +/ SH [  gO oi ^i uk +. 0&+%,+&,+wg.*6.@n CI FW zt |k .=  q sy l6 e[ EU *,+=,+-,+;,+>,+0Q.,,+',+Zc Z,.2} 3{.ta N+ d  Z{ 6r 8b.L@.rO./[.),+!,+~,+*-. k.Cz.fw JO !R W> )C hw `Y '..ti $+.UY vy vU 8j $X.FW zt &9 mm lc.{,+(.+Bb.],+^,+/,+(,+_,+:,+<,+[,+},+|,+1,+2,+SD 3,+4,+j[ Y(.5,+l= e* f* 6,+N^.EY Zo 7,+;5 +d Ln g~ z_ am .| (^ z&+8,+9,+)4 4l 92.0,+a,+b,+c,+d,+e,+f,+g,+h,+i,+21 j,+y/ zS.NI w$ <-.k,+ga l,+xk.m,+n,+o,+p,+q,+r,+s,+fe Ux )!.3m le 9L ,!.v+ |h 'C J) A} IG n6 R$ A: ^1 4< !b dl N_.}  }  }  }  )| w% K+ y> x; 9L j6 R< g% 3{ 9( #n M8.~-.J: 2< f' d5 &i 44.QH z5 Ta  s !s  s ln !s !s *% -= H' ah ;/ B  UC B  F3 D@ B2 tG.t4 vm +G.t,+u,+Mo 7+ Z: jf E@ $9 <' '% Db.Cr $] K7 2% K| `r.ZY W7 lj 9E D~.QZ IB.%' B@+`/.{(.b^ x~ TA MA.v,+w,+x,+y,+6t .n -( 2I 2;. >.~+ z,+A,+B,+Bs.ba _E p+ L: U~.(-.O-.C,+TD.0E D] WP.#C u' E9 ",
"}  }  }  }  }  }  }  }  }  }  }  }  }  }  }  }  }  }  }  }  V} }  }  }  }  }  }  }  V} }  }  &{ }  }  }  }  V} }  V} V} Q= !m :k Ha !O >L XH ,6 l] U$ UC {>+iw ;D.HK =v 8t T/ RI zm i, 0# Xp ^b 4E +8 D,+Nj jt.BP ug.J~.Ix G7 K:.03 gl 9# =[ b) =v 0x.!z.E,+/X.sN.kT F,+G,+H,+%Y.|% M= t+  z jP I,+xj !o.J,+ Y K,+l$.L,+M,+N,+&G.yF Wk 7# 8# e. )4 MJ rI cF sf KB W@.2^.m2 $y.sF n#.pI l! E/ 8V.R+ O,+P,+Q,+R,+S,+T,+U,+V,+f` .@.W,+X,+Y,+ZX W*.n8.Z,+`,+12 Q_.}k fl o`  '+.'++'+%A ]=+9~ <! lc.t+ )5 ,( '2 /t (^ )| d@ [  A@ @'+#'+$'+%'+&'+*'+='+-'+;'+JT.^3.r[..n UH et oi Q0 >'+W# ,'+''+)'+!'+~'+{'+]'+^'+/'+('+o[ #. r:  W.z_ {^ +. */ [f.9) q> if [b )0 i[ T& R@ i[ h  1- =.+;q k3.v#.I_ c- MJ FN 9# -{ ;{ 7p 1  1_ CF 2- =D 00 X' H; qh }I /x <! =D <= (t y5 g& >u 50 50 lb %g lb !0 I' %b 16 (   ^.HG {# 3d _'+6  :'+<'+['+!+ {++R& 0{ v* :* 5# %0 :' IC U; s>.z] }'+|'+1'+Wc M&.+@ s| `).~++2'++_.3'+)y.Dz.87 l1 I6 l1 0a p(.tG.$z 4'+5'+YD &,.0M.Q1.|4.6'+7'+8'+9'+0'+Hk #] }~ |* IQ.j#.a'+/o @] x' ]h Cv {p r].r].",
"}  }  }  }  }  }  }  }  }  }  }  }  }  }  }  }  }  }  }  }  }  }  }  }  }  }  }  }  }  }  }  }  }  }  }  }  }  }  Q= }  Q= !( !R R1 1L uQ jN lz oS  H aW.JH  d =v v> 8t 8t L@ +e Z< ~{ j~ 3} if &j.sH el.CD.,1.-e.VH Vf Vf Og Mh 03 3d RI Do 8# Q= GU va 8u #3.b'+c'+d'+e'+*(.f'+1; n6 I+ T{ uR LS g'+!V h'+i'+j'+k'+l'+m'+n'+o'+@' YC.[% [  &{ A@ &{ A@ GW ^0 p'+`o p'.$y./w.;p yt vl +8 wr z. {( }  q'+[i.<&.r'+s'+g..;..t'+u'+-'.Mk.g` v'+6W w'+x'+y'+Ek YS z'+*p cY.m= b$ @e.YS.@k n9 K| =1 ]h ># ]2 (^ @  @  @  |  @  }  A'+B'+C'+D'+E'+F'+G'+H'+Y1 ;n  v I'+;t xA lA Q8 &{ J'+K'+L'+M'+N'+O'+{j.P'+Q'+f1.l).';.WF.>q xf  W./* fZ r$ N/ 5# Z; i~ `> zq t]  , 8~ Rq IC m1.{( ,R.Y( R'+Qx N>.A@ Q= -[ oi =v 8t ~4 a{ 8t aN (b _b W5.HI :: 9x '7 Ee K{.lm <= F1 *5 L+ M5 d& 50 50 T7 M5 >/ W5 U$ qw.i++j% B} _$ VG J@ S'+T'+U'+V'+W'+n2.oi /^ !O e0 2& {^ Lt -2 6p .f 8% X'+Y'+Z'+T3.HP ~( oi Q0 4w `'+TF k< M[ pF Ig :$+.K.-t zU 6o  )+.)++)+@)+#)+5b K:.v].1).(@+$)+m# %)+I;.fG ba IN ],.x@.&)+UY u4 qb  ^ Gn.%, S2 L| y_ ",
"}  }  }  }  }  }  }  }  }  }  }  }  }  }  }  }  }  }  &{ }  }  }  V} }  }  }  VR |  |  Q= [  [  [  Q= &{ }  }  }  A@ v> Q= !4 !R R1 Tc uQ UQ KF &= rS 6( 3  Z: &q |{.Tp u_ D) a{ zM  @ G( Z} 32 J@+*)+=)+=)+mE.PB Ed E_.ro &D F, vl eZ H|.B. !m -[ ;[ a# {: -a O# ^;.gj RW |c 7i.N$ %b #. /).GW -)+;)+>)+,)+k$.')+h@.U%.))+!)+~)+';._l ~( ZS i& X,.FU VS {)+Bz.Z7 ^0 (9 I` 8n Mu pK o1 Fs 1l Zr.jr.JS ])+^)+/)+()+_)+:)+<)+E6.[)+`p.})+|)+1)+2)+3)+4)+b8.5)+>*+.K.>*.6)+7)+9< O.+`z. 1.rh y@ A+ Z^ H{.h} (^ @  4u [  |  |  }  8)+9)+0)+a)+b)+c)+d)+B++P:.`m D. hr 7t [* ty K# A@ 'L.{;.v:.e)+f)+hg.g: a+ u6.&7.Nr.}< %[ 57 9: mb j^ Dm S= t/ *7 d  d  z} $. g)+=0 :t h% aj 4j LS GV.]d h)+i)+j)+}  }  ,4 IM eJ 0  O| F' !( 9# -2 i% {% 6d XS.mb.4n '7 p[ #H `].so M( z5 R) !0 V7 ~< _8 j-.fd W5 O+ @& bv |2 <@ >D VG qj cd d>.k)+l)+kV m)+[  '2 M| K5 O8 }@ Lt V0 45 $j !@ n)+o)+p)+Rf.Go IK oi ~(  < Va.y[.9< 3- a9 }% cT ]h.s>.q)+wO.r)+s)+t)+H,+u)+vF ma.:u Pd !  QX.v)+w)+x)+rW.Zr uG.y)+G3.z)+0! 4|.rF Ln ^= `A r/ N/ N/ ",
"}  }  }  }  }  }  }  }  }  }  }  }  }  }  }  }  }  }  }  }  }  }  }  }  }  -, x! '| x! +C l~ *_ +C 8# 8# MJ Zp Q= A@ Q= v> )4 W> -| gq kf.$R eT *<.4# f,.Y$ i{ Xv 'O a{ wK M@ !< `L cL Am 7N.kJ.[' A)+i{.W= }7 B)+T| l! ~F Vf hA vl yA Xv u_ Zp -, Q8 1h IC @> o( T] QE.i8.y$ qf 9w R= fZ Lm JB C)+D)+E)+O%.F)+G)+H)+I)+tJ 7r T]  ] 3s.WN r( 4! I$.0E #c Ee [l [y.Hs cF G, bF bF lf  v _V.,) 5l J)+K)+L)+M)+$O.N)+O)+`M.P)+Q)+R)+GQ.S)+T)+U)+V)+W)+X)+Y)+Z)+$-.K- M8.&n %].`)+X*  !+.!+}2 ${ O* ;D ui |O H  |  <% [  S+ JP ]h.xc +!+@!+#!+Nl.$!+o@.ht '4 hw -k RO kr aN C. !v :] ir.fh CA.@;.NC.-~  2.7D %!+&!+ig Jq.<g c= `H [+ 54 ew >f  , CG j^ /= 2] H[ DC Z{ '% [- >f Ki XW.*!+/< =!+-!+;!+>!+,!+tK.'!+9F.)w 7t H_ kr .> j~ 5# 8~ 0j #H b. {: IH Fg f~ yh $v @> >D S7 57 R) .p X7 A} 2} Z$ ,0.%[ +& n;.xF <t /% 4s.<y.2g.)!+!!+Gf.I>.}  ws Nm K5 ^- `; EH '= 7) BM ~@ ~!+{!+]!+em.Fu A2.Q0 Q0 +^ D] a- ^!+qw.+[ _b .< cw b9 v( ;p /!+xX.;>.(!+IN 4! _o _!+#c M- :!+Mw.<!+[!+}!+ p m1 Rx n. -a 6F 0. 7u ua p( =/ ,0 2] 2- ",
"}  }  }  }  }  }  }  }  }  }  }  }  }  }  }  }  }  }  }  E1.V} &{ ,4 }  }  h& Y< -| c@ -| !O jn jn w* !R _f FN C) A@ Q= Q= F' _f (% c@ vn Rh I3 R< q1 I1 A+ C' B. S/ Tp TH DH S/ Vp Do `y 1- *+ F! V5.nt E&+fs.mw 9t Kj e~ G7 #H :$ 0p k*.F' )m MJ [  oi Q= r:.2K j1 |!+}h '..#%.Yk TL Fo +] 1!+2!+3!+4!+5!+6!+Tx.7!+t0.8!+9!+ze Q0.DS -9.[= $z.0!+a!+b!+O;.$: oO.E2.c!+Wk &h E( (b 7f FD ~D.lo d!+e!+f!+g!+h!+i!+j!+P& <7 RM pg.k!+8>.l!+m!+n!+oj.o!+p!+q!+r!+s!+t!+u!+v!+}R.%i Q% :_.5p.PH E3 !5 2p 1k '2 @  C) ;[  <.w!+lt G..x!+y!+z!+A!+xu }_ a  !( u_ Do C. &5 m1.#5 UL /7 IK d. z'+xB ir D. KA {8 hG `b ,] 0$+*, W$ {' 5y.w; F] ~).)0 <' &0 %: t] 2- *0 ZY Ex i>.nf H}._d nm.B!+C!+D!+E!+F!+1)+G!+H!+in.Au O*+%$ (J v| x_ ,= 0p =H.~F e~ Tf Vf I!+G1.d$+-6.V% $~ P. ,0 GF j0 @2.]= ]= B/ */.J' ]:..K X>+U7 C2 rj b0 J!+K!+L!+M!+N!+|  BG A[ is r/ ]| Jt {s d[  x O!+P!+<,+Q!+!l.R!+S!+4,+.H.,A %[ <t Q; Z[ Bl U| 0D 67 t[ a0 %%.L` ;6.T!+(!+`B Al 9h }R.U5.b. 92 U!+TR.V!+^F Z[.+t O>.W!+P[.GY cJ.M&.K`.rj hr w$ Y$ Y, ",
"}  }  }  }  }  }  }  }  }  }  }  }  E1.E1.V} E1.V} Q= Q= }  E1.V} Q= Q= |  :% kK uM uM 1L |O uM xM RH RH >| FN Q8 A@ }  A@ TL .@ x* dP s1 dN T< ]^ wf.F. G3 ]^ !2 <% bo Vp 4u DH 'O !( A. c[ t} kj vg +B i'.GI (o Gf :l G7 ~F Z] =7 nj ED B. !( `p S+ Q= }  }  }  dJ mE.X!+G(.-l I!+uR LS Y!+S` dQ.i@.Z!+`!+ ~+.~+-E.+~+@~+JS -P q8 A@ Z% T| 2y.X~.#~+$~+%~+=~.&~+Lr.-6.%j Em I7 >v rI Q0 GS I9 BE *~+=~+-~+;~+x, .>.|; uw =~.iA v9.>~+,~+*j.;j.'~+)~+!~+~~+{~+]~+I# lr.sI ^~+bp B* {= sA z5 Y: r/ td ;o ao @  v> rj /~+(~+_~+:~+<~+[~+M{.q8 v> L@ d@ C) C) :] 1{.R& R& TL h, ED IK ZS oi K@ 'O t= ~E }~+UY.`+ V| `5 |~+2O 9D |C 4R W=.o: ]: Ln 2l y' <= wr E1 q( u9 lr.JW o; 1~+2~+3~+4~+5~+6~+7~+8~+9~+#Z 0~+dJ.Br $$ W} b{ R= p> Ia d[ %0  3 Ed L4 10.}  A@ WB 2d )% Q+ '/ >D T& u8 ~5 G] =1 a9 g~ X; _}.Bw 9: 7+ Q0 %<.a~+b~+c~+d~+e~+|  G|.4c dN S< C' [@ CG s( B-.Ss.f~+!..g~+h~+i~+j~+k~+l~+Pd yh D. ~{ L+ .p u+ Y[ zm.g-+cd gS Sx 3W.pp.KG 0E W7 jJ.+p bh |k Eu m~+n~+o~+p~+q~+eL.XW.uP.r~+s~+z!.t~+LS &{ Mo N, R7 [| ",
"}  }  }  }  }  }  }  }  }  }  }  }  }  }  }  }  }  }  }  }  }  &{ v> v> Q= h& wp xM ;o @q.UY.1L xM wp >| b& kE -[ S+ &{ ~( /7 P| j; NJ V< 7_ s$ x_ 9- O@ h) F) HF @  /t M@ 4u 1{.GD hP {D.UB '7 8V ): ,} @] |x.a0 9~ lj WF.u~+3C s8 U; sy C. /7 UL I_ 2h Q= }  }  4: V; 1( #0 Ee v~+w~+x~+y~+kX.z~+A~+B~+C~+F;.wx !J.v/ zS.d. 4s.A@ ~( K`.M2 R: D~+D~+6^ $' >o F2.~w Yu 6L ct %j yu {h.E~+A$+F~+G~+H~+@r.`&.77.6. G~.k= E1 %H.Qs r6 I~+J~+K~+L~+M~+N~+O~+uB.P~+ED.UI.Q~+>n._.+H| m> v3 <@ Ih s/ -: ~N s1 /^ [  -P R~+S~+T~+U~+V~+d` e-.X[ m1.[  ws H  Q1 !( u> )v z0 z0 WH -9.yO.Eo !v !( ~4 Mb 0{ 1v !O #-.># wg 3{.16 >U.6< Mu.4; G~ ;z $^ Lm 7w lm |k ]( |k ,A Ur.!h.$B W~+X~+Y~+Z~+`~+ {+.{++{+@{+#{+${+d| Ca.-q IU *: ){ ,; _* Q~ S= '% 64 1d 3} {/ |  C) Z< F. y+ >D /= 2] G] 6& E] [= ': |b /; }2 /| Tb.S;.x< o,.6/.%{+&{+*{+={+-{+v> )| [O K. T> CG .& '% %h wr  U ;{+>{+,{+'{+){+!{+~{+(l.{{+<-.`}.+} gS.~< Hj x} pf ra gG S8 zb S8 j] YW #{ yl ]{+^{+/{+W, gu ({+xc _{+sx nO.ri.kx %H.2t !D.Ki }s.Q0 Q0 qI [@ >% t] ",
"!v `p &q :] :] K# K# K# K# K# K# =v :] &q I_ I_ `p `p `p !v !( l{ TL !( F' 0{ c@ xM uM @q.|O hp.UZ.vz uM R1 66 d@ oi A@ A@ O| n7 7) !{ ]L 3+ #8 x_ Y  Nf E^ hn |  |  |  |  oi 6# t| kx cJ.{n.:{+!r !h {j C,+5m W` <{+[( n3 ]h.M2.@^ :f k*.u> O| :O uI [{+T0. B P8 A^ !{ >d $t BD.*).8%.}{+]4.Xv.|{+gV a, Tf.1{+;*.qN 2{+;n.kP :f Ir %+ x' N^./|.11.:( T: f5 io `].1g E/ =H.3{+VL J# ;q Hp 4{+N3.5{+6{+7{+S5.Yi 1| ~) :t fJ `y  q >* i9 A, 8{+9{+0{+a{+b{+c{+d{+e{+f{+`E ;|.D).g{+h{+P) !0 U7 =A @J.-u vi )| v> E~+uU i{+j{+k{+l{+m{+n{+U5 5: d@ +  ;d.]2 KA >= <* 36 s( <* S; $b hr S& 9# a  Mb Mb lE PE eU.[t o{+c= |2 M$ Aq _w.x;.&] xo :#.-l <! wr h  O_.B>.,A (>+)(.*7.Cj.p{+q{+r{+s{+t{+u{+v{+w{+x{+y{+z{+[*.#l ;e.8t %| {{ A) J+ C' CG ^b wo q> u> v> @/ {2 ~N Nf (* Z: *$ @@ E! @@ %[ M  L( A+ bh Y$ 90 Y[ ~w A{+;E B{+C{+D{+E{+F{+Q= L@ sk Qf #8 Gn.Zm %0 Ja ]i #7.G{+''+H{+I{+J{+K{+L{+xY Y#.Km #  N4 ,s -= [# +& =+ 5! uF J|  ] M$.Df `~.=c  S.M{+N{+O{+P{+Lm [r @].}'._w #< BP x$  ^ b9 sU +!.xu t( 1] D. C[ EH sN ",
"fe.a) a) j; j; (J j; (J j; j; j; j; r1 r1 r1 r1 r1 r1 r1 r1 -{ r1 r1 r1 z* q3 ]2 !O xM v{.zG @q.|O c@ ]2 Ll Gn '# -[ Q= ~( S& aj aj M4 ]] 2  GH }+ j^ Y+ 7+ [  }  |  }  |  h, T= {1.io Q{+R{+S{+T{+U{+V{+6'+9x.EY $_.%W.y' T+ $$ qI W} k; 6) 7: uW D[ Bg.P0 pI.;1 CA W{ S+ &{ W{+J$.ih.X{+Y{+Z{+A..C- 9&._x l, W, R/ }  Q= ZS F( ]0 P@+>+ Po.`{+9l Hs.2G [d.8V iG  ]+.]+`Y T+ FD +]+pW R'+@]+88.#]+$]+jm.[9 SD.l3 8  vh 6) OI SO ft VO z'+xy %]+&]+*]+=]+-]+;]+>]+,]+:(.']+)]+!]+Ea.~]+{]+50 E9 sz CK :M BA v> ]]+QE ^]+/]+(]+_]+:]+<]+qd 7: u1 @9 K< 7{ x; on w+ 4# F3 57 x+ GF @8 Zm %h U].W} kr Pr 37 _D.h; l] <@ 90 H: kJ.n6 )> v} |k S@ `].+B x$ v..bj []+Ua }]+|]+1]+2]+3]+F)+4]+5]+6]+$'+7]+8]+9]+0]+:O.>h.8C !c.DH xw -< ># ]- */ h~ E. 54 q> SO 7# }K N@ q] mo %/ u| X} =1 E! @@ =1 u} `5 y+ E[ K0.*q Tf  g 5A a]+b]+c]+d]+e]+f]+d4 -, BH K. hb i{ Vh jf (l _b Y).g]+h]+i]+j]+k]+l]+m]+n]+iE.qJ.Kr.m; o]+=k 2# X5 Ay Ay bt 8d mm M2 V4 wJ ^8 p]+q]+r]+s]+t]+u]+Bu v]+w]+]M.x]+89 z' >* Vf sU kA Yu Dc Tj `  :q Ia x< ",
"r1 r1 ;{ r1 -{ Z< E' )C `< Z< `< D^ D^ D^ D^ D^ NJ D^ v: Z< /% k~ Z< z* u* dz jn 5K uM wp UY.UY.@q.vz #~ Ll Sz '# ]/ v> ~( +@ ^= _b  ^  n =7 Nh Ye rG of yu }  }  }  }  |  sy V% fu y]+z]+A]+B]+C]+D]+E]+s. F]+UW r6 rh k'.A. U{ :f -k B. a  6p D[ pq.Y: IC 5} Sq 3: &q d4 G]+H]+2x.XQ.['+A+.x3.I]+J]+]r ;z .p  z k2.~( >, d. gl FH 9C 9^ _< Ls.2G ff +$+N- Yc S# )6 uO.3>.;O Fo GY K]+L]+%l.tQ.M]+N]+O]+P]+30._E Lv.dJ SU *: :f sy 1{.Q0 -s.sl Q]+R]+S]+T]+U]+V]+W]+X]+Y]+Z]+`]+}  A@ }_ Tu F  }:  ^+vn Bx &{ .^+R]++^+@^+#^+$^+%^++w 5d Do )| |& yR ]{ 5f |z 2} 3  4# >( H$.3# 1j jI B-.~h Rd #0 {q ]E ad w5 >% L# I+ TI (E k] p: Y[ x' :$ FI rb #^ ,R.&^+*^+iJ.=^+-^+;^+>^+JN.,^+0@+'^+)^+!^+~^+{^+]^+^^+/^+NM.#D (^+L@ S/ '{ xe O@ O@ N, Y+ Y+ u! !{ 8M 8M uE u* r1 hE _] <* g3 V* |b o7 f,.U&.]$ 6p A@ o,.pb :E.z{+_^+:^+<^+[^+}^+|^+q8 oi uM ER sd R= &0 e< S; 3d += wJ.1^+2^+3^+4^+]P.5^+6^+7^+8^+ec.}X 9^+0^+47 t/ DC %[ E/ E| E| R2 F] <^ a^+b^+c^+d^+e^+(D *v MA.RR.f^+g^+8~.C-.n3 >p nx oI Jy.jB Y% Tj S; A^ 8p qI ",
";{ ;{ ;{ ;{ -{ ;{ ;{ A^ r1 r1 r1 q3 Z< Z< k~ u* u* k~ v: v: D^ C^ Z< Z< D^ /2 w* (% 5K 5K c@ UZ.uM *| ]2 w% r] '# k{ [  d4 .B t] tH Ed Vf ur ,} C| %y..g i3.uR }  }  |  ^i `-+`Y sn.h^+i^+Lx.j^+k^+l^+m^+n^+o^+FB ): <|  < Yp .> A^ a) p/ .> uW Z: @z t/ `: 45 Pu 4: @^ V].im bl.4J.!_ D=.Pj.))+p^+q^+r^+_z gO T) s^+q( G[ @c D_ U5.t^+g!.]}.*} (H u^+);.!3.v^+~v w^+pK.H_.x^+y^+h9.1^ 5W z^+k#.%m.A^+M.+b[ ^z ^z zS.%h '= ,= Ir }] u> 2h O<.I2 =f Vz B^+E@.C^+D^+E^+F^+Mk.G^+H^+cQ 3g.I^+|w J^+/' 9/.2k AM &{ V>+'W.K^+L^+M^+N^+O^+mH.5* 66 *_ Hw v$ %% TI 2} I+ 8~ R7 Da <4 %% BM LH.u4 St.P^+Q^+z7 R^+$H.S^+FY Xe VH Y, |b 3& ]y >} fT [= z. or (S Oi q. T^+U^+<=.V^+G{+W^+X^+Y^+Z^+`^+ /+./++/+@/+#/+$/+%/+&/+*/+d- v> Q8 7+ >; M, Z+ A) O8 :& -< pN Xc.k~ C^ u* 1  j; .> <* (t ~5 ~5 2} #z ($ T7 @+ V} q:.{t 98.=/+-/+;/+>/+,/+'/+)/+1].~( R1 Qf 3+ i~ <' &0 `  $b F] Q- !/+~/+{/+]/+^/+//+(/+_/+E{.:/+</+[/+}/+w! |/+l} L) M= %1 2).$1 qY s<.1/+2/+3/+4/+|f A5 Ua 5/+N,.6/+7/+5|.a,.l'.nx nx S'.nx UH K4 ew %h h1 hw w: ",
"/% ;{ <z ge.l; '; '; ={ *{ Bm ng.8M %| C^ k~ k~ k~ k~ >{ v: >{ /% /% Z< C^ u* q3 :k q3 /2 >| RH s_ G) 4+ sd {Q :% d@ -[ oi ;P mx +^ lf iy.Jx za He Ms 9u _9 Jy.j>.>, L@ SO 8/+W{+9/+0/+F=+~^.a/+b/+c/+d/+e/+e[.>9 ml l5 `: =: 8M k~ q3 zm ng.<k U% '% :' @^ hP 4j R+ T} I} oy.f/+*i.j!.nT R` I]+g/+h/+r, i/+}  r:. < ch E] *1 w} A: }d 4' 0l u7 j:.<} q;.p. j/+A, XD kc k/+l/+m/+n/+Zh.>' +( o/+B1 p/+ ; (T jl 8N.U= ~M.Ym *$ T= /b u> =v pj D6 Ek q/+02 r/+w)+s/+t/+u/+v/+w/+x/+}y  >.04 D&+`w q9 9n s3 d@ }  y/+ju z/+A/+B/+C/+8z.Ix }@ @5 (O Y@.h) UC }G.Mi R@ =1 ]h j7 O9 wg q[.D/+E/+F/+G/+H/+]!+I/+J/+K/+L/+Gm Wh R| /= x[ 9W.0W.M/+E#+3d yx.R0.T8 N/+f .@i.O/+P/+8] Q/+R/+S/+T/+U/+^/+V/+W/+X/+Y/+ 3.Z/+F` 6u sI !( h, 7+ wl ]^ -< ~| f) V5 4+ 7L `/+ (+.(+#8 5P U< 5+ J+ y} u+  6 5f w+ y; #z Hg uR +(+@(+K-.#(+$(+%(+&(+*(+=(+-(+Q0 [  ^j ud I3 [- Oh.KH (= {N 5# 4b ge tM.D]+;(+>(+,(+'(+)(+V*.!(+~(+{(+;P I_ &u }A v3 el 0<.](+^(+.0 $n PH N) @p /(++S.*5 6r wy 2E Ax x<.[r !n cF oI _t.8} bh.Bt fq G5 3} NI '= Lt ",
"W{.W{.W{./% do >v X= vW.=:.~k.B@ Bm uE t* v: k~ 3_ 3_ 3_ 3/.3/.3/.7) 7) 7+ %/ B) ;1 O4 2& v! :& [& 5p ;D Cv F2 !4 -, Zp gO Q8 IK Y= ((+4w x4 9A Pp _(+,t.Pp G++I:.dg.<] u_ 10.69.:(+<(+[(+Sk }(+C~+N,+|(+1(+ea $y l'.2- p> l6 u* ^^ ^^ Z< n~ iB E3 +> }G Av 2(+3(+G_ &+ eW.Bs.dz.4(+5(+X-+6(+7(+8(+9(+0(+a(+b(+*H.*H.E[ Xf.<= !8 D).&e o' c(+W.+i8.q!.[d.6m d(+Mc <1 M{.e(+f(+h3.g(+h(+i(+^O.j(+L:.U6 M<.v~+(H.k(+~).A' ;} _W.}- ]] 4} E' do $Y.JP I0.l(+Rv 64.m(+$]+n(+OM.o(+p(+Rh.q(+Sa.oM./7 {4 8,+Nu @  }  eO.r(+s(+0,+t(+u(+v(+<! *7 G  FL .c [# R$ <8 ^1 qd '0. 6 9: 9q T7 7f OS w(+x(+y(+z(+A(+B(+vk.C(+D(+E(+7!.EU $b .b =# h; g% 5f S= R& {v.u]+8%.F(+G(+H(+I(+]l.J(+K(+Gm.L(+#'+M(+N(+O(+P(+Q(+R(+Hg QU #t Q~ G. .c }o.`+ .c ;< 1# ~{ ^- eN L1 5M S(+T(+U(+V(+1 +W(+JM pn ~m L( <t ;% 'C `> 7_.X(+Y(+Z(+`(+ _+._++_+@_+#_+$_+%_+#8.]/ jJ }>.]* -# (f aF U% p] u: D. %: ;^ kw &_+~t.*_+Z&.=_+-_+t5.;_+>_+,_+i  *H.%T.w&+[.+'_+I$.Vc &i ^x Ay 9h R1.Ya )_+DC XB ZW wU 6G.5|.pb !n eu _t.b[ @< @< @h $E nx 2l =0 g3 z' ",
"W{.W{.W{.2X.`}  l !_+~_+`:.~k.^2.8).ng.{_+ge.>{ i=.QL QL $L 3/.-L fZ 7) 3/.v: <* 5# h% h% P. X+ $~ [| }- R) :* In C) y% -, L@ L@ }  rj *j -p ]_+^_+Es /_+O]+uM.LH UH v> v> Q0 W%+(_+__+:_+<_+[_+}9 }_+>E.=G 7M.sG.9  D' KA w* W< Y> r! pN w_ |_ EH V% V].I- |_+1_+Zy ~F U2.p;+fw.m& 2_+3_+4_+5_+}1 6_+7_+8_+~@ gh I^+R/ uI Vh T$ Tl V/ n+ CA.9$+;).ys }++Fh h. !L.Va 7M.9_+0_+(].a_+b_+c_+Sv V) gl.gl.~F w[ Lf R0 *+ >} p8.d_+e_+WO =# j7 N, ng.v> }  /7 Ur.L..`v @{.f_++@+%n.ei.#*.9#+Lx [A :] hn w{.x% @  }  G]+zC g_+h_+i_+j_+ 1 22 O@ /2 zM #8 ($ R$ V5.^1 qd o7 wg ^{ E,.~x `-+5d.k_+l_+m_+n_+o_+p_+q_+r_+s_+t_+I- Q0 a) P< %C 1O u_+1j ^% &q ~( UO Ir.bQ v_+Uv w_+7D.!} x_+c/+@!+y_+z_+A_+B_+C_+69.&{ v> A@ t9 K/ Th Cj >: ;k ^^ ^^  @ ,# !| U< `= D_+E_+F_+G_+H_+I_+J_+K_+L_+ .+5r Gn.`} WL bN Ho *Z M_+N_+O_+P_+<:.Q_+R_+S_+aK KL.Q= |  gz UP.p_ 2j 2d.bF wo }8 yR [  }  A@ %t 8. ~3.T_+U_+Z(+V_+W_+,]+,5.X_+`, *o %.+t( ,) tA f~ J| 6d /z 0D w$ }A Tu '/ .z $o Vf @v T8.T8.vk Fc Fc E*.vS.Y_+d%+Z_+Y_+W%+pK to ;l hA ",
"3/.W{.-L W{.do p/.`_+ :+@&+.:+'M 8).uE {_+`{.3_ G<.`:.(J.QL QL fZ QL 3/.1_ 8) ,= &_ :t 4r g3 #. 46 x$ $. L# Z: h, -, <] Zp [  -[ v> ED .^ }++G` g .s, 64.xC +:+EW +v uR A@ o,.v( U8 p>+9:.Be &E.@:+#:+fO.@H.$:+%:+kr D^ g} xi Y;.%8 7_ ^^ _^ fV.,2 16.X].&:+*:+gn.*:+@d Qp )) r, =:+a;.-:+;:+^! ]E.>:+D6.,:++@+H* ':+{( :O _* A+ 0$+):+[W.N  v-+ub.F| 4! rh 2).5! !:+~:++Z Bj.W,+{:+]:+^:+/:+q8 }  S+ ch (:+((.S(./~ %= ]# _g <0.v@ 5Z.*# 6z  @ -[ |  oi j& U*+{'._:+::+<:+[:+1q.}:+_3 Y4 u9 F' &c w{.of.@  }  GS |:+1:+2:+3:+4:+-!.B+  } b& (% /* T} pY bI _1 6& V* )% `^ =r hG _= Fo SP.!z 5:+6:+7:+8:+9:+0:+a:+b:+n>.q8 _= JR {V.)Q.c:+~h..l T+ FU jr.d:+e:+f:+<w g:+w3.h:+i:+h]+j:+k:+l:+k:+m:+n:+o:+}  |  |  Do !:.Th [4 ,: t: K( ~2 b{ 7+ +} X  2-.=V.Sj y +p:+q:+r:+s:+t:+L_+H] |h Fm u:+-P VI.kD.nl.v:+w:+x:+L{+y:+z:+Vz NA.A:+R& VR |  xv  K Nf [- zq D6 l5 IF |0 [  }  }  G_ H+ )4.B:+C:+H&.D:+E:++^+F:+G:+L'.-!.w~+QO.^Q.F2.*.+:l z$.}~ 09 _$ Lo '/ '/ /H *0 2l sU 5u F*.J4 Yh 'q fq 62 H:+I:+J:+K:+L:+%E Gr yt n(.",
"-L -L W{.W{.do M:+N:+ :+`:.O:+~1.'M !1.{_+cW.P:+Q:+R:+R:+S:+`:.Xp Xp fZ ~^ 1_ <* j^ A+ A} u+ g3 <b {q F] ~5 H, {/ [% K@ L@ oi K# <] p/ NI %] J| oH FF wC T:+7[ J}.g7.JW zS.qr  n z. En.zq -W.U:+V:+W:+X:+20.E~+Y= <] 0{ 0P VD.7L  / hb {L 3_ SO GU Y:+|).E3.Z:+.*+`:+Y| v_.31 G@+R-  <+*i.!/+U_+.<+.<++<+@<+@( #0.#<+Nt.&0 u! ~8 D  h7.v) =a.l) ^s S$ g% 4& ^~ {% Jj %{.pR.[)+$<+R@.%<+&<+*<+J'+#  Zy =9 =<+;_.#% J7 Tl b' Jq._-+M0 %e l] |+ 4_ [] ZS 3{+7u pa -<+5q Cj.~*.;<+j+.><+Wh.Oh K`.TL ]e En Nu @  }  l~.{t ,<+'<+m^+)<+zF N7 n] 2g $| ;; n;.|% X' I:.^1 +[ w+ w+ LJ Xf Sq #$ 6t Q).Z(+!<+~<+{<+]<+^<+/<+(<+CU Q= _O wv _<+:<+<<+[f.Zh f{.#h [<+}<+|<+1_.-i.1<+2<+3<+;(+4<+h]+5<+6<+7<+8<+PZ Gk Q= }  |  W{ O$.g7 ~x 2p ;k [K W< ('  [ G  `< 7_ yV.!L [X <f.v@+9<+0<+a<+LI h) D@  n b<+c<+d<+e<+f<+g<+h<+i<+j<+k<+cE If 8b.dR.[] |  |  '| :2 t! jf f{.!M i'.zr ^- -[ |  S+ >d B' Tm T3.l<+m<+~/+n<+o<+p<+q<+*=+r<+=w kB _t.s<+<Z R0 NG (F.K| '4 My `A *7 >% g3 +> _q .^ C6 kf PG PG 6G  t J:+t<+Rc.Rc.u<+v<+):.aT.w<+",
"-L -L -L W{.fZ kc.x<+y<+_J.z<+~1.'M X{.][.A<+B<+Q:+C<+R:+R:+`:.QL Xp fZ ~^ ~^ r8 ^= O+ j, HG A} (E 5y !8 ^E [g C. K# L@ =v &q 9# Kn %/ /% C2 +;+wu =b y, FT.D<+E<+F<+/0 |' HB.a# A@ Q= 2h ]X.;j -v G<+%:+CX.=g ^q h, :k ~] (*.Y> 6+ eN bP %| WH uR J_ 4' $@+H<+I<+J<+S5 7/.@<.8w.ZW <h K_ Pv.K<+XA.]E.2q.|(+L<+M<+~+ N<+I~ Ka P8 ]| OJ %a p*.r/.;N T. B; A: pY `,.t} Ey O<+E# zG.*-.P<+Q<+R<+GA.+,+X1 {t G2.+j <n [= ]E OG m^ 0- U/ mb cN C' -{ I_ EU m[ >%.S<+lu.T<+U<+V<+W<+X<+L- j] )a.WS 4: B) x{.Y<+@/ &{ U*+!++Z<+`<+4q.5L.$-.5! ]- #~ 14 U% l' :> /}.i:.E-.x@ 26 pn Hd 70 <& 8) ZV.F5 h|  [+.[++[+@[+#[+$[+%[+&[+Q= U{ 37 &V.qK `G 5E *[+=[+^n -[+;[+>[+,[+'[+^r &B.)[+![+~[+{[+][+^[+/[+([+c. %h Mr P, fn 9{ Q3  i  b I3 xd r_ t$ 8- q9 G  *s ~] _[+:[+7k.#M RJ <[+[[+}[+ y N4 p> f3 @$+4#+/! |[+1[+2[+3[+{! 4[+Uv {t b. XB v!+0N 5[+%c `< @. P. if l! sV.9F o7 5p ]4 a& iz 4} &: }% Gr.6[+0>.7[+E5.8[+9[+0[+a[+b[+c[+d[+v!.e[+s<+1l )> V5.|k '4 =/ E. $~ c{ I1 I1 _$  - U% i~ [f.Mf `] )&+.D.f[+g[+h[+i[+j[+k[+l[+=<.",
"-L -L -L W{.fZ o3 m[+y<+q&+n[+J<.7<.o[+o[+`{.p[+Q:+S:+ZV.R:+`:.n=+QL Xp fZ 2_ Y} Zm 4{ mb g% P+ (E A9 {-.n6 ,0 k; C) L@ [% 4s.Bm W{.v: Mb oi v> FU 97 FF C8.q[+Nk r[+Ds s[+_S 3C v> }  }  ); t[+u[+HS -P xO RU 7f !Q '( 0m HO X  2*.HO !k.cJ C) &{ VS v[+@]+w[+0L.Cj.$ .x[+&{ YS y[+q)+|B !  j+.j!.z[+:)+A[+B[+QM.C[+D[+v'.j3.v> t>.G3 /4 FH.P++6$ a- *, l' -i M$ S$ +!.Ir.7/..A.oB E[+F[+}&.G[+H[+I[+J[+B2.az oL..^  - 1j mb o{+g% x+ g) $b EU QS K[+Yc.L[+H .M[+C_+vp N[+$7 O[+th p8 j3.1o.u| L| P[+Q[+u_ LS R[+&{.S[+~l.Z(+%-.fI <! ]s )4 C) Y} Mi q+ YW i:.k, 9$ V$ pn E  1#.~D OM 8o IM GS T[+U[+V[+W[+X[+Y[+Z[+`[+&{ SU .[ 4Z Uj `G  }+.}+!i.+}+@}+#}+$}+%}+&}+:A *}+=}+7L.-}+;}+>}+A).,}+A$+X,.Q~ N, d&  } /e mn Rf =r 60 Fd e0 t: v| )C uI FN !^ =% /{ Cm.b- v% #M BX.LI u: ;P 2K c0 Py.W9 '}+)}+!}+~}+{}+]}+LB.8C hm Yv Q| [{+bM ^}+]4 Y: wo ~).yt F6 CF.dq 8w lk J) N, u: _f -[ A@ YS #h R4./}+(}+_}+C^+#}+@=.:}+<}+[}+}}+jx eR xp Xh f{.HL <' j^ _$ $~ 2] Y$ M+ R7 z_ /* V| Z; ]] rb |}+1}+2}+3}+4}+5}+6}+7}+8}+9}+",
"fZ -L -L W{.3/.7N.0}+h~.t> uk ~1.Y{._O o[+a}+b}+c}+C<+d}+S:+`:.`:.Xp fZ 3/.~^ &: =/ 57 3# x[ v+ ]% {h {-.B; ,0 =: Vp D) ZS aN W{.+Z.,{ SH Q= }  ~( &v %* e}+f}+q[+g}+h}+(Q..Z 3A uR &{ V} #$ i}+]A.xO ph.Fo (b /H >/ t3 xJ #8 Z` Mh.KO uE +/ L@ A@ U) j}+`++k}+_/+gW R5 l}+uR IM WN {h.7w Es.m}+ @.&( n}+o}+B[+u'+p}+Y. fe e@ d4 3]. = _}.7l.l_ 7l.&# $Q.'8 #{ '~ ~m &: Yp DU ~.+q}+:x r}+s}+t}+u}+v}+is.9~.S=+#< 3w %0 P. (8 A> pn {$ ,= zu w}+s>+x}+y}+z}+A}+L& I;+R4.0t .= jr 2'.K# S& )/ ]| B}+C}+Q[+u_ -P 1_+#B D}+E}+F}+0z.*w ~h *0 T) A@ &: l' >c 0<.G}+zb.;L.Ul =2 9q  ~ aM U< _- Q8 [% 0x.H}+I}+J}+K}+L}+M}+e4 v> z0 @. ~x '$ >M 2c (*+N}+O}+P}+Q}+R}+S}+![.T}+U}+<6.V}+W}+X}+Y}+5L.>!+cx.3l 8:.A) K) %% t' :p `! %u x; ;= ,; w_ hw `}.tI hP yu +> z! C  N+ z+ /e h7 [4 p8 e4 GS Z}+0+ P].`}+ |+.|+y!++|+]4.oR.jw b# UO H1.rq P8 iz ;1 &, g3 gs e(.@|+8A ,t vl }- @8 N, C[ >m d@ Q= 4j b# 3G #|+$|+%|+&|+*|+P'+.` =|+-|+;|+6w.tu 9I.7} ;t sG BJ i% i% 2] O* :t #z P. 5# +. Db.e< gt &7 lF.>|+,|+'|+)|+!|+~|+{|+]|+UR.",
"-L -L -L W{.v: NF I) p3 ~# KO k~ B^ BO ^|+s]./|+p[+C<+S:+S:+S:+n=+n=+-L 3/.>{ Ag :z /* gb z_ Y+ xg.(|+_|+n6 d  k; )| 4u oi /b e< :|+AA 1_ sq [] R& Gs Gm ]v (,+Gx.<|+[|+[B Tv 6[+}|+_> `$ _l ||+NS -P 1|+<%+!; 16 ;4 EA 44 {{ FM  M 9X.E) W{ L@ Q= j& }' 6] 2|+Nk.>h.A++3|+i3.-* Br #  }p e! q!.*w.Re.F# 4|+5|+S@.6|+R!+7|+9i.-} lj _> b1 pi 3& $Q.Q> 4t.@[ ^s $2.y+ .@ [  Q= i& E~+M..J[+8|+9|+0|+a|+b|+OY jV c|+33 %: ,* g& on M5 u: :f Xe 5;.t%.d|+e|+d/+f|+{t.g|+:! rh c{ gw.Q= e. x_ 2] ,0 CC h|+hq <] q8 dL.{s.i|+j|+@*.k|+(! b~ 6! x..d-  q Qq F! +z.l|+d< `_.O).=2 O; YG XG  / m|+L@ A@ v$._S.88.n|+o|+p|+q|+Fo &{ qj X} t! e} r|+i~ 9( V@ s|+t|+u|+v|+I+.w|+x|+y|+z|+A|+B|+C|+oa.aK in.s>.'= 6i A* y+ -) z; {:.D|+[T.oS !x [8 >D g. *H.Ud.Z).`e g  |b M  S7 Cc '/ A%.{y v9 E|+Mg Y7.[U u/.F|+G|+H|+;[+y}+{r x4 u/ `e kP IM _k 1h +c ~{ R; i[ X% I|+J|+K|+Ks &9 Y; Xm C' (= i, ~4 :] WN Xu r6 r^+0z.L|+A8.M|+lV N|+O|+z=._X.5z.P|+5b *.+`u @l F3  6 x+ h% Y$ 4r z} }G  ^ ua n3 C( E6 :,.d-+Q|+R|+S|+T|+U|+V|+W|+X|+Y|+",
"-L -L -L W{.v: ;< O8 ;; Z+ ]^ ;< ;< 5P p/ v> _I.n[+R:+S:+*L S:+n=+n=+-L fZ W{.3/.W{.Ag jE 0) Z> #g.^%.ht <8 ;% +/ mE H  ZS nj 4p ^1 |( qd .p s: :q k2.4l Z|+`|+oc  1+ha [[ 'U..1+'u.+1+@1+Ff.PS GS Fo #1+TO %[ =a.++ !r.v% ;< I5 <- I5 7M xw )4 d4 zx.1< $1+%1+&1+*1+U0.!r Bh =1+#H IM i& @t kA F, ^5 d# l~+J;.L<+-1+;1+>1+,1+'1+ #+Xr fc.ma.LY.CS v) b= )1+L] 6(.-3 rq |  |  }  }  WS !1+_F ~1+{1+]1+^1+/1+(1+_1+:1+dT ,= jk O8 <1+P8 &q Tf [1+}1+|1+Ma.11+21++:+31+Ur.H, p> &5 3'.G' d  bh a7 =A 41+$J e. Q0 1_+51+61+71+81+E8.91+Q3.5).+'+01+a1+5C C/ 00 %W.b1+c1+i(.`x ]N Rl 70 I3 q3 S/ A@ v$.0x d1+e1+f1+g1+h1+Fo }  Eo *[ y_ W> C) ~^ (  B;.61+i1+j1+k1+l1+m_+m1+n1+o1+p1+q1+r1+s1+7.+cQ &[ Ev xF  k /G.<_ t1+*a u1+}`.v1+vO OA =, a' :_ }).j% X5 */.(: M  d= C_ 1A 's M0.V2.w1+x1+c] y1+z1+A1+v. B1+ M.C1+ w D1+s| := rj $5 6: E1+Lo /H M  V4 Kx Q..1J F1+Ip Ee h{.<' Y{ i{ _* ;1 G1+H1+mk.l9 I1+J1+K1+L1+M1+p{.bm.N1+;-+R!+Mq.jI.si UB R0.fO ]$ [8 A+ :t QH |b V4 >r K{.~++cx Zv Ms O1+P1+Q1+R1+S1+T1+U1+V1+W1+X1+Y1+",
"-L 2X.>{ k~ u* 8- f[ `J Mn 5+ L1 0m /- y* |  L@ Z1+0|.`1+Du.Du.Du.0|.0|.=:.2X.W{.W{.3/.i=.aX AT.j~.(|+g-+*+ 5p W{ BG /t [% BM g-+Zc ]1 pf w' (E >= oi &{ GS hn.dm  2+}x .2++2+b/ @2+#2+:}+<w $2+HS =X.%2+&2+u8 &3.r@+3G.h7 X  $/ ,D $/ 8<.uE C< GU *2+(~ )5.uQ.=2+/j.HG.yB.-2+2' ;*.q8 A@ IK <q 2t +t MA.(! ;2+Zt.h=+>2+,2+'2+)2+#^.!2+7E Z4 $c ~2+{2+p++Q.++s :| `W.c- }  }  |  }  &{ l~.]2+^2+/2+(2+_2+:2+<2+[2+sp Yv 7) i; '( G' K# [% zt W9 }2+|2+If.12+22+Tv iA d- ;[ !( TL s9 ,3 2] %+ H, s: /' !R C) [% F1.54.m. _3 X1 `9.Uf.+3.NB 32+<$ HB.Gs [A '4 -i QW.`)+7( qp.Dw  ~ 70 N. AO IK &{ d:+42+52+62+72+82+;W.Fo }  rj s( D' #/ oi fe.=2 3; ;G RZ 0, 92+02+a2+b2+c2+O#.d2+Yd.64.^/ &{ pr d= F} E!.Kz.O%+f6 4{.$v.aY.;p.l|.>N (I.O%+ZT.Va.FH.X* Ev C/ F1 y} W+ N+ Lo 1h >, Fn.NV W_.e2+f2+g2+N[ N1+x5.T .h!.'n.h2+-P q8 q8 WN dh 6i bh |b {h (o F6 cq #y.i2+p/+7j pK .< M4 q> d  5p 9- 1h `w {S.p:.n1.j2+k2+FC.}D.-Y -Y !~.;Y l2+^;.6n 7} G<+$$ J) 5{ ta o7 V* 0D -5 a. m2+R*.8-+n2+!^.U&+o2+Q1+p2+q2+r2+s2+t2+(w G_.P[.",
"-L W{.u2+k~ `< w| x|.e|./*+s(.[n ~N k6 0{ <% C) 8).l}.3{+Du.Du.Du.Du.Du.-L =:.-L W{.W{.3_ 0) ES.sb 8q {-.;( J+ l~ 9H H  Q0 I@ -*+5X.EY ib.(o sH [! A@ IM '!+<E +,.m| n< v2+w2+x2+b-+y2+Ke.z2+A2+B2+C2+6C.+;+qd D2+E2+/L.[4 9M $/ =< NJ uE r1 *: (^+lK.J.+]~+F2+G2+iT H2+I2+J2+3q Hp WN oi Q8 !( @+ w..aa )j /i.$C.em.N~.NZ K2+L2+M2+Pn.HQ.N2+Jj O+ ^N A0 K| @y xs En.I_ }  }  ]/ [  Q= JS O2+P2+jj.Q2+R2+S2+T2+U2+!J.g, i, v|  @ P, )m IM J2.l: >&.V2+W2+X2+Y2+Rv [f T) |  Q= In m7 O+ /; @>  = w$ L| G  Zp Q8 -9.b# #c <{+EY Ue.E;.r<+Z2+=' `2+5). 3+mr..3+j% a- 3t.<_ <_ o]+Fw Xf v$ H(.Zy d:+$M.H}++3+@3+lq.#3+mc.rj }  rj Ja ]] G' K# Kn %g N= K7 J.+$3+%3+&3+*3+=3+-3+;3+>3+|j.,3+'3+zx.)3+Bo D! Ul }~.V^ 8( y*.!3+DI.~3+t1+Ob >Q.xz ^& ^& ]D.:_ j% {3+}G */.wJ G2 >D :q k2.]3+^3+;5.>=+/3+(3+_3+:3+<3+[3+C7 VL.l~.}  v> LS GU .B p( %[ Ij Ye DJ G6  p }3+|3+{F.[r rF 3>.dw p( F. I) :* E' }] 3l ah.13+23+33+43+53+z++63+>G.73+P)+z;.oH !h.w;+rI N, 6z z! d= `$ #0 +3 fK z]+83+F=+U}+93+93+03+a3+b3+c3+d3+e3+n7.** $t v&+",
"$L >{ cW.k~ NJ U3 #-.Jb.x|.r(../ uY x| a{ @  @/ WL z_.Du.#L f3+l}.l}.l}.l}.g3+g3+<z $L >{ jE Z` Mf {h {-.w' >; t1 +  m~ HK va BF h3+i3+er y( 8M.Tx lx 1- `c Gx W{+j3+>9 k3+HX.l3+m3+n3+o3+p3+q3+US.r3+:V.e&+8w ):+s3+I{.R< 0) v: SI q3 <P FL ym rj 3I o, y7 (7.t3+u3+v3+w3+A^+_3 Hp e4 oi '# d@ :% T/ mx 3r q. x3+8{+{G.y3+z3+Mk.A3+A+.l&.jA.:r FS v| EH :b I| t[ cM.3l Q= }  |  [  -[ A@ ,L.uJ t>+B3+C3+D3+E3+F3+G3+QU Mo v| w_ r9 3: H3+** I3+J3+K3+L3+M3+N3+Y& .3 gw.Q= y% r1 _c PJ {% kw.G] -1 -: >m :% y% a{ Kn B) X{ g, Bp v]+4o e}+PW gv.y1.Bb.O3+X].9i It *k *k (k P3+qE e0 k~ IU hm ^M Q3+_c.Hv.R3+S3+T3+-5 WN }  4s.%j %0 i, 7# =: '( jk U3+M( !-.R]+m3.V3+W3+X3+dj.Kw.Y3+Z3+D++lG <d.Hx 1d c{ .p Q. oF %e kN.`3+~= R. bs.7( 0' L[ ^& a- n@+G#+S;.m> QH cM. = i% R;  4+#<+.4+0;./i.#+++4+)+ !;.oC >I T,./).LS }  }  }  }  i& @^ }G S@ Gf =u cd @4+#4+$4+%4+&4+}w cF j=.>f j^ -# iB Kn C. tI *4+=4+-4+;4+>4+uR.,4+'4+`c.-z. ++o; 9~ j1 Fo lA N, 6z Da !~ !> @] {W.m(.)4+!4+~4+[A.{4+]4+^4+/4+(4+_4+:4+E/+o(.<4+x* =| ",
"i=.$L >{ k~ %/ ;k Mn [4+[4+/*+#-.w|.Hw e. d@ @/ 8).eZ gw *L *L 0|.*L 0|.}4+}4+-L W{.3_ 3/.jE _^ Mf {h bI {% -: 3> j}  | &{ [Z |4+14+1=+24+:n C5 D| Rd zm.Gf %: IK <%+c +h| 34+Vv.44+54+64+74+84+d[.94+:>+lK.b9 l> 3t. k F. aX /% %/ C^ JO ww +/ ^q 4l Q1.04+a4+G2+!l.N)+%-. 0.*} jd (^+QI [] @  |  |  Q8 et m2.Qd er b4+[1+c4+d4+A3+e4+f4+ 4.d!.oi Zp 6: Z{ wD *o j9 %{ T) ES -, ;, mP gO `[+g4+h4+i4+j4+k4+l4+m4+%X.cT 5: )C &/ `  n7 VO :s.,F.JN n4+o4+qm fa '..@c }g {4 sd .b E!.p4+Bz 86 [^ i(.Su P, Q1 vK BA d@ |  }  &{ d!.Xc J[+f(+=i.f] O& .>.N].F+ XB <k |/+`4 >u Sh Q3 :k ZS il Yc m{.O)+:7.q4+K1+r4+na.s4+(^+v> (^+&$ &0 p> .> t9 +C Vp [  T0. ] Pa.$A [1 _F.L&+<#+bG xo.B[+t4+u4+_i.jm 72.}b U*  ^.,] R;.;4 a- k% v4+.- A  &2 j_.8@ w4+;2.9@ l) x4+S% y4+q@.*$ bv U,.z4+A4+B4+iX `3.6*+C4+26.D4+#v rW 9_.}  }  }  }  }  S+ P0.8V.=7 t8 c1 SF S'+P|+E4+g[.Jy K` =u =7  ^ E. [@ Y  sq (7 [k A_ F4+G4+H4+Uj.I4+J4+'*+g .H.+e5 /z A/ Hg =g WB ;# RG.5z E] 67 87 K4+L4+M4+N4+O4+P4+Q4+R4+S4+T4+U4+V4+XK.f| W4+>v >M 3y ",
"$L 3/.>{ C^ D^ d0 g[ ^e Mn L].L].0n FL D) @  d@ co ~^ Zk ]{.Zk gw n=+n=+n=+}4+$L $L >{ 3/.Ag ,{ CG b1 >] x} v! _% j} m~ }  I2.X4+Y4+T_+T:+Z4+Lb.4#+x4 n1 Sr ft DH F).^q `4+v]+ 5+.5++5+@5+#5+$5+*E.%5+y/ W{+S{ T& v3 B} kk QL <z /% 8<.co p/ Tp ~( {( ): s~ &5+Rk.C` x` *5+6. 1' ~h =5+1{.L@ }  }  }  }  A@ $j )A O,.g5 -5+k#.;5+>5+,5+'5+P)+)5++@ $b Y{ g3 aq W| F9 z>.yx.Q0 2h c- K# <] ^q Y= YS !5+~5+{5+]5+^5+Fp ze O| hE r9 $b Ja t| 5> N..dG /5+vC.4<.1D.** tI P, }8 ;V.L8 (5+_5+:5+M*.:*+:_ W2.j{ Q1 E} s] d@ }  }  }  ty -l Hk =z Z2.<v.<5+[5+32.BT H7 ~( gO ^p 2> S< `J F' &{ x&+O# n{.}5+]m.MB uJ |5+t,+%H.4s.v> o,.-v .^ 9) Y} n7 ~4 d@ }  )m &[ pd 8u |B 15+^v 25+ya t++35+45+55+65+75+y5.+j ~).V* |- D/ Y5 s' {' O%+|r.l_ l> s' x4+85+95+(S.5t.p++l> En.lx.zu 05+);.a5+b5+c5+d5+;(.e5+pW ur w}+O*+F_ k2.}  }  }  }  }  }  IM }% &[ t} j[ #; 2@+f5+g5+Zx ^_+H).2>.Ye [| Zm N/ 4} l{ tx.U5.o~ h5+i5+j5+z#+8%.dd =b dq z2 u9 X,.m1.;[ Xv WL ;# /$ 1h.T| F, tU k5+l5+#7 0T.m5+n5+o5+p5+q5+r5+s5+t5+tP.f| W4+fO ,D :2 ",
"QL 3/.>{ k~ 7p 2> f[ 4g Mn  K w|.0n FL '# d@ <% p/ 2_ B2 A2 bz Zk `:.n=+`:.u5+QL 3/.3/.v: 8) r$ CG `c e! m' -: _% j} m~ }  5> AD v5+4. Pw.Jp w5+V3.I2 )A /H.Xv V{ {2 l6 4l x5+q} y5+z5+pk.A5+B5+k3+tt Kw  x 0.+%] O= ta C' 1_ /% ;{ C5+Y{.e[ !( ZS o,.,} r~ *1+D5+c;+v3+ M.E5+l. Y4 ;e.SU l{ }  }  }  |  ZS th Hs e].9x._3+F5+G5+H5+I5+J5+M<+qg },.h++L] ^x 8x u9.K5+ 3+e@ lr.rj rj l{ :] GD IK YS L5+M5+N5+O5+P5+Q5+xB 6) 8: hw `: 1z .^ LP.*,+$w R5+S5+T5+U5+V5+mr.Kt iM.W5+Fv X5+o% !!./> [W.bs.M5 {N u_ a{ '| #o }  }  }  WH eu Ap VS.:y d] Y5+o)+Z5+)7.7u q8 K# e. _f Hw Ia yO.`[+&^+!h bV d#+`5+F.+ML.eg.I&+L0.oi &{ LS {J.dw *$ jf E[ }] !m S) f. 1- #0 -5 !> vw i[ 0J e9 Fz. 6+`}+Yk.J5+h!+.6+Bd.oI Yv %H.~w }b &2 +6+~3+}X |r.N= :_ x4+@6+nT.nT.;2.|1.F#+g. (~.#6+p9.$6+k .%6+HM.&6+<F.0s.*6+=6+-6+*q LL.d4 }  }  }  }  }  }  {( }% p~.$c ^1 Ac w3 ;6+)9.Re.KB Q# l, !8 <b  ^ /= ye {v.m6.>6+,6+'6+)6+}i !6+ww.]1.Rd $s ~( }  }  |  [  F' .> ;% 9: t#++j im ~6+{6+]6+y~+SR.7S.RS.^6+NC m5+<6./6+(6+PP.92 v1.QU ~^ aX ",
"3/.=:.>{ ge.D^ 2> /' p] r_ `+ ~] ,# x* @/ v> v> d) 3/.%j R:+t[+R:+n=+0|.}4+u5+u5+-L 3/.-L Ag uk 9d Pa pf 09 >; t1  | m~ }  _6+~3.:6+<6+b2.Me %4+`- o[ cF [6+QI 1J.'%.nL.[% E~+y4 t'+}6+|6+16+A,+<#+26+#x.rW  s.R@ L) R) +. $L 7) B^ ][.RO C< OI 6) >O hI h] 36+46+56+;1+]r oy uA |k )F.`} A. }  }  }  -[ oi ty g~.;v Q&.52+k#.66+76+86+96+Jl.06+a6+KW.Bz M$.I9 ${.J` Ir.z2.Kr.Fr.d. R& :] IM RS n6.h^+b6+c6+d6+e6+f6+{D.u> C. ;{ EH [| Di Uc Au g6+h6+i6+j6+DT.k6+l6+Rq kz 'J.yM f= NI.m6+0( 3] X&.g& 7p Q1 Vp '| s] d@ |  }  4s.)D.`G.n6+p2 ,a o6+/ .p6+k:.y]+=* X, t( t9 qo (l 4  |x.fr W<+_c.q6+J[+ql  ] 67 'A VO ,4 Q0 GU TY.lf _b KH V% 4d (l |/+Q~ jf Bc $o j^ }f.2J.JO r6+M- s6+t6+u6+v6+w6+}l. M.H4 D1+^9 87 u/ 51 v5 yt.%e |r.e& N= '{.3t.5y.R. s' F#+(1 (t ;O ,, Ps x6+y6+z6+A6+B6+C++um.T5 tp Hk b0 Uo _$+QS GS G]+l~.C6+J'+HW  n E! R$ 0E 2; U. w;.{w.S-.D6+G+ sa dI Di U= jf 1t m{ E6+F6+G6+H6+I6++i.J6+rf Rc vl @^ A@ }  }  |  wK +/ C. r8 z} ;9 ml dx K6+L6+M6+N6+cm ,o P]+]3.mF.-E O6+o2+U}+-B.P6+wG Q6+-n 1T.",
"VB <z 2X.>{ b{ q] m! Ez `J `+  K K( %/ y* 8t QI e[ ~^ %j A2 bz n=+*L VB QL -L QL QL YW.2_ Z  S; _q xo Lx K| >; O|.po m~ &{ #H.h3.R6+S6+T6+ku U6+#l 89 4w T+ B. nL.2*.v* Vp Q0 ,n. $ ^l.gj.s'+;Y (/ m[ |x.+d rW u8 0'._8 U% 3/.8) C5+B@ SU +@ fO gl U; Hi .3.cm.V6+W6+X6+OZ fK #]  x [! >v t| R+ R+ 7: }! }  }  }  wH.Ln I~+Y6+Z6+`6+g;+1P.&N. 7+3; %e ~- t} D4+.7+#<+$3 &:+KP.n6.k>.dC.I_ {( q>.[d.+7+@7+#7+$7+%7+&7+%.+-9.OI '; Jt T& :$ z. j3.z2.*7+=7+-7+;7+>7+nw.=a.,7+It .- _-+'7+e' )7+!7+j% g& 7p u_ a{ $| s_ uM jJ ~Q qo Q8 d4 52 TB L~._( ;|+~7+:j Q-.fD.y~ ){..3+B3.i[ {7+]7+.i.^7+Yc.#w.Fz l(+Xu a# 6j pU 0p Vh 2d.Aj zf u/ ;l A/ }k F1 /H N/ U].+@ ); y* ao m~ }  ZS Hx (H Wl./7+(7+_7+:7+<7+[7+}7+G# -y.b5 LG.ch ^$ `b t'.i(.'~ '~ i++gu.D] {% -i ~> (: z'+VS |7+17+27+37+47+57+67+77+@m.]4.87+!/+'E.li.97+Vv V;+w<.vm 07+V) ;^ 6& -i @& 4& '8 m0 uX.s6 >).<7 }++:| :' T= F[  Z :-+a7+b7+c7+d7+e7+f7+L9.f~ %v Nr 4: |  }  |  `p A^ n~ 5: mk.p~.pI >9.-w ox g7+/:+SP.d%+v1.62 ,n ;w !R.h7+i7+j7+k7+l7+m7+xU !A /w ",
"l}.=:.-L ge.G( ^- [& Fd 5+ F) F) !| I5 BO B@ *: ;{ YW..l bz n7+n=+0|.g3+-L =:.g3+ > 3d :z %s 2_ mf hA ~h Gf 5# P~ po |  LS S~+o7+p7+q7+r7+s7+t7+P[.^ .Zk Z1+B@ E) ~2 #/ D) v> HW w_.{5.u7+%n.v7+&v.3( Kj |k of u8 T* .p D3 <z 1_ a) 6# <q +;+3t }p +@ w7+S~+x7+y7+A3 Yr L:.^].3C i1 WB QL  - Rq 6( m] z* }  }  }  }  w;+;h A4+z7+T/+6;+A7+B7+Kq lj z} 2} pI c,.C7+D7+E7+F7+G7+=q  3+I,+4j YS O>.H7+I7+J7+K7+L7+M7+N7+O7+4s.Xv _= $~ l' 8q L4 &q A@ P7+Q7+R7+S7+T7+hY lW :@ {y.j) k_ v; 1~ (> s+ Z5 F  fn E} E} jn b4 z6 Uj Fd `< |  }  }  (^+>t hI lc Mf.U7+.P V7+W7+X7+m2.tK.R~ h+ Y7+pm.>` Z7+v9.Lm T{ 10.GD eJ 1z |z (  `7+I/ 7d &z @] #H hA :o 5d n7 &q v> &{ @  @  |  }  }  g~.l{.B++ 8+.8+i_++8+$=.@<+@8+#8+$8+rv.m^.3{+_= ~8 ng {~ .K v3 gu.v3 5p.S$ pi 51 %[ ]A.t~+%8+&8+*8+=8+-8+;8+>8+,8+P*.'8+&A.)8+!8+~8+{8+]8+^8+/8+A# (8+_8+:8+B-.[b Y; -/ [= Mi x} C9.o+ Ac zc B  X} UL Pr 4! 6}.<8+8>.[8+}8+|8+O] cj ;O JP ^q ZS }  |  <% =: F( x_ `  }p n3 89 18+{A 28+FR.sx %E.38+48+^H.{k._%+m7+58+UR.68+78+88+V!+98+{3.08+",
"=:.}4+u5+-L aX ^- Z+ 2*.-< !| d} s$ <- H<.Ag !{ 0) ^% z< ^{.^{.eZ `:.-L `:.-L -L Y} D' Tj r8 d[ +!.97 9x ,r ,* l~ po @  GS a8+b8+c8+d8+4. [o 'w Q& #$ f:.`{.3/.p/ *: ^i !v 1{.e8+Fz gT f8+g8+R!.7m F7 B: xo 03 G] S% :8 D3 ;{ r1 SO #$ ^Q.h8+i8+IP.k& j8+k8+$3.l8+m8+/%+*i ch %0 VG vh 3/.w5 &+ +6+X`.G1+}  }  }  }  Y= n8+o8+p8+F3+q8+r8+s8+t8+u[ I~.J~.>7 k/+u8+x}+x}+v8+o).w8+x8+y8+2].z8+A8+B8+o!+C8+D8+E8+F8+VL.N0.~( Q8 *: }+ {= )> 3} '# }  G8+u8.H8+I8+J8+K8+$U L8+yM gY.M8+9< 8$+M* +& C} Gw  [ BA !E c@ kb -u M< 0m Hw |  }  }  v> FD CU N8+|y O8+P8+%W Q8+a5 l, R8+O;.S8+jY ^l &2.&,.33 A/ d[ 2h S+ 6) `A S;.zc zm.mt yu.V6 n8+]5 Cz.T8+Fk pr q8 LS &{ |  }  }  }  }  <4+94 <*.0P.<7+e]+m4+U8+%=+~l.u%.>=+dF.R$ rI In q] 1#.V8+}}.v3 {= bv }2 @2.HG M= d= Q0.W8+X8+Y8+Z8+N^+`8+ 9+.9++9+]! '8+@9+H5+#9+$9+%9+&9+*9+J{ =9+-9+;9+>9+,9+P[.O[+R8.|k b1 H: M= D)..0 4& `b ;1 2'.;[ 5& '9+)9+!9+~9+O|+o^.dc.8V.Q8 [  L@ y% [  -[ L@ In i, |_ r8 Dc J~.@s JC mB 28+{9+]9+0z f%+q[.^9+bN _t.s4 /9+(9+_9+:9+<9+[9+xx }9+|9+",
"n=+}4+g3+}4+jE ;< ~| <- I5 EO OM I5 r3.FM j}.v_ ,{ 2X.$Y.fw fV.*X.19+19+u5+=:.g3+.C )^ r(  q Nr *.+ZW +3 ]: %0 +C B6 @  -P ,9+29+k<+39+.a.Hk 49+G_ !v m|+cW.aX z_.t( 7f t( T+ !c.Zu Lh 0,.59+Bs.p>+%%.}j #H hA `$ y@ #z j~ ][.b  Fo u= d# vx 69+79+89+99+J}.09+a9+b9+}h p].2d {^ 7) o/ YW.g3 fT XL.c9+D[ }  }  }  }  nK.]f d;.d9+e9+f9+'4.U: V(.Kf }w #l ,F.g9+#7 h9+i9+x}+8&.(;.2L.j9+k9+K-+l9+m9+n9+o9+p9+q9+1|.r9+T) }  |  8# d  (  o6 `: d@ }  C2.s9+t9+u9+V0.v9+w9+4%+D|+iW.^c ):+;( d= .p K) >: ;| !E ao yJ >L 4P Ml 2*.'{ 7# -, C) DH oi Q= e4 wj `4.x9+y9+z9+e, 1i.Q:.L(.w1+w1+T8 ;1.cj 2l V% Ja t>.t9 1_ Rq <g *+ Kx G@ ^K t[.gc 2x u4 Bk [<+O3+MP.4L.DU 4: 'O @  |  |  Yp G; Qf.9;.q^+Y3+Tl.A9+B9+t-.Q-.C9+,_.I+ l; r1 `J Uh qp.D9+js +k #> |2 T& T& {% *1 O<.E9+F9+G9+H9+I9+J9+K9+L9+Z| Yc.91+d5+Sf.y-+M9+N9+O9+xy.P9+Q9+R9+S9+T9+U9+cK UI.)r K).Cd 1( )> K7 o+ ^s H] p> Q= A@ <! ==+hT V9+W9+X9+,i.<{+Yv [% K@ TH d) u_ <] C) {/ ty Pr oj mf &7 6t Z[.Y9+Z9+`9+ 0+.0+pB.K%+1&+4t wa 84.*}++0+~4+@0+#0+qO.eG sC $0+",
"*U.-L }4+=:.3_ SI G) $/ SI I<.]L v_ ES.9X.FM ,D j}.Wp yO %0+Lb &0+*0+t].z<+z<+n[+B2 C6 $j T{ Gs /).D4+3|.)0.5d )4 B6 B6 v> []+=0+-0+vO.V) 6u 9  }] u_ cJ %| %L :' B/ =1 )0 v..hP Q0  <.F2.G(.V(.N].T# %%.b. 6h Ko }2 -1 %s H|.8t LS {'.;0+jj.>0+,0+'0+)0+!0+~0+{0+rH Dd mx O| e[ ={  f >f Y; `$ ce M7 z' 6M.N<.Q0 o,.]0+=1.^0+/0+kl.(0+R^+43 ') za 1^.Y6 _0+c5+:0+<0+D4.[0+}0+|0+10+20+30+c;.im.40+'[+[7+50+4L.Fr.k2.}  }  }  <] kk l> x} Ja d@ }  60+70+80+90+00+a0+b0+Hz.O).i-.L^ S;.$. I_.^| (* .} }& )| u1 #| V< 7L =$ f) V| z> W  S2 v| :% |  v> T{ 7w.!G.!r s|+]d @++x#.Iv.V8 6m Q2 Ua |W.eh 1] 3} ,* gS.>D B  S;.<8 w9 c0+RD.aG.zp f].We.UI.|:+6[+u4 ,t 77 Vf Zk -k SH +e h, {K k9+N[+21 5_+d0+e0+E# _F.p2 Gm 6L nj aX .c `4 F  :p O5 5p.A_ }2 +[ E! 6& 09 I| lo :-+gc.f0+g0+h0+i0+j0+3I QO.3.+0x.k0+z% S*+,K.K*+l0+m0+n0+o0+p0+q0+r0+s0+j:+t0+u0+P)+l. v[ eI I:.]1 r+ L).NI Q= uR 3|.v0+w0+x0+y0+76.z0+H@ )w (^+P1 fe.8) o/ 6p ty VO ]A.bT xB $j GL xp e%+A0+B0+ 0+C0+D0+E0+F0+F0+E*.mi.59 b> G0++0+H0+I0+J0+Qg y4 N6+",
"(J.}4+}4+19+Cm ge./% C^ k~ ge.>{ ,{ !a.zT.fl.DS.AO Sp K0+#1+&0+*0+wh }^.L0+z_.4-+_V.g~.YC.d!.d!.jA }|+M0+K{.R| :] |  B6 |  }  q8 -P lr.ir.dJ FD u> wK !2 y* Z: =1 N$.kj J| Uc o,.}  }  A@ nx PE.a1 ]) Qd Ee !4.:$ Hj R) D< C) L@ &{ pb 9W N0+O0+P0+Q0+R0+S0+T0+_y ~t +!.~( }  }  OI 7N.P@ tH Oh Y[ 09 Y[ h{.}* -v J'+d_.Lf.U0+V0+7. hc Gr.6u Ap U-+W0+`v.}V.X0+Y0+Z0+`0+ a+Ys .a++a+@a+_=.PY $C.#a+$a+OZ 4M.d4 oi A@ }  |  }  [  Z; $2.$c $b v> }  T*+h:+%a+-'+&a+=2+<8.^-+*a+v! w$ P. F[ W2 E' +} :k x! D) H  E< V< (*.!| ~{ Q+ 15 g_.6{ 8- k{ }  }  SU `Y G7 dq Q&.@++0t.=a+-a+WW 6J R2 ,A ]A.Q0 eJ ]| x; %u 4{ n;.<g w; f(.;a+SE.]3.>a+dr yd.,a+wU.4o 'a+(! M;.G(.vH EM W{.hE 1{.q8 ^/ '..zu.S<+)a+!a+Ct.=^ |0.q>.ir.O| BO {{ =$ .} _& A> O5 L) Y5 m> ~5 R@ Ij *o cX _: bx @M.~a+JS &{ uR &{ v> &{ &{ &{ &{ }  &{ &{ $:+$:.{a+]a+^a+/a+(a+_a+:a+o<+9Y <a+5#+v[ t[ bl $1 N$.<@ R= Q= &{ #l *W M2+[a+`j.}a+gc 8  t| j4.U{ ;1 C' .. %h t( yu $$ ]A.z'+e&+A&+y2 IW |a+1a+yg._a eF `S.tG tG nI zg.cm 2a+3a+XK.4a+d| mH ,9.M@.[r ",
"5a+u5+}4+g3+=:.2X.ge.C^ cW.>{ i=.j}.o[.kW.6a+X:.3_ d) 7a+:~.}^.Sp t].s].o[+Z{.8a+&L YC.(H.7&.^C.7-+Bp M0+Gm Gk ;[ @  B6 d@ |  |  }  [  Q= `p )v &5 k; zm a) 5d =7 g-+vb.Y7 R{ 52 uR q8 YS ,R.f~.B@+mw.Or &* #v S@ Md R) w_ '# L@ LS Ey 9a+0a+aa+ba+ca+da+ea+fa+-a zh Ex Q= }  }  h, Wf.Oh.4  to m' )> ;( zf x$ s| ]]+KP.]}.Z. k: 4F KP.tK.,R.#< U-+u<.Vv c5+ga+ha+U~+76.ia+|0+ja+T^+ka+m: k:. N.9;.x3+Z[+Gr.DS C) K# |  |  }  v> U% C] +[ U; [  v> p(.5H.la+ma+na+/].VT K++B[ mo J+ 'C Z; 9p G' `< r] l~ !< @/ ]~.Y;.~] F) -< )5 %% _K O/ G' L@ [  -[ u> ty 6j Xe `B oa+pa+qa+ra+I| m2..= Li )L k2.}] 2& n] Z^ y+ 4) n;.^E 4b %< sa+({+e| Z6 /_+&_+,a+wU.W0+29+N[+c~ =9.Wx YW.l; h, YS F1.Mh -a+^J.M3.#*+-] H+ yh _; H1.WH t* ^- sd ta+t3 F!.=^.oY >4 rt L( -/ U* ;( 23 Pp.pK.%_+|_+z8+YS YS A@ q8 A@ A@ uR A@ V} A@ YS q>..] .a.ua+va+wa+xa+ya+za+Aa+(l.q{.';.pf xs n' :> 3) 25 }o.[  &{ Ee a+ ,]+Ba+lu.Ca+5h FI )^ l; 7) H) @. U%  . ]X.=n IU IU nK.c!+B0.Zu Zu @L Rr vk D6 -W..8 aJ Da+Ea+KD.wU Fa+58+Ga+U!+Ha+za TE.G/ }w ",
"}4+Ia+@&+`:._J.Ja+v_ jE 3_ $L u2+Ka+kW.La+fl.9X.>{ d) H|.H|.8o Ma+Na+Oa+Z{.P:+<J.=j GL Pa+=~._H.F|.ru n(.aa w..IM |  @  |  |  @  |  |  [  In hw F( r$ u! q> 2l 1>.~h wj Hp J` FY :$+I- ^C.Gi &*.mk :v =p Mc k! Kj id L( H) Vp C) ph.BD.a'+Qa+Ra+Sa+Ta+Ua+Va+4F cj T= u| !( c- K# ty  d P@ Y; ;9 x} {M.$%.i'.zq dw _l b9 z9 mY h! Aw.I&+3>.Xe DD aU.P{ ;E A]+Wa+Xa+oc ;E .h fo.9~.7z.K.+:v lw.]1.~v `;.Dz.X4.IK C) C) |  }  }  |  o> Q. %b 's oi v> wm zy *5+Ya+Za+BQ.`a+F} A) I, /] (K yK >= D^ s_ #~ 4y '2 D) MI 4M ~] ,D B<  & HM r: i~ 9p 9# =[ A^ =: Q8 :] Sc.Oh  b+.b+zb.s+ `Y Nr  q U; [* `}.0# 9M B< :& ]| Ta [+ >3.>5 gA sa+vU +b+W0+&1.hZ _F @b+vm X6 od l1 uG r6+ZV.]X.TO eJ #b+Xu .3 Ej Kh By Bo ch F[ o/ }] Mo '; 9M T< zO $8 *% x; j6 [4 v% xe J+ }+ B  Mi 4! $b+%b+i3.O*+@t 6j *u _; 6M.x: )L eh H_ P| O| $$ Yu 2q BD &b+*b+=b+-b+;b+l<+bX ,..>b+$c 6& 74 4< R$ <4 .c [  &{ @w <8.,b+'b+e}+ ].nr gt NM 5a+Y} Z} Z; z< oj q[.xA bN g~.QU *q ^ .^ .)M z2 6} 4t r| G5 xh )b+!b+tG `S.~b+w<+{b+]b+@R.x]+)A ^b+8f Yh ",
"g3+g3+:J./b+Y` (b+OF -M A< ,{ j}.P:+kW.zT.Z` 9X.,{ 8M d) k*.yS.k~ lJ.#%+O/ [- D@ _b+mh.&< l'.gr k=.5x ^5 9j Xu >, |  @  |  |  }  }  |  [  a  IC l} w$ 57 lk l5 z/ 7b 0w ,} cx 3_.4|.gD.(9 (d.3_.zF :b+Y] jj W| kw.M= 1h.I) r1 #/ |] MP.<b+~n.l9+Hu [b+ 1 3_.n6.Yp 6) .> iB ]| y_ 5# +> EI 8f Ij ce ~% '8 0D -* 1l B/ H[ nf kA Xe $h qp -* Ua a,.69 f| ,o pO.6V.w(+g| ({+SE.7j gm ;^ #v Dd  s.kx O*+O*+-~.6M.UL F' :] |  }  }  }  Bm |h E. .@ H  @  GU 1s.}b+DP S$+u~+cw .. ]^ v$ &% ,6 %% :& 2> d0 ^Q jJ &G u1 E< V< ;< 9M 2& |5 !x m] <t ;3 I) R7 ;% G  [  d@ S/ $b Xx *5 %+ G[ `}.R& !v Mo <* rY p> |_ /% 7+ p> O. H] 3& fT w[ I` gc =2.~@.E5+|b+tJ Ep FB Ie 7q 7j E*.IY -j Fm p8 5* yu ;n.;n.`w }g P| .> .> :f (= aj N/ >; 6{ C9 s! 7_ (] W> r1 ~2 `+ G) $/ {^ |h o7 g~ lc.>r `].`$ 4p u8 )~ )~ U* ~5 g~ 8~ P. *7 ^4 WH 10.~D.1b+2b+3b+o| 4b+5b+B!.Lh t} p: )~ K| cl z:.L7 z! u: -[ }  ,L.Qd `@.=f cc 6b+IU  > 7N.k&+h~ @8 32 !; Yv d!.$h >* vl -* vl b9 j1 b<+e8+e8+e&+>e.k4.ZG.p/.`k 7b+ti..0+{9+7a JD xG @%+4w p/.36 n/ ",
"8b+fV.,S.9b+sb gb =J.~#  M v_ >{ <z Ja+9X.xO.OM =< ng.d) H|.PL ge.~O -U.,!.42 {# Y; JG =9 ug.eu iy..!.#v Z] }p R& }  |  |  }  }  }  Q= Q= OI 3} P. i% s> %j.V= =9 ;*.7y.ib._9 ZC ') L2 :g.@%.Ee d! fS Cd c1 Y' R~ '8 }( _K (*.Cz 9M [* U) <s.;q +d bt .= sW [* Q8 K# P8 M, _K 5{ F3 ]% Gb.JH 5J =&+/1 C! N7 R@ :K h=.2  ^4 $5 eJ fO Rq &j.;* B-.cF $E mi.fF !n k1 o/.&7 {q uw UD.h4.bF B2 v&+h, K# QI WH O| -k }! e. }  }  }  }  8# rd Z} ~4 |  d@ L@ z0 Hb.<q w1.GD m1.5_ 0b+~y.IF O9 .b v! ~] &8 1p zI s] H  cJ ^^ ;< Z> OF HM es es ($ qS zr g% ]$ :k @  d@ H  ~4 Mo kr ^H i, In oi oi sy x_ z> i{ 8) hE p/ Z  9L ,y T} %2.8q 2B (9 |E Z7+7m a'+N[+6F b0 {} ic Hr ZK  v Yk p1 h~ .& $b ;[ Q= [  VR [  d@ '# !( w_ sb 15 _K J[ %u P< Od.r_ ]e @5 zM 2g s_ {2 d} z_ Rq M  8~ ~5 Mi m^ ab+C! /E bb+bb+cb+db+eb+y) fb+~2 L@ |  A@ <%+7&.zB 'w P<.W{+xu .^ *$ h% 4r =_ gb+nV.S$ )% >= Q8 }  YS qF c1 F6 nr |s.K`.<z ]] hb+=+.v' C$+;9 H7 5u v( xo :l +B [0 I~.Br c!+e&+-v O1  G.Du.D} ^{.xS.&h ZG.1a+~b+rx ib+`i fq {F fZ E' fe.",
"B^ C5+xO.gb z_ O@ )!.~#  M =< k~ r1 k~ ge.!{ >{ 3_ uE -k T/ d) /% L  0X.(K P!.)% 4f =1 8w FI ua Yu V2.rW $. p8 GD }  v> |  }  }  }  Q= oi aN Lt X+ A+ Dj HH CJ zf Ij u/ Y4 Kx u[ a0 u[ ^v Kx u/ :c Y' <8 IG |( 0$+Tb.L^ pU.q_ t: i{ 6p N<.YA.Fx %T.%T.|@ `  Q, fE gE Hn S< ># _& _& 5r )= P+ W* c= }( jb+Q. Z[ 3# H$.F  ,# kE ]q  @ hG #z L( `>  ^ 2l tH Wf Wf 2d.aF Wm u+ (E {>+Rq 2d (= 7p =: Q1 L@ u_ {4 G  )( ~4 |  }  }  }  +/ ;; _* >m yv eo /^ '| a{ u_ <] t>. [ I, 1& %x.vV.hk P< W   K &8 >L ,< _% '# W{ mo ]^ C' 2d 4# qS m] _K 4{ q= H$.Q+ z* u1 &G ez s] @/ e. :% !4 TH e. Zp In  @ ;; *< !^ _] =: v: z_ |+ 5{ Dj i3 rG 0j vj :: H~ y9 H~ J| +j -l ]b CI Wx  q B2 Z; F. h% iB )4 [  #o B6 #o u1 h& kE ~{ F. 5r 0X.2c 7).b@ hb _' Gn eo BA -| >| /2 d} ^* R7 Y$ z} )~ k] -0 kb+@=+&<. I }t 9W.DG sS O9 1w i; Vp @  d@ ;[ _; j=.Lv.*q Hg Ja ,* 5p -% H' c= o..S* :^ ,0 +c !( S+ H1.`e TI }- u..pr aN n~ kk )% U$ g% lb+to ap zk o( X% u/ FW zk Wh Yv M2.#t $$ 7f ty ft =:.}z Wf.Qa ,v {k.vS.ZC._%+D6 CF Y} Z< r1 q3 ",
"OL.8<.OM I[ T> Nf ~O 2*.!| %/ u* x* -k Mb T/ TH ym 8M 1  b) j; 5_ v$ ]{ r: |5 w+ ]% A+ I1 64 %0 Vh ={.G[ E3 `  &q &{ |  |  }  }  }  [  A@ JP W2 {s X+ D@ >2 2d V; 4r 3f Y; ch Y; Y; g~ 54 64 2d yK d  ,0 ,0 |+ IF JM @o ]* MA t$ x_ S& i& DS >, Co Co ^p %c z* ~R ~R Gd.Q/ s$ ;< x_ ^- ;; ^] z_ 2  ]$ 2# %% r: M, m! _' -r Dt hn Y< v* w_ iB (= 36 %s 9) 9) X} g) NM C@ yf )% Rq -# C' D3 x_ v: d) <] +e #9 (% )( In L@ oi oi y% hE ~{ iB P, hn ,| {E @  }  }  <% r1 -< Q/ ~2 mo T< p_ k6 _' 2g h} zI Fn /^ d@ ym <- {$ '0 {# I1 yK J+ ~| 2& 2*.I[ *< D^ X< ;o ;o Sz e. D) d@ h& +e t_ 0{ 66 FL u* D^ 1  +e !2 ww w_ 9- 2& u! C' iw %0 9d zq tH x' l5 H[ jf gt .^ Ct D} ir |] fZ i{ 5p _* Q, MJ !4 ,m (- lE v* s$ >; >2 CG qi.pJ mb+^* Cz I( E} |  4u /O 5K LA KA /- O@ Q+ P. lk f,.|a *<.y) y) O9 nb+ng 3m GJ JF wv ,# SH :% y% -[ `p /7 WH l{ u> )C .c [& V  t3 B} ;} t#+;3 pq.F( =[ P8 t9 a  9# C. !( =v B. 5_ ;; [- iw C6 kf `Y y' ]i w[ vg Kj qF %t |o.2/.]A.4: ^q ZS oi |{.^2._^ g) YY .C ]{.ob+Zu YC.oj WL =: SH )2 $| ",
"#9 &| Y:.k6 [& 6+ T> -< !| b{ %/ x* b) `p C) L@ e. #/ ~2 K( =$ 6+ <2 =% h7 b- y; Q; Q; N+ ;3 ]s ,* s/ ,0 s: ;1 !( Q= Q= |  }  }  }  [  S+ TL 3j ^| rd D3 |_ R= z> C@ >2 CG 9d [f.Gn.+. j~ &/ Z< D^ D^ b{ 4_ Fd 2-.)$ 7{ k6 MA f} 1# hw i& &{ }  }  }  |  y% R1  K r_ ;k I, +} ,# B) 4_ _^ >= w_ NI iB _* {^ j~ v: Kn }! +C Tp wK <] <] ZS =v P|.1{.4s.Z% 4s.R& 1{.k*.*{ .C  Z.Z} %s D3 tV.wf.R= -{ U{ A^ D^ z* W> =[ Kn G' z* v* %/ B) E' 7p `< Y< E} |  }  }  [  ~2 {] 5+ Hw z* Hw d} ^^ ;| AG (p in /^ po d@ ]~.T> g_.`[ T$ BJ q> !^ z* `< u* LA ~2 6_ J  3P *8 fn `p C) <] a{ zM >| LA /2 cL xw ym cJ SH SH y* 7p Sq w_ '{ |_ |_ (= (= T= Lt p( q> '= 2_ D. 1] Pr *{ WL *: B@ w_ Gw ># N4 G   [ CA .} S2 V> /] J1 kk U% i~ Ph  W.9L q_ !R u1 d@ m~ s] R1 ,# !| Nf M, O@ I) 2d -# I) z_ K1 K1  &  & ]{ NR $8 IO #8 5_ (% kE ~4 -[ [  }  }  }  |  Q1 %| F) Fd I[ *7 5# 3} F( 4} w_  @ n~ j{ !4 -[ |  |  [  }! F) t! {^ o/ Vx vh t| $o `c |% mj Ye &D c!+EU TO 10.IK v> }  }  |  d) ,D x_ _^ Ag ~^ n/ [! Sc.z0 K@ d@ 4u u1 =y ",
"BL gP G) k6 {8 T> S< .} '( %/ j; .@ Do e. C) L@ e. l6  @ s$ ^- T> y> ># ~$ ~$ %% K) K) O. s: {s ]| P) )5 F  8- MJ }  v> v> }  &{ &{ &{ A@ I_ h1 ]| u! D' p> B< z> Z+ /* Y+ [- [- @. u! Z> w_ v* B) b{ K( 4+ 6+ td L1 k6 k6 T< .c .} 1h DS &{ }  }  }  }  |  Hn d0 9{ `+ 9{  @ +}  @ ;< ~{ 5} Y  Q~ Q~ i{ Z> w_ A^ P8 }! ~4 e. `p e. e. <] :] <] :] 8t 8t ;[ :] <] !( a  n~ |_ D3 rd sb Qh n] z> w_ 0# fe.7p _f _f ,# 4_ .} mo .} 4_  @ Sq E2 )C zM @/ }  }  }  }  r1 /- 5+ K( ,# K( 4+ F) v* }& l~ )| #o @  @  }! T> ,6 `H %2.{# o> =[ FL I( X< -r >| Cz /*.>L }P lE e. oi C) u_ @5 >| LA NJ )( +/ B. Mb Tp wK B@ ^4 ,= *[ NI S= X} D' D' ^| U% ]] U% R= !^ hw S& A^ a) 1  8: 1  Q/ H3 $m e0  [ a& v* .c 2& M, y> z_ U% '= u! lE._K JR :2 }& d@ |  |  Q1 (% LA s$ A) ;% N, I) X+ [@ I) z_ xe xe ># 6{  & A) ]^ 9M Q/ ,# >| ]~.8# C) [  |  VR |  d@ a{ `< =$ Nf L  ;% aj `  hw !^ ^4 r9 )C Kn ;L -[ v> [  v> !( i; O8 u! F( :f vh 6z.#. b1 ~% `,.fT Uc e@ o,.d- d- 2h &{ }  }  |  8# v* KA +} E' n~ 8) o/ :f aN Q8 |  |  B6 d@ ",
"14 t_ >| x| I, '( l1.B) )C uI P8 In TL :] K# K# e. }! Kn r1 v| B) '( H) sY av h[ ,* {y ,* av Y  N4 rU S< q] P, gO |  Q= A@ V} V} V} A@ A@ I_ 7: l1.+c >= w_ Z> {^ ,; {^ {^ j~ j~ o> ,= D< n~ 7p D^ 7+ +} i; t: t: 9{ t: t: K(  @ B) Q, 4j }  }  }  }  }  Q= ^p G  Gd.q9 |#  [ P, j{ ;1 H) Y  >= Y  iB u: >= !^ A^ .@ c) ^p F' F' !( !( !( l{ `p !v `p `p &q `p e. !( &5 P, n~ o> {^ V| ;% N1 T> KA =[ .> Kn {4 kE _f z* 7- fn fn :k G  W> _f ]q !4 d@ |  }  }  |  +/ 7p ;| w* /2 >| v* Hw !R &c '| :% y% d@ L@ Do V5 Cm.N; Da m; Z  l6 Sz r] X< (% (% RH ]2 h} jn 66 K# Q8 Q8 e. +/ W> w* :k t_ Mb +e B. TH TH 6# VG ^4 >d <* `: NI S= )^ Z: Q~ i{ iB X{ 6p uI Q, Q, _] _] c) )( (' #-.xd *m *s hq {Q U3 T< Fd V5 O8 i{ iB R= I[ M, Nf ^^ ]q -[ |  @  u_ W> v* w_ ,; y_ (* (* N/ kk >; >; J+ A) 5p A) A) 2& ~{ !| H) i; b& t_ h& L@ [  |  ]/ d@ '# gE G   @ sd O, :& D[ :q 1h 8p 1h 1h Q, t>.!( K# Q8 C) -[ MJ >m  @ w_ h1 Mo P0._; ={.=1 B* |( U* m/ X,.Q0 ;[ IM ;[ ~( oi |  @  <] b) -k hE 8: Q, }] t9 m1.l{ c- -[ d@ [  |  ",
"x! fE x! }! ^p ~4 In TL )m &q :] K# Q8 oi oi oi oi Q8 :] 1{.!v !v h, h, UL m1.4: ); R+ kr gw.qo f. ,m kE _k !m Q= Q= v> Q= &{ &{ &{ A@ Q= -, MJ ^p k; b) b) Bm hE 1  Bm 8: *: *: e[ SU sy In F' F' F' In k; +/ W{ +/ }! ^p ~4 )4 MJ K# &{ }  }  }  }  }  }  A@ -, K# e. MJ :] Zp Zp UL 6) UL In &5 +/ qo k; In TH !( MJ MJ `p `p `p `p I_ I_ ;[ K# K# Q8 ~( ~( Q8 2h &q F' u> C. 6# '; 7+ F( Z< 8: T/ h, !( u_ :] `p !v l{ I_ `p 7# `p &q :] S) -[ }  |  }  }  }  oi :] e. S/ u_ a{ SH a{ h& HF '# H  y% :% SH zM mo M, N1 J+ >= 1  W{ *_ E< E< E< V{ V{ V{ (2 4> Zp A@ A@ v> oi QI u_ u_ a{ DH DH DH <] QI C) 4s.-9.eJ O| ); R+ }] /b /b `}.5: P| Q, =N /7 )m I_ `p e. e. Vp Q1 SH hz l~ pb+mE s] 2c.~Q x* z* `< 7p )C E' -{ E' )C r1 b) fE [  d@ <% Vp }! _] hE 1h 1h 8p 1h 6: 3: 6p 6p u| 8p 8p 1h 1h Q, 9# b) .> -k c) MJ -[ }  vs |  |  |  [  '# h& ~4 =: a  t9 &5 Do TL F' F' !( `p mP c- Q8 -[ L@ L@ C) Zp )4 T/ 8# [] TL /7 `y fJ Jt Z{ CO.1o.4j Q= A@ Q= ~( A@ Q= |  @  <% Q8 C) :] <] [] c- c- Q= Q= |  [  |  |  [  ",
"-, L@ L@ Q= Q= Q= Q= A@ oi Q= Q= v> oi oi oi v> oi Q= v> v> HK v> v> &{ V} &{ uR A@ A@ ~( Q8 S+ S+ 2'.S+ Q= S+ oi Q8 S+ A@ &{ Q= Q= Q8 -[ -[ d@ -[ -[ -, K# :] =v =v K# K# C) C) Q8 ~( oi oi A@ A@ A@ Q= v> A@ oi [  [  Q= v> |  }  }  }  }  }  }  }  }  }  }  }  }  }  }  }  }  }  }  }  }  }  }  }  }  }  }  }  Q= [  [  [  oi oi ~( oi oi oi oi Q= Q= Q= A@ A@ 2h 4j ~( A@ A@ A@ ;[ ;[ !v &q ;[ A@ q8 A@ Q8 S+ ~( A@ d4 A@ A@ oi [% A@ Q= &{ v> v> v> }  v> }  }  }  v> oi L@ [  <% v> v> |  [  '# fE 0{ lE !R b& ,# ,# )C }& gE BA !E Q1 Bx Q1 e. e. y% @/ L@ oi &{ Q= &{ }  }  }  }  }  }  }  }  }  }  }  }  &{ }  &{ &{ &{ &{ &{ uR uR A@ A@ A@ A@ v> v> v> v> |  v> v> <% v> [  v> Q= [  L@ L@ -[ Q8 K# <] :] :] :] e. e. <] <] C) Q8 L@ -[ -[ -[ [  S+ oi oi A@ ,4 S+ ,4 ,4 ,4 ~( ES Q8 ~( A@ A@ Q= Q= <% K# 2h Q8 v> oi [  [  |  VR vs [  |  @  v> oi oi ~( ~( 2h Q8 ~( c- K# ~( S+ Q8 Q8 Q8 Q8 -[ oi Q= Q= v> [  ]/ -[ Q= c- ;[ ;P m1.;P _~.Q= S+ S+ Q= [  v> oi S+ L@ |  |  |  <% |  |  |  }  }  }  Q= |  }  }  }  ",
"<% v> [  Q= S+ A@ S+ S+ S+ S+ oi v> v> }  }  }  }  }  v> v> [  oi oi [  A@ ,4 S+ A@ S+ S+ S+ -[ c- S+ ;, S+ c- K# gO 2h c- S+ Q8 S+ Q8 S+ c- ]/ -[ -[ Q8 Q8 ZS ZS Q8 K@ Q8 L@ K@ oi oi oi oi [  oi A@ Q= Q= oi v> v> [  A@ Q= Q= |  v> }  }  }  }  }  }  }  }  }  }  }  }  }  }  }  }  }  }  }  |  |  |  |  v> Q= [  [  [  [  S+ oi oi Q= Q= }  }  }  }  }  }  }  &{ LS d4 Q= oi v> oi Q= ~( oi S+ A@ A@ Q= -[ S+ ~( A@ ~( ~( ~( oi oi A@ Q= v> Q= |  }  }  }  }  &{ |  v> |  }  |  |  |  [  [  d@ '# fE 14 X< I( X< AG 14 xv vK d@ m~ @  @  |  |  |  |  }  }  }  }  }  }  }  }  }  }  }  }  }  }  }  }  }  }  }  }  }  }  }  }  }  }  }  }  }  }  }  }  }  }  }  }  }  v> v> <% |  [  v> v> |  }  }  }  }  |  |  |  |  |  |  |  |  |  |  Q= v> |  }  |  }  |  |  |  }  }  }  }  }  }  }  }  }  }  }  }  }  |  v> q8 A@ Q8 v> Q= |  |  |  |  }  |  @  vs @  [  [  S+ oi oi oi Q= }  v> Q= [  Q= [  [  v> [  oi [  [  [  [  |  |  vs VR v> S+ Q= ,4 V} Q= v> Q= |  }  |  |  |  |  |  [  <% [  [  [  |  Q= |  |  }  }  VR Q= VR ",
"S+ Q= A@ Q= Q= Q= A@ Q= Q= Q= Q= Q= Q= Q= Q= |  Q= Q= Q= |  |  |  v> v> &{ &{ V} &{ A@ Q= A@ Q= A@ Q= S+ S+ ~( 4j 4j d4 ~( q8 ,4 Q= Q= &{ S+ [  [  [  [  oi A@ A@ A@ A@ A@ Q= v> v> v> v> &{ }  }  }  }  }  &{ A@ S+ v> &{ &{ v> V} Q= }  }  }  }  }  }  }  }  }  }  }  }  }  }  }  }  }  }  }  }  }  }  }  }  }  }  }  }  }  }  }  }  }  }  }  }  }  }  }  }  }  &{ &{ &{ }  &{ }  }  }  }  }  &{ }  }  }  &{ v> Q= &{ &{ &{ &{ &{ &{ &{ &{ }  }  }  }  }  }  }  }  }  }  }  }  }  }  }  }  }  v> oi e. !4 c) 0{ 0{ a{ :% [  [  |  |  }  }  }  }  }  }  }  }  }  }  }  }  }  }  }  }  }  }  }  }  }  }  }  }  }  }  }  }  }  }  }  }  }  }  }  }  }  }  }  }  }  }  }  }  }  }  }  }  }  }  }  v> }  }  }  |  |  |  }  }  }  }  }  }  }  }  }  }  }  }  }  }  }  }  }  }  }  }  }  }  }  }  }  }  }  }  }  }  }  LS &{ LS &{ &{ }  }  }  }  }  }  }  }  }  }  }  }  }  }  }  }  }  }  }  }  |  }  }  }  |  |  }  }  }  }  |  ]/ |  [  |  Q= }  Q= }  }  }  }  }  }  }  }  }  |  }  }  }  |  |  }  }  }  }  |  Q= }  }  }  }  ",
"&{ &{ LS &{ &{ &{ &{ uR uR uR uR uR A@ &{ &{ &{ &{ &{ &{ uR HK HK uR JS G]+G]+}[.5j o,.o,.5j q8 JS LS LS uR JS G]+}[.}[.PS l~.q:.5j 1].GU q8 A@ A@ A@ d4 YS {( o,.Cx.2].2].1].o,.q:.q:.q:.q:.q:.z8+qb+>*+q:.q8 LS HK A@ A@ }  &{ }  }  }  }  }  }  }  }  }  }  }  }  }  }  }  }  JS GS YS GS YS GS GS YS YS YS YS GS GS GS 5j 5j 5j 5j GS }[.[[.G]+[[.GS 5j q:.q:.kr.QS mr.{( YS JS 1].rb+m{ F1.'L.A'+sb+eO.tb+}[.PS ub+vb+vb+>*+>*+^*+PS q:.[[.[[.G]+[[.[[.}[.tb+PS q:.q:.}[.}[.GS GS q:.2].Z=+79.M&.|W.xu *q s| +;+SL 6M.1o.p,.d- d4 &{ LS &{ &{ &{ &{ }  }  }  }  }  }  }  &{ &{ JS JS JS &{ }  }  }  }  }  }  }  }  }  }  }  }  }  &{ &{ &{ &{ &{ &{ }  }  }  }  &{ &{ &{ }  }  }  }  }  }  }  }  }  }  }  }  &{ &{ &{ &{ &{ &{ &{ &{ &{ &{ &{ &{ &{ &{ &{ &{ V} V} V} V} V} V} V} }  }  }  }  }  }  }  &{ q:.z% R(+wb+0x.`]+2].l~.JS JS uR d4 d4 YS YS YS YS 5j 5j q:.GS YS YS YS d4 s:.JS JS JS JS JS JS JS uR LS LS &{ S+ oi S+ ,4 l2.l2.1].uR &{ &{ V} &{ &{ &{ uR uR q8 &{ Q= }  }  }  &{ &{ LS &{ &{ &{ &{ &{ &{ &{ ",
"xb+IL.yb+C2.S*+0x.zb+3I 3.+DU J# J# J# [A A4.z'+/o.~D.79.|s.QO.3.+z% IL.Ab+Bb+Cb+K-+$3 ${.iA $<.)s.+<.4,+Jg x5+V) 6x &t rB.M<.%D T8+rW $h J# #  I,+e@ [s.Ig Q& 4,+Db+Ae Eb+Fb+M&+Gb+j9+Hb+h^+Ib+:{+Hu 1).ho 3g.ir.2h :] ;[ ZS 2h Q= &{ }  }  }  }  }  }  }  }  }  }  }  d4 4l XW.Qs 0. ]t 5F Bw.Jb+Kb+YF.({+({+De Lb+@3 YF.g6+Mb+}r jm jm }r Lb+@3 K4+Bk %{.Bb.Nb+Ob+wu Fi *q p2.S^+Va ol S- AD Pb+q0.Qb+Rb+Sb+Tb+Ub+Vb+Wb+Xb+Yb+Zb+`b+ c+.c++c+(;.@c+(~+h9.3x #c+`|+$c+%c+&c+*c+=c+-c+;c+k5+`|+Ns dK q>+J[+kw L:.D$+C: NH )t Ab.>c+,c+'c+7V.S~+)c+k8+!c+~c+$M.{c+]c+^c+h0+/c+(c+_c+:c+%D T8+u~+DU =g dJ dJ TO pr $.+A4.Q0.4l Z=+3I kx Zr.S_.Ly &.+[s.<c+[].hx.hx.Fr.Fr.Lr.8+ O&+O&+5.+>n.r2.[c+Jr.FY }c+|c+3N.Jg cH ],+1c+1c+gn.s>+23+2c+3c+23+4c+5c+6c+7c+8c+9c+k(.0c+0c+y>.%{ ac+bc+:O -[ }  |  |  ;[ ir.d:+d_.b! AD Sv g[.q2 -[.cc+dc+{n.ec+dx B!.o).B!.B!.H4 k/+k/+3|+fc+fc+gc+51+*t.D7+%c+{n.{n.A8+hc+ic+1c+A=+jc+cQ mr./~.;P >, kc+B>. x m)+<s.lc+m>.%t.%t..d.oM.mc+A>.[p r( W2 ); ir.`[+J# oN.Q& nc+nc+B2.nc+:s.** #<.",
"/F Ca+49 Ve Ce ex o).sn.6x 3r #v #q hA k5 fu :E +; <E oc+)z.', =w pc+qc+rc+sc+tc+A^+]@+oR.X8.zX.dK 62.Tv RE uc+(@+E# /@+md vc+Z9.tg ~G.H2 oc+.K.Ng Hr.J` wc+/o xc+OZ X5.Uf.OZ yc+zc+Ac+l<+%i.N1+,<+]p.'7.s5 99 Qr h, f. P8 -k cL F' oi }  }  }  }  }  }  }  }  }  }  }  Q0.Bc+Cc+.6.d,.a2 Oq.b, UM.UM.Dc+p& 6D.Ec+@*.@*.Fc+Fc++: a, Gc+Hc+Ic+Jc+Kc+t6+j/ 1-.ww.lw.jG Ac &] 07 6u Lc+W++Mc+%5.Nc+Oc+Pc+Qc+Rc+Sc+Tc+Uc+Vc+Wc+Xc+Yc+Zc+`c+ d+.d++d+@d+k<+>7+#d+$d+]E.t6+%d+&B.fa T7.&d+*d+Wc.=d+`&.C- ,8+-d+b, X-+;d+>d+)a+,d+mt.'d+)d+RD wU.FT.!d+Cq.~d+{d+]d+^d+/d+(d+_d+:d+<d+[d+}d+Va+ i.6i.qi hA 6L 1- s8 2- &[ Jj |k #q %3 23+.q B~ &~ |d+HB.pw.)0.Jo T8+#:.#:.6h ;^ Km U6 +] HB M.+s2 o1.A0.1d+*-.H8.mu.2d+R<+3d+;b+4d+5d+OW.6d+7d+zo.8d+9d+x6+0d+ad+Dx.|L.bd+cd+Dy dd+ed+aN.D/ c{ sY `p }  }  oi G_ _{.fd+.h &/+F..gd+hd+id+Y-+jd+kd+ld+R5+md+nd+<4.S++0l.od+9&.2d+9&.pd+Rv.qd+e0+rd+B6+sd+--.--.A8.sd+td+OW.D# 9x.Jm p2.EU jP hP 5M.#a./~ {{.>d.io u9.Oc K:.8b.<-.k7.|d >*.W* y} E( G_ ze vl Lx I6 ZC za kc {t 8b <h 6n ",
"ud+sB }x Jk dG k| vd+Bk cx p[ uF aq eI 9t t[ IH c0 Uo u4 De g7.a>+wd+na xd+yd+zd+=i.~+ .>.`& pC e}+5. O5.Ad+Bd+x)+Ya+Cd+e .0>.B1 Dd+gA._S.dc+q/+9~.VS.Ed+4x X5.+3.U^++*+q6+Fd+Gd+Hd+Id+#d+Jd+Kd+h..Ld+Md+kW m0 (b 8p l1.|# fn !R qo c- }  }  }  }  }  }  }  }  }  }  d4 A>.io gc.G.+Nd+C=.Od+j{+Pd+Qd+Mj.Rd+A..Rd+Sd+Td+ru.Td+Ud+Vd+Wd+Xd+j<+Yd+Qd+d/+B9+5B.;y.Q,.V-+F&+_  /: Za.kI.!y.K6.Zd+`d+B#. e+.e++e+@e+#e+$e+%e+&e+*e+=e+-e+2/ ;e+>e+]x.X9+]o.5(+QH.Jj.,e+n{./< *1.ee.'e+ 7 !t.)e+!e+`3 ~e+@* Lj.F}+Nq.0;.{e+cC.]e+^e+/e+(e+0d+_e+:e+<e+[e+}e+|e+1e+2e+3e+4e+5e+6e+7e+8e+9e+0e+ae+,a Q,.:1 6r <= @@ :| xs Tz Y0 @y G9 be+pg.1;.Y( ;w.(++Tr.Q-+]++ur Io 8y.=l ,f iJ.Hk N.+q>+hZ FT.ce+de+ee+fe+ge+he+ie+z7+je+ke+le+4<+me+ne+4d+oe+pe+qe+re+gb.se+te+S!+ue+ve+we+z'.dd+j1.4! X5 ,* MJ }  |  P|.RL S$+xe+zx C=.ye+ze+Ae+Be+8, Ce+A6+Q$.Ux.De+Ee+R6+i=+Fe+Ge+He+Ie+I)+Je+Ke+C~+d9+a, ^2+Le+a, +: Gc+J& >8+C~+}1 g=+og.].+,2 3: Kr ^~+x@ U~ o' X9.Me+mb.pK.B: ;] W| aE 74 M$ l' L( _q #t Gs +B @$+%^ 0! V++X6 b! $w.U# W& ",
"2[ !^.Ne+Oe+49 Pe+g7.u4 7j 8d S@ 0D `$ zf |k zt Dd d9 +h Gy 4h Zi 7B Qe+Re+NV.d5+ #.C#+Se+J4+Y5.Te+}_+Ue+Ve+bD.We+Xe+al.Ye+T++Q]+Ze+`e+fG K6+{'.69 8~.R*.bS. f+.f++f+Y| 9!.F(+ai.Pp Rf.|b+b8+@f+#f+$f+S! !%.H+ c} sb  b [& )( gE `p Q8 }  }  }  }  }  }  }  }  }  uR 2].S'.Hp Q[.SD ]5.F[+%f++9+&f+*f+=f+-f+{}+;f+*f+i:+*f+>f+,f+'f+)f+!f+~f+{f+Rw ]f+Nl.+*+0V hr.b< 7$ T.+]:.$. z/ SA 7 .Qj.^f+d@./f+(f+_f+:f+<f+[f+}f+|f+1f+2f+3f+4f+5f+6f+7f+8{+Y9.9>+jI.Cn.IG.Z3.!+ :#+G3+(t.jF qC 0:.39+m=.8f+F .9f+0f+;<+af+af+bf+20+cf+df+ef+89.ff+gf+hf+if+yZ jf+kf+lf+mf+nf+of+pf+qf+rf+sf+tf+^i.a=+n5 eI 1l }b /; 6& w} ec.@y W| .q $%+v9.3B.|* y)+[u Od I# '7 K{.Jm x/ 3|.D;.,t d# FB  k._F uf+vf+wf+xf+yf+zf+Af+Bf+Cf+Df+Ef+Ef+]@.*b+Ff+Gf+Hf+v2+5d+If+Jf+Kf+~J..0.:1+Lf+e5 Mf+uO.xs 4! %b kk fE |  v> 0  At lB aQ pB Nf+Of+11 j{+E- Pf+wf+A|.Qf+Rf+Sf+r$+Tf+Uf+Vf+Wf+Xf+Yf+Ya+Zf+`f+A8.{t. g+.g++g+@g+A).#g+w, $g+/}+2_+&)+A| 3g._; 6: 3:  z O5 0: 7& %. ]++~: d! 6J C, C, D+ d1 |% dI E1 CF O1 9  Fg fS F` I..TC pF.V++(_+p;+J@.",
"U!+%g+d| &g+Ha++b+6G.Bu V6 Ee xo ]b {q wr J~.eu O[+v1.T8.*g+OD.=g+i| MT.n2+3[ $w -g+pl Qd Pg n'.xx ;g+>g+,g+'g+)g+NY !g+~g+MD i,.t++['.62.94.{g+h| Yb.Tk `v Pg bD 1).[h H2 J2 =b 31 |r <w ]g+8}.H-.lO.O@.Z& R4 n#.^g+l_ `5 x: Q0 DS 2h Q= v> }  }  }  v> Q= {( 7.+-:.i3.:#.Ge Tk /g+(g++*.Ux.Tf+_g+:g+=9+<g+[g+~! }g+}g+|g+Bf+1g+{! 2g+~f+3g+4g+5g+6g+7g+Y6 io ]= Hj m' ;( t8 qk jd #;.@0 8g+9g+0g+ag+YK.bg+cg+dg+eg+fg+gg+hg+ig+jg+kg+lg+Jk YC !: Kf I6 &. Q&.H- P,.(x !t A8+Eb+H4 mg+ng+J0+}a+og+5. Ye++*+i+.P& !j :-.pg+qg+%[+rg+&w &X.I/+sg+tg+ug+vg+wg+xg+yg+zg+Ag+Bg+Cg+Dg+p1.Zf+Eg+Q^.mw.Q2 G7 1l .= mm [0 Q2 Um GC C: ]f )8 lA.2~.Fg+p, Bh :! 6J hI '7 ,f &*.5S.7z.fK .w #w wx JS.LR.o4+Gg+Hg+he+-f+Ig+d` yf+Jg+-8+Kg+Lg+Mg+%3+Ng+Ce+Og+Ff+Pg+E[++:+bi.`E c8 [++I.+:c.|g t} u8 [@ Do C) ^q I'+Qg+Rg+Sg+Bd+,. Tg+3q.Ug+8f+=-.Vg+Y[.Wg+2[ Xg+Yg+Qf+Zg+`g+ h+3u wz.tJ .h+.h+U.+T*. 3.QE e}+AD Bs pC.$E.T*.+h+_x F@+w4 >L.-v +@ vh x< a9 *+ sa 5b 7J 7J 4( B4.GC A| rf <3 Cd :l of $s n/.F2.c0 |E.6w.Cu bl.fG aI D#+v_.U4 ",
"Ca+'o 'o 2E @h+#w :n ,[ +D Ho Y'.ra g-+j[ 99 n1 @] Cz.zB LD.t).>9.jx 5A 0[ 0[  1 43 nA n[ (r 2a N6+#h+$h+%h+&h+*h+=h+Zz E++h3.ld t++e# -h+nF.Ce Ms 3E zX.,[ pk OU H9.v[ vF :l #0 W6 x4 a! `z ;h+>h+,h+,h+6/+'h+)h+72 !h+m1 oc+y2._l fO y< t>.F' )4 C) L@ &{ G1.s4+[L.nl %e.y4 tW.M:.b8+~h+{h+5T.]h+^h+]h+Ee+/h+(h+_h+_h+:h+:h+<h+[h+}h+|h+1h+2h+3h+4h+5h+bl.+< |- g3 Y[ C* qi PE.J.+]}.J3.AX 6h+/>.7h+8h+9h+0h+ah+bh+ch+dh+eh+fh+gh+hh+ih+84.~n vl 2- &[ qk Y'.y$ F+ Ur [f @<.jh+$<.kh+0~+S=.lh+mh+Yi R'.I..{n t7 Pd =p sp Hu Hu !++aK jF }$.nh+oh+ph+qh+ph+rh+sh+th+uh+vh+vh+wh+xh+ld+'i.SY l. G+ El |x..g U2.7  }h si x^.&a.d'.(3 U: ;b PC.[j OE.{,.H}.0M.%. jw O[.OB fe c! -f 9:./_+yU.yh++d+.: x_+96+G5+Pn.zh+Ah+Bh+Ch+Dh+y_+Jg+Eh+Fh+|g+Gh+Hh+E5.`3 ;b+Ih+Z2+R4.aw Jh+33 Q4 00 S$ I) )( Up RO ,^ 5a.Kh+Lh+Mh+8'+Nh+Oh+Ph+r7.Cs =*+ A.Qh+vO.`H.}B Rh+Sh+Th+Uh+Vh+zy MX Qp Qp {f tO.,9.Z7+`o *. p2 M@.da p2 h9 h9 r[.Uf *.+=H.nj t( S; 46 R@ HI G/ j5 C,+pl 9m %e.D6+dD Wh+it <D.pI F*.oL.=~. ; |E.#b.(/ '_ Xh++G.8~.Js zB ",
"KD 49 i-+EB ,E !0.Yh+9b V# <3.A^.:b+<7 Y'.!'.x9 6n ') g7.S6 >9.}w 4( #w.bi.Uf.1).Um M$.Y4 hI 4h wk Zh+`h+Bq.'   i+Tw.&1..i+`2.+i+I@.T! m& }B '} +h+Pa.o} Wr TA I:.9V.L7 M* u8 q[ jd G+ O# +y.@i+#i+$i+%i+&i+*i+=i+Ax O:.-i+;i+.2.K2 m2.36 E' Hw z* +/ TH ~( J# S8.Qd Vo E[.W@.Y6 wz.W# >i+R5+Rw.,i+'i+n .)i+!i+C..B..~i+Ah+Ah+{i+]i+^i+/i+(i+_i+:i+<i+_#.Pp F, _o !~ j'.d^ w] [i+q; <U O].gv.}i+|i+xG.1i+qu.dD./Q n4+2i+3i+AC.)[.4i+5i+d| <f wr i[ >% (t !~ Ca 5~ L$.dl Jj Fi =.+W4+hc /'.fo.JD dE.Du UY Gh ]=+<c :v L- FF 6i+7i+9b.mG  k.8i+S@+9i+0i+ai+bi+ci+di+ei+fi+gi+hi+Re p1.=-.(5.LV MC.q!.6n G` ge g'.QZ x^.l. ii+Ms.%} %} 4q e, 9#+k. NC.ji+ki+{{.Ty.li+g!.:*.Ds.J6 ai.mi+ni+g(+oi+pi+qi+Qk.e` ri+_)+e` si+ti+ui+vi+wi+|h+xi+yi+zi+Ai+Bi+Ci+'8+,8+Di+x5.OX Pu.:< :d 09 S0 1h.}A w* #| WL +8 Ei+Fi+Gi+Hi+Ii+]z.Ji+A-+5(+1-.!G.5b Nb+<++97 G` A@+2F.Ki+Li+0>+=p N;.C| Oi )M.TD.Mi+7w.ob k[ F7 J2 bw ed U2.OU I6 J| Q4 Q4 <= %: '= &_ Bo vF qf :v ;G !j >` ~f E/.g( )I.l{.gS 3( $z Ee T'.kF FF Q5 Ni+Oi+G++7q Ap Fy NP.",
"'h+]3.^3.zp -i+lH Pi+OD L_ ME.7E tO.-f N;.@D 2#+'9.TC US.s4 l2 [l cb _x TY Y7.B4.7b Ej 9t jd (9  A.9'.Qi+Ri+n< ND Si+md Pv.Ti+=C._5.d,.U` vC 24+AD G# 28.&} J.+@y F] '0.B' @@ ;* qk @$+;6.xF.Ui+Vi+Wi+Xi+Yi+Zi+`i+ j+.j+H4.>g++j+@(+ib.fO j; ,( u$ jn q3 1  i1 1a -z J..7,+a! #w + .R^.pA @j+#j+`v.Z1 [x (Q.Jj.!i+$j+j{+%j+R9.&j+kQ.<l.*j+8/ =j+-j+;j+K! T3.Gx ta m' v'.2x.}+.}5.w6.j..0+ {*.<u.>j+Oq.w3.,j+is.Z/+Gd+[7+'j+09+MD ~3.)j+bS.97 E1 A+ N+ 57 pi F! xE 2% rh Jj Xe ,R.Qs n(.[r 84.jH em @h+_n Vo ZB l{.TA e,.g5 `| v^+=o A| b! F++!j+~j+0i+{j+]j+^j+/j+(j+_j+:j+<j+d2.xh+R]++).T^. >.p, y4 [j+}j+Iq $ .nw.|' O: GC.#}.%} |j+J*.1j+>~+N-.MC.T~.K).pl Z[+P3.2j+C)+3j+%).G;.{. 4j+H'+C{ 5j+{i+4j.6j+ri+Pk.7j+vi+8j+9j+0j+aj+bj+-f+`!+cj+<z.St *! dj+P*.ej+fj+D7 P: F+ 99 8i S$ z_ /2 Dt p[.uG gj+^F.hj+ij+R@.id+jj+kj+tM.=1.Bh ;1.6N.F_ y' (> U] -1.j,+VY rg H+ v[ 2( 2( :c }++e! H+ c1 1x.mt H/ H/ /z e!  % 3#+Nd Pm c' 8q _q %h .. _b S@ Ni $' 'a g'.NX [y ym.tg ge O[.c~ yu.{} ol lj+S- RE uM. _.JB ee >A >7 Fy #< ",
"n2 zB )E mj+Ip IE.nj+`7.oj+uc+RC.vU.Pg c! M;.Bt.xF.pj+qj+0[ X6 *. _n Sv wu.Q4.cx rj+T=.<= -* hm !F sj+r4 7S.#j+,E.Ti+['.B1 'i.tj+hD.=C.t++Z2.vp u, s;.uj+3m.,...q qp E1 x' ;* `].:l Nd U8 ,[ f^+vj+wj+xj+yj+zj+_6.Aj+Bj+Cj+Dj+Ej+~3.Q..oj cL _r -o Y;.k6 V5 !; Dd *).N- Q- D~.zX._x r, TY =z [L Q[.Fj+uU IB &*+Gj+Hj+A8.Oq.] .Ij+66+c/+4<+Jj+b/+WU Kj+Lj+7r cw ~8 |b )I.O( 8g+Mj+Nj+Oj+Pj+Ch  _.^X ,E.&6+Qj+<3.`;.&0.c[.Rj+-!.N;.c! )) Lc Jo *5 <t M5 -= 3{.~% U5 O.+ub.`].5l Sj++; ;^ w4 5h ib+`s |}+Ks U9 }h Ac +/.$_.%A Tj+Yr.(5 {,+;^ @h+Uj+Uv.Vj+ai+Wj+Xj+Yj+Zj+`j+*>. k+.k++k+!*+Pg [h I2 HC vm @k+#k+$k+%k+P).-] >).o, sg `@.&k+y*+*k+g2.JI.=k+kD -k+k|+pd+C_+;k+>k+Ow.,k+!d+'k+n# )k+!k+~k+K{ 5<+P*.{k+]k+Dh+^k+/k+(k+_k+:k+<k+[k+%)+x- H{ G{ }k+|k+1k+~E.2k+nR.!).'++u/ 4p W+ A) >| I( U{ F*.sl 3k+4k+5k+6k+4_+7k+wJ.V@.}4.GC Og Av 6M.}% :b :l Y7 Q..El v/ ]( cj Zr.sW I^+qp  3 1l  3 x$ x$ 1l Ln &[ z' h{.Fg W=.WA sI.Ye 2t Qr +^ Dc G2.Y7 D, <} E~.Es.O# F@+bE od bw yu.$< T4 L&+C++0'+mi+D: b! pk I6 <l d(.du TB ",
"!D.`u fq Hr GB }9+=h+nj+LD 6. 9:.8k+yy ^M Ju <9 `z Ew.Ye+e# gA.KB 9_+wu.pC.Q4.77 ~w Ud.5d =H.F2.r=+]9 9k+0k+ak++X.Bs __+AD + .T- uc+V@.bk+Fy.,E.B++ck+dU dk+H/.%D Q8.L4  ^ p~.`].Lf ht  % h9 ek+fk+gk+hk+ik+{j+jk+bg+kk+lk+mk+nk+(F -^ Du.+e E< GK 6_ T> /* :' +; ~t ok+Dh J..UW I..y4 k2 pk+qk+s1+^s.rk+$%+MX 8X.Vz )t.sk+ =.tk+uk+.8+R6+vk+wk+6D.xk+yk+gc }s.qo u( S-.e-.zk+8Y l_+Ak+W<+eK /o DY q2 wx 8X.l[ .q fB m2+Fz aa s4+5x T'.uC 1l j^ Gw N1 m6 57 S$ $c !8 t} A/ J2.A:+iy.Dd Dd mr v1.v1.zH `i F5 G2.#0 23 eI OA.o:+p>.H_ t9 $t rB.Bk+Ck+Dk+Ek+Fk+Gk+Hk+Ik+Jk+Mx.Kk+Lk+8S.Mk+7/.K@.L@.Nk+'h+Ok+Pk+Qk+7X.#] 4m qN or n>.R{ L9.VY #X.Cf lD.^E.Rk+N{ Gm.lQ.lQ.6, c-+Sk+Tk+Uk+Vk+Wk+L{+Xk+6/ 2, Yk+F5.Zk+`k+2^+ l+.l++l+@l+8[+#l+m=.$l+%l+I{ <z.6/ &l+*l+=l+d5+!h o, :l yh `> >% ^- _r G< Hn._V.0w `7 X8.OZ up W# W# Zx :n Xe.hu.^].#^ 6j zu @t 3C 8  <n rG.f~ cw cT UO UO [* _; <4+6z.yu mx fO +^ +^ Lt %h ,) 5u uX.MX._#+a0 -l+AU _z >p Hx  8 ,9.V(.o; je {n ]t 9. U6 [l )E Eu ,7 ;l+}j+>l+$E.@h+Qp ~: c0 ;v >o 79 jA ",
">O Sc.Y% Mj nG z0+Uh+,l+@j++X.zy j| `H..w 7A sC M:.&_+'l+aP.,a gT O3.s,  0.^A.D;.~w 5d 5d Av q>.cJ.Qh+/3.2E D: >C.A1 zs Rv 7. )l+D-.ab Z2.{i.is.}g.>b !l+~l+9^ fu ].+O*+b# :b +B vg sa W` 8u 9k+{l+]l+^l+/l+(l+_l+:l+<l+[l+}l+^h+LB 5b 6z.}! t_ `< D< D' q> >f Qs U4 |l+2'+BF G@+Z7+tO. !.Mg <b+($+3N.P[.hI %*.lw rO.f(+PW &=.n!+*=+1l+2l+3l+4l+]4.5l+6l+<f DS :% x..,z YM.hV 7l+8l+&]+=. aK Os 5F ~U.9l+.A.{W.0l+$B 5F Fz 2s.4,+(z 0w X!+Bo E3 A* H3 n] |h F] Kj t} t[ m2..^.iy.O[+n2.&D $: +v +v W%+_a 6t R8.41 <: |x.&v lc+G_ kr t9 #t L;+al+bl+cl+dl+el+fl+gl+hl+il+jl+kl+qB DB mg+im Va %D y5.<o ll+ml+nl+Lb.|k ol+rY (7 >, @t dl E+ Iu Tc.z3 rT Sk.S7+pl+ql+rl+sl+tl+ul+^r.vl+wl+y# f/ xl+yl+zl+Q>.Q$.Al+Bl+Cl+Dl+El+Fl+Gl+Hl+7h.5d+~E.2*+76+Il+Jl+Kl+Ll+Ml+wC ^) m, F] 46 #. *7 `+ jJ eL (2 |] nx kB K,.fc+c .bX R^.}u Nl+|5+I# ]1 bl q[ y' 'A h  ~).{h `c Oh [p tW N<.JP dJ qU UO G_ G_ x: [! Ja NI i{ `: @^ Ky C* )l m#.-z Ol+vu B5 }j ob ~t *).N- *~.$' :b+db W6 w( w( Is 7M.:0 ^-.Pl+Ql+Pa.Ie !: ~: Mu Dd .j Au QB ",
"'v Qr >f (o Rl+2#+Yh+At.V# X8.kF @3 5/+~z.fG W0+;[.Sl+Ji+<v.Ps.y*+Y2.9b Tl+V` 2|.~w 5d 5d u( *q $: fm .h YC #w.`7 O# O- |4..6.g5 R- n{ V` E5+^=+Ul+[8.K'.Vl+Ny.H2.A:+6u cj h{.R0 9t {-.H+ K2 Wl+Xl+Yl+Zl+`l+ m+.m++m+@m+#m+/d+$m+=G Kx >v k; uE D' '^ I~.+< hm 9~.If ZB .% %m+Yc VW Yc >z ^5 oc+V) oc+d(.5b =p bE oy (y /3 Z9 &m+*m+=m+(A.-m+->.Ch ;m+ci.Lc+d4 oi l>.7z >m+>. .8+-d+$m.+a+_S.>h au ia+XC m| 5F 3_.,m+~z.M0+&:+Au Dd @j #; x' ;# H3 }8 P< )= x' 22 9t :l 7w R8.-q -q 7u -q Dd 6t hm !n >9.E6 ml :#.vb..g 6h 0_.pU 45 i, <* ug.'h+'m+)m+/q.!m+#! ~m+hl+{m+]m+^m+7[ ~*+Fj+/m+(m+54.#3 Ie _m+:m+@,+K2 g3 x5 F2 bL UL <' Z, 4' Ku @b+ * <m+R/+[m+}m+|m+1m+^k+2m+3m+4m+5m+6m+7m+8m+8/ 9m+@9+C- c7.k3+x)+0m+am+bm+cm+dm+em+k- fm+/X.0m+gm+hm+im+jm+B..#g+_y nl sa Y; 9d Zm `A `+ r3 1c.2L D^ !; zk -7 km+bx QC.^n J4+aK {W.F+ v[+t; 2% (> v} @@ '0.^E fT JG  n Hg Fr.A4.[A cT or *q *q *q g~.1t p( C' i{ -2 Yu lm+F,.{1 =. mm+9x.X1 nm+,>.VW #3 o[ j] f! 2% Ca sa pf 7d H@ v4 Z7+~U 3k+0'+T3.Xc ;z vb.qk zk P[.GY om+",
"I7 ,) K4 Mj pm+qm+da h9 U4 ,f (d.wc+3_.Kc Gu wx yo.4[+Ie+0f+KC.`& Bs mi+Ac+LX hu.J2.ii.ii.=H._l mr `H.k/ #: *l gD.Jm ~n Km (-+jd hI T'.M{.sO.9x.e'.rA rm+|' #;.zb ys z@.23 _> t} 09 T;.Y' [h `z 0l.sm+tm+um+vm+wm+xm+lf+ym+om 5[ kw R2 <* P8 4} n;.o+ N- O- N# J6 &a._>+G~ :: ~: 0w tF _9 3h 2s.:8+G_.Lc+b. D| *l GH.sp *w.zm+Y.+Am+;y.O- (m+%H.lx *u -.+M&.d- $k.tK.BB ~3.Bm+ld+pd+Cm+Dm+kw N.+G3+AC C4 rJ.1r WS.y]+$B Bb.=[.n2.P2 4< 4< R9  } tq }n Yj 6b N7 $c !8 J| {5 (q ;v /5 %D ;v Uf Cz.Uo )E n8+69 <f '..<7 oH &*.|d.qN 2{+M0.7) cw Em+Fm+Gm+Hm+/j+Im+Jm+Km+Lm+Mm+,i+Nm+(t.Om+Wa u9.B, 3|.Xc Pm+;m+V3.{: -/ H' QT.0N &5 %[ -X.Ms.-m+I2+Di+g!+m'+Qm+Rm+Sm+Tm+n3+@m+Um+Vm+Wm+Xm+Ym+Pr.Zm+`m+ n+#d+~M ]o Rs Y2+.n++n+@n+wi+Wd+ru.Nf+j{+#n+,-+$n+%n+f/ &n+I;+z4+Dz.vF $. jf '4 R; k6 vi J< ^j ,( :' p~.}k }k Y0 [j *n+=n+AF C: %A T,.l|+v-+P$ w@ pi R9  ^.m^ fT -* b9 Tx Og {5 |~ L$.wI.-n+;n+99 .^.V% s/ >; ]s _b %#.H- >n+#|+,n+'n+)n+!n+~n+Vo 2s.':+sW ;r F1 H[ }b so +B 2( Y7 N- ]-.I@.53 d# <f n#.+B h{.G7 Gm w( n8+",
"Wx BM I@ At 1x ]X {n+]n+^n+:$+Ir.#h 77 Zv YC Qi /n+(n+=9+_n+A4+ux :_+Uv >W.mm+Kc wu j=.`Y 3t %H.79 u4 &4+O,.+] qb .K.6~.)h.*q yr cw $h !n Y] d7.S-.{n -z U9 Pd 2I RW.3'+#J.(> Ij nt |d eI bx _x $g+Bi+:n+<n+[n+}n+|n+1n+2n+3n+(8+7r F] F( kE ,= QW.*;.=y.H^.]+ D/.=7.((..,.-l #:..!.Wa >7 3A <E <E GY 4n+aa x/ #l 3|.7J jG BR.-a+OB <7 89 ir.}  }  }  }  &{ H_ (b <Z 8a 5n+6n+7n+8n+|<+@A *!+'n.mg+9n+0n+an+7C.Ey Hi -6+ 3+q>.Y% @@ @& +& T7 ]* h .iN ~p Sf <@ p: 09 t[ m2.c(.Ek .!.;v :E ^].SB S8.Is 'w bn+Lg $7 cn+EY od 0. .^.@^ 3: 8: SL R<.dn+en+fn+gn+hn+in+4O Cj+jn+Pw.>E vy K,.Hs )0.jd Q..&C.@%.4h 0I.pI u+ <t h_.Co /7 =7 `>.:9.Jz.#G.kn+ln+mn+nn+on+pn+qn+rn+sn+tn+un+vn+Km+wn+xn+>f+qL g# `& yn+23+Q{+zn+8, 1h+k{+An+lQ.N{ Bn+Cn+Dn+En+f/ #9+2*+=l+Z2.&f #v E/ <' V% #. @8 XL rk sk UY.G) y_ pp GN u..:b ;z Fn+s7 P).OU Eb.Jj /: U| %b ~5 |z Yj.!% Gn+H: ]i Ln G7 B: J).:~ Hn+In+Jn+Kn+[~ Ix #E >; Z+ $~ Di &z tO.-m+#g+Ln+Mn+%G.Nn+C)+On+^n+GS e4 sI ); H_ yu (b :b [0 wj cn+Pn+Qn+8. S=+>o :r j=.6L B-.w9 c~ o2 ",
"#E I@ Rr ll I'+q[.RU := eh A4.%H.O[+K{.5/.JI Qi Rn+T[.Sn+Tn+Wc.t0.yx <x Wv ZH.{t Og  x j=.Q8.].+79 u4 +G.]t 0. Xe I!+[A ze $t (b Yv Cr zk G~ s; $' k[ Ee 77 jw _# %@ <*+Y&+cl t} 4! L7 wD bx kt ]5.Un+Vn+mz.Lm+Wn+M}.Lk+Jk SC jF 8b )0 v| zw Ia 9$ O] My.28.Xn+Xn+Yn+.{.Z' 41 >^ l'.l'.79 GY Hr.GY GY NP.Hs 3h @d {W.NU 0t (++(++)6 %. 5l |].}  }  }  }  &{ 45 z. /).@H.Zn+`n+ o+.o+S~+;c+pu S~++o+@o+#o+$o+Lg +; #h y2.$.+.B %h 54 -/ R7 L+ .d DK e7 %m 25 0$+;( eI #H Km e[+54.2s.;v Hs aa 2q n8+aT.-w _8+H4 ~z.F` Gh M;.7J Jo m/ `y ty SL 6b+%o+&o+s0.*o+=o+-o+;o+>o+Zv.4| m'.Os %D OA.Kh pf /2.:#.8d G2.03 JG A} Ta Kt Do eJ Jj w~ e'+,o+YB.'o+)o+!o+~o+{o+]o+^o+/o+(o+_o+:o+<o+xg+[o+_}+B5+}o+PH.'~.a1+x>.+q uM.a, |o+1o+2o+3o+4o+E..Vh.5o+7l+m*+*f+Y-+6o+lG vr {1.(t +> P@ yB 5r -; %0.kf.yg (*.z> ]] IC `  u( 3r mb.I.+0V lw.Dy X].YK `Y }* *0 +[ kb+;_ &K.B+ (|.7_.^]..g ZB 65 '8.)p.7o+8o+&' dq K4 ;% Nf J) Wm #0 Pg ld #*.9o+F- Z3+Nn+.#.P).O<.uR ~( K# F' FS fs (l *0 0D Y0 '++$' U] Sx Hs Yu ,) m/ m/ x$ #x.ob $< ",
"0o+Vk ao++f ;j VB /b /b n/ d[ Xu ro at ;h Dp dG py V..bo+R[.nm z-+yx co+Op mm+l[ e~ W].Lv.do+<s.Ii pb `H.~z.0I.Qs Nt.%t -t _z `m Yv z2  C !M.r* z-.mt $z ^].6d {`.1y. '+eo+r+ $c kw.:  Df %. [c -C.$]+fo+go+L6 Ti %R.E4 Qi ho+2E {t }G Ha io+jo+y@ 9i.X2.P- w1+%4.MG l0 e! Kj [0 Mu G7 6t ${.;7 NP.#< ;^ gm k! 7j U6 Mc qh *a.ko+Y'.1d.cJ.QS }  }  }  }  KS -6.4w 7!.S<.lo+mo+no+'F H4 {g+H4 K6+oo+po+qo+5n++,.}|+Lc+<Z B0.2/.s( >f H[ _$ >D t3 x; v% t' 3& -&+pf $^ Jm ,m+$B $B K@.Wa 3r S8.)E `d @U.)F 'F ro+k2 Gu UW Zr Lc H9 @$ ;e.RU _{.6o so+to+om o3.uo+77.vo+ee.wo+`E 6m .q cj p~.wJ V* F] of S@ `$ qd 33.u+ x5 Y  In WH }= xo+yo+;W zo+Ao+Bo+Co+Do+Eo+~o+Fo+Go+Ho+Io+Jo+Ko+Lo+Mo+Ge+No+8(+J;.)-+Oo+Po+T=.6;.Qo+Ro+C8+a{+;j.So+N& oT {=+(].To+-m+HV.fK.Eb.h-+Y{ X+ @8 Ym ad }T rK .N WK.n#+7_ z_ d  J+ }@ dg.bt M$.-] =] t<.Sa.Bn.OA.[f m2.Ij H&+YH `* C; !b B5 Ee Ee Kf pd `C A~ 4+.,1 Uo+((.#] Ze.5p [& Z+ F. !~ vb.Lw Vo+lk.]5.(A.SH.YB -z v2.YS d- l{ qo {4 !Q fJ &_ '0.^1 _1 d1 ~) @j Ed >f r8 nj Wk Yh ]z 3( rB.",
"Wo+om+We wi.Wx Em S; ,= kk 54 }- m2.)0.r[.Ms Xo+Yo+Zo+`o+ p+Wy QS.49 l| 5A U-+}w kA dT Tx mH.)5+dx S6 g7.g7. !.<f ]5 V6 (r dq +< .p+;t UH t8 N@.#2.Mu Vf ro R2 d< [W.+p+G&+k> |( X0 A8 #n *i U1.xr.J~+@p+#p+19 wc DB F4 (8+Yi .A.!: :b gn $p+%p+M( Rc iJ.o[ lj ~b q+ `,.lj 8i j[ w9 ]: c0 dq <f {w U6 l1 hI 0w 0. 0. '7 :d &p+*a.G9.@] Hr.wb+f4 S0.QO.*p+fL.=p+v1.L..(w Ry -p+;p+!W.~;+g| Mk+^A >p+,p+'p+)p+Mb+WS.-A n2.3>.T{ 3t cw 7i F] t8 dI $c 09 !8 7d a0 W6 b}.sW.Ns Fp |:+=t.!p+Hs Hs zB S6 _w Pe+~p+}'.{p+~U.`H.&4+;h <f gr `).m~.y2 x2 (w ]p+^p+T7./p+f].c .{t d! B: @) ]( $o ,% Z{ [k [p 3w U* fT p: ]= .p x1 8:.UL := xs eD (p+_p+:p+<p+[p+kQ.}p+|p+8;+1p+2p+3p+4p+F#.5p+<. 6p+7p+8p+9p+/i.0p+ap+bp+cp+S1.dp+ep+fp+gp+hp+fk.ip+jp+kp+ck+lp+=e.3n.mp+sh np+Y: ,0 }+ yB 2f wg M< W;.JJ.t3.o] O@ 54 *7 GN I_.!> }I al L`.x3 f5 jw.H.+mw.;|.X(.QW.>} oF 2b op+pp+1} A~ -*+l1 Hs $E k5 w9 qp+~) [0  3 ^] jk p] V> !x <g #2.K2 {f ix *z .2.h9 M0+P[.@$ Av 4d Ir u| !Q XW _$ @& fl mj 1( @n ]i c} _q E( Tj (b qr !M 2q tu ",
"rp+sp+ t &k.}z aX Z  Q~ ]- Da pi t} Q2 ~t q| }'.Qe+-B.tp+9}+2a+R6 -w 6w w4 eq I@ -6.-v _t.tF 8b ~z.VS.2a vU `H.]t F@+*G.7,+h4 E6 up+IY I'+k'.}p 1t O1 bT <4+&[ B+ #[ #[ ,^.5p.#k `)+CS.Q.+vp+wp+[c xp+tc+yp+wc zp+Ca+Ap+Yi Yi 2E jc  = *s Bp+Cp+[g aq @] 41 S$ {% A: <8 qJ qJ +x.1x.n[ @%.o2 Jx b0 o2 Fe 3( '..a. Lh Hp |~ e' 3; !$+jd PU !s.)E $%+`s {9+]k.Dp+Ep+GR.Fp+Gp+Hp+Ip+n~+CD BD pO.mh+=B.Jp+Kp+Lp+Ye.8x l9 5C pp <* 9p @^ x$ e! <7 t7 n. nl C5 kc Fu Mp+R*.9l+Np+Np+.h+km $B ;v d(.)5+Qh+^3.6S.Yy kH )o g| q}+=w yU su Z[.6o S$+sD.Op+Pp+Qp+Rp+Sp+:c+hc 54.c(.*v 1l &[  ^ &0 q( u..x< T; Lt 4# h=.A} u} -/ 1! +c ;P pr C+ Tp+~5.o'+lV 9(+Up+Vp+Wp+Xp+Yp+Zp+`p+ q+.q+_l++q+@q+#q+$q+z7+%q+Wj.&q+*q+=q+_5 Q-+-q+;q+>q+,q+'q+)q+}h.&( _U (< 3G G_.!q+C>.`a.`W.:* ,0 P. Zh 3f )% Uj f<.WK.Am.hb z_ D@ -# aj V% o( @y Um s7 3G Z:+Wo U: um.~q+)I.p6 (E v+ M/+{q+]q+^q+/q+B/.nt Uc HU =H.Gx 8i m^.+B _b ^] e0 r_ _p Sj i) B' -l (9 m2 fm Nk+Bu jx Y7 Gf t[ $. 5d W2 45 Ex i% {= 4t.Q7 33.Yh Ux $0 q> Z} )^ 36 &$ lr b[ wO.",
"(q+_q+Z[.GL C6 Ra 3d iw V; :K B' Kx 5b jc !z.'o :q+<q+P1+[q+=E }q+wO.b} <b H5 %s (J qI b9 &,.L:.fr pb l2 Fu Zv ]v X8.}|.,` K2 eq xp HH.&h fO ft WH 1{.:] R+ ;3 sA 3n t' =c |q+*k R;.1q+Q% 2q+YS.pK.JI t2 2[ 2[ ho+dr Ap+Yi 8l.bW.Qp '4 *s 3q+Cp+@z I| 1d.|k '0.w' +s R~ Ca n9 H~ Mi+Q..Jx Bz.p'.Bz.b0 ~t l1 +3 #l cx =l @k [c.L* 4q+`|.[f H_.n(.&4+5q+6q+7q+8q+9q+0q+aq+bq+cq+dq+V*+eq+=E fq+MB.%g+gq+hq+L{.C: @y %n -3 t/ Y  h1 !Q `{ qw P).bE M;.F@+zX.Be SO.iq+jq+yx kq+oc Tg f].3_.Uf Uf #< Bp t4 lq+l9.#w o'.]c.vu ,n.0a S=+Uk dJ.H:+Pp+H:+>[ mq+l& nq+&:+7_.-7 pF {1.Bc Za.zq $o }* Xf.5* {S.Ka :t 2} /; Z$ -/ N~ X{ ;P kc+|% oq+pq+Z9 ;0+-Y OD .y.1*. M.qq+_g+rq+sq+^o+_o+tq+uq+vq+wq+bj+Gc+(A.L`.y'.D&+_.+xq+yq+zq+Aq+Bq+n{.kp+Cq+Vj.ck+#++Y=+t,+jc+s4+lc.G[ {s ]- P. if DI )% p_ FR ! +!] =; z_ F. *7 ^| pp S@ uO.aS.B| ww.x1+eA Dq+;%.ck+ij @; CJ }T ($ hX.&b Eq+p$ Hz.U* [k x< Vh T& <8 {-.Lf Wf $~ Fd xd J3 [X  .+B+ Kx -^ z( {} $< o2 ~t J2 .g v[ .= tA }% @t dR.|b R% S. k' [=  n _q .^ %0 q> U% T= Ct +!.Bt !n ",
"Fq+Gq+Hq+y,+$s k3 o}.0J 8n -l B5 b0 gD.5o yk Iq+RS.Jq+Kq+Lq+Mq+xG wi.z< rd B< Y@.x* (J q( uF  g (r Is Nk+2x Zv Lu LE.bb 6q r[.@v F0++f GL %j a  7# C) <] O| CC Il 2n |n Id 1n `j &p Nq+_| Md T5.J9.O<+Ns dr 3a Yi Oq+Ap+9'.Pq+Wl+Qp }* ]e Qq+s .|@ v} 8d z/ )~ w; N$.ht D+ '++Ho K` Rq+%f Ca.SE.jx Jx RD.jc {t &4+ca T'.Ur Q.+Sq+Tq+H: zq =.+Hs AE.Uq+Vq+Wq+Xq+Yq+Zq+`q+ r+.r++r+@r+#r+$r+%r+&r+=<.*r+=r+dr D$+v[ 5& (t Z].'= d[ 7t TT.,r c! MX Y5.nc -r+NC ;r+V*+>r+Y[.4[ }[ Z1 m| y5.DD R8.DD Js m2 !z.q|  !.2q qb +t =* `).eJ.,r+'r+)r+!r+~r+Pp+>[ 4G (m+{r+cj Og zk G7 J~.Ed nB.f{.f{.$o V% L4 Vh =0 E1 Y; Wf Z$ w$ Sq F' O| Z$ U~ W/ _3 >~+>` zX.9A ,F i+.]r+Al+!f+ti+^r+/r+(r+_r+:r+<r+}g+Dc+=,+)4.<1 [r+Jm }r+|r+1r+i!+2r+'b+3r+71+4r+IG.5r+q, Ye.wc+Km Mh tA .. d  {# Wf .x.hb+J5 yg +d.+d.3y ^] $~ [@ ^| V% T| C, Aw.&f e'.@0 l#.PY 6r+7r+{!.X!+}0 ,!. W.vP.8r+F$ y[.:_ i_.Ia 6p *7 {~ Tl =_ X% ]i J) /- %8 GR 44 D  Mi gA m[ A( b0 Ca.o2 y( 7q cq '..c0 ro _z nr.Uc Oh 4& S`.*+ E1 .< >f $0 %0 aj `;  d r( $j $h qb ",
"9r+0r+ar+br+T8.w4 gD.8u za +G.()..h mH m| 49  a+U&+=r+k7+cr+dr+Pp+er+ft uE ){ I<.uE :f ,) go W6 o2 T6 ;h aU.!z.!z.<o lq+fr+g7.zB $E C( I~.Xu H_ UL :] `p gr+L+ &k hr+2n #g ir+`j jr+kr+8[.lr+mr++b.qH ]o ia+dr RR.k| bW.ho+Yi ho+Qp tA Hn nr+or+My P2 ur 7w b1 )> #c }h Pd *f 4#+,[ +].<r 5o ]t kc ca Ge -z =f =f G: U2.t[ (: j-.A5 (t sW i3.0I.I..pr+qr+rr+sr+tr+ur+vr+wr+wr+cO.xr+yr+Z<.2}+zr+Ar+Br+Cr+!^.JI .] mb.8b.m2.z/ 41 Lm '7 *l &w m| 3a Dr+:A Er+Fr+Gr+'9 yp+{^.rB Nm+s2 Os %D d(.d(.5h 6G.vU a8+,9+nc+_{.=P ]A.z!.0z Hr+Fp+p~+Ir+Jr+>[ '3+im xj Kr+Lr+q9.2_.k! c0 w( w( IH 8M.8d -* p~.}k D/ y} I+ 8f |b A5 >d Do }! Q| OE R8.Hp Fe <l L@.'..pl Te.(! 24.Mr+n<+k{+Nr+Or+:r+Pr+Qr+,f+Rr+6k+cC.Sr+Tr+Ur+Vr+w-+Wr+Xr+Yr+Zr+Fd+`r+Yr af+ s+<y r2 Kb+5F Io  x aj J) 4r h+.Z,.ad E^ am J< 8Z.^2 5p _$ R; pp >* .g =o >a.B5.Q3.eA .s++s+&=.X#.gT u#+:K 5{ ^{ DG 4X.R$ z} :' n7 gr+j{ Su C] x@ ;( xs of 54 ~8 T> [&  } -1 Ij wj U9 jc p'.jx b0 Ge 31 Qp fr $%+im 3A /5 !4.M2 aq Ej :$ Ln Xh G, H7 Ux >f >f L4 .< 4w S'.Qs ",
"@s+fk+8}+#s+re $s+@h+{F.7/+%s+&s+7S.3a SR.49 qO.JT.=r+<6.*s+=s+-s+;s+||+p[.3/.aX ~^ 1K Gs 7_.<l A( ^K p'.>s+aG.n'.aI x<.Y>.D#+E5 uC 2B vf L4 :O l{ `p `p #+ !C |n 2n #i |q+1n 1n >i 8[.sm.,s+'s+]++O<+Dp m| m| m| RR.bW.RR.Wl+6S.U-+ua >m )s+!s+%T..3 Mh z/ `$ >] N;.b! >C.9b ZR ^1.Yy ~s+.].{s+za ca Ge C,+Ch H# +$+y-.l5 i{ 9{ 8- <k uh Ny (9 ]s+B-+^s+/s+(s+_s+_s+:s+<s+[s+}s+|s+1s+2s+3s+4s+*D.xr+5s+q5+wc tW.&w II |4.6s+8m _A.y^.TY <w y~+58+tp+ZE 7s+8s+9s+:;+.j+fR.p3.og+Le  !./m+:E @s  )+m2 P]+uu [Z [A dJ ED ED #$ 62 }q+0s+Ir+as+K:+bs+'c+Lc+dE z:.cs+zP.ac.w/ ZC ds+ds+x4 6  Y7 #H Ko 00 e= N7 N7 @E %b x+ &: =: +/ P8 :q ew ]i Fg z/ 3r {: zb 5m bD es+Hd++g+m=.fs+gs+hs+;! 76+is+js+[H.ks+5(++g+ls+z..y|+A9+*j.p{.ms+Q3+c[.Rv hD.|8.wz.Wg+fq+'o a[ O[+C6 J) lk tH Fr *f.2*.;o 2h..9 L5 A) 54 _$ !; G7 L` Te.7C !r +>.t/.Q( ns+os+Au.U;.e! s> GJ JR 5r >q  , aj <* .@ ]q {4 m! ~~ *n 4! P2 E/ :t 2  d& ]$ #z }- +B ib.8u aG.,$+*t fr kc 7z.]t ~z.Fu 4|.+] U9 '..b0 }w 3r mr _t.Fc pK rF G7 89 (|.n3 n3 ~F >^ rF ",
"ps+0T.to+qs+d`.rs+Y5.TC ss+w]+Ne+3[ 2[ 3[ T~+qO./9+UR.;B.<6.%r+Zs YI.ts+^z bF uo VH ~F 2s.3h 43 D5 8E od *z Ip #w SD rW.+2.zj E, Z' kj b1 sN jr l{ l{ TL us+P4 vb |q+2n 2n 1n %k jr+8[.p].vs+-0.mb.{t ]o l| ia+k| EB v]+l| Yi )  za b9 _f ws+xs+8V.R2 b. K{.Gf fS 7. .y.lO.x)+ys+S++|x zx eG vU.v_.m;.B4.pl zs+S5 R3.L$.a9 B) As+{&+Bs+t9 T{ wj Cs+Ds+Es+Fs+Gs+Hs+Is+Js+Ks+Ls+Ms+Ns+Os+Ps+Qs+Rs+Ss+Ts+Us+vh+Vs+Re+:|.a9+8{+gi.A^+gi.gi.T*.Q3+J0+*}+^U.Ws+Xs+Ys+Zs+`s+0> &<+}[ Xg+Ke Bu Uf Hs Cz.>9.@d Kc Hp l! }p Jr TL /7 {D. t+wk .t+Aq.m~+Jr++t+3N.@t+#t+$t+.1.Dy |^.!: 5n Iy.P5.%t+sf )M.fc.}I /}.k= ;L.#& |2 %i ta `: qo ]q .@ X{ aj so S@ {5 Hs a. D| D| 9+ fI Ue.W<+&t+*t+s+.i,+=t+-t+.8+;t+;t+7D.#g+D)+;-.>t+,t+'t+,d.$C.)t+Cw.es+A1 Ti+!t+~t+S}.8T.3[ {t+W4+{F F. 3f D!.uH *f.^- ,< yN .9 -8 A* {# $. qp b. L- M3.I3+`& O3.$).Mf.Q).y*+];.F+ dI 15 44 J3 V> N/ ,0 F. *7 Z: 8:.]t+-;+|/+=T.lc.Ej Ej Dv 6v .s V$ }2 !> {: jc ^t+n'.q| &4+Ks Lc Ge Zv 2^.~z.Qp v_.N;.If 4( ]5 .D =[.#h hm w( tF P:.F/ nA Q2 #H #v K{.#] ",
"/t+(t+O1+zp SD.p2 ]f `o K;+N,.3[ ^6+2[ Xo+zp+qO.Ga+-B.tp+~4+_t+pO.Nk+:t+%z w[ nb 7  R4 Hk {f <t+)8 )8 4#+y4 )) Y5. 3.Es %v.zj E, .,.N@.qd +y Ir !Q !Q 's [t+p..yl t(.,i #i 2n 1n >i Nn sm.,s+-0.]++{t ]o f].l| k| k| v]+N,.6S.%4+h9 b9 =[ Q[+;;+8V.R2 0. c0 w9 sf Qj+}t+Ux.|t+Ow G8.p3.1t+Le MX bD B4.&*.nk 'h 2t+bH j] :' W{ 3t++  8_.[] @^ j[ E[.m0+4t+5t+6t+0R 7t+8t+8t+9t+0t+at+bt+ct+dt+et+ft+gt+ht+it+jt+kt+%R.D8.Gd+:Z QE 29+Y7.K} N.+bS.lt+<q+mt+9s+nt+ot+P` pt+C= T~+!*+>F.+w qb /5 Uf DD Uo U9 Fh )> +> Dx /7 TL 3s.*g+yk qt+.t+rt+]A >[ jc+@t+st+tt+V{.Dy aS.B4.{n Q- %t+S-.fe CL.@1 +'+ut+[W.vt+L$ bv #{ :^  . O| a  8: Sq X} [| ]b k5 !n pb M0+2|.M0+Kc WR.~c.[b+wU.wt+k- `!+Ci+is+xt+yt+jj+zt+)} At+]4.|H.Bt+x5.Ct+Dt+-!.kF V` Dw.MB a(.Zj.V!+Xo+a>+l/ hl C' 2d 2d.-e.e  #8 ,< I< zN L5 Gw 8~ <= (q ,} H).xr.YL.ld `r+Et+jm kc 4|.Jm #q 64 Mh.%8 >L [K i{ Y$ B  90 M  -3 C[ jr wx.jx.mA +s T;.$n Ft+-4 '8 _1 2( a. kc 3E bW.mH q| kc ca 7z.ca m2+~z.Hk v_.v_.l[ +] +w 6x o/.TB 3A #l GH.sO.sp XD 43 8y.~n }w x/ ",
"Yi %4+o .hB <l vl 0j <n 3( fr 3E N,.N,.wd+}'.3| qO.Ga+Gt+Ht+It+Jt+=2.Kt+L2 ^0 x4 -f r;+zX.10+A1 3z ok ok Dw.QE Sv mi+Lt+rW.v_.DF.I/ `,.{% sm.M) ^8 j-.hd Mt+Nt+2n 2n 2n 2n 2n 1n Nn <^.lr+Ot+-0.v]./o eK EB EB v]+EB 3E )  Pt+L#+Lu b9 :k Q[+^}+En.2( Fz H2.J| &^ Qt+Rt+ 4 St+c-+Tt+Ut+(A fa Vt+L.+&f 8b c8 d~.Wt+/l z@.a# '# po po #o y% (l >] G++Yz nt+Xt+Yt+|e.Zt+`t+`t+ u+.u++u+@u+#u+$u+%u+%u+&u+*u+=u+-u+;u+[[ >u+&t+q>+Pp sO.v9.If D| ]t PS.,u+'u+)u+!u+~u+2a+{u+]u+^u+fK +w /5 &D %v l'.;v at _: @k >*.+> !Q /7 /7 Zy su oF.v]+08+=2.**+wy D4+tr /u+(u+_u+cs+5( Me+6C 6m N;.n. I# 1N.mc.:u+<u+[u+e +u.+k0 w@ T& w..nK.#t 6z.%h %: [| of G2.!n zB $B MA.Bu kc Ku xc+_(+O]+}u+H& |u+12+_h+1u+Z# 2u+,k+og+3u+PC qC ,a+U9.Tc.eK ca 4|.4u+HB eK 8B ~p+cm <r ]5 g, VG x_ R= $0  C wo ]^ ]2 yN zN }P ;# g~ .= 97 .] ~f +>.--+ #.|4.qJ.&:+7u #h Xe b# 3} u* _r |c.!O |_ A+ B+ Ij @@ |b GN 5u+#8.#6+(: k0 Z_. !+y@ JK R$ S0 jd ,} U-+.].bW.'h+0G.Hk b}.e].b}.NU Fz Fe ,f ,f x/ cx U6 Ee 77 77 Uo 3_.2^.q2 q2 8C Ge M0+<f w4 V6 ",
"De hx f9 m1 tH VG 7: 9p &0 >^ $7 .].n'.PS.>F.Kb+}'.6u+PP._t+XK.7u+,9 5q+Bi 8u+K;+Je Sg 9u+{@.hZ E# 27.1*.Ye+B8.N_ 0u+1=+(! 31 ^v _1 A: :&+k> au+Y~.0i 0i a].%p $k jr+#i %k ,i ,i Nn sm.y=+bu+mr+mb./o eK 3E Dp EB Dp 3E aI Du L#+{s+ua =[ cu+du+Li 7b T'.w4 G6 @D :4.eu+rf+fu+]m+gu+Z8.Kk hu+Y6 iu+|r _S.z4+Z/+%h.'h jj 6j [  @  m~ B6 [  Ja C+ ju+m0+!9 ku+lu+mu+nu+ou+pu+qu+ru+su+tu+uu+~N.vu+wu+wu+xu+yu+zu+Au+Bu+Jk <w <o U4 B5 67 03 Jj hA ]5 xU Cu+Du+Eu+aQ uy ca Oi ;] W| +d Bc }* $v h  Ua bt #c 4< ',.$v *u ~/ iP lK.4G !z.8k++G.().7z.9+ EF h. ec.Fu+W1.j1.,r k7.i9 ;1.;1.:c.,r my Gu+Hu+Iu+Ju+ut+E9.#) }I ;1.#:.nx ap aF 1- _q S| yh pK cF @w %{.(d.Bu 7z.Pg cE U9.F<+Ku+Lu+E{ K{ Vv.vy.Mu+Nu+uB Ou+_;+Tg XC t2 Pu+km ~z.4|.pb wc+~o Qu+:8+jA 7} r| m/ W} cJ !R j; n/ >f 2d U< h} Ru+|c.:M N1 M  A/ F, ~: Su+Tu+Ur++f+%e.TG rj+ x Xe %v I_.Y  I( ;d.}O -| G( lk A' S0 22 x' @c ac+O0.!w Y5 L] M= I9.}2 X; w} t} p[ ~t Uu+3E bW.!z.za ') Ge iJ.Fz ,} <l 97 hm :E 7u ;^ B5 Q2 B: 5b a. #l Bw.Y6 SD (! kF ca ]5 }w 7j ",
"pb `o xu.w3 u+ }& ez kE `: Ze.V6 SD.3E {t+`v `v ~U.PV.Vu+It+XK.%r+Wu+{9 Xu+$0+Yu+Zu+g].`u+ v+.v+Yf++v+m_.8f+Nw ]}+@v+#v++ .kF Dz.T;.M= k> #{ oY ;^.>^.|~.0q &p $k >i $k =c $k $k bp vs+'s+$v+R8+J9.B4.O<+#: Dp Dp FB 3E ;i+Du Je {s+3C =[ cu+du+&H.M2 0. w4 Dz.}4.%v+Tt+Mm+&v+ul+1n+<<.*v+=v+oa.yc+-v+Dm+;v+=k.l8+>v+,v+Q8.8t /^ H  u1 e. p8 c1 O# ud+'v+)v+!v+~v+{v+]v+^v+/v+(v+_v+:v+(z.<v+[v+[v+}v+|v+1v+2v+3v+;u+Kk Y1 8. Mc 6r V].}* sN 6L b[ 4v+5v+*q.6v+7v+zB 12 @e.6_..!+r<.#, y5 bh N* %n 3! (> 4< }F A@.I^+yr 'A L>.y5.DY 7r c! D$+GC I1+EC #1 GU.8v+9v+/u+wD T5.ma.wF X4 *F 's+my :U.0v+av+bv+S>+cv+xD N2+i. =] z~ {,.Y' ;* ua s8 E@ rb Tx a,.3h Gp ]t {t Ju 10+SC.wt+`j.|g+dv+L{ 76+`!+l# `x.2n+ev+fv+gv+nc Sg q2 |r Pg *).,t +w 6x Dd 3>.DU WN IK ZS L@ m~ )| <] T+ Fm h~ T> -o 8Z.we.v[.t3 -/ :$ #v T'.7A 8z.au 1{+hv+Nc (5 iv+TT.V2.I_.C[ *s xN uD @~ n~ I1 ^E p6 e! Ej F1 T].v#.jv+5p.l<.M= :&+S% Qu id aq jd >z U-+.].!z.^M !: U9 9+ !t <1 C, )0.(5 Uc Xe G, Z] 00 #c cX ;5 Hf iJ.TI.X5.gi. 0.Jx.AF D;.$%+<l ",
" 8 p2 Vo j] u+ FL mE kE  d zk 0I.aU.().7B `v `H.U6+n/+kv+_t+=}+`L.lv+mv+d-+Mq+NC }[ r[+nv+z6+(}+ov+47.]k+Lu+zs.7, Pf+)i+Z2.:0 H/ _1 M= {= gu.k> 5$ #k .K ;i 5p.6v u(.3n 3n 6v *p k7.pv+Aw.Ie.Nc 9+ !: ^M Ms lc HB U-+FB qv+sC Je 7q 3C Kn Y<+NE OE -5 D;.]5 w9 A^.]r 8i+rv+sv+}(+LK.9[ qC Rf.7. tv+{r I3+uv+Pj+s|+L~.0M.Xu 7a+|I.!E l~ b) .. 8i uA vv+U..wv+xv+yv+zv+Av+Bv+Cv+Dv+Ev+Fv+Gv+Gv+Hv+Iv+}v+1v+Jv+2v+Kv+Lv+ h Du >s+a,.%t k4.D} i1 Yv Mv+Nv+Ov+Pv+Qv+Rv+1a X; }}.Sv+Tv+,i W9.pw V7 ~m {= k0 BS.3).3).){.v@.vF Y0 B: kd sp _|.Uv+y9.Sa.Vv+cs+Wv+ec./u+j1.j1.12 kw.Cl 5& 44.%n vD ^:.YJ.Xv+Yv+0v+Zv+=F L`..*+zD >!.{1  >.Oa 0j 5G .^ I7 1t =* o/.U6 w/ +] ^M qG.:x PC I5.`v+ w+t& #9+H'+xG..w+ y.+w+mI.6/+=3.$A $A Vw.iI._S.<h fr M<.du B-._q H_ -[ [  |  @  @  [  8t vh Fm vo T> w% Nm TK.v[. } |b A@.;^ 2x TV.]u+Mk+7C.5x wu zS.j=.j=.OE %: p> W> un xN r] u| e  R~ #; cd 7d .= Za.;r }G @2.@w+:  16 S% Dv qd 99 Rd -^ h9 ^t+aG.Qp ,} $^ mb.Hf fc.|).:l y' u( }p >f *f.Mi !8 &] jj tF m;.M.+ai.#w+<y <3.9! b0 0. w/ ",
".k.b0 I2 Ur L# Kn aL !Q <b {: Ge .].vm 2E k/ k/ l| 3a na +0+$w+=}+%w+&w+:q+p-+^6+!t.;b+*w+E5.=w+>8+>8+]k+Gh+zs.7, -w+,j+K<+p;+Fh 51 Tq+Tq+(| 5(.__.:&++k ;w+',.S% b]._| Bl O= <| TG 0u f].eK O<+{t {t O<+lc lc lc #: ^M qv+sC <o 7q 3C Kn cu+du+OE K:.0I.;^ Ko z@.y..24+ee.A0.>w+,a+,w+Pu+Iu bD '%+'%+rl 'w+#*+Q# lw.*o sN hE F< G< ;| 5_ J+ %b :c h9 Pt+)w+!w+~w+Xs+{w+]w+Bv+^w+/w+(w+_w+:w+y,.<w+[w+zv+zv+)v+}w+|w+tP.1w+i9.6o ^n+2w+y2 j1 `m b[  0+5v+3w+Rc.I:+d(.Md Tv+4w+Tv+#i ow Ud 5w+E:..K X0 V{.DF DF og.og.k_.8V I# AF $-.rl =p nk Sa.6w+Cy cs+cs+Cy Dy Dy pw.qw GG 5& 7w+%n s<.@:.vs+n]./u+8w+A9.9w+P4.<y V@.n{+28.1' T8 |k I7 r8 eZ mx I!+-q dq d~ $%+aK :B x7+^o.0w+aw+bw+$q+cw+He+dw+ay.ew+Wz Oq+fw+hu ]M es+|r 7C 1{+II Lc $3 {++WF.I_.3: Zp #o B6 d@ |  Q1 1_ p1 Di DI I) t$ J, -o q] y+ *1 8b.Ak d# CB ~*+an+(~+cH R{ Ky dT dT PA.OE E[ 1h )( Sz _f hw  , Y[ 43.G(.Y7 8d m2..= E/ &o >1.:$ qd y@ w} t} 9t wj Kf y( 8u jc ') Y7 v].s9.gw+4n ;] !> s8 r( Lt 3} .& 2f K| B: I# *).SM >h {v v^+lG pl %*.ZC Lc Ge ",
"<Z l/ >o Jy.u( }] jP ,) J| *f :F u<.NW NW <w <,.xx 3[ LT.UR.U}+hw+iw+jw+kw+i2 lw+Vg+xo.C_+rg.5d+{E.Vp+A*+mw+nw+ow+pw+;-.aA G@+g-+zc N= pY 05+}7.}7.T;.#a.kw.<| K| s+ }2 2! Cl y8.xc+qw+AP./_+ k.]v HB #: lc lc lc HB HB 8k+Je K;+7q ua Kn rw+sw+5d Tf 87 rF F1 (: K:.x/ Ye.tw+IB dd =e.uw+~.+vw+7c+<s.l6+i3.s4+Hi K5+3C d[ zm |& oe s1 r! 6+ ;% $~ nf #< ww+xw+8Q yw+zw+@u+Aw+Bw+Cw+Dw+Ew+Fw+Gw+Gw+<w+Hw+Iw+Jw+Kw+Lw+#r+Mw+Nw+Z[.)E m2 RB Dd eu tu Ow+Pw+Qv+Qw+~r+mr Rw+|}.=c &p (e 40 ,s e{ }R.${ ub.1~.H9.og.A| zF B| P:. g C: }L.L9.8V k_.M!.Dy XS.XS.qK.X9.F/ o. )M.H/ 9t t} %n ]:.]:.%n aN.Sw+Tj.my h. *i og.J[+}{.bX Qe.Ny.lm+]F Em 3/.D. d[ Yk ua Fc n2.#h  ; m'.wz.G;.Sv.B*+Tw+[g+Uw+Vw+Ww+!a+LX 9B vy  w eK eK Ku O<+*w N.+6F M0+!s.GY Og 3C qI !( gE :% [  [  ;{ Xw+f+.t2.o%.{# ^- r! q_ W  -/ Kj .q #3 PS.Yw+SR.iq+Zw+kh+gn.Au A:+8w.Tx 6L th VG u| !^ r9 U].Dc 1>.Hx S8.n(.)E .k.;^ Hx ^].G7 [f xo u/ (o |x.gA n1 3( Fe fr ,f '..a0 uF Oc `w+-A -5 J~.Cr %j z< 0) *D  l E_.~n 4( eK lc g6+$B Km 8x a. gD.Ks D#+a! ",
"Q0.&[+G1.z'+$t =n *q wu *l Uf.yo.kq+ x+Y8.~3.3j+qj+S}..x++x+@x+O` #x+RS.Qi+$x+)[ Rs YL.hR.%x+F<+Tw.Zz 8}.&x+*x+bD.dD.=x+m& :b+kj #> '~ L]  e.&i 74 }++M$.Y0 eI kw.m' T* K| ^:.jj U.+-x+A6+Sf+PD 7A aK +A lc rH HB rH rH 8k+Je bl.7q 1- >m rw+sw+dg.2_.at Dd y' $v w#.Nb+;x+C: W& *f K@.v2.}| 5j ^~.4j WN wH.RS mK.bx.EU O| ym fP ;o rk yR %8 sd Ab iB Fm We >x+,x+W|+'x+)x+!x+~x+{x+]x+^x+/x+Fw+Fw+(x+_x+:x+yv+<x+[x+[q+}x+|x+x]+m).-i+.].Uo 7u tu Ow+5v+1x+2x+B0+<E V2.W5 j0 5p.kr+9i ]0 i&+3x+wJ GG Vv+'r 'r pg.pg.=o A| bx oK.GC Z;.oK.,v+1N.XS.Z;.Q-+hv+~4.F` O# J..I2 a0 J| 5! +& ]= 44.aN.F| p9.Kh |).>,.bx 8C :F Yr x@.:*.E-.to Lt p> `A >% z} Bc or Y,.4x+hc )r !a+~g+0w+5x+GX.E@.6x+7x+~4.x9.mG ca Zv 7z.8x+/o c .rH >h 9b.*l  ; 9x+${.G7 y' yu SU W} C. F' 6) '5 0x+:7 /2.DJ lk v$ td J3 Gw J- t[ vr 5/+,$+kH Oe+ax+bx+cx+cc+cu tU .D 2s.O[+3>.T{ 1t .. }@ d[ mf Vf !n @w Eu aT.-h 5h 4h }w 2q Hs gu ;*.El H@ 3( l1 l1 W6 ,f Fe RM ;] v[ zP.pv+Oc dx+pF *g bz vW.aX 19+'v >L.', FB Rg 5A [L $D [f lm fu U6 a[ <9 ex+",
"O&+F1.[]+e@ )h.$h V) fx+gx+<x rB +7 hx+py ix+Fy.:<.6a KT.jx+[q+kx+/U.lx+(t+mx+xk Je K_ Bf F%.Ip &).nx+O:.v<.d[.ox+b'+[j+xu.Tm w@ {= ;/.Tq+@k |~ 9~ }h gG :: ;5 nb |d 4! 5! xs Oi qC px+qx+`j.Uh+vm bS.km lc +A HB #: #: FB sC bl.7q b# .@ rw+ B B>.$D L@.d9 Vf ap (q /m+3_.[h UG Yc >9.]n+jr.q8 YS ~( IK IK d- lr.mr.e4 h, T/ e2.zG oK KJ.Hl N*.o] t: ,= 4t L..rx+sx+my.tx+ux+]w+vx+wx+xx+yx+zx+Ax+iB.Bx+Cx+:j+Dx+Ex+Fx+Gx+W1+7a %s+Hx+=2.aa hm L;+mB Ix+Jx+Kx+Lx+7-+W].Mx+U5.Dv s+ Bl ${ ${ D/ Nx+k7.h. Sa.UV.L9.L9.6m A| bx oK.Ox+eB y8.EF /x eB rr Q-+kd _S.+2.Px+Qx+hA. p G6 t8 Ij E! H| q[ |g E| ,r Y4 uF 6J TG $-.L~.A7 &' YA V* IC y_ |+ M/+[' p~.z'+4: G1.Xe -( [y @j+Rx+Al+Sx+Tx+Ux+Vx+EF ,v+-a.!t 9+ 5S.)t B4.&f $l WR.8b /o cu uw+:8+k5 nf <4+rI '; `} 6p do KH Wx+/2.gG.o%.1j /] td s! )5 1h.Y4 o[ 4h 5|.Xx+%g+Yx+]U.to+Zx+Mk+g|  ].o).k=.-t *g c[ *$ aj D. nj Yh eq t).8j ~A [r -h 4h 5h 5h 5h [l c0+yu.ba @%.yu.y( b0 ,f '..$^ J9.jj fc.fc.4n 7b zk *g Zk [J.zT.Cm pj (H.`x+K;+Uw.O]+Be H2.<= =D +d 77 a[  y+{a+",
"%y Z|+.y+i8+7-+]c.Ve :A.U9+Wg a2.|9 +k+6[ E: o^+[o 7Q mv++y+e3+@y+#y+$y+%y+&y+08+Je *y+VY 5n [h z, ]f :0 MX V++I..w_.Sx jw |% D] %].y].(| -n.Tm G9.n. VW C5 L` X!+!8 Cl Ej _>  g =y+ v+-y+}t+Pb+f].6/.lc #: &{.rH FB #: YC 8X.TC =b b# .> ;y+>y+O_.L@.]c.69 kB y/ hI ca *z b! p).{n n(.1s.mK.l~.o,.WN GD {/ JP 3].IP WH a  1  nL.aP ),.V< 1p &8 L1 O4 *[ +!.$E ,y+'y+)y+!y+~y+{y+]y+^y+/y+(y+_y+:y+<y+sP.[y+}y+|y+_:.1y+!u+XK.dr+$0+'o 84.K..rF )E 2y+3y+4y+7v+S<.f- !4.zP.y8.6! ys >,.*o *o m9 $b+Eb.pw.Sa.UV.I1+UV.8V )M.F/ oK.EL.EF j1.y8.17.5y+^R.rK.kd -f W@.~A.6y+gF.7y+n[ R2 Ko v} wF m9 @y uF /x 5( :1 uO.eB UV.Jh+n5 2< 2% S$ |- A+ ,] F} b' E/ 3.+dJ pr p:.1~.f, y^..i+Ku+]x.8y+9y+0y+oK.ay+by+8x+6C 9+ .1 8x+'t !++M.+7A uJ cc+cy+dx H2.>* +;+/b 1_ r$ aX r$ `] i'.i{.dy+;9 J1 xg zK -u N1 L) S0 uF #] [r qs+]U.ey+&r+fy+]U.BD M6+94.uy N..L..W4+ro z' /= n7 d[ U= Z,.-l sF bG.@%.ba ba w4 }w RB 7j l1 ib.yu._9 _9 8u jc jc 7J C, ;] uF dx+Aa <-.03 zq Ct :J.Eu.gy+H<.0|.2w+', I..Sv :Z  1 ho D/ Ay 03 Lh Ms hy+iy+",
"~A ({+uU k/+i| l| <A og+m(+77.jy+ky+ly+z-+Vh+Ww.q| n7.6$+R$+ZI.my+Hr+M` ny+@B.8I 'h+7r `- 6F [h Qd J2 K2 C| D| U2.X9.qw }7.5$ t'.qp.t'.'_+X9.D| [h p2 p2 GB :g.G6 9t t8 &] &] K9.oy+(,+py+.i+Tc.6[+,t HB lc &{.^M ^M eK YC mc Qg =b  n 8: ep.H1+Lv.}w 8~.qy+-h `r VW 8E b! UW M;.=b 3A r~+d:+F1.G_ %$ >d |_ NI d[ $b <k ,D [R.bP =| jn dz ,# 5+ Z+ z> p8 rD.Op+ry+sy+ty+uy+vy+wy+xy+yy+zy+Ay+By+~x+Cy+Dy+Ey+Fy+Gy+Hy+Iy+9> @x+0T.7Q &g+>9 Uo fu dq v4 ~A SP.bs+H]+hc +3 pg.9m lG II bD D$+=o CL.UV.8V UV.I1+I1+M!.M!.X9.nA nA rK.EF dd+17.my A5.)L.d(+k_.zF kF kF $w.Hy.Jy+Ky+ib.#0 Ko *1 t[ :c.Q2 uF Z4 @y GG :1 aE %. Pp.t!+qh 6! K| qd A: x@ 9( /h 7b 4x+ze 1K !.+D_ !~ #%.O,.RR.7[ OC %^+Ly+AF $-.f[.Pc Fz ca <d.Ye.Fp vm l| 9l+J0+@R.94.My+l2 l'.QU /b 1_ 0) aX Ag Em X= ^b CG ^] b4 _M JJ.XP @e 6b u8 Ay WF.!F }q+Ny+V*+Oy+cq+Yx+rN.{b+SO.{U.3B Py+@d b. u/ wo :f Q, Z  %0 rb yh 89 _E 89 v( hm d(.C-.!n  8 ic A( y( jc Ks SD.e].NU Dz._> A/ S_._l j1 }p Ct I7 %s g) #+.Qy+H(.`u D1+qy =*++h+*w !L.(: B/ =7 Hp 3E Ry+Sy+",
",$+;i+fr+~U.f].u<./n+ld+OW.R5+s#.Ty+}a+Pt+Pp Z7 M0+6o bN 36 I7 *h bh.{A nF.Uy+Yw+6S.Z6 k| 8k+{s+HC da kF kd bx XS.Cy 2q+6(.Y~.y].I{.Sv+05+d(+Kc fr r[.O,.%<.A( <0 )0.Gf +) %. k_.'t 0B jF YC 5/.$%+,t #: ]o ]o O<+#D ^M c .kF -f K9. s.:O 2C Vy+sW V6 2x /R.v4 k[ G+ WY j5 A, Y7 Lm 9I.^Q.G1.U].X+ [8 25 n_ n_ D  D  1+ [X &Q bP V{ ]~.RI /% 2& I)  - Y% x,+FP.Wy+Xy+Yy+Zy+`y+ z+.z++z+@z+#z+ u+$z+tu+%z+&z+*z+=z+-z+;z+.R.>z+,z+'z+)z+({+H2.K{.Hp +] #l !F x5+Ii 6x 5S.II )j !z+ f+Ep |r kw )r ^) rl ql I1+I1+M!.Dy mc.cs+XS.~z+EF dd+17.17.{z+Kr+rK.]z+V8 -!.8C lt ^z+8z L2 ib.]: :l u/ 2( '7 RM .] Q2 Q2 Y0 qw B8 %. XS.1N.Dy %. dl H; /z+yR.u) QT G9.Ae Lv.1- IC ;1 C[ ew 6t (z+=}+<6.hx+D4 Cw.Vw.Iu Mv.!p+~s.jm tW._z+F4 Y[.na NB.l7+:z+eq+i| du I!+7f 8) aX aX -L fZ +Z.'1.'1.q_ :M <z+Ea A[ 2> g& M  }k `r.du }q+mh+ey+[z+}z+`b+|z+I0+1z+J0+~*+Dp Ms =b 0M.|- P8 Q1 F' 6# T+ 2/.sj n/.|o.`u g, lr Vk 7-+.k.>A >z hB 2z+^t+HB e].iJ.): 00 XB ;>+qU Vx +@ `} 2_ i=.H<.3z+4z+2X.5z+38+5<.,$+FB hu.Jj G2 H1 A/ Ee ,$+Qi 6z+",
"@R.7z+8z+6u+n/+xx hZ ix+k3+9z+0z+M,.KD S:.Z7 az+9F Yv A^ `% v: Dm At bz+cz+dz+#>.LY ez+Wy Y(+aI er 5A mc *l kd EF aE :  .k 4k Y~.y].R{.rh mb.Km at c0 7j $z (9 &g 7j v/ F/ k_.H2 *z +A u$.fK y5.V6 m2++A km Nl+#: /o /o l[ x4 VW _: Li t9 bM }g 6L n8+k>+fz+aT.gz+WW %< hI .n ;*.Z] Wh u[+yO.%s |a 35 LZ.~w.Ou.^' 'o.hz+iz+XL VD.co Wp Sp Am Z; P@ 'q Rr jz+kz+lz+mz+nz+oz+pz+qz+rz+sz+tz+uz+vz+wz+xz+yz+zz+Az+Bz+Bz+yz+Cz+Dz+TS.qO.{p+'j Ee {5 B5 W6 w/ !F <E Ii 2s.Fz {f :F }B gv+`6 Z6  k.b! M;.s7 ~4.I# Q-+Z;.aE Ez+aE dd+EF EL.17.uO.my {z+zP.X9.%3.K.+pl od 8. D#+za Bz.ic sF H@ 3( R4 p2 `- *. ]f  g 33 %. h. Dy Dy Z;.X9.H9.:d o'  d.RW.<x.zR.)6 Ps ~F 3f ;= v[.'] *< nB.>9 %w+Kq+Fz+Gz+Hz+Jp A4 [L cc h| ng+zx Vy Iz+Jz+Gt+k7+^M.Kz+lv+R6 vu r>.)D.W{.H(.fZ z_.Am >{ X  <- ^2 >l Lz+Mz+A6 ;| *7 [b XB La TB ww+n~+cq+Xb+&o+Nz+Oz+ax+Pz+qO.:A.~U.,$+kc u[ t] t>.AM vK fE !( u> k*.aN A. H_ VG Ex Wk oL.kB >z L2 h9 Uu+qv+.].FB /o tF xs XB j>.kr W} :f Am W{.2X.P:+e) AO 2X.Du.Qz+%E -h M0+K{.a9 GF N* lc.at i4 CB Rz+",
"l7+F=+TS.V!+Xo+`6  w.E: T- 6s.KV.q}.^t+p2 J@.cn+Lj dw 0# 8M ;{ eZ dF cm lx+CU.tC.lg+Sz+Tz+Jz+1t+Pi Ax s2 Vt+kF oK.1N.j7.2q+6(.5$ ;^.8(.wE >r Ky h>.Z).`Y Ze.8d w( T'.Lc kd D$+L:.He !++lc aK ^M Ku E;.B4 u2 0u +A 1r NU RM ;z Fh :1 1z Q, yw.G0.zS.69 )F Dp+ND.gm {5 fu -q nx Ln zq c[ ]A.TO X} 5z L^ PI tz (& Et 5+.)V.YQ J3 GO I5 W{.i4.RL gt rb cF Uz+r3+Vz+Wz+Xz+Yz+Zz+`z+ A+ A+.A++A+@A+{l+#A+2}+$A+.k+uC.%A+%A+&A+*A+=A+-A+6u+n/+&4+jc gD.U9 ') ]t #3 Bp Ps 2r Ye.L.+m'.c|.4o ;E Le l~+sO.;A+Uv+pg.,v+,v+XS.,v+XS.Ez+dd+dd+17.eB 17.17.);+Kr+M!.X| P4.Pf.<h If SD.yy O,.5G.|B RD.SD.K} ^1.0z+wm.wu.T3.s7 Sa.'r 4d.4d.4d.wp+DF nC B7 j}+&p+<C.pM.Or Ff.7b pi sz >A+*d.I, s8 h| ;r+,A+b@+'A+5[ yd.8z.ou o).h| wM.1t+Kk )A+!A+'9 ~A+zr+{A+dR ]A+S=+I2.xB hr Xp D} Xp VB =:.$/ b{ ;| =}.^A+/A+in 7: i_.A@.Jo (A+Ps _A+[*+Kp+:A+Xb+<A+U5+I0+Pz+1z+[A+{p+d# Qp wj %o 4: K# !m ~4 )4 !4 !( Co f. |! Mr M0.n7 g, ;^ J2 8b *z qv+YC vm vm ^M TG Kh T=.2{+3: 6p D. S; s( ,v YY aX _^ '{ +^ Ct ug.w( 1d.>r (: z5 N* lc.aM.@d #A 3B ",
"}A+|A+Gz+1A+fv+a(.[o 0I a! >A I` FW [y.7n =^ L` xt Bt  v A2 `m E*.2y+2A+3A+4A+5A+6A+7A+8A+9A+)A+0A+ev+Zu+t0.<o GH.GC EF ec.+k +k +k Q% +s aA+!m Bx '| =: fO tH bG.5o 6/.vm 6A 7A A4 Le Le <w $A C8.bA+br  7 cA+sW.4u+.q ;v ro y' y' (l _] bL dA+kx rB.{9+P$+MD.F5 f{.+!.[A ;O H_ rI := IM qj aX  K.4# `^ hG i7 eA+/V |4 M< *Q UR ~# Em fA+gA+vS.ZC.hA+iA+jA+kA+lA+mA+nA+YI.n6+p(.p(.YI.oA+@H.pA+qA+rA+sA+#h+Ts .j+tA+.k+uA+ha 5[ >E vA+Pp ^A.U3.^A.Y7. f+oy Jf {f 't aK bS.mH fr+KD Pt+v]+Ns ^M C: Oi Oi rK.rK.rK.33 dE dE y8.eB 17.eB uO.y8.A5.)L.Ox+nk p. $-.v_.8b +G.j| wA+t$+fx 'E .].xA+)g+yA+zA+AA+BA+_n 6m UV.CA+6w+Sa.DF Uz ^++^++0H iG @k *i X9.bx jw @[ `h wn ;$ i; Dc ww+;r+Lq+{4+'9 DA+;E l| 7C.=w ww+0S.EA+MY 'A+FA++R.~9 Gr+GA+HA+]A+Em+IA+IU 3{+9   v xS.Zk fw Z1+SO C. BA &F j} @/ }] t] -l k! }|+9~.w<+JA+KA+LA+{A+Nz+]U.U!+Fa+fq+Lp+7B `H.'E ,f ;v Gs M2.@^ 9p U{ &q :] `p =[ +} P, T0./b ^ .gm 8b da Y>.CB Ke N,.jF eK WR.Q2 G; g>.$b <* 3} CF #E 5t Xk H5 ;2 X@.Ra c[ VH o( 67 so u} bh sn lc..= 3r Lc+V) ",
"MA+NA+OA+U..PA+QA+Jp R'.D#+%7 o}.Xk CI gA @4+6  cq U6 }w U6 $7 ,$+w]+RA+SA+Hw+bO.TA+UA+7A+}w+VA+WA+XA+YA+_;+fw+%X.SM bJ.Dy h. &1 }7.#& +s ZA+vs  | [G /^ 7: <b 3( #: m| F4 1[ yx mZ Me Jk sB Pw.`A+ B+.B++B+@B+gx+{t at I2.e8+[A 16.qI In zv #B+A>.n(.$B+{9+MD.F5 g  Ja ;[ }  }  }  &{ &{ ^i '; :z X} ]| :& k} |5 x; F  Uj 3c *r.AX.%B+ao+&B+*B+=B+-B+;B+>B+,B+kA+'B+)B+R3 6}  v A2 .f g~.Yv 6} %t !B+qu {p+NW :A )A+a2./n+~B+o8+91+Tl+8{+{B+0(+{B+]B+^B+te+j(+{r `| JI Jb+-[.R*.Pe+em cm vU ]c.^5 $D k! B: Z;.XS.33 qK.33 |).eB /B+eB eB eB 17.eB (B+Q-+hv+0x *l Pg eK fr+R'.S:.=2.TV./F [!+_B+:B+<B+[B+}B+Ww.s7 |B+nc.'r 6w+*i X[ 1B+wp+1W.%. aE Tz wp+nC Ua.1C #J JQ U2 0n .^ :(+=<.2B+3B+Q4+Iz+Ou+Ap+94.@,.g7+:q+4B+.j+5B+6B+>[.fR.7B+Yb+xw+^3.'w [Z _{.=n I'+ZK _R.=j S3 Rp j4.GD <] fo H  Q8 G_ p~.v/ (r @d ]c.w(+8B+9B+0B+LA+Yb+Pz+#7 8-+)z+aB+.A.&4+5o kc ca 1d.#%.S@ 2- O1 IK =v /7 ;1 *7 tY 5: H_ 6} 7j {f Ie #w Du Z6 t2 L{.YC *w 6J ~7 zw.5* T= gt nB.pI k5 =9 Mm 4E >2 %h `Y :b 03 `].Bo V* M  *q+2z =D (|.n2.9I.",
"bB+{0.cB+dB+eB+Te+fv+98+Kt+CP Fs 5G ,q Z,.sF b0 U4 HC er Cu 62.fB+gB+hB+Cx+iB+jB+kB+cR 2v+lB+VA+mB+#>.nB+Vy 1[ 1_.%X.bD hv+Z;.ys 9V.(> T;.=T.[  po [G Cx cL ^= I` FB dr ;A.Xy ;A. h Xa+ x+8[ 'i++2+]a+oB+pB+H% Oq+{t 97 B0.No 6# H_ Pu [] mP /~.u( )A qB+MC KU J:.!; C2 -, }  }  }  }  [% sy *{ VG VG Y  1# O8 V| ;= v! PR -N %R K1 (f rB+3&+-B+6v+sB+tB+uB+vB+Wy+wB+|a+IY EM .l Em nj %j &$  v 6} y2.,9+2a bW.y~+Q6 Ss 0:.:Z gi.Z2+)l++*+p} p} xB+%-.%-.]r 8{+yB+`| c .,F.g| s4 **+**+wU zB+t).hm Xe (|.aq M$.Y0 EF |).y8.|).eB /B+eB 17.eB eB rK.eB @1 d! ML.&f &f #w AB+AB+Du dm 3| (t+BB+MS.CB+Cy.DB+{a+02 XD ay+EB+ay+6w+DF *i FB+1~.ys %. aE *o |F U& GB+J(.cn oe.J< -o L4 H4 ey+2B+3B+HB+#x+'u+SV.mh+aq+X|+c| IB+ j+:;+JB+KB+LB+WA+7u+M6+f| S8.JW _{.9F..p+MB+ry r6+IH.NB+=5+FD QI #o d@ [% eh 1l l1 #l @d ]c.w(+OB+PB+QB+RB+ax+{U.^u+>F.6/.a[ o'.o'..w .w =z 31 =b Dz.]i SL ZS ZS Co W  b- A* 6: R+ 2t #] [h Ie .A eG _z+XC Y(+Fp qH Hf i9 E_ -2 (b c[ eq yX.Ca.yu.3a.!&+Yu ,) c[ x$ =7 .= A/ |b Bo &o [f [f ~F eu 4w ",
"Y;+Sz+wv+dB+gR.Jp SB+:1.SD.n#.h4.^L .& W% n#.w( ') Ie zy <,.yC TB+Sy+UB+VB+WB+XB+Hw+)v+)9 YB+ZB+*i+`B+ev+Vy Vy yx Le F%.D$+CL.H9.+) dl }++I^+T) u1 '2 '2 qo q( gm Ks %s+Vy Wy Yo+Yo+ C+DA+*v+^/..C++C+@C+ja #C+u1.*w at B0.rI /b H_ /7 <] 3'.|].Z).^t `I.ZC.+L K4 &0 6* ;[ }  }  &{ [% u> u| C2 uW 4} wl O8 ~8 m7 8v Fd M<  9 .x H3 Ym $C+%C+&C+Rc.*C+=C+-C+;C+>C+,C+'C+7&+,v 36 &: d[ *D fO HU ].+(S ]0+7M.6/.aB+3b+Op )C+64.1u Tl+!C+~C+Pv.@: {C+]C+%-.E8.^C+Dt+/C+JI {t+j2 j2 s4 ^F **+m2 .k.o1 kA Bc Cl qw *o YS.dE dE @y ;] EF y8.A5.uO.dd+XS.rK.rK.K9.GC &f *l lq+Te+(C+KD dm 0S.z-+4D._C+:C+<C+[C+&x+02 v9.#e.4d.6w+Sa.ny ny <u *i 1~.B8 Dy Gu+:> H:.}C+|C+_e.oe.Ea Ll L4 8!.1C+Lq+2C+HB+CU.#x+5V.3C+4C+5C+6C+7C+8C+9C+0C+OC Vg+KD 7a x]+<f R8.Cr B0.`u +f MB+aC+kL.GP.IH.S3 #$ `p d@ d@ [% {D. Z B5 Hp ~++T6 >9 FU.bC+bC+8n+Mk+Cp fB ac.<l <0 yu._9 ]t &4+Ms +G.Hk bG.ap xB IM :] sq }: O; ^$ 6f x: @$ #] x4 {f F%.fr+_z+p| 1_.|:+$l fc.P2 g. XW i>.u( F5 9z M#+HC.[y.CI 6L Cr  n K].+j z/ ]( Oh xo 8d Uo }|+/9 8} @L ",
"cC+Sz+dC+eC++w+<A ;E %s+Ks -l nh.'1..} )^  n F5 (r 5o 5A fC+NW ev+6z+gC+:j+kg+hC+iC+jC+kC+!^.O1+lC+;R.mC+Zj.nC+ h _;+@b+|r c! A| nA gG X9.m2.5* r9 z* lE Mo @^ +t =t /3.8l.Yo+ec 3n+Xa+ C+ky+r1.kl+oC+pC+qC+`o+Y[.=z ]5 `J.pj Pr H_ l{ S+ o9.#8.4d >p eu xp -n {F r( Pr IM &{ A@ IK OI U{ 9p S= N/ Y+ I[ -< av C[ Kt t: &8 %Q K. q_ NF rC+sC+tC+uC+vC+wC+xC+yC+zC+AC+ry+BC+eE.%j >v n/ n/ s| *q /).6u 3A S6 Bw.bS.N,..J.QD @w.wC MB ^C+J2+C5.CC+CC+y}+^t.91+pC oy 9J.%X.8X.N,.O1+Zx++b+R6 vU !A F5 nx Ln By eI cX cX :1 eI @y ;] W| eB ;] qK.;] eB qK.bx ML.*).]v 1^.6S.z-+#h+DC+Uq+O1+lw+ua.ou.sz.EC+FC+py+.+.=o ;W.CA+UV.H9.UV.'r ny *i wp+h. aE v@.GC+t^+HC+O%+IC+zR TK.b& .^ rB.]U.Z<.Fr+HB+DU.HB+!u+DU.JC+KC+LC+MC+NC+na Oq+lw _S.U6 Hr.*.+ n mf Wk -v QU IY wi.OC+PC+e:.QC+&L 'v !v vs B6 oi VO 2l Z] #q 3r Cz.Eu ww+RC+SC+TC+Q{ #h  x 1- H7 H7 zt ba p'.>F.Ha+/3.Py+lB J:.'!+2K R& P8 <& Sf L( Vh g~..j UC+kc 5o HB PS.U6+4B km rH iJ.,r Jj tA 0p Hg =* TB Bg `#+sa+Ci I~.Dc Dc S| 8w ]b 0j Gx 03 @] 3h ]c.VC+uu qa ^n+",
"WC+XC+YC+fR.ZC+4[ Me EB Ks FW )^ t_ _% y* 3{+*g /9 x]+a>+~p+~p+Jt+0T.Er+`C+ D+.D++D+@D+Hr+tu [E /w #D+$0+#h+$D+WC+Xa+|[ [9 Ju [h P:.WW P:.RM A/ /H =/ 5} 9p +;+7$+%D+&D+QS.*i+WA+Iz+:A Si 9r 86.eu+rf+*D+Qe xh+Wy Ep U6 (T )D.VG `}.TL S+ c- I_ `}.<4+-6.3s.RU [z _= Yp eJ 4: ); T+ %$ t( <* D' I) -# y_ Y  Kt 5} 9- .} x| J, J, jn ;{ 1&+=D+-D+;D+>D+,D+'D+)D+!D+~D+{D+]D+qa ^ .t| t| [! QU =.+#v ur x/ Bu e].8. b! .+.M:.M:.>u+e7.^D+]B+CC+B:+N]+Hj+]r+OZ /D+(D+_D+X<+Sv 8r  7 Qe+'z+:D+j2 8~.~o mr eq v/ Q2 uF J| @) 9t Rd C, mb.d! Um bx qK.Z;.K9.ML.R^+'t 7A fr+Yi 8S.<D+Qi+$x+&s+[D+ZC+}D+|D+1D+2D+3D+4D+$-.;W.5D+;W.UV.'r UV.6w+DF wp+B8 h. dE Wv+Y1.:> j_.lC.%0.U2 _' }* pb 6D+k7+i7+o5+7D+7D+Er+3A+8D+9D+Es+0D+=}+aD+De l1 ]: H7 xB ,2 v&+x: Qr bT sj ob+IY IY *h bD+*h ]{.`} )4 vs B6 oi O| L4 Yu 6L u~+F*.MD.cD+dD+eD+fD+la.oL. q ={ :f ,2 lr 7y.aG.~p+Zx+tx gD+/'.o/.)w 6M.H_ `}.*[ }+ 8w J~.>t =t hD+{g+:(+/R.Yb.Mp+-<+`v ,t ur :o iD+OE `e kx 8w.5x zB+~A {w I~.aF p1 ^= wo C/ g~ rG of {5 V6 Os 92 >9 sx jD+kD+",
"Yi ez+lD+mD+9r 1t+1[ N,.Bz.8  ~^ )| Cx ~E SO -v nD+f- oD+oD+xU Jb ]A+$r+pD+qD+rD+sD+tD+uD+hr 1] )w g4 ]3.$x+mB+}A+Zo+vB 1t+5A 8b C| 6F K2 =b IH zk Wh Cr ^ .5w vD+wD+dD+Iq+VH.ps+8F.Iz+Yo+Si |9 xD+yD+of+zD+AD+z:+8X. 8 (T  G.hr `}.TL oi [  -, aN Yp No yO.z0 ;D.ED IP %$ nj nj t| t| >v *D Z} Z; Z; Q~ <1+Y  ]| 2& .} >< $; J< uM fe.1&+A0+BD+CD+rh.ka.DD+ED+FD+GD+HD+ID+JD+S$+A&+QU SL B0.gr w4 8y.B, n(.o2 Sx Vo ,[ Rg VR.Nm+qw+KD+Qj+B:+R<+R<+b8+@j+sJ LD+Aw.B| V3.pC gZ MD+Dr+i2 ND+OD+/R.Lg om+$E c0 IH 41 .= z' [| g  6r G7 Tf Lh TG *l c! *l Gu JI p| KD KD #h+PD+QD+RD+$x+6u+6u+Ue SD+TD+UD+1<.#j+X6 zF Wc cd+CA+I1+UV.UV.ny H9.Vv+h. /z 12 wF Oc cX c= Sa |M %; &8  , Uo xc F=++0+o5+7D+$A+VA+VD+ot+WD+XD+.r+YD+H4 +; EI lk y_ A^ 8: /b ,2 -v /q bN ob+eE.ZD+*h t[+n7+A2 1] fE @  @  |  !v %$ 9  =n xB JU ,n `D+9k+Hp+Hi.|| y2 do cJ )| Q8 Wk 2B aG.dE. E+^A ox 94+mr ^z I7 fZ /b 1K j=.C( >9.)&+3^.p~+.E+n7.ib+4G.+E+vO.tu mr W].yr a# 5d y' eu Lc+tu tu wS.O[+}p (= D< 9M R= j^ *$ #.  3 y/ fm >a+,9  E+Gp+@E+#E+",
"q| Hx+ky+$E+Si Y[.;A./F 5o >^ 6z.Vp .| /O (J 2/.rD.jA hI.tu 5<.Em+ww+]b+6a 6u+m/+T$+t].6).!R kE w: S'.Zi oB %E+&E+*E+*E+Wy jF 1^.l[ -z v_.kF jc w4 M<.TB v1.Z[.LU ww+>a+2[ Dr+=E+8F.Wy Y[.JS.-E+Pe ;E+>E+R}.tC.yp+Sg o2 ]X &L U; `y /7 S+ ]/ [  )m Co t>.&5 C. !( I_ := Lt .& *$ r( d[ U; 36 :z D3 i{ 9- 9- ]| ,* N/ 9- FK 2k U2 ,< Z< )M ,E+}q+Fp+'E+'y+Fm+NC+Er+2C+)E+Wq+!E+~E+S$+r>.Ki `G.yc Ps {E+]E+,R./5 <: @$+UW @b+co+yU.vo+^E+7f+Hj+R<+R<+&h.!C+Rj+F~+5( jj 9+ +A /E+(E+Ri+7z+7a !-+#A MA.V) jA $h S'.lr Gs VO Do T/ WH RS uP._6+t,+4|.Qp HB r2 F4 1t+ h Yo+_E+:E+7D+<E+[E+y~+IT.}E+@B+'i+|E+wt+#3.lt D| gK.1E+aJ.bJ.DL.Q-+UV.4d.nc.2E+B8 @x l7.3E+s9.B+ r: %0.kf.=8 y_ ~w 4E+5E+6E+7E+FA+Fz+8E+Fz+)9 Gm+9E+Xb+!W.Ps Fi IC m! .c  @ i, U].Wk $s Fc (a :%+0E+aE+ZG.*h A2 -j VB fE @  |  }  S+ aN ]A.UO #  xA m}.Uu+dr bE+'o #3 rD.w: hz HF -[ nj Lj FB ~p+3| ]A+q}+', -q `m r8 fZ +@ x..sU C-.6w ~b+cE+v<+dE+{'.pb Nk+n(.:8+*.+)w 7t _; Ex Vh Ua $D ~++7/.4G eE+Zu uh a  :] e. k*.[* fE+t| Cr s2.`H.1z+F=+KT.<D+gE+hE+",
"$7 EB  x+1A+:S.(E+MD+#U.,$+Uf ct PL iE+^G.W{.yA -n @L $:  t+wO.T8.jE+kE+jw+MB.lE+mE+K<.Ma+FL -m ,= J~.i4 'z+7D+nE+VD+3A+oE+49 #: ZC l[ HC I..w_.-f 8b 8b +G.Tk pE+~p+aG }a+8S.qE+qE+Dr+3[ :S..7 Xi L}.rE+R}.sE+ec ss+Ca.nD+_V.fO qI /7 oi vs }  [  -[ :% [] u_ y% oi -9.U% e  CG T= >v n/ <* Y} ,= p> 9- *< (* {s ]] u: (' T2 [O T2 q3 *h }q yT.rB.^9 fz+6B ia+Dr+@x+tE+uE+vE+wE+xE+>L.-6.dt 1s.rk+JP.L2.eh M2.H[ 1(  p qv+(,+/Q yE+zE+AE+h@+h@+qd+BE+ 0.c8 rK. ] W| 2|.=e.`|+fc ^6+l=.cc+y5.R4 I6 #] Nt.n/.bN 3{+kP v> |  }  }  }  JS A{+', [r 8B wd+2[ nC+WA+CE+CE+ZB+ZB+DE+EE+RS.-E ~p+FE+GE+Me ![ C8.l~+He 9+ HE+IE+JE+%L.%L.f[.'%+CL.|B+,v+,v+j1.wF G9 fB t8 fb u3.Am.5L d0 Hg KE+LE+ME+z:+sE++R.~9 9A+NE+OE+PE+}z+_w I9 0.+UO Q, W> i, 1] U; dw o1 %7 #f @f QE+aE+RE+RE+&j &j VB [] }  }  }  }  q8 e4 2].o,.1&+nE.D#+/F ev+aG Nk+*g T+ u_ y% Q8 r8 gA &4+dm 0k+w(+]9 @v  C {F VG ={ t| Xu D6 +L .0+I:+7v+SE+GR.S=+Js >9.gu $h q[.lA &5 Do ^4 I_.Wa ]c.#A pb f- zU /q fZ *: oi v> oi ED No IU 2t rF k2 OP.*r++x+TE+5V._C.",
"gm eK 1_.E|.UE+ZL.MD+Xo+FB .k.r| vh %| C^ 36 Ec *.+JW Bt cF 3A @w uy {9 -A+QV.J-.x;+^Q.RU Mo 7: o> I~.]c.]A+ih+Fr+2C+VE+JT.aB+().Hk Xc Xc dd G: O# g5 Ch R4.|r xc Pe+Pq+Hx+#h+6a Q6 WE+XE+S}.YE+Ti ZE+`E+ia qm  x+O:.b0 JW  v  q @+ #5 ~( Q= }  }  }  [  |  d@ |  &{ -9. d .& =/  . U; n/ *D &: <* ,= Y  1# :* =/ {s p> b& T2 AH ,< z* %j !M }J ;^ X].T8+Im l3.4x 2a+ F+vr+.F++F+@F+.K._{.e8+r~+.y+_s.%.+m1.jr EH Q@ v/ 7A d5+mu.#F+$F+%F+mu.&F+9&.*F+ 0.=F+Q1.Gu+A5.Oc {W.vy Sy n| -F+;F+VL.XS.Pp.vF 3w mx 36  > zm @  @  |  }  }  lr.+]+Hp 31 F%.Z6 Qi 4B+>F+tA+,F+|A+ZB+DE+'F+qE+#h+wd+ng+)F+Y(+ux Tv |r m;.Fz !F+~F+{F+]F+^F+/F+89.J1+(F+CA+EB+dd+Pv -A 3|.Q2 3f Y:.vi 5L 1p !Q v2.K-+sW.gZ _F+sE+`o+:F+<F+0r [F+}F+`|+ur Zr.X,.IM !( kr /b t( 3t o1 $X.sV.nI ll r6+ZG.&j xS.&h uh [] }  }  }  }  q8 `[+QS t~+,e.8h.hx SC ev+kH 2x !h.]A.7# :] &q Fm ib..h 0k+|F+94.bn+mr zq %h _= vh $0 8w Gr @v .G.~E+1F+J:+so+vO.69 .k.8d Uc No wK _k c) n~ Li $D ou Bw.~s.', 69.I!+S; :f ;[ oi QI )v VL uh Br fu -[.H-+2F+q5+HB+~u+3F+",
"eq ~z.8B rc+4F+n2+1t+1t+.h 5h Bt i}+fV.=:.BM xp +t 7} rD.+t /9 Em+R6 &r+Lq+5F+ny.#s+>x+I- B0.TO $$ d!.=0+6F+7F+8F+ r+9F+V*+0F+HB U9 U9 Ge {t -z W& |y =w.6; @D ({+f| ,$+%s+&s+^6+NB.(E+!^. 7 aF+_F+bF+cF+Lx.sB sC :0 v/ jB BM 0p w: aN oi }  }  VR [  [  [  L@ -[ c- -9.s(  d %h U].t( VG 1_ D. Z  n~ X{ X{ 5} ZY Lt F( `< #~ |O R1 C^ *L E*.zg.zk tA QL.dF+eF+|d.gD+fF+gF+v= h[+v<+qa 4L.uP.D2.%D+hF+ H.I,+:O sY R7 y/ 7A iF+Sf+wf+jF+(4.kF+kF+lF+09+As w` mF+8w+Tz 5( kc Be !*+cr nF+oF+kn.N2 2W.:| *5 ]s ;D  & K( 3> J( x% xv F' `}.k'.Kh +$ j5 7r .J.pF+SD+qF+rF+NC+sF+kC+sF+lw+Oe+U6+^u+)n.tF+tW.=z 5F Jm 7x uF+vF+wF+xF+yF+zF+AF+9J.BF+CF+DF+4S.$b+2|.jc 1x.*)+c  am |M Dz n~ L2.P[.=l Iu EF+ 7 FF+GF+MD+Wz Y(+TU v8+$] 1- eh >, WH `y %$ yu or $h ^].CP vk +f HF+xS.&j IF+&h uh e. }  }  }  }  Eo ((+>O 52 ,e.=h  $+kH JF+q*+Nk+xp fE+6# h, rj &k.QD.q| r4 ]M.Y!+$y >t Ei z< ty ir ,q Fi.`D KF+tD.iA+lo+sp+94+vu d9 s2.K].cw A. Xv 6) a  VG yr Va Lb+YF.Bu Fy #<.n/.U; o/ ); {/ )v |] Pr n/  n c0 R*.M4+4a+-B.kx+:z+LF+",
"d(.l2 92 MF+0n+3b+|;+;E EB Py+_%+PC+&L eV.nD+`>+0z Q<.vD+#<.@w 8~.IT.9}+NF+k;.6C+p-+OF+vu I- z'+EU z!.x;+PF+QF+RF++A+SF+7F+e| Lu 7q ') M0+Dk fB Sx w^.,..=} :b+~++K,.pb vU em 8l.Dr+WE+XE+Y[.TF+_F+bF+o3.OC a(.Qp $^ R@ %0 Z} `: 8p &5 oi }  S+ ,m Jn f. /7 &5 G' i, 1] >v fO >v uh U].U].S; D. S; n~ &/ 4} T= }p }p *D 7+ w* jn ]2 ge.#L {k.bh.UH u..GN UF+VF+WF+k=.XF+YF+ZF+9Q `F+!F.&^+-)+ G+.G++G+Z|+|W.(l J+ A+ #%.fG @G+#G+$G+//.*v+p3.rB Ty [x D: )r r6 }++Y0 C, e].~U.n| ME+Dk Z}.%G+&G+*G+=G+GF Q; _y.$C {8 T2 zN r3 {Q |! P| 7t ;r l! 8d MA..h <A -G+Tz+;G+=E+Ou+Ou+6a zp+i-+Ce ,F.V'.mg+#c+[L ou @d  ; >G+,G+'G+)G+!G+~G+{G+]G+^G+/G+(G+;0._G+fB fr RF *)+o[.xi 5L N*. @ *u -~.a1+Nc b}.Bw.jm Mb+}r Ye.{W.Ek L>.YK g>.yu [* S; jf f  dw A2.[Z v1.b[ bh.^z xS./L 0&+:G+p/.Xp e. }  }  }  A@ T+ i}+>e.!c.<G+[G+`#+qt+}G+zp ]c.fq  f %s Pr T+ Sr |G+yk cz+dE.t7+=t >t Ei I7 gl.k4.F@ e(.CF.Uk xE+ZI.]9+yU vu W4+wu &7 BP c[ IU T+ G_ x: lx /).K@.g6+YF.Os 69 $<.A2.,) }p hl x: fw uh VB yA b# H2.{t+1G+2a+kv+U!+2G+]2+",
"^].n(.ex pc+3G+{U.y~+Yi 7B +E+T8.ll up+=~.d_.>x+94+jD+N8+_H.!F gc zp+=r+~A+4G+5G+6G+H4 l/ |W.#$ 7b.]%+R=+7G+%M.sy+*<+8G+l0+G4 ]v K2 ZC u4 xy 4n+97 v/ _: .g 8d O[+<Z BD.`>+S6 9G+zx Xy !^.WE+TF+yp+Us Q7.Xg+`v vu 3C =/ 7) 1  Kn qo !m }  }  gO :q iB hw kP et 36 NF &: ]X.=L oj uh B2  f z<  > ~^ n~ !{ ,= F[ bF 0G+-j <z %| R1 /2 BO l}.aG+bG+BM )^ '= 8:.|/+(l S{ SE+cG+v= dG+eG+fG+gG+hG+iG+jG+kG+-0+Bt e  B[ s> Mj <r Y[.#C+Vs+lG+ec ec :E+wc ZL.k/ iJ.Um eI B: p[ Gp `v i-+ME+MA.&D mG+mc+).+Ud.GF ,y ^' 1#.{O AJ -o xM LA S& JP R& ,2 hl 6} i8+K6+3a vB Dz+'9 LT.Ri+#h+7S.6u+IT.e| e| 3B oa nG+3B f| De 2a `|+9z.vw.oG+IX.pG+FF+qG+rG+sG+8x+1|.jc.K,./R.<0 lI kW.aP }P >L s_ -k _= (l 0p kx 3g.':+Ny +]+Ny *q {D.:= m1.Pu SU $$ 9d ;9 dy+>p 7&.zU eE+We va ^z /L EM +l tG++l n/ `p }  }  }  q8 $$ _V./q dt aE+uG+re sj+ND+uE.=t Ec +l vW.%j 9F.vS.iH OD+ E+OD+jE+// nr Bt z2 eV.rC+ L |E Bg L:+A0+vG++v 8} .j Cr `m wG+@l :r n).BD.i3.[Z xG+G_.7C.`|+RO.M{.x]+c# Ir.Uc Yh 4t xA i}+oj *L D} mf Uo 92 P>.yG+P>.I-.Dp+zG+",
"R8.PU hc )z.q/+U'.Y1+w<+uy yU ):.6c AG+vu k/+3B k2 q}+MU f- w/ #D W0+Vy :E+BG+;9+CG+-l+Zy #$ IP DU IP.DG+EG+FG+GG+8G+HG+dn+-[.He Zr 8. kc $%+${.R{ .K.-t .K.=* QU RL TY.eL.[E `- IG+Jk nC+)w+JG+[[ Nk ua.Qi k>+BD.r8 !| SH [  oi v> v> }  }  XR Sq D' Z  et T+ Em 17 YW.uh ]X.%k.-j `] (f jI +l Em ^4 Z  j~ ^b PB kI M:+3/.r1 NJ u* D^ =L KG+LG+ l <* C[ D[ Kt V0 R| .G.MG+NG+OG+eG+PG+QG+RG+SG+TG+UG+g7+8|.Dj nH {>+7G **+I0+i7+93+VG+_A WA+kC+LT.2a+PS.r[.5b 9t B: o[ ca `v aB+/t.~++72.m)+0.+A3.I_.O* N9 Z!  b {8 oK Y;.xi D^ Yp FU {( eJ bT '!+VI.WG+IT.VG+XG+ez.oE+Iz+Ri+Xy n2+[9+#7 ME+YG+0F+0F+)z+Ha+Ve Pe+ZG+9y+`G+ H+{h+02..7 .H+_;.7C J1+SG -A dx C!.:,.Da+t;+g} Y;.>L R1 s] Q1 }! +e {/ Eo ir.e4 ir.w;+2K IM oi oi 2h IM +H+@H+fs.]z *9 qa _H.@H.%E.#s GL u&++l +l u&+Z:.eZ `p }  }  }  Q0 $Y.%k.k4./q #H+uG+re D0.$H+%H+@%+)M *L &H+ZG.l&+*H+%H+=H+-H+;H+sp+d_.6o +t va ti.>H+$f ,H+iH 'H+)H+y,+xp I'+;j  l YY YY z< $s d9 ~o Bp /'. ].!H+G4 l=.]u+t4 2a tu du :E vl :%+y2 bD+~H+{H+%j mf qb a8+3G+_A+Tk Gy Em+]H+",
"*.+7!.jA x2 o(.&t k>+qy+fo.su ,n fF OD.)&+({+Ce U6+>9 gF 'w Kf 6F lw Pi ^H+/H+(H+[>+No -9.OI -9.b<+YI.Nw+_H+:H+7'.<H+[H+}H+G4 DY UW :0 {s+_9 89 i3.,s.O<.B0.s| *L 3{+L<.jl vk oG X@+QA+Ry+s7+nm 8[ ky+|H+nx+Gy z2 A< f} eo |  }  }  }  }  }  ;[ h1 X} Z} 2_ gw &H+.l fZ =:.$Y.{H+6G ^>+ x.1H+X= Em !{ D< A< k$+2H+3H+4H+-L C^ N@ N@ >{ 0|.y_.5H+6H+%$ d[ '= Z: %h (b 1a+t<+7H+8H+`F+1F+9H+0H+aH+bH+cH+nB dH+Xw+q8.23.eH+s4 ]U.o5+rF+fH+gH+-G+jC.EA+Oq+.].Q../2.vg vg a0 jc `v 0F+]u+7/.7u @t+2z E/ so 2] 6{ 9L rK 3+ (*.6_ EO v: TO ~D.hH+}s.et xB iH+jH+PS.Oe+.x+_A Xy XE+Ne+XE+3[ Xo+i-+ME+:A.'o 3| ~p+~p+TV.TV.Xo+Uy ![ kH+lH+mH+nC+Vy >E SD :F *l W6 S6 }q+;w nH+t;+;M /*.4M 5K !E /^ )2 *_ k; Eo ir.Fo w;+Z% 4s.[% [% ~( Q0 ph.Rp oH+#k.pH+qe ZI.qH+94+wG +L Sr u&+/a Qa /a Z:.eZ !v }  }  }  ZS $Y.t[+~H+&L t&+rH+sH+tH+tH+uH+xH 6} _V.t&+vH+wH+xH+bT.b%+yH+,q.94+eJ..t bh.zH+KD.AH+BH+CH+DH+EH+FH+si.=j A2 ,v YW.=U.GH+Q:+L%+L;++E+Mp+^3.!-+qs+CD pO.^3.f| 2a `d )E RB E6 oB.HH+G$+~H+6H+Zk Z:.Rr `>+MU 4G #] <n ug.J:.",
"*g @L JW sU.P[.K..SE.v4 4h )E 'n 1a t).2y+vy <r q| vU 69 <f Q2 ;5 $-.Ie fr+IH+eR !c.U{ SU SU ;O 5w 8a JH+sx+KH+LH+KH+MH+NH+e| lw b! w_.Lu ~t k5 n2.O>.J2.sW ew B2 >v *X.gl.H7 OH++D x_.$4+0[ 0[ Rs O]+a}.:0 gu Ct R= r_ 2c.}  }  }  }  }  |  mP r9 '= 3} Ra ^{.bz Em QL fZ VB gw 5c PH+QH+iI +l .l uk '{ j~ j(.N:+N:+%,+QL Z< u* q3 v: 0|.y_.RH+eV.<4+&$ T= 3} h>.}% lr .0+J:+rx+v<+94+SH+TH+UH+VH+WH+XH+`I.CM YH+ZH+`K TV.3a+8F.)w+Op wU.Uy |;+NW mc 6F 1x.bI `H+_1 /2.Q..a[ {p+G4 K,.km+<-.qw r+ X; O. J5 p_ WG {8 U< o] ^^ S; (b cw 3t k>.dJ qU O&+W4+fr c .Dp 6A 7A 7A r2 YC Dp 3E (). w NA.6/.6/.6/.<r ,$+,$+bW.sC Rs  y+4z. I+Yy Ax vA+)j y..N;.`r Jx qy .I++I+/L c  7L V< I( BA !2 <P >| 8) t| th Ct nj  G.Vx wh SU OI >6 @I+1&+#I+$I+IF.To 94+oD+wk 74.9} o1 5c CF /a /a Wx bz ;D.}  }  }  ZS =L r&+t[+_V.%I+&I+&U.;w DH+9c =9.lf Yk &k.[q Mv+hA+*I+=I+qB+jE+vT.gr .j Fc (a |0.PD.'n qe AH+-I+ j k(+I'+A2 ^{.:J.q&+;I+Q:+ZK t)./R.k>+g| s4 My+^3.I-.i| 8~.]c.!A 4h 8M.s2.;n 6E.PC+PC+_V.bz z< ^z %t [Z &D R@ '3.{# -# ",
"IY Rr Rr JW nr Cz.&g &g }E mi.1a +< C-.LD.!A Gy Nk+69 `i !M +j +B ]: #%.w/  t+(H.RU VL VL lA [6+@L +E+>I+,I+Gx+'I+ny.)I+!I+8-+Qg Z7+:0 Ks 4h Cz.-q e~ 09 Mi if nj VG SO Wp YW.|j F@ s2.mi.>9.>9.-h sa+W6 #%.W% 36 '{ ~] t_ oi Q= }  }  }  }  2h 3: &: %s *U.bz R:+Xp 2X.YW.0|.#L Zk %,+G*+wG+*U..C v_ v_ '{ NM ~I+i}.q&+W{.!k.QM q3 C^ 0|.LG+{I+ll .p+cw lf 0p !w (l Ra lf -n Q6+]I+vS.^I+/I+(I+/s+_I+:I+)n <I+uw [I+}I+dm l7+Y|+Fa+~s.^5  ; L@.aa k5 rG Gb.nH q= Qq Fi.2B ;h >F.3B 7/./m+7b n' nV.,]  & :- +V.1X.Uj XL Ml ^^ &: Zh g1 Q@ R| 10.R& := th z' ]( ]( A@.=D |k .= of -* f~ Ed Ln cj cj pK pK B-.zk !M CP B( ;p 'x.$y.[l mj+|I+@%.ib.J| :l {h 7y.A( 25++I+IF+FM >M 0P I( BA a{ `% I5 7N.E1 [' 1I+LF.,5 `:.QL 3X.3X.=U.;I+%I+2I+3I+4I+Po ~b+5I+6I+7I+m3 vf _J kf CF |7 kf B2 ;D.}  }  }  ZS ={ bz ]{.gw 0&+8I+9I+D0+fF 6c #j Fm >v gw ]{.)M 'e.ll F*.va <Z d!.or s| &$ &h lf 0I+L%+OC+^z vi.vH+*j EM bz *U..C GH+5a+(J.aI+eF 5<.69 rB.69 aT.S6 Is S8.>9.}E }0.%7 yt 0h.7&+bI+QC+t[+ZV.eZ YY  l 9  t| %s 2& :2 H. c@ ",
"{k.+f wi.^z wi.E*.yi +L uG MB+[q Sr tj Oo b[ @< g4 @< uG eH 'q 'q aF 'q ,^ L%+xA ^9+fV.$Y.'v _'++v cm cI+<q+oE+U&+NB.TR.U!+l| r;+Z7+M@. !.$D rF Dd Kj M[ QW.[= 36 W{.8M dI+<R.BO fw 'v 'v q[.q[.sG.ts+Sr D( 5c Ag G( 4_ `< a) :f R& &{ &{ q8 IM ); vh fZ VB bz Zk *U.(J.t;+@&+=L #L gw R:+bz *U.0) v_ I5 =< FM YY YY H(./% q3 {2 !k.t* ]X.eI+vG 8|.&< I4 F*.u( (l `: v_ 8) do D} xS.$s fI+gI+3$+hI+iI+jI+Wo+eF Ea+kI+lI+mI+2G+=H+ru Fk 7t *u [! T; U].%s H( U< GO gb >q ug.-q.o'.3E Qp Y7 jj 23 Tq+T} <2 {* 1P EO.M< 7{ td K(  > {# /| u5 +> /b aN S& Z  t( U].U; uW r9 ^4 C2 C2 i, E' -{ /% l; /% /% /% /% k~ k~ Ag Ra Qa +l /a Z:.@l Xk ,^ Ei Wm `> I1 Vm &z Oz.rG.:G+Z` Y:.7L /2 +C q/ u* =< kf x' YT.nI+oI+2j +Z.Ja+o[.H<.zT.pI+<J.qI+rI+sI+nH+dh.tI+t$+,7 ;a+@n ,q '^ k$+~M.wo 3} {/ }  }  }  Q8 S& %j %j  > uI+vI+vH+wI+E$+vi.5t  f Xp [z et yO.NL -9.JP 10.$5 mP {R Zp MJ T/ C< )v ED 8t ^q xI+&j /L ^{._J..C *U.GH+GH+kW.tG+fq yI+$E 6t C-.+< I4 Vf ~F I~.wc.CI zI+mE.Di A2 )F.*L t[+`:.YW.YY .l U].7) ng.66 x% BG po ",
"AI+AI+1T.HF+t&+=j HH.ML ML BI+1T.=j *j {k.ri.QE+]I++f wi.`k p/.uI+17 tE Qa q&+`:.fV.s;+ ;+CI+DI+EI+)o $x+qE+Vy FI+8l.'o ~s+fG %*.z, h4 w/ Cz.rF hm #%.YA QF x' 36 a) oh.6).GI+co e[ 8: B@ .> W} $Y.yA CF 9d Db.^% G( +} Q/ z> /* S& oi A@ ~( [% ;[ R& OI *X.*U.:J.(J.$L (J.*U.=:.`-+&2+HI+VB (J.i=.$/ EO )O QM /% /% t* t* %| `% !k.fe.$Y.II+JI+|q %7 DD 5u w.. q <* 3_ xw ym 8<.G( Y}  l fI+KI+4C+4C+nB yU fF :a LI+uH+Jb _w MI+~F _; zv 0N ^p ^p ,m FL Cz 8_ :- Mh.^L BP -q.t$+,[ pk t..Tm zc B* zr L, N4.yR 3P lN PR 9P ~2 do ,q k] NI+2f .. `; gb O8 1h P8 W> :k (% %| %| W> Y< #9 #9 Y< #9 x* =| =| =| =| E.+`% pN Y@.v_ _^ A< %L ({.Y+ 2j yK F. ]$ TI u%+_|+uw M:+.C ,D X  e} V{ q/ C^ aX C6 mE.OI+PI+)_.wf.3X.La+j}.A<+QI+A<+La+RI+SI+TI+UI+VI+WI+nE.}E @g.,1.XI+2f 3f ad 4r Zm WH }  }  }  2h `y fO %j bz /L YI+[%+ZI+]I+ML lf I7 7f A. GD ZS K# [  [  |  vs @  @  @  B6 H  '2 )| d@ |  }  Xv 2X.`:.`I+ ;+ ;+0|.S:+`:.p[+ ;+8N.)M eE.eE.1T.*j Yk &h  f  f o3 _J jI Oh.<K Zk  G.z_.=L <z -L H(.:z NI '{ FL Bx @  m~  | ",
"AI+b&+1T.1T.*j xS.*j .v BI+1T.=j =j &h =j IY 1T.BI+t&+%I+*j EM  Z.^% 0) !a.=U.YW.=:.=:.0|.6H+48+vS.=I+ J+]M.wA+ A.i4 ]c.5h d~ ~h |x.Lj n#._E l! G7 {5 0E O$ R@  . E' b  _- ao f< }! _] _] 9# 9# Mo 1] <* {^ ({.g) o> ;1 *< V| V| S& Q8 oi Q8 oi oi A@ R& ft _J.uI+t;+g3+2X.Cm `-+.Z.lA i4.z_.-L D< b{ QM N@ q3 t* t* t* t* x* Y< q3 BO VB h}.JI+#f t).)5+8w.j1 Ja %h /% B. e. +e c) P8 U{ n/..J+Fp+#s+fz+[E m}.Gr  L qe aT.$%+l1 Bc }g S) k{ k{ -[ k{ x! r= Of q_ B< xg.wr ml O,.,9.!'.j'.!b |( 1h.5r F^ |P r! Y> GR 8K 7_ ){ do U= @E }G.h< f,.s> 4# ;# v| W> `< ;| Ha Hw u* `< `< u* q3 z* u* u* {2 {2 {2 {2 RH e} F) ~| -< H) |_ >= 9M i{ ,; J+ ;% ;D t+ k] =_ vw /a %s 9M X  NJ ym +e ;{ 0) F[ Wf +J+C$+[a AA ^% 4z+H<.3_ I<.I<.H<.j}.H<.5a+YY q&+/a &k.Sr G5 KH Dj Ly.g3 &_ <' =/ eJ }  }  }  IM qI s(  l -j *j ML @J+#J+]I+wi.qr r( `y Eo ;[ Q8 L@ vs B6 B6 |  |  $J+B6 B6 ws BA eo u1 |  |  Xv 19+0|.%J+&J+&J+^9+&J+|$+*J+=J+~[.IH./H.-J+5z+-J+^9+)D.9N.z_.-L n=+Dm Dm Zk 8/+i4.>6 lA C< U{ `} :z A< KA c) :% H  H  @  ",
"PC+;J+aE+aE+ZG.ZG.=j ZG.ZG.ZG.ZG.ZG.r&+A2 -j A2 ZG.=j &j xS.EM fl.FM FM 9X.!a.v_ >{ Am Am =L f3+PC+tG.>J+D1+We Pa+r>.c!+'!+n/.9  9  Wk Gs dw H7 >* ~F .= Oh  ^ >v _= H|.4u }  |  L@ {R :% [] -, Zp K# h, SU '; fZ <* o> Cb.17 <* A. A@ HK oi Q= oi A@ Y= z0 H(.^{.*U.z_.z_.i4.T3 IK 4s.ED SU /% G( !{ %/ u* `< t* r1 7M ng.x* %| x* /% fZ BI+$C+KD.`i bm l/ _z (b &: E' TH L@ QI 8t :] :] FU HW Z|+.G.<E _E (o 22 Lj .n @] #H qk @c #+ -[ [  [  -[ [  xv (' N*.Cz KA h~ g4.G7 d(.Hx S@ ~5 2} f,.}+ u! zO ^*.7L ~2 `< X< %| !{ U% 54 u+ U| u+ f,.4r |h y_ E' r1 :k :k _f =[ =[ G' r1 r1 r1 z* :k r1 q3 q3 %| %| (% r1 s$ T> ;; >= 9# R& !v /7 uI n~ >= *< D' jf Gn.Lt  > 0) _^ =< 1  Q1 wK uE j~ iw f  1d 0d cN t> aX e) cW.C^ k~ k~ ){ 3_ ){ ;{ fe./% +Z._J.%j hl Wf.*a+[a ,% 6M.x: +@ I_ }  }  }  ;[ 1] s( Yk Yk *j r6+AI+0E+0E+.v Fm s( }] =v Q= v> }  @  @  |  VR vs vs vs #o mE '| W{ 8# y% e. B@ $L n=+6H+%J+f3+%J+5z+5z+5z+uD+^9+pj fw $Y.4-+*X.|] $$ |] V2 '; '; do 1] `} lA ;D.;D.;D.&q h, Wp 0# *: F' '# '# u1 d@ }  ",
"ZG.r6+r6+aE+r6+HF+-j A2 A2 ZG.&j r&+A2 &j -j ,v .l ^{.EM 0&+uI+ Z.A< Z` r3.Z` FM 3_ W{.W{.QL -L *U.~H+~H+,J+xA 3s.#b+qj ;D.!v ;D.yO -9.A. ir {F Dc k3 2l 2l V% >v WL K@ |  |  }  }  VR |  Q= |  }  }  |  v> 4s.*X.:z  T.Y` s( ir 10.[% [% oi V} A@ A@ ph.-9.~^ ,v n7+n=+=:.lA ^q 2h IM &q /7 A^ !{ b{ v* u* q3 r1 :k uE x* x* j; t* v: n/ =j +%+-W.C-._t.va u~+(b `: -{ h, A@ 2h Q8 K# K# Eo 'J+>n.I- kA of t} R0 nt i{.|g P2 6& sN R/ 2'.;, 2'.;, -[ gE 0n &8 ,# ^4 }+ T$ 4  nx sU @c CG `A z> +. '{ LA e} 7L NJ k; C) 8# _^ }T JH S$ JH `5  6 v+ Q+ R= .> .> _] qo In UL In Do 6) Do 6) k; k; k; B. B. T/ T/ Tp B. SI NR 6{ V5 a  v> A@ c- In P8 1  =[ .> :f :f 6p 1_ 9M 9M v* hz -, <] 1  ~{ [- %0 %0 9) NF v_ ng.-Y.T/ T/ d) RI p/ =: e[ sy C. 1  jE 2_ Zk D} :z Q+ )% E( #$ Cx.1].V} }  }  }  r:.tI %$ 6z.t| ]{.*h eE.ob+IY &$ +^ D. Pu 2h Q= |  VR |  |  @  [  )J+]/ Lo.v8 s] 0{ cL cL y* -k /% aX YW.Dm `:.gw *L *L Du.*L l}.$Y.7f ir ={ Am Am '; _= 0# -{ v: v: 1_ 1_ '; aN R& =v &q :] !( ^i ^i Q8 v> |  '# u1 '# @  ",
"k4._V._V.xA _V.&L oj =n oj VB ]X.oj gw gw D} eZ %j Em .l .l ^{.YY |_ _^ Z` ,D FM ,{ jE Ag uk uk YY q&+ l %j n/ Vx aN u> u> !( h, u> SU VL U; r( _q 1- $o 46 &0 *D ty [% }  }  }  }  }  }  }  }  }  }  }  &{ CX.`} '5 [f.iw t| ]A.<%+HK HK A@ &{ A@ &{ &{ Z% fw gw Em 2_ fZ ft IM A@ ~( oi :] &5 .@ (J Kn hE -k a  a  a  a  qo 9# .> 0# `} ct r| Wh F*.5u <Z O*+@^ $b _= IK &{ A@ ~( ;[ K# R& 4l O&+)h.k'. , ': Bo [= l5 Bo /; /; g>.I_ |  2'.Q= Q= '# ^p B) t: )C qI m; U$ ~5 g  I_.G[ [@ [@ >; y_ o> G( D^ SI fe.!v v> =v r$ )% (E A} 5f O+ 3  3  fb 4} aN h, h, l{ ;[ IM 2h ;[ IK IK =v =v =v =v ZS ZS [% _I.[% ZS .> 2& N, z> 5: q8 [% =v In t>.a  t9 t9 }] }] A^ 1_ |_ &/ G' u_ [  oi a  o> q> q> aj (= Z  Bm k*.v> v> v> K@ K@ oi K@ C) Q8 K# k; r1 1_ 36 s( NI ]] =/ +^ [* }s.S~.&{ }  }  }  }  d4 o,.lr.mr.<q !J+u[+il 3s.VO rI &5 I_ Q= |  }  }  }  }  }  |  ]/ -, -, v8 8# +/ qo _] b) B@ fe.7) do hr $Y.ir $Y.3{+fE+$Y.8/+|] Vx /b /b :f W} rI }] }] .> A^ '; -{ 6p Mo {/ IM ~( ZS ZS ZS :] =v &{ }  }  d@ d@ @  |  ",
"NL NL NL 3].3].FU 10.FU 10.10.10.10.-9.yO.<q A. ft VL WB rI rI ty W} Mo a) a) a) Bm 8: B@ W} W} _= V2 Pr /b R+ WH l{ &q &q =v ;[ &q ED SU vh v&+t( 1K 4d x< U; vh kP A@ }  }  }  }  }  }  }  }  }  }  }  &{ IK |] (= r8 s( ir := Y= oi &{ A@ V} A@ &{ &{ Q0 yO.i4.8/+0# |] kP 4j uR ES S+ c- 2h I_ I_ I_ ;[ DS 4j 2h 4j IM 2h ;[ ;[ R& 10.dJ z'+{D.{D.A4.<c+kc+hP O| TL ~( uR A@ ~( 2h ;[ H1.i& ~/ B3.Q| dh fs i>.!w 4d h>.)/ ZY kb.2h [  S+ ,4 S+ Q8 F' Kn P, t9 kr 5} ,0 E3 Ka Ex C[ NA u: Y  >= n~ A^ .@ (J t>.;[ Q= K# i, Y+ +> }+ }+ [g *7 I) D' `y I_ ;[ =v ;[ Q0 Q0 Q0 2h 2h IM 2h 4j ~( ~( A@ A@ A@ [% A@ A@ ;[ uI B) !^ Pu Q0 ~( 2h ;[ l{ l{ TL TL /7 UL t>.uI u| G' t9 gO oi A@ R& }] 6p 1] w: Mo t>.TL =v v> |  }  }  }  }  }  }  }  ,4 [] _] -{ Z  Z  1_ (J }] dJ sI d- d4 &{ V} }  V} }  }  }  &{ LS JS -P HS ~J+l~.GS Q0 d4 A@ Q= Q= }  }  }  }  }  |  VR S+ S+ S+ Q8 K# 2h K# ZS =v IK IK WN WN WN IK rj w;+ir.ir.^q R& rj i& R& GD R& R& IK i& R& $5 TL /7 ;P {/ IK ZS ~( ~( A@ ~( oi ~( &{ v> }  [  [  [  Q= ",
"LS LS LS LS LS LS &{ &{ &{ &{ &{ &{ &{ HK uR JS Q0 Y= Y= -P JS uR q8 q8 [% q8 [% A@ A@ v> &{ &{ v> A@ q8 q8 q8 LS LS &{ }  }  }  }  &{ A@ [% q8 q8 YS GU YS Q0 q8 LS }  }  }  }  }  }  }  }  }  }  }  }  }  &{ ph.^q ^q ;D.^q 4s.A@ &{ }  &{ &{ }  }  &{ &{ &{ HK Q0 ~( ZS q8 A@ V} A@ A@ V} V} V} &{ A@ &{ &{ &{ &{ uR &{ &{ &{ }  &{ }  &{ &{ &{ &{ &{ &{ }  }  }  }  }  }  &{ &{ &{ Q= Q= &{ &{ &{ V} &{ V} &{ A@ &{ d4 4j DS d4 Q= oi A@ V} S+ A@ ~( r:.DS Q0 2h h, #5 ;P H1.d4 K# c- 2h 2h K# Q8 Q8 oi 2h ~( A@ &{ HK TL H_ rI Mo 9# kr UL /7 I_ A@ }  }  }  }  }  &{ &{ }  &{ Q= &{ &{ }  }  &{ &{ }  }  &{ }  }  Q= ~( ;[ A@ Q= &{ &{ &{ &{ v> Q= Q= A@ A@ ~( c- gO K# c- Q= Q= &{ }  &{ &{ &{ &{ }  }  }  }  v> Q= &{ &{ v> }  }  }  }  }  }  -, TH B. ED !v oi &{ &{ &{ }  }  }  }  }  }  }  &{ &{ &{ &{ }  &{ &{ &{ &{ }  }  }  }  }  }  }  }  }  }  }  }  }  }  }  }  }  }  }  }  }  }  }  }  }  }  }  }  }  }  }  }  }  }  }  }  &{ &{ }  &{ }  &{ &{ &{ &{ uR uR d4 uR A@ &{ }  }  }  }  }  }  }  }  }  v> Q= &{ ",
"}  &{ &{ &{ Q= &{ Q= V} }  }  }  }  }  }  &{ V} A@ A@ A@ &{ }  }  &{ &{ &{ }  &{ }  }  }  }  }  }  &{ uR uR &{ &{ uR &{ }  }  }  }  }  }  }  }  }  }  }  }  }  }  }  }  v> Q= Q= }  }  }  }  }  }  }  }  }  }  }  v> }  v> HK Q8 [  |  |  v> }  v> |  v> }  }  }  }  }  }  &{ A@ ,4 S+ Q= ,4 Q= V} V} ,4 V} V} V} *}.V} *}.,4 Q= V} |  }  }  }  }  }  }  }  }  }  }  }  &{ &{ Q= &{ &{ }  }  }  }  }  }  }  }  }  v> }  v> }  &{ &{ [  oi ,4 A@ A@ A@ A@ V} uR ,4 ~( &{ V} }  }  }  }  }  }  }  }  }  }  }  }  }  Q= Q= Q= Q= A@ &{ &{ }  }  }  }  }  }  }  }  }  }  }  v> }  }  &{ Q= v> }  }  }  }  &{ &{ v> }  }  }  }  }  }  }  Q= &{ }  }  }  }  }  }  }  }  }  }  }  }  &{ Q= oi v> }  }  }  }  }  }  }  }  }  v> v> }  }  }  }  }  }  }  }  }  }  }  v> }  }  }  }  }  }  }  }  }  }  }  }  }  }  }  }  }  }  }  }  }  }  }  }  }  }  }  }  }  }  }  }  }  }  }  }  }  }  }  }  }  }  }  }  }  }  }  }  }  }  }  }  }  }  }  }  }  }  }  }  }  }  }  }  }  }  }  }  &{ V} uR Q= }  &{ }  }  }  }  }  &{ &{ &{ &{ A@ A@ ",
"|  }  }  }  }  }  VR }  }  }  }  }  }  VR Q= }  Q= A@ A@ V} V} V} V} V} }  }  }  }  }  }  }  }  }  &{ uR &{ V} uR &{ }  }  }  }  }  }  }  }  }  }  }  }  }  }  }  }  }  }  [  Q= }  }  }  }  }  }  }  }  }  }  }  }  }  v> }  }  }  }  }  }  }  }  }  }  }  }  }  &{ }  Q= &{ V} V} V} V} V} V} V} V} &{ V} V} &{ &{ uR V} &{ V} }  }  }  }  }  }  }  }  }  }  }  }  }  }  }  }  }  }  }  }  }  }  }  }  }  }  }  }  &{ A@ v> S+ Q= Q= v> V} V} V} V} A@ A@ ,4 Q= ,4 A@ Q= &{ Q= }  }  }  }  }  }  }  }  }  }  }  }  }  }  }  }  }  }  }  }  }  }  }  }  }  }  }  }  }  }  }  }  }  }  }  }  }  }  }  }  }  }  }  }  }  }  }  }  }  }  }  }  }  }  }  }  }  }  }  }  }  }  }  }  }  }  }  }  }  }  }  }  }  }  }  }  }  }  }  }  }  }  }  }  }  }  }  }  }  }  }  }  }  }  }  }  }  }  }  }  }  }  }  }  }  }  }  }  }  }  }  }  }  }  }  }  }  }  }  }  }  }  }  }  }  }  }  }  }  }  }  }  }  }  }  }  }  }  }  }  }  }  }  }  }  }  }  }  }  }  }  }  }  }  }  }  }  }  }  &{ }  }  }  }  }  }  }  }  }  }  }  &{ }  &{ A@ ",
"}  }  }  }  VR Q= Ea.VR VR }  }  }  }  }  Q= Q= Q= &{ Q= Q= V} E1.E1.E1.E1.}  }  }  }  }  }  }  }  V} A@ uR *}.V} V} V} &{ }  }  }  }  }  }  }  }  }  }  }  }  }  }  }  [  [  [  }  }  }  }  }  }  }  }  }  }  }  |  |  Q= Q= Q= |  Q= }  Q= V} }  }  }  }  }  }  }  }  Q= Q= ,4 Ea.,4 Ea.,4 ,4 d4 *}.,4 *}.s:.uR *}.*}.d4 uR d4 V} VR }  }  }  }  }  }  }  }  }  }  }  }  }  }  &{ }  }  }  }  }  }  }  }  }  }  }  Q= A@ &{ Q= Q= A@ Q= V} V} A@ V} V} Q= ,4 V} Q= Q= Q= Q= Q= }  }  }  }  }  }  }  }  }  }  }  Q= &{ Q= }  }  }  }  }  }  }  }  }  }  }  }  }  }  }  }  }  }  }  }  }  }  }  }  }  }  }  &{ }  }  }  }  }  }  }  }  }  }  }  }  }  }  }  }  }  }  }  &{ V} V} V} Q= }  }  }  }  }  }  }  }  }  Q= }  }  }  }  }  }  }  }  }  }  }  }  }  }  }  }  }  }  }  }  }  }  }  }  }  }  }  }  }  }  }  }  }  }  }  }  }  }  }  }  }  }  }  }  }  }  }  V} }  }  }  }  }  }  }  }  }  }  }  }  }  }  }  }  }  }  }  }  }  }  }  }  }  }  }  }  }  }  }  }  }  &{ &{ &{ }  &{ }  }  }  }  }  }  }  }  }  &{ &{ A@ A@ ",
"|  VR VR }  |  VR Q= Q= }  }  }  }  }  }  }  }  &{ }  V} &{ V} E1.E1.}  }  }  }  }  }  }  }  }  Q= &{ V} uR uR &{ &{ V} &{ &{ &{ }  }  }  }  }  }  }  }  }  }  }  }  }  }  }  }  }  }  }  }  }  }  }  }  }  }  }  }  }  }  &{ &{ &{ V} &{ LS &{ &{ }  }  }  &{ &{ &{ }  &{ V} V} V} V} V} uR uR uR uR JS LS JS LS JS LS JS LS uR &{ }  }  }  }  }  }  }  }  }  }  }  }  }  }  }  }  &{ }  }  }  }  }  }  }  }  }  }  }  &{ Q= }  &{ Q= &{ V} V} V} V} V} V} &{ V} V} &{ Q= Q= V} }  }  }  }  }  }  }  }  }  }  }  }  }  }  }  }  }  }  }  }  }  }  }  }  }  }  }  }  }  }  }  }  }  }  }  }  }  }  }  }  }  }  }  }  }  }  }  }  }  }  }  }  }  }  }  }  }  }  }  }  &{ &{ &{ &{ &{ &{ }  }  }  }  }  }  }  }  }  }  }  }  }  }  }  }  }  }  }  }  }  }  }  }  }  }  }  }  }  }  }  }  }  }  }  }  }  }  }  }  }  }  }  }  }  }  }  }  }  }  }  }  }  }  }  }  }  }  }  }  }  }  }  }  }  }  }  }  }  }  }  }  }  }  }  }  }  }  }  }  }  }  }  }  }  }  }  }  }  }  }  }  }  }  }  }  }  }  }  }  }  }  }  }  &{ &{ &{ LS LS ",
"}  }  }  }  &{ &{ uR V} V} V} A@ }  Q= V} V} }  &{ V} V} &{ V} V} V} }  V} V} V} E1.E1.V} Q= }  v> uR uR uR d4 ,4 A@ &{ S+ v> A@ [% ~( |  |  }  }  }  }  }  |  }  }  }  &{ o,.Cx.xH.xH.5j 5j [[.[[.s:.JS JS JS G]+[[.}[.eO.vb+{J+vb+vb+A'+]J+ub+^J+/J+/J+^*+A'+rM.(J+3(+ox._J+:J+<J+dx.[J+SS 7.+=s.=s.uP.]]+}J+|J+1J+,L.S0.&[+G]+uR S+ v> }  }  }  }  }  }  V} &{ Q= }  Q= V} A@ &{ }  }  }  }  }  }  }  }  }  }  &{ &{ &{ &{ A@ &{ A@ Q= V} V} Q= V} V} V} V} V} A@ v> oi A@ ~( Q= Q= }  }  A@ d- lr.}s.WS WS wH.5j uR 4j $5 JP /~.{v.4j d4 V} uR uR d4 d4 S~.4j {( 4j ^~.4j 2h ~( c- &{ }  }  V} LS wH.RS m{ U) }| Z=+kr.kr.kr.Z=+VS WS WS mr.lr.2].o,.e4 yx.{v.XS /~.;P ;P ;P WR WR XR ES &{ }  }  }  }  &{ V} A@ A@ d4 uR uR uR uR &{ }  }  }  }  }  }  }  }  &{ }  }  &{ &{ }  }  }  }  }  }  }  }  }  }  }  }  }  }  }  }  }  }  }  }  }  }  }  }  }  }  }  }  }  V} }  }  }  v> }  }  }  }  S+ TL l{ ~( }  V} }  }  }  }  }  }  }  }  &{ V} V} uR uR JS d4 d4 d4 {( z8+Cx.JS &{ }  }  }  }  &{ LS LS KS xc.xc.2J+Lg.3J+",
"W2 j>.j>.j>.j>.X,.uR &{ uR }  &{ V} &{ &{ }  }  }  }  &{ }  &{ &{ }  }  }  }  }  }  |  }  VR S+ :] R& l2.uR uR V} }  }  }  v> C) Q8 oi <% <% |  |  }  }  }  |  v> oi &{ rj 1t #q 7x HT.Km ~+++w xy w8+nq+*,+ec+ec+4J+xy 7C.jm 5J+u2 0u gx+/p+6J+[0+L4+P>.]u+8-+5B 1L.Ie.Pc Pc =6+8x+K9.I# pg.j5 =p hA.J@.(_+fG vy .w :g.nb ua 2].&{ S+ [  Q= }  }  }  }  }  Q= &{ ,4 &{ V} &{ &{ d4 >, GD TL GD $5 $5 TL $5 {/ {/ UL TL A@ }  &{ }  v> v> &{ &{ &{ &{ &{ &{ V} &{ Q= v> Q= Q= Q8 c- ES }  YS [! E1 v} t[ R2 =+ 2- Hg }s.R+ '= R; [g Z{ 3} gl (b }p sW  Z ;* !~ g~ h  `Y a# i>.h1 .> 9# F' I_ V} &{ QS nr ,} *).]v qH rH 4u+e].e].b}.!: !: 5S.,} Hp 77 97 Wa #v +d A/ }b lc.`a./H t/ t/ {s D[ P| jP [].s[.eh G_ j3.1K s| 6j 6j }% !w {S.7t $t <O L0.YA.x: +@ ze m~.|W.xu 2t 6} Zu d!.HU +;+cT 16.2/.Q0./o.#  hP hP VO VL Qr or w..Cr dT -~.kx Ny %H.A2.I!+!D.^ .n/./~.}  }  }  }  }  |  |  [  v> v> C< KA 7+ UL Q8 A@ }  }  }  }  }  }  }  d4 v&+p8 th _l F2.Ny O*+zS.sW ,A R8.%v $t ES }  ,4 d- Lr.-l+7J+8J+9J+8J+0J+FG+aJ+QG+",
"|d :1 Ej &] 3! x..uR &{ d4 A@ d4 d4 ~( V} ,4 V} A@ &{ A@ V} V} V} Q= Q= Q= VR Q= [  2'.VR [  c- UL := N<.bJ+S~.uR ,4 }  &{ !( j; qo C) L@ u_ Tp SH Zp <] L@ 7# 6) W} := |o.Y4 ;a }u I3+up 6. QE Uf.:x cJ+:_+oa.SC.Uv Nm+%x+lu.@v+7[+C- C~+E5.D@.dJ+eJ+Ce+fJ+gJ+hJ+(g+iJ+Eg+I8.V<+*1.jJ+2B.s;.kJ+lJ+v7+mJ+nJ+oJ+OD ZR Ni+pJ+Gf U) d4 ;[ K# gO VR }  }  Q= 2h 6) qo 9# /7 I_ d4 4j eJ $b E[ P0 ZY IC IC IC IC IC ZY }@ >d sI &{ &{ Q= Q= }  Q= Q= Q= &{ Q= Q= Q= }  &{ Q= Q= S+ l{ /7 m1.|].(; 8~ qJ+*'.rJ+sJ+{>.O.+V2.j3.d[ ~< K[ 0' j% U* @@ Oh Ej I:.|d+i= tJ+2t.#n @@ -/ >D O8 %/ A^ sy {/ {( q:.x^+R4 *' uJ+vJ+Qo+wJ+Bt+U<+Bt+xJ+yJ+J~+J~+|*.|8.@0.`& Ww+zJ+AJ+:-.[u <3 cl  e.M= 4(.v3 4) %+ *H.TT.4m bM.G1 Bo 5& 6& Ej kw.ub.+s +s M* kw.Kh ^x :1 12 Y0 nA H2 zb Tm y-.y$ )6 n, oH Ho r6 D+ +) p[ u9.!4.+d ]( |k Fg ^v sf d7.<v =( Q5 z)+/E.9x.<3.)8 T# a~ Y'.p:.ES }  VR Q= }  C) SH W> #/ -k a) $/ -{ kr 6) TL A@ }  }  }  }  &{ }  FU ]E CS 0E /z Q2 _: 9~ w@.I~ =} BJ+K(.iD+R/ c- m1.or 97 =z Vv qB A|.gB+uA+5i+&<+CJ+",
"Ac bl 4< U5 0$ m/ ,4 ,4 S+ ,4 A@ Q= A@ &{ &{ }  }  &{ &{ &{ &{ &{ Q= |  VR VR [  Q= Q= Q= Q= Q= ^q 3].t~+JS uR }  &{ }  A@ hE B) _] L@ L@ +/ ww )( hz )4 C) TH do  f eE.c9 #4+(0 Ye+DJ+T_+EJ+FJ+AP.!t.Ty+[|+Yg+>h+GJ+c2.Q7.07.qu.HJ+IJ+JJ+KJ+LJ+MJ+qz.NJ+OJ+PJ+Vf+~h+e .tg.QJ+l_.RJ+SJ+TJ+@#.UJ+VJ+WJ+XJ+YJ+ZJ+`J+ K+.K++K+99 ~D.YS R& :] Q8 [  S+ }  oi qo i; mo Q/ n~ 7: WR H1.Mo av [@ E3 X+ [g [g ;3 ;3 >% _$ }+ ]] 4: LS A@ v> v> }  }  }  |  }  }  }  v> v> A@ Q= oi A@ {/ ); `}.); <O E1 #~.m..=1+o; JG.xE f~ cT Ct ($ S} Zb >*.0D +j #%.0M.f~./} &@ 3y.yv.ZH h=.P+ |5 Zw VD.E) RI 1] 6z.KL.(s.y4 C++@K+Ml+.9+#K+#K+$K+.9+$K+w3.37..* %K+%Z &K+QJ+ix+Ds -k+V@.H++vA Ah @; Ca #n M= X; L# $v =D 4! w} K| M* I$.Ac H}.j] L$.xE d< 4< dl +) }I }I Pp.H~ H` ol Vo n: Vr *K+je &_.)8 7,+;6.S# )6 %%.m[ n1 wj Kx &z HY 2J {-+6l+=K+-K+~-+;K+@ .>K+,K+{!.QC.fA v'.J9 r:.}  V} Q= }  <] q3 eN _L ,D BO B^ e[ SO a) Kn !m }  }  }  }  }  }  X,.Mi 9& z@+eS -p %^ n: :3 *_.{9.8l FZ.A/ zv 3p.sq }% Hp 29+'K+<6+R++)K+!K+~K+Dj+{K+",
"@$+|~ |~ f! F! E[ ,4 Q= Q= Q= :] #5 t>.;P >, 2h H1.H1.rj {( {( 4j 4j ~( [% q8 A@ A@ uR uR q8 YS y[+]K+b,.k& >*+GS YS &{ ~( C< .> }! c) t_ )( zM @5 x! SH e. a  D3 HH Z,.|l +D kD.!g+y-+^K+ji./K+,i+qB A|.G4.,k+ua.(K+_K+:K+B*+<K+5, IJ+[K+}K+|K+2-+1K+0..2K+3K+Vk+4K+ew+5K+QX.#v+/}+|=+6K+%Z 7K+*%.8K+9K+0K+Xe+aK+bK+cK+dK+ib.^Q.3].-9.^q H1.A@ ~( Q= K# Kn sd %8 Fd s$ n~ jr ); 6: }@ kk E3 E. *0 _$ 2] `> `> _b wo q( TO uR &{ }  }  }  }  }  }  }  }  }  }  }  }  }  &{ &{ o,.HP {h.Zy ze G, [3 ck.vJ.=} 4~ j] hA u~+S| T} 4t.S`.00 e~ $D .k.9+ &. G%.eK+%@ '- l) g% pn JF lN oK w* =[ )% /1 mj Hf ~r %]+-:++: +|+fK+gK+fK+D5.,8+{k+Ji+;:+hK+iK+jK+kK+>E.lK+u-.YB -1.&_.Y] '++/z Y' 5! =+ p~.%o 1l !~ R@ Bo V4 pf nb Y'.F+ O[.A] M# }++33 jj nA +$ }h OU {n w_.G: pk  X.tt ti G++7,+/n Zo p;+{n K2 V6 $z -l 8n gm 8j m).cK+mK+nK+oK+pK+0b 2F.qK+Gy.A@+Qn+:S <E.2_.yx.uR V} 4j 2h 6) u* -< u0.AT.`{.Z1+e[ B^ G( B) !4 }  }  }  &{ YS PS oO.99 X(.-*+Qg+bw 6w.sf d7.rK+sK+('.G,.]( Co Bx 0N 6j 0I.yC tK+uK+ ~+vK+wK+xK+Bz+yK+",
"T8 j] H; 1~ 9$ [k ;P u,.;J.gO )C N, w+ x+ Su {y }A m; R; *$ @c :' &_  , EI 1d z' -* lm G2.[0 gA %#.zK+UG x4 5b ug.Yu ir kP GD 6) 1  G) ~2 -r l~ s] AM @/ @/ 8: ^] U$ f+.AK+J..9b Qt+Rx+BK+V@+(n+(n+#G+CK+1<.DK+EK+FK+B|.GK+B*+Pw Fe+HK+uz.PJ+IK+JK+KK+LK+Px.NJ+OJ+S$.MK+NK+OK+A# PK+J]+QK+QK+|=+eD.RK+!, p{ nd+SK+TK+bk+s, ]f Ix Vf  n bN <4+]A.TO aN kr k~ 4+ _L H( 4_ r$ u| VG n/ (b r( %0 <' H[ E1 4  {q ]b ]( f~ Xe O7+F1.X,.XS 10.FU iP jP qU qU qU := dJ XS yx.}s.{D.]h.;t _t.at gu -5 67 pf c' n+ X(.L$.H}.23 dI Hj S;.^s qf ~: l2 Os +G.{f ,h Rm B;./> p4+{~ ]$ ~x M< Qf BH wp >| _D.(2.PT a1 P& ~i.UK+ej+&|+`8+VK+WK+XK+t. kj+tj+My.Bs.PC./E.n{ 6s.9_+7m #*+N- 5m 5b o[ +$ iG bl X' 09 t8 !> !~ Bo %[ g~ 4p X% }h yF mk rf -( z| A| P:.)M.5m Y] Yc *f 6q 8! VY  X.Pm+*K+G++Ct.Bt.IB D~.J@.db P[.!h.`Y Yu D6 ,n t[.!0.U- Si+Zx S- e6.j4 =f J..s^ ci.}F.B^.@) 'h.YK+zu )/ X} iB W{.ge.`{.H<.ZK+2X.B^ ge.,{ 7+ `p }  }  }  IP sU v( c0 }h #)+U).`K+ p 7y+J..H++q$+qK+BG.KB M0+2t 1K T{ (z @3 W0+ L+N9+.L+iy+4i++L+@L+#L+",
"D, K- K- i^ [o.@@ pp Vh U} 9p h[ ($ EZ.L).26 Zf ~~ WP.e& 16 #k D] s' $L+!b.@} Y/.%L+AF.&L+/-.*L+=L+&(.<u.9t.y~ p+ W5.H5 Nr 4: C. `< mo >| zM Bx d@ |  d@ d@ c) 2& %% CJ Lf `r a! O]+MD zt+-L+;L+>L+u. ,L+T$.'L+*x+07.)L+!L+i=+~L+{L+]L+3<.ah+^L+/L+(L+tz._L+:L+<L+[L+CC.a++}L+[z.o& 4_+|L+A4+5. F++1L+2L+lO.w, %Z 3L+z,+,*.Re.V(.P5 O[.7d z/ W% g  Zm C' x_ <- d} HO <- wf.[- 2d p1 %: Z).S| b1 x} bI 4L+5L+G~ 2@+y$ Oi H9 /5 WF.E_.`Y }p qN ;r 5C g  5C y' ua dT /).~F <: @$+f, n} ff <} mY g! Ej Tl M; 2% -} l0 f' 6L+V/ {% ]= ]: -!.nd 7L+SH.z3 =k.8%.<c |t.L[ M5 <- sd r! W;.am !O s_ 'l Y* M*.'>.L;.g|+I3+iF+8L+9L+c` HX.0L+lF+fa HB 5S.0w ]: Mu kB 6x M<.7u 7_.$h g, Ig 7!.dl G$ J~ [r.:# 4; q+ Hj X+ _$ 2] u} Q4 it QE.1y v!.[j S-.p, )8 <3.!G.f'. _.O-.;!.NE.,>.aL+bL+>>.=%+,z p).<3.sl U] n9 %H.sI Q, S& VG bD+T8.<r CB fr+r2 ]t Os $B ^5 (r #)+s; 6#+sJ+94 X4 4l.44.y@ S;.]h fZ P1 RO A<+cL+6a+fl.^% +Z.Bm d4 }  }  }  HU j'.;~ mk G` %m+E, Yc ]f Z7+Gh dK+dL+BG.eL+fL+h5 jt rf K).pk Pp f(+2u ix+Ds gL+hL+iL+jL+kL+",
"U] OC.Nt  %.>~ j[ F] F] z' &0  ^ I+ TI :K t+ O* W0 $i Ul D! {= -0 (1 U. #J.lL+mL+nL+oL+pL+qL+rL+sL+/5.tL+>i.q!.04 dI 9w q> U{ k; FL (% 14 )| |  |  }  |  }  C) hE 3/.0|.]{.R3 ]H+uL+#3.o{ vL+ u.Ql.OY wL+.* ]L+xL+yL+zL+], AL+sN.~} BL+%E+CL+0> D*+DL+[s EL+FL+GL+x|+W- HL+IL+R@.=%.JL+Cs .H+ME+ia+m| l9.>E.k+.BW KL+zX lJ+~n+D/.f( V] yj @] Z] to 3f {$ eN 7L Cz O4.:- =J.z_ @8 -# .. nj 46 M7 H; <{+;~ :3 *} $V +(.sl He WR.J2 |g E_.b# qp  Z lc.Gx 7i Za.>* #^ ro Tf z9 KG.LL+ML+]-.)-.<$ 6L+E] U$ ]y 4& K7 xE -*.7#+h|.pf Og /m+V` %B.n{.NL+OL+ku.KB Oa q+ i(.># G) t$ }P FR v{.jn N@ _K S* YW `C 6n 8. Vw.ju PL+QL+RL+d8+mw+uf+N*+QB u~+ v bN fE+;e.BU CU 7b.No qj Q0 uR HU `,.M*.e+ SL+*~ !(.NG S$ z> 2& B< J+ l5 A~ y;.)U (3 [E.~%.H^.|8.tj+TL+UL+j+.%B.VL+W'.D/.l*.Bs.U! f'.ti -1.O-.H- KG.Dn.w: [  mE in SH k*.!D.N..Y!+Y!+07+/'.nq+Au Gr.,R.Gf nU _#+Y^.w6 LG.:1 wD ]x R$ M  uh 4s.yO C5+Z` WL+FM Z` BO `p }  }  }  }  =n %_.B^.ZB E, &. 7w.U8 1| :0 8E  X.XL+YL+ZL+kj+~U [F.jD.he D++t, W<+#w+Zx 9>+m& eA.`L+ M+.M+",
"I++r!.N] M^.Bq ;*.fu fu J~.f{.f{.Ed T| ;l G] L# C_ 6' .s @& JK  ^.R$ 4< K- +M+@M+''.#M+#M+$M+%M+7K+iK+w. qs.O- 3( gA R0 Wf t( u> ~4 gE y% '# }  |  |  |  }  [  <] k*..e j4.&M+*M+Nw+Y6 Ti+j|+$f+=M+J3+Ql.-M+;M+>M+,M+,M+'M+)M+!M+~M+{M+[E+]M+7B+^M+:B./M+(M+_M+:M+<M+)` [M+}M+x3.C=.;-+]r !U.TU Mb+g6+Dp YL.(U 7O.@5.|M+1M+,*.>%.)).y;.Ho Hs Dd 1l <' 5p eN Y> /*.CO :- F^ Z+ -# -# ]| F( pp -&+**.-( p!.rK+<*.Vo+|8.7. zC r2 kF .q /).kx /.+(.+*v iD+XB %v 3C Uc Bc+Wa F+ 5a.2M+6P.)).}B.bo.T  R9 O+ {~ bv 3M+C;.y)+5).MG +$ Nb+xy :y S[+4M+4M+5M+6M+q, 0t D).R;. } MA r! Tq $Q wi ,< %/ R7 S0 /z U2.~t *t Ku 5[ .C+7M+8M+8[+<k+9M+0M+.t mf s( uh /b +@ ]A.eh Yp O| !v ;[ {( th 8$+aM+,+ bM+Pt.cM+h|.}2 `A :& 1# `A ]E %,.ij <*.}8.2j+Op.]5.MK MK $i. g+j/ #f+j!.>G.}}+dM++8.3z z^.y^.9x.Q5 Es.7i.U. dh -[ of.eM+Bx `p I!+S=+t7+f| ou tU &:+<++]Q.K2.Jj << G! z] J.+33 4n dx+@y vF |b t| H3+;D.|] Ag v_ >{ >{ *: S+ }  }  }  }  pr 4! @; gG 3( I2 E, fM+sl sO.8C J6 gM+]G.pA =i.Q)./+ _'.H^.=:+Z/+Dt+r^+!j bH Es.Q5 =G.[|.hM+",
".% r!.z~ >~ iM+k5 =[.3A >^ J:.J:.F@ !q 81.N$.[= 1@ ;/ &n Ev Z[ +& 2! Y' 5~ )9.jM+kM+lM+Z) mM+nM+Gq zD &*+`& kw O,.M#+oM+te jL.E~+IK mP [  |  }  }  }  }  }  |  y% u> pM+[z ,O /h.qM+Fp Zx -. vL+rM+!2+sM+w_+p{ tM+TO.~, uM+vM+q& yX Za+,9 wM+hw+xM+'k+yM+zM+.X }=+3q.AM+G .BM+{=+vG.s6+)l+Ku .w O<+Gp #D YB Ry.UH.^E.y).14+CM+T! E7 fD.7w.L@.rF l! ch 'C 5P |P y0.nJ dN.8K T> O/ z> R= l; kf M7 y-.:b+DM+JB +(..#.u, ee.mZ Z6 vU.$B EM+`).I&+-7 Og cj 7_.6u 8w.-t Hr.Ap H` H/.FM+b0+LV GM+$z.P7  6 x+ j, N= l|+2I <} }-.U;.`;.Uo  ].__+b*+hT HM+IM+{l P- Tm X' O0 ~x 6_ 3y UP.FR AH jn NJ )% V5.+) ;5 W6 'j c .ud+JM+Zp+$A.KM+E@.-E.fo.E*.Zm Z} C5+W} ir Qr eh kP h, &q R& yO.ew N$ LM+l..=8.I/.lV.=<+S$ Gn.NI Y} #. dy+MM+=( *1.SH.~-+1H.NM+Yz.Yz.OM+R<+$3+fi.k+.q} PM+!U L&+9x.tp V` :y NX JB +% 6~ _; [  BG BG Bx 7# g~.Is 8~.VS.ou F7+e[+{++l6+%t.go l= !(.a^ q* +$ mb.ur :c.Y4 Gx QU u:+j4.pj [z QM+RO Sp ZS }  }  }  }  }  YS %H.cF ;v a,.Kf uG.oy.D++r;+&{._! p).K&+/Q.0'+^;.x@.`$.&)+u-.up W<+:#+|y I|.(~ q* f'.qs.RM+",
"SA r!.r!.o' q+ Tf .!.gu xo yh nf K4 1>.}7 x@ +& N* 6g .s &n 3{.Y5 #[ 51 /~ h! 1' GA.y7+SM+87+TM+;` Tu+}r+yc+Vz i2 UM+VM+WM+XM+YM+W{+M2.dC.d4 }  }  }  }  }  }  -, C. Wp 8/+)D._'+#H.GH.q;+&i.-A.ks+ZM+`M+ N+Yh+LV..N++N+@N+#N+hM+%+.,z JD $N+%N+o2+&N+,[.*N+_Q.qg.%v+!g+Bd+1H ]t.W# #0.pC [b+8C  1 qH Iu ~i.Y. PY t-.Ov.J2+uM.Re.Bs.rm+C,+NU .g qf ht j, ^* 6P eT.nJ EO.F^ /- ^] @. i{ n/ E@ 3%+;~ jt D6+~f ,K+e# e .@G+T:+Pb+=N+k/ 8a !n hI 6J &,.Dz.~: w/ U6 w4 #l U9 vA Ny.1@+'a n} 0~ 1t.,~ f,.O* 16 @}.n..V@ ;y.Q3.s|+F.+*w +A g|+mR.-N+:o.af+E(+BA.0H K7 =^.>8 mo *8 UP.FR s1 ~R Hw i% 09 Ur K9.+3 82.mc ;N+>N+,N+'N+)N+!N+M:.rB.G5 >q ]] S; *D Fm cw Cr O1 ,2 aN W} uh c} 4! }< -*.yz ],.[~ Oa ]: B-.{1.pK El x9 G/.&)+YL+14+. .zL.$3+#i.;d+~N+(g+z*+{N+Y6+^i._5.>%.4@+ok 53 Dw.A1 ]N+q;.B;.74 M2.r:.MJ e. F' H_ Xu $D ^N+wy ,m+3_.2|.l(+Z}.m)+*F e* /N+3'+j}+w@.H}.*i 1~.v[ K:.3>.%H.dw }p IU }&+GU 4s.HK &{ }  }  }  |  LS EU '!+n,.Bc+{: it g5.=y.9A 6A kw zs r^+D-.&*+.>.Js.[D.G# Zz 99.(N+X<+|4.Tr.<3 <c K).7m ME.",
"W++r!.Nt 9$+U5 T| 41 u/ GI y} D' hw t| P@ C! _}.W0 _N+*k %p rt 8' tT..- :N++p+<N+Wh+y)+S5 r. E: U.+[N+}N+|N+1N+2N+3N+4N+5N+6N+7N+Pm+KG )7 y>.hP $k.8N+}  }  }  [  C< ~k.&2+~[.tD+P<.<h q;+~N+Ya+z*+]o.u, g[.g7.v4 yu.GB Xh+w5+cD E4+6  >[ 9N+0N+aN+bN+cN+Z<.:E+mC+SC t2 O]+4| tJ 4o xc+1^.c .#D >h aK Fp +*+<a+Y#.^i.dN+Mx kw b! 0! C,+#D 't [d.C'. d.~-.[8 fN eN+X7.Gl WG @M V| +. %h =n *6.fN+<~.ti %t+gN+hN+0b Yf+)i+iN+H@.sk+jN+kN+(!+z;.g( fA H,+Oi+U! 59+lN+lN+mN+nN+oN+.;+t..;*.vf `c g1 }+ O* _}.~x.LI.yD B#+e`.iJ+ 0.tp N.+9m Tr.j! yj If (D+_|.it d' a' T7 SI xi XP wi -o #~ q3 ^= Oh #H +3 $%+y5.1^.Qi qm L}.pN+qN+Pw.U6+`>+]{.+. +. .l Fm wr Kj y/ yh Li *D 19+Am r8 jB +j w9 H~ oG rN+Lc Xc pk P# S-.Oi+!U sN+>G.N/.P-+RH. $ CC+J2+Y2.+*+Dw. 3.(E.dN+P3.}y <v z)+Re.&)+.#.U` i+.&_.G~ cX sU 4d `  hw S& hr Wh @w vO.Z}+@3 cx vr dx+8b.j9 >*.M[ a* O$ .0 (F.tN+&r.|< |~ jd #:.e~ nt 5y uN+5d.LS HK LS LS }  }  }  |  v> GU G<+79.{h.Zr.o: }-.H^.^X n{ Eq  _.)V ai.53 ]N+H# ,E.9M+o2+vN+wN+Oz+-<+#3 ^5 dq U6 9. cm ",
"W8 SA w6 M^.k= m' t8 &] )> M+ 1# Gn hz (= Wu ;4 {0 xN+sp.yN+1}.zN+i].TJ.AN+BN+CN+DN+EN+!y.Y| v2 FN+GN+HN+IN+JN+KN+LN+MN+NN+ON+PN+j5.!@ QN+01+I^+RN+SN+t,.}  }  L@ b) p[.l}.fA+TN+c# O- ~j UN+md+md+>7+up j| vu  C Zh tH El >z p2 pd ;*.o(..o+VN+4C.'x+WN+XN+YN+Yi vm Dp l~+m'.es+ 1 8C Pg SM 7z.7z.@3 Lb+l9+c[.Cw._y !z+F(+c! fr ,t e]..w Ju j. e~.i1.<N+N7 .[ d6.HR &Q 1& '1.`; Ct +!.<Z G6 n~.nm+z)+gM+ZN+Gy.aA FG.<7.z[+L<+o{.i6.`N+S).#}.pm.BF._m+PM+N! kh :m+!8. O+XL+tt .O+7y.Ze.ew aF 8~ 57 3# }( 6~ s} K.+{r {i.|r++O+'D.II Qc go Za.H7 iy.Ak i. BJ+{>.@O+B} Cm 5K !O wp W< /2 ;{ s8 Tf Ee M0+'j 4|.{f #O+$O+i7+%O+&O+3[ IH+*O+$$ 0) %L CF #j o[ 6F H` }h j[ <' '; 7# ^i ;O d!..j Dd C-.T8.:(+Pa.=O+:j Oj+=M+J3+E}+wY )n+^5.wJ.F]+A1 Y7.^A.bE 7z.{s.HB kF j5 fS `C :v jA.dk.Y*.om.+$+7q b. Hx 41 E] u8 2- }p ct F*.Z[.qA+L,.Os !t d(+v].EF 12 :  dI G] F] ^1 wr.!9.3@ <x.o;+%A K9.+$ L$.%_.qF OS A@ K@ HK A@ }  }  }  [  S+ R& i& ~/ FU nK.mr f'.j#.R).D/.C$ fA p, &f Fp zX.zy Zu+q5+-O+;O+>O+,O+'O+)O+)z.T8._%+Em+Hr+",
"B^.2I a( t; Jq.;( 6& K| }2  } o0 !O+3> i; z; 7( t(.yN+~O+{O+]O+;{.^O+Vo.7N K!.nT.w4+t.+{,.%* /O+(O+_O+:O+<O+[O+}O+|O+1O+2O+3O+4O+R)+cc.5O+zP.bt Mx+&T.XR }  }  oi C< K<.Du.6O+TN+F|.{n ^X C5.AE+Zf+A4+[1  !.(a Mf O@ Q+ h3 7O+}j 7d 0j F|.8O+MH+UG+9O+1z.|z.8T..h yy O<+{f lt II dd <h -z $l m2+Fu 'n.De Fj+}<+K-+{o bD x4 W6 w4 K@.cx ,t *w 3G ^J.bL.0O+S$ I[ '%.nJ +V.0K ;M Xp g~.Dd 2q [h Pe.5z.K&+Lw  X.`w.aO+=K+bO+cO+'q+dO+&/+%(.sR.eO+6l.fO+lp.Q'.|M+gO+hO+iO+c|+jO+kO+Vu.=9 'q 9d EI L( [+ Gn+c= 00 v].B4.K} Y2.fj+4(+]N+&. zh j^ y_ X} k'.97 f, ~/.lO+__ =+.QM+`L OO QO (% ng._= 1- #v H2.n2 ^N+;h vU.nc na hq+NB.n2+US.S=+IH.wh W{.+. 5c vk 9. Pg bE L` ra h4.lA v> [  ZS gl.9F.-n JU Q<.mo+mO+RJ.x` c-.nO+o*+@8+oO+HG.S<+{!.QZ w` Or Pd ;5 <l Lc+;^ 0w H/ HI kj -*+b( q; l#.)8.pO+!F qO+UB Fg t2.fG.@n Wh YC.-n 6o jD+8a 3|.d! pK.EF aE *o 3! )0 `> 8~ g% ~3+j_ rO+/# j}+sO+pg.n, z~ 5L+nr HS &{ oi }  &{ }  }  |  [  [  =v Y= GU Q0 o,.I- pp.N<+6P. n.3[.<( it o[ 9. ().TV.tO+uO+vO+wO+xO+yO+KH+K6+T8._a _a 'w SP.",
"!y.(~ B;.zO+Xs.Ca cX &] -i >8 *m AO+i}  @ V$ :_ _v WP.yN+BO+7v Dm.CO+eo.D(.!3+0X J(.T@ [u  f+DO+EO+FO+GO+HO+[O+IO+JO+KO+LO+MO+NO+9%.j:.I%.C, 7b m9 k3.{v.}  }  =v 6# k}.{H+OO+jL.o(.*).}4.-m+l<+PO+As L9+gD.yh ^] L  xe (E j[ H+ :c 03 k=.QO+W|+RO+SO+1z.TO+UO+59 ~z.b}.dd 8! %e.pk pk C,+VO+/o 2^.d# .w #A hc WO+Nb+Rd v[ 8d F, #v xj Fz 26.XO+YO+a3 ZO+%b W  |P '$ EN 6P LA =L $h P:.V3.{r +3.y<.%t+DM+G+ EY /n qK+UC.=M+=M+OK.3k+fO+i@+H* jI.{!.dz.U` ]F.`O+ P+jh ]-.Kb.oG AK+->+4f V; :t 3# `H l] *n Hj 4l.W| {n Ch R^.Pj+h!.Rx s[ 5p K+ 2& pp 6h 9V .P+T#+` +6( 1{.<% G|.E} y* 8: v&+$o 67 hI $%+#3 #A {f zX.dr :A.J0+4B kc :E )F.ft !{ i~ 2d.CP ;h 2^.&f C| nb Ei No A@ Q8 1{.ty IU xu QU ^n+mq++y.J;.ZM+7g+n^+n^+Rh.ae+um.G~.2I f! +P+1g }F !8 t[ Jo Aa ,r &] )> V5.p+ C3 @P+#P+K*.]=+L..$P+%y k5 f(.pm+vj nr JU k(+C0.jD+$y 7J pK.rr 1N.B8 dE ^x A/ $. z} ,] tS.'w.'- T#+CA.>I Qv j! de H+ %y HS LS A@ &{ v> v> S+ |  <% K@ &q 4s.e4 GU j& Nt.T] F~.a5 'G.M-+n;+%_.9t v/ jc 3| Kz+%P+&P+at+*P+=P+-P+=w mr >t +< !n S=+",
"n} yF.P5 B^.5; z9 r6 :d 6~ yd 2k ;P+bg.:k j, W; rt It >P+BO+,P+VN 'P+)P+h^.fh.pD.NY.g).Qm =. XG+!P+~P+{P+]P+^P+/P+(P+_P+:P+<P+[P+,i.R3.bH W++a<.3; `~.L0.}  oi U{ fZ gw =j si.wH++v ${.Ap /o Ku ~c.mG kd #%.64 /- 3+ J3 #z Ye nb c1 !> $y }P+|P+1z.1P+2P+3P+&r+**+'j Jm P:.P).n, oH oH ~v 9! &f #D HB 8. l[ F, )a.:b =1 so $v H7 Ed xo k! Hm Z4 <u 74 ,u /= mo zG v[.),.Y> ){ -v Fy g|+UL+#|+oI.DY db @j  E Mj }l $:.~3.T_+qg.4P+LD xF.5P+=p x4 ]f *. _n nd &*+6P+Bs.7P+pd R..33.g4.}- lk A+ Da `b `b pn B} 90 4! sa z~ OE.G).lw.LG.W5 U> {8 v! kk (5 y8.3M+~-.R. X+ v> }  |  @  wK C. 7f <' F] q[ Tf aa at C, C| ,f ~s.y5.w4 #] 2l =L _O Ag C@ 1d uj ID 7M.MA.RB Mu Yh ir O| .> 9# u> }^.Yp pj /H.8P+**+r2 1_.A4 'a+ea sp n. 04 0D y} $~ P4 :* Y: ,% :b rW rp #q =7 ]E )~ A' 2% B;.y~ yF.If yU `x+// [l ic 9P+}l oB.IA+Vk 0P+iA+bn+r[.GC oK.@1 ;] W| E| A@.@@ V* }2 A> Sq+8$ 0<.Ua.;|.W++SA de ed TB f4 !c.T+ )v =v A@ -[ ]/ -[ T/ :f $$ {K UO [A :r Q..V3.p).xu.<3 <8 u} *0 Ed .k.FU.aP+bP+cP+dP+eP+Ip+$y 7u H7 nf Xh b[ Uk ",
"[y f'.H- Es.rK+d7.&a.ow.n+ 8' {Q fP++  Y< ^N F} xF X>+Q{.F!.gP+hP+*I.iP+jP+kP+U!.lP+Rn ~!.yB.mP+nP+oP+pP+qP+78+rP+sP+tP+uP+vP+wP+{1 (H :*.lA.W1 f^ |t.xP+A@ TL n~ )^ /a I@ ]I+yP+bm 7!.>L.Jg M..nq+5x 3r FI h~ /- 3+ J3 L( <: ed S8 7d h| zP+AP+BP+Qs+CP+Lq+cI+s4 #l '7 Um .g Dz.9x tF z, ol 5n F@+dd =f K2 [f }* &_ E. av S; YW.)^ }*  n  s. s.{,+y' I_.hw #| /O Yl yJ u$ '; (T g6+DP+EP+FP+/_+De #q ]b mE.=6.uG 2y+0S.[9+PP.[9+=E hF 'r+v1.Uz+v1.// m2 8. 7E Ct.G` *:.<n tH I1 lk 57 ]% 3  5{ Qj Qj 80 80 t' ~m }2 ]x rh }++qw ]= N+ r].8{ Nf *7 tA @t+,A 5C E. '; }  |  |  @  Tp _] .> T= _q %0 M4 =H.1t &0 ua kA 3>.Uc lr `Y  f -L Am o> Rq x' ;*.4h rB./m+.!.cj c} Gn.i~ k~.>= Do Q1 B. *: 8/+az L..H4 ~6+_8+L,.$y PU b9 &0 {^ ;< MA _' 0n ,# 9p 1- pI y/ :E &D @l 9d >f aF &7 f~ Uf @d qy AE.0G.d|.gB nG Jx _%+c9 $E e-+LU /'.Lc ML.rr d(+pK.mb.;1.8b..3 Ko =+ ~5 qd xs }++0V U-.],.GP+Q,.f, )M.v/ o( @@ #. @+ l{ )4 aL )4 -{ {s &0 b# Xu Yu Bt ~o fz+Mp+/R.2q `m E' j{  . *.+J:+HP+IP+JP+KP+LP+MP+j1 (b 3d 9d 1B b[ `x+",
"YB 9>+e'.<v 4@+K&+dz.NP+OP++[ :k d@ @  #/ 9W.8H.}r.*k.PP+QP+=W.RP+SP+TP+UP+VP+WP+pJ.7D 4>.XP+YP+ZP+`P+ Q+.Q+Zb+UY +Q+@Q+rw ->.g'.E3.z3.G%.1' +K++_.k= h>.A@ B. $/ 9) M:+ti.#Q+$Q+We JU sj _{.6~.E|+$h E_.>q 0M 6+ 6+ ~O j3 .g ]f 5n db g| %Q+S9+&Q+ct+*Q+nE+Mq+P]+7j #0 wj 7y.Ee  ; M0+h4 p;+,[ V++X6 IB jc 9I.B2 NI 9M 5_ E) g:.Ag S= r( Ka EH `A kk ,* v| Dt |v AG BL Hw ir :>+d# =Q+-Q+;Q+Uf.K..-* I+ j3 D!.vk 2y+}G+pt+-A+PD+i2 *E >Q+JW 7} n).7-+{w %%.ee pp.[7 7d to g3 5r K) #z 57 #z -) xq ot Cw fT.%m wq ub 80 6z P* P* .p [4 H{.O$.{8 5p ,% 6L =H.1t `  a  }  }  }  |  !2 c) RI a  W} :f W} 6p l; r$  > 36 s( nj  q +^ <* $L ~1.xO.yf 33.l1 T6 hI.f- nr sW 9d 2d gb z_ x_ ym `L +C oh.0# k4.o/.Ap tU Ps 6x qb %o 5# (* sd o] r! ;k ;8 B) $b Bc Kx ib..k.-q lf C6 :z Em oj =n !D.[E Xw.L#+,Q+'Q+)Q+!Q+Eg ZC.EI+|0.ND.~Q+gF b0 m[ RM ]++d! $^ 4n Mh 8d +j mm of @@ Jj Y4 PE.l..,+ L: c!.=} <c yF Y'.Ac S$ Ex UL /p dp.,m hw *$ VH 2l ua >p nx vu {Q+'&+}q+@s B2 FL hq Sq Yv Hq+]Q+^Q+/Q+f@ (Q+`G.8: cL r1 rd HL @< Y9+",
"L;.&a.[j P5 v!.;!.Mf.he 7i.09 x: S+ ~(  > yt.:@ _Q+:Q+<Q+[Q+`U.}Q+|Q+eo.Hg.ql.ai 1Q+2Q+]-.3Q+4Q+5Q+6Q+7Q+8Q+9Q+-f xX.0Q+BF S-.G%.O] NC.yD y)+1y B~ 7& X, 4j C. '{ +. X` aQ+bQ+Op+Uz+BD.I!+q>.lx Lv.V2.:b <' z_ T> O8 I) Oh =b vU.mc yy bx+9B+SB.cQ+dt+lB+dQ+6u+u4 )0.|g Q2 bG.a. D;.jc er K} ea <9 nx+-i+`v M..5w i1 >v 1_ 19+Cm ~^ r( Tj [k {s ;= P) ^L.0n #~ G< (2 j; )^ Yu :8+&{.eQ+fQ+gQ+(0+H9 <= )0 =1 FI b[ Nk+Sy lG+8F.%E+SV.px 6$+9I.5u O[+-q k! jj :d @$+]1 Y0 P2 t+ O+ :^ %b L( .p U7 Qj Cw Zj %m Pl hQ+Pl Rf ub g0 hd Wl *% Q3 ,: <& }A /= !; pp H, }@ (J v> }  v> 'O xw :k _] F' }! P8 P8 :k 7p K( 4_ iB *[ P0 Z: aj S= 8) <z 7N.'3.;l KW P]+]9 {'.o(.9I.@l >2 i~ -# iB b) Mb t_ %| '; QU Qs K@.%{.Kg 6x 72.y' /= y_ sd o] f} mo 0n r9 (l Ln $^ TG ~++d(.Xh c} F[  d Ja 6z.r>.>7 *z {3.8I iQ+jQ+xq.$X.yI+Oo |0.%E bm /9 <l v/ $b+q9.1d.Mh Ba 8x Ma aM.Mh Jj X4 p9.uO.^(+W' v;.kQ+a1 #;.Qf.pk 6w.Y] :l m/ m1.Xl (- ]q C2 46 VH n3 Yh >* eu :8+H4 Y!+Py+;^ %h !R -}.]4 ,) c# lQ+mQ+nQ+oQ+pQ+Pr (p gz lE +. D6 e-+{Q+",
":: 0M.g-+e1 jw z^.CM+>K+rK+jw pF Z).1t kI b8 ., e& qQ+^B GI.kN.rQ+sQ+tQ+uQ+#v.vQ+wQ+jb.xQ+34+yQ+[w+zQ+AQ+~A+ 7 bE %m+*Y.ok+;a 0^ A7 5).yD Ds.J} %' /~ -~.GU C. '{ Wf.%w.MB+BQ+'r+Pp+o(.:>+ H.O7+cw ap qp  ^ *$ i~ Gn.$9 d~ qv+Vy 3[ b> PB+CQ+DQ+EQ+FQ+Es+iw+&g+2q  Z Y, +j :#.~t za d|.GQ+Yw+HQ+IQ+JQ+`B+7Q 1w+hD+Fy @%++t k(+{k..p+Wh c[ L4 ^| A) >: G. 0n uM ZL t_ i{ U| gA Bu `v $w $A KQ+5F fu 1l [b 4  b} @%+]w Zj.lG+%O+NC+9S./:+62 +v S'.~F B-.9j ;*._> <: v[  ] uF 6& :| ]= ]= t+ I' -) Qj E,.%m %m {D %m Pl Rf Zj @i yl ~0 nn }5 ,: >: !5 t/ E3 N/ {y r/ r9 =: k; k; co x* G' c) C) S/ ~4 +C )2 P~ |v hn =[ F( 5} '= D' :z ~^ ={ LQ+V= Mj $f =2.>a+Pe+2a #< L%+&h r8 Wf.YW.y< d) <P `% C5+9F.;7 +w cc Bp 6x Qs nf ^= i~ B< :2 F) 4_ b{ 8) &$ o1  8 #A 7M.Em+>n J:.J4 Xk I7 HU IA+Is MQ+NQ+sF.d`.OQ+Eg eF uN+1T.tj ry Rr PQ+n3 Yh b9 kx O*+n6.rW b. Km dn.u9.|g wD t[ R2 /z -} 1~ f~.H` Qf.VY Cs+*^ xu.vb.-~.m1.bL Hn ]q !Q }* ~F &7 >p  C f{.du Q{ ,y+QQ+rF 3d :k R1 E2  . q)+sC+5b.RQ+SQ+`).b) |p.=y b) Ct +L ,r+,y+",
"E_.nf aF s8 .= Vo +i+  .SY n} 2@+8t.N@.gs Vf nf W+ [`.yt.oA.TQ+0B.UQ+VQ+>N tS._-+w-.m#.`` Ue+;z+jg+WQ+XQ+YQ+zn+F.+p>+vA vA Qm E~.]}.(H >y.G~.o; Q,.v-+dT o,.kr |_ q> 5G yi ZQ+)b.w2 w2 x2 _$+`Q+Nt.G, B-.n3 'q %0 Ux &7 SE.SC  R+%O+UR..R++R+@R+zu+#R+$R+0T.g7.qb m/ 5) =H.;^ K2 2| %R+$U.`B+&R+*R+=R+DE+93+,z+^6+3[ Jt+iF px @U.69 zB cF sU .. ^] ~N u` t$ w% 2g v| N+ %_.Vo 1^.~;+Y1+HK.-R+ ; #q lm ]( h{.I4 >[ 7a }a++7 JG+_A Jt+oD+ t 8} Vf 1l K].@n Mu m2.Mh $^ Q2 v[ <: wD 5& 5& d= .p [# 6z ub Pl s'. f. f.jH.Pl wq ~|.+i yl ow jz nq r].N5 an Tu !5 an >: S2 G( %/ Z< D^ z* Hw cL y% H  4u |  }  }  }  }  oi a  hw C2 r$ D. oj i}+fH w[ G6 Dg |;+Wv Qt+RE Ls @%+JU 9  A2 eZ WL p/ E) dz BO 9F.vu ;R+7C.cc dx 2s.~F P@ [f.`; wl ,D _^ Z  s( 4t rF $%+f| '&+oD+ND.DD 6t &7 jB `m 5u #l {F..J.7/+08+wU >9..8 HH.]{.&k.GL $s Yk s( 3{+6M.No yO.R0.#^ mm VL.e[+Km jd M$.2( mm ]( E/ 0j Kj B5 7w.|y F^.F^.^;.Jh+ s.3l {4 ;y+{4 W2 tA ~F ~F Vf n3 >* qb ,n.uw+d_.bh..l NJ 1k x| <* Br =p+>R+BD+xY.K2.W{ w8 !D OI ;t yU Z9+#s+",
"p( )^ 3d %h x$ sf U` ,R+C)+Cs.Qn+'R+uG.H@ S$+ob+3f *, Q> vE ps.TZ.6y.)R+!R+v) Hz.+_.E/.XO ~R+{R+]R+^R+/R+(R+_R+Y| !G.:R+ee Qm 3' 2~.<R+G~. >.UA XA d< A>.GS O| r$ X} CF 1x @%+[R+sl.{9+LU $P+K[+_$+Jy.G, J:.K4 5c jB 6t 5|.3n+FA+}R+kt+U}+|R+1R+2R+3R+TE+4R+6G.Vf _; dA+{K fu wt 5R+6R+`B+5V.7R+HB+8R+9R+2R+0R+OE+Cz+b@+03+O6+9T.r4 aR+gF $h q( v! ~N u` [K n! z{.MA 4# y9 _x Z6 CD HK.bR+xy ^].lm f~ e~ e~ du -s+cR+}a+dR+:A }a+j2 Em++v oI o}.PB CI ug.I4 /5 Wa a. .] ): Hf J9.@) P2 /: wJ P* ~m Sl wq hQ+ f.hQ+hQ+Zj Sl yl vb (e *% O) N5 N1 t3 s: Gw K+ ;d K+ }o.G( %/ ;{ r1 a) =[ =: L@ <% |  }  }  }  }  }  }  [  DH 8t h, IP IU OO+zH+<0 9z :D+:E+eR+fR+;E.x<.U8.6E.48+%k.*L *{ b  JO w> C5+sj L..7M.Om+dx !F !n o1 f  Db.NM NF Z` D< !{ Em ;j C-.rB.fo.gR+'&+4G./w T8.vk qr r| bh.]t 0[ NW  I+nF.xG [E +%+]{.3{+Zk EM Z:.QL V2 PL u> 7# VF.Eo w..G7 %D 6x Km :#.Kx #0 ]b ]i E1 <b [b hA OU 6; C++hK+C++d7.72.UO bM Hn >m 6* }* l'.-q Xh G,  n c. r=+<b+_6+:>+Xp e} Ll r= |_ ,) 7} Op+6b.GV.q>.T/ e. >, }s._H.hR+Gq+iR+",
"gt E( Lt p8 8w mk X1 1-.Re.h5 9x.jR+{w.El x,+~H+Zh 90 Ev aW.1b kR+k%+EG ps.Q7 F&+B^.lR+mR+dB+nR+c`.oR+pR+qR+zn+sl V;.+%.a~ !y.5i.v6 @x.I|.a( PE./h M= !w ~( Co `< +} Y} lf vS.+h @U.^F oD+8a 9a rR+iA +< Vf Xh qr UH qb 5|.XE+sR+FA+NC+UR.{R.*r+tp+^U.Jq+|F+]t J~.{S.dC.O7+8d U8 Ww.{3.#y+3F+tR+DE+ZE 4t+3v+}A.uR+h#+vR+wR+xR+6C+<D+5q+hD+UB q( -: ~N SG._' K< }P t: }- -] mm+yR+49 P>.Om+^n..^.$v %o WF.Hs ~o S*.xw+y~+p| Ap+TV.8~.ru $: iy.Yh ,q '^ nf iy.2s.K@.Fz m;.*).TG 6C mb.7b ~7 /: ${ rt @g hQ+zR+ S.0^+hQ++i |n vb _N+{0 ow wb =A F  K/ =/.r].Td ~s ,: jk D< G( /% '; B@ a) cL wK :% d@ }  }  }  }  }  }  }  <% }  A@ y[+JU ;n xG ]3.q*+AR+F[.BR+O9+Ey.dr MP+]X y2 ZG.]{.fV.e[ 8M oh.B^ sj 79  ; MA.L@.>7 vk >p Ux ,5 NM t> 17 k~ #/ fe.&L Wh T8.&t hD+w2 CR+!A d9 F*.A2 &$ xp Ca..J.IG+IG+oF.jE+MD.#s JU sj eZ EM /a ~^ hE `L Q1 `L Tp !v +;+#^ -7 ;v #] #%.|g 03 Oh 4  z} I1 L# Gx 6d l. lD.Fq NM+.-.72.)L  B sw+2C W2 3w Dd 72.nx >p #^ P[.qA+DR+oA+v~+Zk =< ;8 ^2 KA `: $j ll ER+x2 A2.#$ #  3I -)+FR+GR+HR+IR+",
"Yh &0 .. }@ 64 ;z 9m tO.%*.31 ^M M@.x9 R..GP.L<.Em )^ q( 5c .& hb+3# q= z} Bo sa sf /r m0+JR+KR+LR+MR+}D+H5..w.p).U] Nt {w.TA < .c^ VA 0H E| :$ }b ={.(7 }  [  y% h& T/ Sc.F0+LD.>9 !-+**+>9 -w Lg @w hm cF fq $s 4w _t.]c.49 S}.NR+na OR+PR+QR+YD+Ny+Jt+,o M0+_E v9 *u S{ ]: H` UW i| k[+0q+RR+$h+8E+SR+Au+vR+uR+uR+uh+TR+UR+x%+VR+XH+>x+[Z Tj r/ W  W  x| AH tk ,# $o c! gv+}x DA+Ca+VS.#h T{ n7 1K nr.Ap >9 w<+FU.Mp+fo.'w ~o @w F5 wa nx }p <* Z   q n).d(.u4 yy aK O<+$l B4.RM xj 01+)7 Hj >4 u!.0^+WR+XR+YR+^D wq <p vb (e ~0 ZR+]8 r].V  nq ~s =/.+p M9 1f r].,; D3 {^ |_ ;{ D^ r1 b) 8# e. d@ <% |  |  |  @  }  }  }  q8 ]h.rF MI+p| Ri p3.`R+ S+.S++S+px+06.@S+8a +H.8} ;t k4.7f |] Z1+|] sj nr @s S8.!n qb 8} Wh Y% PG /{.9b+#S+b  4u L@ P|.S3 <G+nO.+t+uu  )+RB mr rD.fw WB ]h.6w lq+4o W0+em wT.zG+@h 79 -n bN _J..C l; y* 0o !E 6B.Up S/ 6# }% kA n3 rW FI &[ g  1d >% N~ >D $~ g  Gf S-. +.$S+u, !-.6u pr >m )J..@ U; G, :E ;v l'.ro 7_.VS.cR+cR+l[+fz+8} Lt i; r= '( ;1 +^ {F xp >o #h O[+>o !s.Q{ S=.%S+&S+*S+",
"UH Dc p( )^ u.. s.du V) J` pa a8+jc x9  E b<+&~+!J+K`.;O HP =S+i}+I7 B2  q +!.Gf On+.+.-S+;S+>S+,S+'S+}D+[V.^o.Z& ge P5 l{.MG kQ+&@ 8& t[ 3g.+;+u9 eJ S+ }  |  |  [  [  (^+5w @s 2a /3.^F 3B fo.Qh+4G @w qF k3 $s 4w 9I.!F 3B )z+Jt+e| ro+Rp+)S+!S+@,.aR+8~.^5 eq :b h  go 0M.}h @d ~S+{S+TC+QS.|;+uB  j+Lv+]S+^S+/S+Cg+&Q+(S+|R+Gx+_S+M..%t R| {s h[ r/ E2 AH BH {N 3C *l Xz q0.dc Sy l2 wu hr Do $5 6~.!F ,o qs+7a Hr+,n.q)+PQ+J:.&< &< B-.(b Yp !( 0  g, aa 2^.km sW.]o |:+*w m;.Pc Oc .3 Bl .s Wn.OT.@p >I.:S+;C wq Id |n vb pt ow jz V  V  =/..S.g|.[5 mn Yf }5 >; I) I) @. &/ Z  7+ r1 P8 P8 =: k; ~4 +C 8# 8# -, c- A@ t~+%t ca P{ rB <S+N5.[S+}S+|S+1S+2S+3S+4S+_A+fx+o).oc+nr z2 g~.gw yA .f Mv+49++H..j Mv+uN+qr %w.&,+9b+tC ++.Mb |  |  |  w1.5S+x,+eE+bm ;^ $z -q $j WL B@ Sc.PU =z 8X.Pt+0F+no+6S+ex a. rF 4t n=+s( Am -k q/ OO s= l^ S/ SU U; u( Ec k3 Xk f  !; H5 CG I) *7  , Bc ]: E[.F# Ye+t$..6.7S+[].w! )J.Jn W2 ,A Ix ;^ >^ (|.!4.U6+[F+8S+9S+!^.#A ,A qq.w_ w_ p>  . th <Z ;7 K@.4h l2 [L I-.Y!+Zs 0S+8'.",
"ZK Y% >f CF F[ `Y Tx 8} #h V) Is >z Ah R..WI.20..%+y0 y&+20.||+)F.B2 B2 &$ cw DJ wA rW.aS+bS+cS+dS+eS+fS+*N+)C+_0 )9.gS+r!.C@+^D.(@ c$ 0D v&+Yp dC.H1.oi }  @  @  d@ Q= rj YC.1a S6 aR+^F ]w @U.-w ):./9 +H.Sr $s cw Uc mr B!. ]. ]. ].=w pa qu .E+a8+wU 2a dx bm Dd (|.#H v[ .g ru hS+iS+qA+zp A4 -r+(A )A+5B+jS+kS+vh+lS+mS+nS+dR oS+'V r>.nj u.... ]| ,# |O ;o G' j=.U4 fB+fH+Yo+Iq+S6 S'.fZ W{ MJ '!+~o s4 sj+t7+e-+7!.$j lf  C 8  8  I~.{F Yp Q0 w;+JU K..2^.n/+n/+pS+f].Dp #D !: Mc m9 <| 16 Ht .i g|.TD Xj Pl qS+<p Zf 6z Zf *% jz f0 r].=/.rS+}1.[5 ln tb K/ v! I) sb u! Ag 3/.fe.hE a  -k *: -k xw p/ k; In :% c- A@ `[+0E+fr NW sS+tS+uS+vS+wS+wS+xS+yS+zS+iq+cx+{g+L,.vT.GY +t `m A2 *j BI+I@ Rr Rr ll uN+wi.5t AS+BS+CS+y<+LQ+PL }  @  |  P|.{J.sG.2w+Jy.f~ Z] 2l r( 8M RI et _t.+G.4B }'.Pz+DS+4b+)o DY n8+ e ^9+$Y.*{ 8).Hn.+e bo Vp <] )v hr g~.$j lf 5c @l @l 0G+c} Y+ Y+ /= }* Tf *b ), Rh+L_ hA.Gr.}s.,m ES+]q yu G, Ix Hx _E G7 F, 49 FS+#u+GS+hh+dz+su +]+)w Wk Yv 6} rD.$<.^9 Js u4 Py+^N+f| /R.94+HS+IS+"};
