/* XPM */
static char * _WEST__xpm[] = {
"330 330 34461 3",
"   	c #7A7569",
".  	c #7A7567",
"+  	c #85806D",
"@  	c #918973",
"#  	c #9F967D",
"$  	c #A0947A",
"%  	c #AA9D80",
"&  	c #C6B89A",
"*  	c #CEBEA0",
"=  	c #CDBA9D",
"-  	c #C0AD8E",
";  	c #9F8B6A",
">  	c #8E7754",
",  	c #896F4D",
"'  	c #8C7453",
")  	c #8B775B",
"!  	c #8A7860",
"~  	c #81725D",
"{  	c #625544",
"]  	c #362A1F",
"^  	c #261E17",
"/  	c #201B17",
"(  	c #1E1918",
"_  	c #1A1416",
":  	c #1D1818",
"<  	c #191516",
"[  	c #0A0909",
"}  	c #000000",
"|  	c #080606",
"1  	c #1A1817",
"2  	c #211E1D",
"3  	c #1F1D1B",
"4  	c #242120",
"5  	c #363231",
"6  	c #484342",
"7  	c #4D4A48",
"8  	c #3F3C3A",
"9  	c #1E1B1A",
"0  	c #07070A",
"a  	c #0A0B0F",
"b  	c #101111",
"c  	c #1C150E",
"d  	c #402814",
"e  	c #5C3714",
"f  	c #64390F",
"g  	c #613910",
"h  	c #5A3814",
"i  	c #52371A",
"j  	c #59442D",
"k  	c #746350",
"l  	c #887A66",
"m  	c #8A7D6A",
"n  	c #837768",
"o  	c #9B9080",
"p  	c #B4A997",
"q  	c #B9AD9A",
"r  	c #BAAE9B",
"s  	c #C5BAA7",
"t  	c #CBC1AF",
"u  	c #C8BDAC",
"v  	c #C0B5A6",
"w  	c #B1A89B",
"x  	c #ADA497",
"y  	c #968D82",
"z  	c #6F685D",
"A  	c #605952",
"B  	c #534D48",
"C  	c #3C3634",
"D  	c #322E2C",
"E  	c #302D2C",
"F  	c #272425",
"G  	c #121214",
"H  	c #030305",
"I  	c #030306",
"J  	c #0B0A0D",
"K  	c #1A181B",
"L  	c #2C292B",
"M  	c #332F2F",
"N  	c #36302F",
"O  	c #4F4843",
"P  	c #7D756C",
"Q  	c #8F857B",
"R  	c #948A80",
"S  	c #91887E",
"T  	c #958C82",
"U  	c #8A8179",
"V  	c #736B63",
"W  	c #504A44",
"X  	c #3B3732",
"Y  	c #2A2725",
"Z  	c #2B2826",
"`  	c #292525",
" . 	c #1F1D1E",
".. 	c #151513",
"+. 	c #181910",
"@. 	c #212414",
"#. 	c #272D16",
"$. 	c #232815",
"%. 	c #1E2215",
"&. 	c #141713",
"*. 	c #111313",
"=. 	c #0E1011",
"-. 	c #1F201D",
";. 	c #4E4C43",
">. 	c #7D7669",
",. 	c #8C7E6E",
"'. 	c #796C5E",
"). 	c #64594A",
"!. 	c #605546",
"~. 	c #605547",
"{. 	c #5B5044",
"]. 	c #4D443B",
"^. 	c #443E35",
"/. 	c #484139",
"(. 	c #5C534A",
"_. 	c #6D6359",
":. 	c #756C5F",
"<. 	c #72695C",
"[. 	c #6D6658",
"}. 	c #696054",
"|. 	c #6F6559",
"1. 	c #746B5F",
"2. 	c #726A5F",
"3. 	c #5B574B",
"4. 	c #454035",
"5. 	c #3E382F",
"6. 	c #423B32",
"7. 	c #473E36",
"8. 	c #4D463C",
"9. 	c #4D453D",
"0. 	c #4E463E",
"a. 	c #473F39",
"b. 	c #413A33",
"c. 	c #3A332C",
"d. 	c #453D34",
"e. 	c #655A50",
"f. 	c #7A6E65",
"g. 	c #71675F",
"h. 	c #453C36",
"i. 	c #1B1512",
"j. 	c #110D0D",
"k. 	c #181515",
"l. 	c #282322",
"m. 	c #2D2825",
"n. 	c #282220",
"o. 	c #24201D",
"p. 	c #221D1A",
"q. 	c #26221D",
"r. 	c #2D2724",
"s. 	c #403C37",
"t. 	c #4E4845",
"u. 	c #56504A",
"v. 	c #4C4541",
"w. 	c #423935",
"x. 	c #3E3731",
"y. 	c #3A3430",
"z. 	c #211D1B",
"A. 	c #070606",
"B. 	c #090807",
"C. 	c #060505",
"D. 	c #010003",
"E. 	c #0E0E12",
"F. 	c #17171A",
"G. 	c #161417",
"H. 	c #181619",
"I. 	c #171617",
"J. 	c #100F0F",
"K. 	c #1B1817",
"L. 	c #3A3532",
"M. 	c #45403B",
"N. 	c #433D37",
"O. 	c #46413A",
"P. 	c #453F38",
"Q. 	c #48433B",
"R. 	c #484239",
"S. 	c #484137",
"T. 	c #443D33",
"U. 	c #473F36",
"V. 	c #473E37",
"W. 	c #37302A",
"X. 	c #140F10",
"Y. 	c #151111",
"Z. 	c #161111",
"`. 	c #141010",
" + 	c #151112",
".+ 	c #141112",
"++ 	c #171415",
"@+ 	c #181416",
"#+ 	c #1D191A",
"$+ 	c #1F1B1C",
"%+ 	c #201B1C",
"&+ 	c #1E191A",
"*+ 	c #1C1818",
"=+ 	c #211C1E",
"-+ 	c #474143",
";+ 	c #5F5A58",
">+ 	c #615B55",
",+ 	c #686058",
"'+ 	c #837B70",
")+ 	c #897E74",
"!+ 	c #6B625A",
"~+ 	c #453E36",
"{+ 	c #3D3632",
"]+ 	c #3E3936",
"^+ 	c #1B191A",
"/+ 	c #040306",
"(+ 	c #060609",
"_+ 	c #0F1014",
":+ 	c #0C0E10",
"<+ 	c #0A0A0B",
"[+ 	c #161414",
"}+ 	c #2C2825",
"|+ 	c #39332D",
"1+ 	c #443B34",
"2+ 	c #5B4E46",
"3+ 	c #6D5E53",
"4+ 	c #7B6A5C",
"5+ 	c #7B6C5C",
"6+ 	c #716455",
"7+ 	c #584E42",
"8+ 	c #403932",
"9+ 	c #68615C",
"0+ 	c #726C65",
"a+ 	c #6E6760",
"b+ 	c #686159",
"c+ 	c #665E58",
"d+ 	c #6D645E",
"e+ 	c #6F6560",
"f+ 	c #6F6760",
"g+ 	c #58534D",
"h+ 	c #2F2C2A",
"i+ 	c #120F10",
"j+ 	c #0E0A0A",
"k+ 	c #211A17",
"l+ 	c #413632",
"m+ 	c #5D504A",
"n+ 	c #695D55",
"o+ 	c #6E6159",
"p+ 	c #6D635B",
"q+ 	c #5B544F",
"r+ 	c #4A4C45",
"s+ 	c #3E443C",
"t+ 	c #3D4139",
"u+ 	c #393A33",
"v+ 	c #32362C",
"w+ 	c #1C211B",
"x+ 	c #0F1410",
"y+ 	c #080C08",
"z+ 	c #11150A",
"A+ 	c #293217",
"B+ 	c #424F21",
"C+ 	c #485720",
"D+ 	c #526123",
"E+ 	c #616C29",
"F+ 	c #747E33",
"G+ 	c #707B30",
"H+ 	c #5B6725",
"I+ 	c #48561F",
"J+ 	c #445521",
"K+ 	c #405020",
"L+ 	c #445124",
"M+ 	c #444C23",
"N+ 	c #4A4E27",
"O+ 	c #454423",
"P+ 	c #383115",
"Q+ 	c #31220D",
"R+ 	c #34210F",
"S+ 	c #351F0D",
"T+ 	c #37210C",
"U+ 	c #34200A",
"V+ 	c #2C2208",
"W+ 	c #2D2F0B",
"X+ 	c #374212",
"Y+ 	c #384711",
"Z+ 	c #394911",
"`+ 	c #3A4812",
" @ 	c #3B4A13",
".@ 	c #3D4B15",
"+@ 	c #414E19",
"@@ 	c #44511D",
"#@ 	c #434F1E",
"$@ 	c #404A1C",
"%@ 	c #45511F",
"&@ 	c #444D1D",
"*@ 	c #44491C",
"=@ 	c #4F4929",
"-@ 	c #6F5F4E",
";@ 	c #806C62",
">@ 	c #887468",
",@ 	c #847165",
"'@ 	c #817463",
")@ 	c #807869",
"!@ 	c #8C8378",
"~@ 	c #93887E",
"{@ 	c #948C7F",
"]@ 	c #91887D",
"^@ 	c #94897F",
"/@ 	c #988D81",
"(@ 	c #8F867B",
"_@ 	c #635B54",
":@ 	c #302A25",
"<@ 	c #2B2622",
"[@ 	c #3B3630",
"}@ 	c #5B524B",
"|@ 	c #797066",
"1@ 	c #767063",
"2@ 	c #655E53",
"3@ 	c #605A51",
"4@ 	c #635D54",
"5@ 	c #625C51",
"6@ 	c #6D6558",
"7@ 	c #777063",
"8@ 	c #746F63",
"9@ 	c #746E61",
"0@ 	c #807B67",
"a@ 	c #8B826D",
"b@ 	c #999075",
"c@ 	c #9B9075",
"d@ 	c #A69A7D",
"e@ 	c #C3B597",
"f@ 	c #CDBD9F",
"g@ 	c #CBB99A",
"h@ 	c #C1AE8E",
"i@ 	c #A28D6D",
"j@ 	c #907855",
"k@ 	c #8B6F4A",
"l@ 	c #907652",
"m@ 	c #8C7959",
"n@ 	c #88795C",
"o@ 	c #796B52",
"p@ 	c #5E533B",
"q@ 	c #392C1D",
"r@ 	c #2F2419",
"s@ 	c #2D241D",
"t@ 	c #27201D",
"u@ 	c #1D1717",
"v@ 	c #1E1818",
"w@ 	c #1A1616",
"x@ 	c #000001",
"y@ 	c #1A1818",
"z@ 	c #201D1B",
"A@ 	c #242220",
"B@ 	c #312F2D",
"C@ 	c #413E3C",
"D@ 	c #464341",
"E@ 	c #3C3837",
"F@ 	c #1D1B19",
"G@ 	c #08090B",
"H@ 	c #0B0C0F",
"I@ 	c #111112",
"J@ 	c #1C1610",
"K@ 	c #372613",
"L@ 	c #503314",
"M@ 	c #5D3814",
"N@ 	c #5A3611",
"O@ 	c #553616",
"P@ 	c #4C341B",
"Q@ 	c #52402B",
"R@ 	c #675B48",
"S@ 	c #7B6F5C",
"T@ 	c #7A705D",
"U@ 	c #746A5C",
"V@ 	c #8A8172",
"W@ 	c #A49A88",
"X@ 	c #A89C89",
"Y@ 	c #ACA08D",
"Z@ 	c #BFB3A1",
"`@ 	c #CABFAD",
" # 	c #C7BDAB",
".# 	c #BCB3A3",
"+# 	c #ABA295",
"@# 	c #A59E91",
"## 	c #8F887C",
"$# 	c #6E675C",
"%# 	c #625C54",
"&# 	c #544F48",
"*# 	c #3C3733",
"=# 	c #312D2B",
"-# 	c #2F2D2C",
";# 	c #262425",
"># 	c #111113",
",# 	c #0A090C",
"'# 	c #19181A",
")# 	c #292729",
"!# 	c #302D2D",
"~# 	c #49423D",
"{# 	c #726B61",
"]# 	c #82786E",
"^# 	c #877E73",
"/# 	c #857B71",
"(# 	c #8B8378",
"_# 	c #827B71",
":# 	c #716B61",
"<# 	c #58534C",
"[# 	c #48443E",
"}# 	c #383430",
"|# 	c #312F2A",
"1# 	c #292524",
"2# 	c #252322",
"3# 	c #1F1D1C",
"4# 	c #1E1F18",
"5# 	c #212218",
"6# 	c #25281B",
"7# 	c #222318",
"8# 	c #1F2118",
"9# 	c #1B1C18",
"0# 	c #242421",
"a# 	c #292825",
"b# 	c #36342D",
"c# 	c #555145",
"d# 	c #7A7363",
"e# 	c #857A68",
"f# 	c #766A5A",
"g# 	c #625848",
"h# 	c #615646",
"i# 	c #655B4A",
"j# 	c #62584A",
"k# 	c #52493F",
"l# 	c #413C33",
"m# 	c #3E3A33",
"n# 	c #4C453E",
"o# 	c #585046",
"p# 	c #5A5247",
"q# 	c #574E45",
"r# 	c #574F46",
"s# 	c #574E46",
"t# 	c #5E564C",
"u# 	c #635C51",
"v# 	c #665F54",
"w# 	c #5C554A",
"x# 	c #4F493E",
"y# 	c #4D473A",
"z# 	c #4F483C",
"A# 	c #51483D",
"B# 	c #574F43",
"C# 	c #564E43",
"D# 	c #554E43",
"E# 	c #4D463E",
"F# 	c #453F37",
"G# 	c #3E3830",
"H# 	c #4A4339",
"I# 	c #696055",
"J# 	c #82776B",
"K# 	c #7C7368",
"L# 	c #534B44",
"M# 	c #241E1B",
"N# 	c #1A1615",
"O# 	c #221F1E",
"P# 	c #302C2A",
"Q# 	c #322D2A",
"R# 	c #332D29",
"S# 	c #2C2622",
"T# 	c #2D2822",
"U# 	c #302A23",
"V# 	c #322C25",
"W# 	c #342F28",
"X# 	c #423D36",
"Y# 	c #4D4742",
"Z# 	c #534F48",
"`# 	c #48433E",
" $ 	c #3D3631",
".$ 	c #39332E",
"+$ 	c #36312D",
"@$ 	c #211E1C",
"#$ 	c #0E0C0C",
"$$ 	c #0B0A0A",
"%$ 	c #0E0C0B",
"&$ 	c #090708",
"*$ 	c #100F13",
"=$ 	c #19181B",
"-$ 	c #181719",
";$ 	c #1B1A1B",
">$ 	c #1B1A1A",
",$ 	c #151414",
"'$ 	c #1D1B1A",
")$ 	c #3A3633",
"!$ 	c #45423D",
"~$ 	c #44403A",
"{$ 	c #47423B",
"]$ 	c #4B473D",
"^$ 	c #4C473D",
"/$ 	c #4C453A",
"($ 	c #484036",
"_$ 	c #4B433A",
":$ 	c #4C443B",
"<$ 	c #3B342C",
"[$ 	c #1E1914",
"}$ 	c #171211",
"|$ 	c #181312",
"1$ 	c #1A1613",
"2$ 	c #1A1513",
"3$ 	c #191513",
"4$ 	c #181413",
"5$ 	c #191615",
"6$ 	c #1C1718",
"7$ 	c #1D1819",
"8$ 	c #1D1919",
"9$ 	c #1E1A1A",
"0$ 	c #231F20",
"a$ 	c #413E3F",
"b$ 	c #53514E",
"c$ 	c #56514C",
"d$ 	c #615A54",
"e$ 	c #80786E",
"f$ 	c #847B6F",
"g$ 	c #665E52",
"h$ 	c #453C33",
"i$ 	c #413832",
"j$ 	c #413A35",
"k$ 	c #332E2C",
"l$ 	c #191717",
"m$ 	c #040406",
"n$ 	c #06070A",
"o$ 	c #111215",
"p$ 	c #0D0F11",
"q$ 	c #0C0C0D",
"r$ 	c #191817",
"s$ 	c #2E2A27",
"t$ 	c #39342E",
"u$ 	c #443D35",
"v$ 	c #564C43",
"w$ 	c #65574D",
"x$ 	c #6F6055",
"y$ 	c #6C5E4F",
"z$ 	c #665B4A",
"A$ 	c #5C5144",
"B$ 	c #5B5146",
"C$ 	c #5B5248",
"D$ 	c #60594E",
"E$ 	c #666057",
"F$ 	c #6B665D",
"G$ 	c #6A635B",
"H$ 	c #675F58",
"I$ 	c #6D655D",
"J$ 	c #706761",
"K$ 	c #706860",
"L$ 	c #5E5750",
"M$ 	c #3E3935",
"N$ 	c #2B2623",
"O$ 	c #2A2520",
"P$ 	c #373029",
"Q$ 	c #50463E",
"R$ 	c #675B53",
"S$ 	c #75685F",
"T$ 	c #796C63",
"U$ 	c #736A61",
"V$ 	c #56514A",
"W$ 	c #3F413A",
"X$ 	c #363C34",
"Y$ 	c #3A4036",
"Z$ 	c #3C3E34",
"`$ 	c #373B2E",
" % 	c #252C21",
".% 	c #1D2419",
"+% 	c #192014",
"@% 	c #202713",
"#% 	c #2D3718",
"$% 	c #3C4A1E",
"%% 	c #40501C",
"&% 	c #515F22",
"*% 	c #6B7730",
"=% 	c #7D8738",
"-% 	c #778033",
";% 	c #616B28",
">% 	c #4D5921",
",% 	c #475621",
"'% 	c #445222",
")% 	c #465324",
"!% 	c #434F21",
"~% 	c #454F22",
"{% 	c #40461D",
"]% 	c #363613",
"^% 	c #332D10",
"/% 	c #362D11",
"(% 	c #382B10",
"_% 	c #3A2B0F",
":% 	c #35270B",
"<% 	c #2F2909",
"[% 	c #31350E",
"}% 	c #3C4815",
"|% 	c #3D4C15",
"1% 	c #3E4D15",
"2% 	c #3E4C15",
"3% 	c #3F4D15",
"4% 	c #3F4E16",
"5% 	c #424F1A",
"6% 	c #46531E",
"7% 	c #44501E",
"8% 	c #404B1B",
"9% 	c #44521E",
"0% 	c #45501C",
"a% 	c #474D1C",
"b% 	c #504C25",
"c% 	c #6B5B43",
"d% 	c #7C6556",
"e% 	c #866E5D",
"f% 	c #7F6857",
"g% 	c #786852",
"h% 	c #7E7561",
"i% 	c #90877A",
"j% 	c #958B80",
"k% 	c #948A7E",
"l% 	c #8A8176",
"m% 	c #857B70",
"n% 	c #867B70",
"o% 	c #8E8376",
"p% 	c #91867A",
"q% 	c #736960",
"r% 	c #4A423B",
"s% 	c #4C453D",
"t% 	c #5C544B",
"u% 	c #675E54",
"v% 	c #70665D",
"w% 	c #797064",
"x% 	c #6B6255",
"y% 	c #60574D",
"z% 	c #615951",
"A% 	c #645E55",
"B% 	c #655E54",
"C% 	c #72695D",
"D% 	c #7D7367",
"E% 	c #5B5448",
"F% 	c #5C5448",
"G% 	c #6E6552",
"H% 	c #7D705B",
"I% 	c #8B7E65",
"J% 	c #8E8166",
"K% 	c #9C8F72",
"L% 	c #BDAE90",
"M% 	c #C8B799",
"N% 	c #C7B597",
"O% 	c #C3B090",
"P% 	c #AF9A79",
"Q% 	c #9F8763",
"R% 	c #947952",
"S% 	c #89724C",
"T% 	c #7A694A",
"U% 	c #726647",
"V% 	c #65563A",
"W% 	c #55462C",
"X% 	c #44321E",
"Y% 	c #3E2D1E",
"Z% 	c #3D2D22",
"`% 	c #312521",
" & 	c #1F1716",
".& 	c #1C1616",
"+& 	c #191515",
"@& 	c #090909",
"#& 	c #171515",
"$& 	c #1D1A19",
"%& 	c #1D1918",
"&& 	c #24201E",
"*& 	c #282423",
"=& 	c #35312F",
"-& 	c #393533",
";& 	c #312D2C",
">& 	c #191616",
",& 	c #070709",
"'& 	c #0A0B0E",
")& 	c #121314",
"!& 	c #171411",
"~& 	c #281E12",
"{& 	c #362513",
"]& 	c #412A15",
"^& 	c #432B13",
"/& 	c #442F18",
"(& 	c #422F1F",
"_& 	c #463829",
":& 	c #52473A",
"<& 	c #5B5245",
"[& 	c #71675A",
"}& 	c #8C8170",
"|& 	c #938775",
"1& 	c #9B8E7C",
"2& 	c #B8AA9A",
"3& 	c #C6B9A9",
"4& 	c #C3B7A6",
"5& 	c #B6AB9D",
"6& 	c #9D9488",
"7& 	c #92897F",
"8& 	c #81796D",
"9& 	c #676055",
"0& 	c #635C55",
"a& 	c #3B3532",
"b& 	c #302B2A",
"c& 	c #2E2B2A",
"d& 	c #232222",
"e& 	c #100F11",
"f& 	c #030205",
"g& 	c #030206",
"h& 	c #09080C",
"i& 	c #171519",
"j& 	c #222023",
"k& 	c #282526",
"l& 	c #272323",
"m& 	c #38312F",
"n& 	c #544D46",
"o& 	c #5B534C",
"p& 	c #5F574F",
"q& 	c #60574F",
"r& 	c #6A6459",
"s& 	c #6B655A",
"t& 	c #696359",
"u& 	c #5F5952",
"v& 	c #59534E",
"w& 	c #494540",
"x& 	c #37342F",
"y& 	c #272421",
"z& 	c #262423",
"A& 	c #221F1F",
"B& 	c #1B1B18",
"C& 	c #131311",
"D& 	c #141612",
"E& 	c #12120F",
"F& 	c #151410",
"G& 	c #24221F",
"H& 	c #44423C",
"I& 	c #554F48",
"J& 	c #5A544A",
"K& 	c #635B4E",
"L& 	c #726959",
"M& 	c #766B5B",
"N& 	c #6A6051",
"O& 	c #605646",
"P& 	c #645A4A",
"Q& 	c #6A5F50",
"R& 	c #675C4F",
"S& 	c #524A41",
"T& 	c #38352F",
"U& 	c #32302B",
"V& 	c #3B3731",
"W& 	c #48433C",
"X& 	c #504841",
"Y& 	c #524B44",
"Z& 	c #504842",
"`& 	c #514B42",
" * 	c #514C42",
".* 	c #555045",
"+* 	c #585246",
"@* 	c #635C4E",
"#* 	c #6B6355",
"$* 	c #696153",
"%* 	c #5F5749",
"&* 	c #5A5145",
"** 	c #5A5246",
"=* 	c #575146",
"-* 	c #4C463E",
";* 	c #443E38",
">* 	c #3E3831",
",* 	c #474038",
"'* 	c #645C53",
")* 	c #786F65",
"!* 	c #766C63",
"~* 	c #564B46",
"{* 	c #302724",
"]* 	c #2D2826",
"^* 	c #393331",
"/* 	c #3C3531",
"(* 	c #3D3630",
"_* 	c #373129",
":* 	c #3A332A",
"<* 	c #413930",
"[* 	c #3F382F",
"}* 	c #383129",
"|* 	c #39332B",
"1* 	c #3B3631",
"2* 	c #3F3B36",
"3* 	c #37332F",
"4* 	c #2F2A27",
"5* 	c #2B2523",
"6* 	c #2C2725",
"7* 	c #211E1B",
"8* 	c #171514",
"9* 	c #151313",
"0* 	c #100D0E",
"a* 	c #100D12",
"b* 	c #1A191B",
"c* 	c #191719",
"d* 	c #232020",
"e* 	c #1F1E1D",
"f* 	c #232121",
"g* 	c #343330",
"h* 	c #3E3D39",
"i* 	c #403E3A",
"j* 	c #43403B",
"k* 	c #434039",
"l* 	c #4A463D",
"m* 	c #4D473C",
"n* 	c #4B4438",
"o* 	c #463E32",
"p* 	c #484035",
"q* 	c #494137",
"r* 	c #39322A",
"s* 	c #221D17",
"t* 	c #1D1815",
"u* 	c #221C1A",
"v* 	c #26201C",
"w* 	c #25201A",
"x* 	c #26211C",
"y* 	c #25201C",
"z* 	c #221E1B",
"A* 	c #1F1C1C",
"B* 	c #1D191B",
"C* 	c #1F1B1B",
"D* 	c #221D1F",
"E* 	c #2E2B2D",
"F* 	c #353433",
"G* 	c #3A3634",
"H* 	c #4B4341",
"I* 	c #69615A",
"J* 	c #72695E",
"K* 	c #63594D",
"L* 	c #4F443A",
"M* 	c #4B4239",
"N* 	c #423B35",
"O* 	c #151213",
"P* 	c #020204",
"Q* 	c #101215",
"R* 	c #181716",
"S* 	c #2C2A26",
"T* 	c #36322C",
"U* 	c #38322D",
"V* 	c #4B3E39",
"W* 	c #50443B",
"X* 	c #514639",
"Y* 	c #605545",
"Z* 	c #7D7061",
"`* 	c #8D8272",
" = 	c #897E6F",
".= 	c #7C7364",
"+= 	c #6C6558",
"@= 	c #676057",
"#= 	c #655E56",
"$= 	c #675F57",
"%= 	c #665E57",
"&= 	c #6A625B",
"*= 	c #6D635D",
"== 	c #696157",
"-= 	c #5D564F",
";= 	c #59504B",
">= 	c #5C544C",
",= 	c #625950",
"'= 	c #71665B",
")= 	c #7B6E64",
"!= 	c #86776D",
"~= 	c #887A70",
"{= 	c #7A7067",
"]= 	c #545047",
"^= 	c #383A32",
"/= 	c #31382F",
"(= 	c #363C31",
"_= 	c #3B3E2E",
":= 	c #3F452F",
"<= 	c #3A422D",
"[= 	c #3B442E",
"}= 	c #3A432A",
"|= 	c #3B4527",
"1= 	c #384120",
"2= 	c #37451A",
"3= 	c #3A4919",
"4= 	c #4F5C22",
"5= 	c #727D36",
"6= 	c #878E41",
"7= 	c #858B3F",
"8= 	c #717935",
"9= 	c #5D672D",
"0= 	c #54612B",
"a= 	c #4B5726",
"b= 	c #465222",
"c= 	c #414D1E",
"d= 	c #3F4A1C",
"e= 	c #3E481A",
"f= 	c #3E4419",
"g= 	c #40421B",
"h= 	c #43441C",
"i= 	c #44411B",
"j= 	c #443F1A",
"k= 	c #3E3814",
"l= 	c #37370F",
"m= 	c #3C4415",
"n= 	c #495520",
"o= 	c #4A5920",
"p= 	c #4B5920",
"q= 	c #48561D",
"r= 	c #47551C",
"s= 	c #44521A",
"t= 	c #47531E",
"u= 	c #45511E",
"v= 	c #414E1B",
"w= 	c #3C4818",
"x= 	c #414F1C",
"y= 	c #4A501F",
"z= 	c #4E4B22",
"A= 	c #5A4C2F",
"B= 	c #5D4734",
"C= 	c #634A38",
"D= 	c #5F4731",
"E= 	c #5B482F",
"F= 	c #716450",
"G= 	c #8F8578",
"H= 	c #948981",
"I= 	c #6A6358",
"J= 	c #665D52",
"K= 	c #756C60",
"L= 	c #81776B",
"M= 	c #6F665C",
"N= 	c #5A5148",
"O= 	c #6A6158",
"P= 	c #7D7468",
"Q= 	c #857D6E",
"R= 	c #857A6D",
"S= 	c #807768",
"T= 	c #70675A",
"U= 	c #6A6156",
"V= 	c #6B645A",
"W= 	c #70695F",
"X= 	c #746D61",
"Y= 	c #80776A",
"Z= 	c #857B6E",
"`= 	c #4F473C",
" - 	c #4E463A",
".- 	c #645A49",
"+- 	c #796C56",
"@- 	c #86775F",
"#- 	c #8A7C61",
"$- 	c #998B6E",
"%- 	c #B9AA8C",
"&- 	c #C5B697",
"*- 	c #C6B496",
"=- 	c #C5B393",
"-- 	c #BBA786",
";- 	c #AE9673",
">- 	c #9B825A",
",- 	c #745F3B",
"'- 	c #504227",
")- 	c #4A3E25",
"!- 	c #473720",
"~- 	c #4B3720",
"{- 	c #48311C",
"]- 	c #462E1C",
"^- 	c #442D20",
"/- 	c #362621",
"(- 	c #211816",
"_- 	c #1E1717",
":- 	c #050303",
"<- 	c #161312",
"[- 	c #1B1716",
"}- 	c #282320",
"|- 	c #302B29",
"1- 	c #2B2624",
"2- 	c #171312",
"3- 	c #050608",
"4- 	c #09090C",
"5- 	c #0F1011",
"6- 	c #131111",
"7- 	c #191411",
"8- 	c #1C140D",
"9- 	c #241910",
"0- 	c #2C2115",
"a- 	c #3A2D22",
"b- 	c #3D3129",
"c- 	c #433930",
"d- 	c #473E35",
"e- 	c #534A3F",
"f- 	c #55493E",
"g- 	c #544A3F",
"h- 	c #685E52",
"i- 	c #867A6A",
"j- 	c #8F8270",
"k- 	c #998B78",
"l- 	c #B9AB99",
"m- 	c #CABDAB",
"n- 	c #C7BBA9",
"o- 	c #B7AB9C",
"p- 	c #968C7F",
"q- 	c #897F74",
"r- 	c #7B7166",
"s- 	c #696156",
"t- 	c #69625A",
"u- 	c #564F4A",
"v- 	c #3A3330",
"w- 	c #2D2A29",
"x- 	c #232122",
"y- 	c #0F0E11",
"z- 	c #1E1D1F",
"A- 	c #212022",
"B- 	c #211F20",
"C- 	c #2E2929",
"D- 	c #413B36",
"E- 	c #433E37",
"F- 	c #474039",
"G- 	c #575148",
"H- 	c #615A51",
"I- 	c #69635A",
"J- 	c #67615A",
"K- 	c #656058",
"L- 	c #54504A",
"M- 	c #3C3833",
"N- 	c #24211E",
"O- 	c #1D1A1A",
"P- 	c #1B1818",
"Q- 	c #11100F",
"R- 	c #050405",
"S- 	c #040405",
"T- 	c #020203",
"U- 	c #2B2926",
"V- 	c #59554E",
"W- 	c #6C6458",
"X- 	c #6C6557",
"Y- 	c #675D50",
"Z- 	c #685F51",
"`- 	c #675F50",
" ; 	c #665E4E",
".; 	c #655B4B",
"+; 	c #706555",
"@; 	c #746A5A",
"#; 	c #6E6557",
"$; 	c #524C42",
"%; 	c #36332D",
"&; 	c #2B2A25",
"*; 	c #403C36",
"=; 	c #4C4640",
"-; 	c #514B43",
";; 	c #544E46",
">; 	c #514B41",
",; 	c #4E493F",
"'; 	c #514C41",
"); 	c #5A5448",
"!; 	c #726A5C",
"~; 	c #827968",
"{; 	c #7F7766",
"]; 	c #686050",
"^; 	c #595144",
"/; 	c #574E43",
"(; 	c #554E44",
"_; 	c #4D463D",
":; 	c #453E37",
"<; 	c #403931",
"[; 	c #463F36",
"}; 	c #625951",
"|; 	c #635951",
"1; 	c #524843",
"2; 	c #3A322E",
"3; 	c #352E2B",
"4; 	c #38322F",
"5; 	c #443E39",
"6; 	c #443D38",
"7; 	c #3F3930",
"8; 	c #433B31",
"9; 	c #4B4338",
"0; 	c #393228",
"a; 	c #2C251E",
"b; 	c #27231F",
"c; 	c #231E1C",
"d; 	c #231D1C",
"e; 	c #221D1C",
"f; 	c #262220",
"g; 	c #221F1D",
"h; 	c #201D1C",
"i; 	c #1E1C1C",
"j; 	c #201C1D",
"k; 	c #151212",
"l; 	c #010101",
"m; 	c #121013",
"n; 	c #1E1C1E",
"o; 	c #262324",
"p; 	c #2B2828",
"q; 	c #272525",
"r; 	c #282625",
"s; 	c #2D2B29",
"t; 	c #31312F",
"u; 	c #32312F",
"v; 	c #373632",
"w; 	c #3C3933",
"x; 	c #464138",
"y; 	c #4A4238",
"z; 	c #443B2E",
"A; 	c #393021",
"B; 	c #372C1F",
"C; 	c #342B1F",
"D; 	c #2C231A",
"E; 	c #211A13",
"F; 	c #211B16",
"G; 	c #28211C",
"H; 	c #2F271F",
"I; 	c #332C22",
"J; 	c #373027",
"K; 	c #342E27",
"L; 	c #2A2521",
"M; 	c #1E1919",
"N; 	c #1C191A",
"O; 	c #1D1A1B",
"P; 	c #262222",
"Q; 	c #231E1F",
"R; 	c #242121",
"S; 	c #222121",
"T; 	c #2B2927",
"U; 	c #5B564F",
"V; 	c #635A4F",
"W; 	c #5A4F45",
"X; 	c #48413A",
"Y; 	c #2D2925",
"Z; 	c #131517",
"`; 	c #0A0B0B",
" > 	c #161513",
".> 	c #25211F",
"+> 	c #292521",
"@> 	c #292320",
"#> 	c #322A27",
"$> 	c #392F2A",
"%> 	c #3F342C",
"&> 	c #473B31",
"*> 	c #685B4E",
"=> 	c #928775",
"-> 	c #A39984",
";> 	c #9D937E",
">> 	c #8B8270",
",> 	c #71695B",
"'> 	c #665F56",
")> 	c #696159",
"!> 	c #6A615A",
"~> 	c #6D645D",
"{> 	c #6E645D",
"]> 	c #71675E",
"^> 	c #72685E",
"/> 	c #736861",
"(> 	c #746862",
"_> 	c #796D64",
":> 	c #81756A",
"<> 	c #84776C",
"[> 	c #8B7D72",
"}> 	c #8F8176",
"|> 	c #7F756A",
"1> 	c #575248",
"2> 	c #3B3C34",
"3> 	c #363B32",
"4> 	c #3C4132",
"5> 	c #3F442C",
"6> 	c #484E2F",
"7> 	c #4A5031",
"8> 	c #4F5434",
"9> 	c #4D5330",
"0> 	c #4B542E",
"a> 	c #404924",
"b> 	c #38451B",
"c> 	c #394818",
"d> 	c #526024",
"e> 	c #7A873D",
"f> 	c #949C4B",
"g> 	c #93984A",
"h> 	c #828842",
"i> 	c #6D773A",
"j> 	c #616D34",
"k> 	c #535F2C",
"l> 	c #475422",
"m> 	c #3E4B1A",
"n> 	c #3E4A1A",
"o> 	c #464F1F",
"p> 	c #485021",
"q> 	c #4C5323",
"r> 	c #4B5022",
"s> 	c #4C4D21",
"t> 	c #444519",
"u> 	c #3E4113",
"v> 	c #454E1C",
"w> 	c #55632B",
"x> 	c #57662C",
"y> 	c #56662A",
"z> 	c #526126",
"A> 	c #4F5E23",
"B> 	c #49581E",
"C> 	c #475520",
"D> 	c #3E4C1A",
"E> 	c #3A4616",
"F> 	c #404C1B",
"G> 	c #48531F",
"H> 	c #4F5724",
"I> 	c #514F26",
"J> 	c #4C4125",
"K> 	c #3E2E1B",
"L> 	c #402C18",
"M> 	c #422C12",
"N> 	c #4A371C",
"O> 	c #6D5F4C",
"P> 	c #92887E",
"Q> 	c #998E85",
"R> 	c #867E73",
"S> 	c #6A6259",
"T> 	c #635B50",
"U> 	c #726A5E",
"V> 	c #7E756A",
"W> 	c #6E655A",
"X> 	c #5C5248",
"Y> 	c #73675D",
"Z> 	c #897E71",
"`> 	c #8A7E6F",
" , 	c #877E6D",
"., 	c #7E7466",
"+, 	c #7B7366",
"@, 	c #7A7267",
"#, 	c #887E6F",
"$, 	c #877D70",
"%, 	c #5E5445",
"&, 	c #786B57",
"*, 	c #84755E",
"=, 	c #87795F",
"-, 	c #94866B",
";, 	c #B2A387",
">, 	c #C0B194",
",, 	c #C1B194",
"', 	c #C2B294",
"), 	c #BCA98B",
"!, 	c #B49E7D",
"~, 	c #A28965",
"{, 	c #6D5A38",
"], 	c #3D3018",
"^, 	c #3B2F1A",
"/, 	c #40311D",
"(, 	c #48341E",
"_, 	c #482F1B",
":, 	c #472D19",
"<, 	c #452D1F",
"[, 	c #36251F",
"}, 	c #211817",
"|, 	c #1B1616",
"1, 	c #0A0908",
"2, 	c #030201",
"3, 	c #141211",
"4, 	c #1A1716",
"5, 	c #1C1817",
"6, 	c #272220",
"7, 	c #2F2927",
"8, 	c #2F2928",
"9, 	c #292423",
"0, 	c #130F0F",
"a, 	c #040305",
"b, 	c #040508",
"c, 	c #0A0B0D",
"d, 	c #121112",
"e, 	c #141212",
"f, 	c #13110F",
"g, 	c #181511",
"h, 	c #221D19",
"i, 	c #3F3834",
"j, 	c #423D35",
"k, 	c #433C35",
"l, 	c #4E473D",
"m, 	c #534B3F",
"n, 	c #554D42",
"o, 	c #857B6A",
"p, 	c #8D816F",
"q, 	c #958977",
"r, 	c #B6A998",
"s, 	c #C6BAA8",
"t, 	c #B5A99B",
"u, 	c #82776D",
"v, 	c #746960",
"w, 	c #6A6157",
"x, 	c #554D48",
"y, 	c #37312E",
"z, 	c #2B2827",
"A, 	c #222020",
"B, 	c #0E0D0F",
"C, 	c #020205",
"D, 	c #08070A",
"E, 	c #141317",
"F, 	c #201E21",
"G, 	c #1F1D1F",
"H, 	c #2D2929",
"I, 	c #3E3A37",
"J, 	c #403B37",
"K, 	c #3E3B35",
"L, 	c #45403A",
"M, 	c #564F49",
"N, 	c #655F57",
"O, 	c #6D665E",
"P, 	c #6A645C",
"Q, 	c #666259",
"R, 	c #55504A",
"S, 	c #3A3531",
"T, 	c #1F1B18",
"U, 	c #120D0F",
"V, 	c #131010",
"W, 	c #0F0C0B",
"X, 	c #040203",
"Y, 	c #010102",
"Z, 	c #010002",
"`, 	c #080608",
" ' 	c #312E2C",
".' 	c #605A52",
"+' 	c #6D6458",
"@' 	c #605649",
"#' 	c #5C5447",
"$' 	c #595044",
"%' 	c #5F5648",
"&' 	c #665C4E",
"*' 	c #746A59",
"=' 	c #73695A",
"-' 	c #6B6354",
";' 	c #4F483E",
">' 	c #312E27",
",' 	c #25221D",
"'' 	c #2C2A24",
")' 	c #38332E",
"!' 	c #47413B",
"~' 	c #4E4740",
"{' 	c #524B43",
"]' 	c #544C43",
"^' 	c #514A3F",
"/' 	c #524C3F",
"(' 	c #5A5245",
"_' 	c #736B5C",
":' 	c #867C69",
"<' 	c #827966",
"[' 	c #675D4D",
"}' 	c #544B3D",
"|' 	c #554C3F",
"1' 	c #564D41",
"2' 	c #544B40",
"3' 	c #4D4339",
"4' 	c #50473C",
"5' 	c #52493E",
"6' 	c #4C433A",
"7' 	c #473D37",
"8' 	c #413934",
"9' 	c #372F2C",
"0' 	c #362F2C",
"a' 	c #393330",
"b' 	c #423C37",
"c' 	c #423B36",
"d' 	c #3E372F",
"e' 	c #423A30",
"f' 	c #4B4337",
"g' 	c #393027",
"h' 	c #29211A",
"i' 	c #1F1914",
"j' 	c #1D1716",
"k' 	c #1C1717",
"l' 	c #211C1C",
"m' 	c #221D1D",
"n' 	c #23201F",
"o' 	c #201C1C",
"p' 	c #131114",
"q' 	c #222022",
"r' 	c #252324",
"s' 	c #292627",
"t' 	c #2C292A",
"u' 	c #2A2727",
"v' 	c #292526",
"w' 	c #2D2C29",
"x' 	c #2E2C2A",
"y' 	c #33312E",
"z' 	c #494138",
"A' 	c #4E4436",
"B' 	c #473A2B",
"C' 	c #382A1A",
"D' 	c #332413",
"E' 	c #2E2010",
"F' 	c #2A1E10",
"G' 	c #251A10",
"H' 	c #271D13",
"I' 	c #291F15",
"J' 	c #322719",
"K' 	c #382D20",
"L' 	c #3C3126",
"M' 	c #3A3129",
"N' 	c #29231E",
"O' 	c #161314",
"P' 	c #191718",
"Q' 	c #252121",
"R' 	c #2C2726",
"S' 	c #282321",
"T' 	c #262321",
"U' 	c #23211F",
"V' 	c #2B2A28",
"W' 	c #353232",
"X' 	c #43403C",
"Y' 	c #47433C",
"Z' 	c #4E463D",
"`' 	c #564B42",
" ) 	c #584F44",
".) 	c #2B2723",
"+) 	c #0E0B0D",
"@) 	c #010103",
"#) 	c #0A090D",
"$) 	c #151619",
"%) 	c #101112",
"&) 	c #0B0B0B",
"*) 	c #151211",
"=) 	c #201B18",
"-) 	c #2B2422",
";) 	c #39302D",
">) 	c #403631",
",) 	c #493D36",
"') 	c #63574C",
")) 	c #877C6B",
"!) 	c #988F79",
"~) 	c #978D77",
"{) 	c #897F6D",
"]) 	c #736A5C",
"^) 	c #665E54",
"/) 	c #6B625C",
"() 	c #6C645C",
"_) 	c #6B625B",
":) 	c #6F655D",
"<) 	c #70655D",
"[) 	c #726860",
"}) 	c #726760",
"|) 	c #746A61",
"1) 	c #756A61",
"2) 	c #796E64",
"3) 	c #7C7167",
"4) 	c #83776C",
"5) 	c #887C70",
"6) 	c #7B7267",
"7) 	c #555247",
"8) 	c #3D3E36",
"9) 	c #3C4134",
"0) 	c #424633",
"a) 	c #42452A",
"b) 	c #4A4C2B",
"c) 	c #4C4E2C",
"d) 	c #4F522F",
"e) 	c #4D4F2B",
"f) 	c #4A5029",
"g) 	c #424822",
"h) 	c #384219",
"i) 	c #394617",
"j) 	c #535F24",
"k) 	c #7A843D",
"l) 	c #929849",
"m) 	c #919647",
"n) 	c #818741",
"o) 	c #6E7639",
"p) 	c #616D33",
"q) 	c #535F2A",
"r) 	c #45531F",
"s) 	c #3C4917",
"t) 	c #3F4A1B",
"u) 	c #465120",
"v) 	c #475020",
"w) 	c #485221",
"x) 	c #495122",
"y) 	c #494E20",
"z) 	c #424519",
"A) 	c #3B4013",
"B) 	c #434C1B",
"C) 	c #56632C",
"D) 	c #58682C",
"E) 	c #57672B",
"F) 	c #546227",
"G) 	c #505F22",
"H) 	c #4A5A1E",
"I) 	c #4B591F",
"J) 	c #48551F",
"K) 	c #3F4C18",
"L) 	c #394514",
"M) 	c #404C1A",
"N) 	c #4B551F",
"O) 	c #525A24",
"P) 	c #525228",
"Q) 	c #474025",
"R) 	c #352A16",
"S) 	c #342610",
"T) 	c #3B2A0E",
"U) 	c #453419",
"V) 	c #695B48",
"W) 	c #908479",
"X) 	c #998D84",
"Y) 	c #978C81",
"Z) 	c #8B8276",
"`) 	c #72685F",
" ! 	c #6B6156",
".! 	c #786E62",
"+! 	c #80766A",
"@! 	c #6D6257",
"#! 	c #5B4F43",
"$! 	c #75675A",
"%! 	c #8D7F6F",
"&! 	c #8F8271",
"*! 	c #887B6B",
"=! 	c #867B6A",
"-! 	c #827769",
";! 	c #81776A",
">! 	c #82796D",
",! 	c #83796B",
"'! 	c #83796C",
")! 	c #5E5547",
"!! 	c #776C57",
"~! 	c #84775E",
"{! 	c #95866B",
"]! 	c #AFA185",
"^! 	c #BBAE92",
"/! 	c #BDAF92",
"(! 	c #C1B294",
"_! 	c #BDAD91",
":! 	c #B9A788",
"<! 	c #AB9575",
"[! 	c #7B694C",
"}! 	c #4A3E29",
"|! 	c #463A29",
"1! 	c #4C402D",
"2! 	c #51402B",
"3! 	c #4C3520",
"4! 	c #4B321D",
"5! 	c #473022",
"6! 	c #362721",
"7! 	c #211919",
"8! 	c #1B1717",
"9! 	c #0A0A09",
"0! 	c #020101",
"a! 	c #141111",
"b! 	c #181514",
"c! 	c #201C1A",
"d! 	c #2A2524",
"e! 	c #322C2B",
"f! 	c #36312E",
"g! 	c #050506",
"h! 	c #040407",
"i! 	c #0B0C0D",
"j! 	c #131214",
"k! 	c #181618",
"l! 	c #1B1918",
"m! 	c #383531",
"n! 	c #3E3A34",
"o! 	c #403B35",
"p! 	c #413C35",
"q! 	c #4C453C",
"r! 	c #534C40",
"s! 	c #554D43",
"t! 	c #686055",
"u! 	c #807767",
"v! 	c #918574",
"w! 	c #B0A393",
"x! 	c #C3B9A7",
"y! 	c #C2B7A6",
"z! 	c #B2A798",
"A! 	c #8E8477",
"B! 	c #696158",
"C! 	c #6B635C",
"D! 	c #514A45",
"E! 	c #35302C",
"F! 	c #2D2A28",
"G! 	c #222021",
"H! 	c #0F0E10",
"I! 	c #08080B",
"J! 	c #141316",
"K! 	c #1E1D20",
"L! 	c #211F22",
"M! 	c #201F20",
"N! 	c #2E2B2B",
"O! 	c #423F3C",
"P! 	c #46433D",
"Q! 	c #43403A",
"R! 	c #4D4942",
"S! 	c #5A544E",
"T! 	c #635D56",
"U! 	c #6A655C",
"V! 	c #68635B",
"W! 	c #656158",
"X! 	c #56534B",
"Y! 	c #3E3B34",
"Z! 	c #1D1A17",
"`! 	c #0D0A0B",
" ~ 	c #120E0D",
".~ 	c #151210",
"+~ 	c #0F0D0C",
"@~ 	c #070707",
"#~ 	c #0C0A0B",
"$~ 	c #746C5D",
"%~ 	c #6C6354",
"&~ 	c #5F5547",
"*~ 	c #595043",
"=~ 	c #544C41",
"-~ 	c #595145",
";~ 	c #5D5448",
">~ 	c #645C4E",
",~ 	c #4C443A",
"'~ 	c #3A342B",
")~ 	c #353027",
"!~ 	c #3B352D",
"~~ 	c #4F4740",
"{~ 	c #574F47",
"]~ 	c #5D544A",
"^~ 	c #675E51",
"/~ 	c #696052",
"(~ 	c #685F4F",
"_~ 	c #67604E",
":~ 	c #756C5A",
"<~ 	c #817663",
"[~ 	c #7F7461",
"}~ 	c #655A49",
"|~ 	c #5C5342",
"1~ 	c #6B6150",
"2~ 	c #726757",
"3~ 	c #736858",
"4~ 	c #756A59",
"5~ 	c #716556",
"6~ 	c #716758",
"7~ 	c #60574A",
"8~ 	c #41382E",
"9~ 	c #352D27",
"0~ 	c #342D29",
"a~ 	c #2E2825",
"b~ 	c #2D2725",
"c~ 	c #332E2A",
"d~ 	c #322C28",
"e~ 	c #332D28",
"f~ 	c #312B25",
"g~ 	c #3A3329",
"h~ 	c #4A4135",
"i~ 	c #4E4538",
"j~ 	c #433A2F",
"k~ 	c #382F27",
"l~ 	c #312A24",
"m~ 	c #2E2824",
"n~ 	c #241E1D",
"o~ 	c #211D1D",
"p~ 	c #201D1D",
"q~ 	c #272527",
"r~ 	c #2D2B2B",
"s~ 	c #2B2928",
"t~ 	c #2C2928",
"u~ 	c #2E2B29",
"v~ 	c #32302E",
"w~ 	c #343230",
"x~ 	c #393633",
"y~ 	c #3F3A34",
"z~ 	c #474136",
"A~ 	c #494031",
"B~ 	c #443727",
"C~ 	c #3B2B19",
"D~ 	c #352312",
"E~ 	c #332312",
"F~ 	c #312214",
"G~ 	c #302315",
"H~ 	c #312515",
"I~ 	c #362A18",
"J~ 	c #382B1B",
"K~ 	c #3F3224",
"L~ 	c #3A3026",
"M~ 	c #28221C",
"N~ 	c #161210",
"O~ 	c #131011",
"P~ 	c #2B2626",
"Q~ 	c #37322F",
"R~ 	c #352F2B",
"S~ 	c #35312B",
"T~ 	c #33322C",
"U~ 	c #383934",
"V~ 	c #363633",
"W~ 	c #2E2F2C",
"X~ 	c #26241F",
"Y~ 	c #2E2921",
"Z~ 	c #483F35",
"`~ 	c #48423A",
" { 	c #282521",
".{ 	c #0D0C0D",
"+{ 	c #1F2021",
"@{ 	c #1C1D1C",
"#{ 	c #1D1C1A",
"${ 	c #272422",
"%{ 	c #2F2B28",
"&{ 	c #292622",
"*{ 	c #302A29",
"={ 	c #403936",
"-{ 	c #463E39",
";{ 	c #453D36",
">{ 	c #6D6353",
",{ 	c #877D69",
"'{ 	c #8F836F",
"){ 	c #897F6C",
"!{ 	c #736A5B",
"~{ 	c #60594F",
"{{ 	c #625B55",
"]{ 	c #625C55",
"^{ 	c #5F5751",
"/{ 	c #5E564E",
"({ 	c #5D554C",
"_{ 	c #5D564E",
":{ 	c #5D564D",
"<{ 	c #5D554E",
"[{ 	c #5F584F",
"}{ 	c #635B53",
"|{ 	c #726961",
"1{ 	c #7F766A",
"2{ 	c #767062",
"3{ 	c #535145",
"4{ 	c #3F4035",
"5{ 	c #424636",
"6{ 	c #474B33",
"7{ 	c #48492B",
"8{ 	c #4C4B29",
"9{ 	c #4E4C29",
"0{ 	c #4F4E2A",
"a{ 	c #4D4C26",
"b{ 	c #4B4D25",
"c{ 	c #444820",
"d{ 	c #3D451A",
"e{ 	c #5B6729",
"f{ 	c #7E873F",
"g{ 	c #8F9446",
"h{ 	c #898D41",
"i{ 	c #787C37",
"j{ 	c #656D30",
"k{ 	c #5A652D",
"l{ 	c #4E5A25",
"m{ 	c #44521D",
"n{ 	c #3D4B18",
"o{ 	c #3F4C1A",
"p{ 	c #414D1C",
"q{ 	c #465020",
"r{ 	c #475221",
"s{ 	c #454D1F",
"t{ 	c #3F4518",
"u{ 	c #3A4012",
"v{ 	c #414D1A",
"w{ 	c #516029",
"x{ 	c #546229",
"y{ 	c #505F26",
"z{ 	c #4C5B21",
"A{ 	c #4D5D20",
"B{ 	c #4C5A1F",
"C{ 	c #505D24",
"D{ 	c #4C5823",
"E{ 	c #434F1A",
"F{ 	c #3D4917",
"G{ 	c #47531F",
"H{ 	c #4E5922",
"I{ 	c #535F27",
"J{ 	c #4D5427",
"K{ 	c #424324",
"L{ 	c #353217",
"M{ 	c #3A3314",
"N{ 	c #443915",
"O{ 	c #4B401B",
"P{ 	c #645A3F",
"Q{ 	c #8A7F70",
"R{ 	c #96897F",
"S{ 	c #978B7F",
"T{ 	c #8D8275",
"U{ 	c #786D61",
"V{ 	c #72655A",
"W{ 	c #7C7265",
"X{ 	c #817869",
"Y{ 	c #594E41",
"Z{ 	c #6B5F52",
"`{ 	c #7B6F61",
" ] 	c #7D7162",
".] 	c #796E5F",
"+] 	c #786E60",
"@] 	c #766D60",
"#] 	c #766E62",
"$] 	c #756D63",
"%] 	c #766F63",
"&] 	c #786F62",
"*] 	c #746C60",
"=] 	c #453D35",
"-] 	c #5E5447",
";] 	c #756756",
">] 	c #82735C",
",] 	c #86745D",
"'] 	c #8E7C64",
")] 	c #94846C",
"!] 	c #978970",
"~] 	c #9E8F76",
"{] 	c #B2A48B",
"]] 	c #BAAC92",
"^] 	c #B9A98D",
"/] 	c #BAA789",
"(] 	c #9B8C71",
"_] 	c #6E6451",
":] 	c #645B4C",
"<] 	c #665D4C",
"[] 	c #625441",
"}] 	c #503C29",
"|] 	c #48311F",
"1] 	c #453125",
"2] 	c #342724",
"3] 	c #20191B",
"4] 	c #1D1719",
"5] 	c #181313",
"6] 	c #2F2929",
"7] 	c #312B2A",
"8] 	c #352F2E",
"9] 	c #2C2625",
"0] 	c #030204",
"a] 	c #08080A",
"b] 	c #151416",
"c] 	c #1D1B1B",
"d] 	c #211E1E",
"e] 	c #242122",
"f] 	c #302C2B",
"g] 	c #373330",
"h] 	c #49413A",
"i] 	c #4E463C",
"j] 	c #514941",
"k] 	c #645A52",
"l] 	c #776C60",
"m] 	c #7D7063",
"n] 	c #857769",
"o] 	c #A19485",
"p] 	c #B3A798",
"q] 	c #B2A698",
"r] 	c #A69B8D",
"s] 	c #857A6F",
"t] 	c #766C61",
"u] 	c #655B52",
"v] 	c #5C534B",
"w] 	c #48423C",
"x] 	c #302B28",
"y] 	c #2D2726",
"z] 	c #2C2827",
"A] 	c #221E20",
"B] 	c #0F0D10",
"C] 	c #1D1C1F",
"D] 	c #1F1D20",
"E] 	c #403E3C",
"F] 	c #45423E",
"G] 	c #494542",
"H] 	c #504C47",
"I] 	c #4F4B45",
"J] 	c #545048",
"K] 	c #544F49",
"L] 	c #57524B",
"M] 	c #504A45",
"N] 	c #3B3632",
"O] 	c #1B1614",
"P] 	c #0B0808",
"Q] 	c #15100F",
"R] 	c #141110",
"S] 	c #030303",
"T] 	c #0A0808",
"U] 	c #3B3432",
"V] 	c #6E655D",
"W] 	c #786D60",
"X] 	c #726759",
"Y] 	c #665A4F",
"Z] 	c #5E5549",
"`] 	c #564D44",
" ^ 	c #554D44",
".^ 	c #514942",
"+^ 	c #524B41",
"@^ 	c #4E473C",
"#^ 	c #53493E",
"$^ 	c #4E453E",
"%^ 	c #584F47",
"&^ 	c #7F7564",
"*^ 	c #857A69",
"=^ 	c #827667",
"-^ 	c #706654",
";^ 	c #756958",
">^ 	c #736755",
",^ 	c #615643",
"'^ 	c #685C4B",
")^ 	c #867A66",
"!^ 	c #8F826C",
"~^ 	c #8D8069",
"{^ 	c #8D8067",
"]^ 	c #897B64",
"^^ 	c #857A66",
"/^ 	c #695D50",
"(^ 	c #3C3229",
"_^ 	c #2C241E",
":^ 	c #2A2420",
"<^ 	c #231C1B",
"[^ 	c #201A1A",
"}^ 	c #1F1B19",
"|^ 	c #221D1B",
"1^ 	c #24201C",
"2^ 	c #241F1A",
"3^ 	c #322B22",
"4^ 	c #554C3E",
"5^ 	c #574D41",
"6^ 	c #564D42",
"7^ 	c #524942",
"8^ 	c #49413D",
"9^ 	c #312A29",
"0^ 	c #181415",
"a^ 	c #1E1B1B",
"b^ 	c #131112",
"c^ 	c #050306",
"d^ 	c #1B181C",
"e^ 	c #292629",
"f^ 	c #302E2E",
"g^ 	c #2F2C2C",
"h^ 	c #2E2A2A",
"i^ 	c #2A2827",
"j^ 	c #383533",
"k^ 	c #3A3735",
"l^ 	c #3D3A36",
"m^ 	c #382F23",
"n^ 	c #362A1B",
"o^ 	c #352515",
"p^ 	c #372513",
"q^ 	c #382514",
"r^ 	c #3A2816",
"s^ 	c #392817",
"t^ 	c #382818",
"u^ 	c #362717",
"v^ 	c #382817",
"w^ 	c #382A19",
"x^ 	c #3D2F21",
"y^ 	c #372D23",
"z^ 	c #262019",
"A^ 	c #110F11",
"B^ 	c #1A1719",
"C^ 	c #3B3430",
"D^ 	c #423A35",
"E^ 	c #454139",
"F^ 	c #3F3D37",
"G^ 	c #3E3C39",
"H^ 	c #343534",
"I^ 	c #232424",
"J^ 	c #151614",
"K^ 	c #1E1A14",
"L^ 	c #544C42",
"M^ 	c #443D37",
"N^ 	c #23211E",
"O^ 	c #0B0B0D",
"P^ 	c #07070B",
"Q^ 	c #09090B",
"R^ 	c #09090A",
"S^ 	c #060406",
"T^ 	c #070608",
"U^ 	c #19191C",
"V^ 	c #272928",
"W^ 	c #2B2C2A",
"X^ 	c #312F2C",
"Y^ 	c #3C3835",
"Z^ 	c #423C39",
"`^ 	c #35322D",
" / 	c #231F1B",
"./ 	c #2C2626",
"+/ 	c #383131",
"@/ 	c #362F2B",
"#/ 	c #393129",
"$/ 	c #574E3F",
"%/ 	c #7C705E",
"&/ 	c #8A7D6B",
"*/ 	c #867A69",
"=/ 	c #6D6457",
"-/ 	c #4E473F",
";/ 	c #47423C",
">/ 	c #4B4541",
",/ 	c #4E4844",
"'/ 	c #453E3A",
")/ 	c #413A34",
"!/ 	c #3F3932",
"~/ 	c #3D3731",
"{/ 	c #3A352F",
"]/ 	c #3E3833",
"^/ 	c #554E49",
"// 	c #6F675E",
"(/ 	c #6E665A",
"_/ 	c #514E42",
":/ 	c #424237",
"</ 	c #444636",
"[/ 	c #4B4C33",
"}/ 	c #504D2C",
"|/ 	c #57512C",
"1/ 	c #59532D",
"2/ 	c #5A542E",
"3/ 	c #59532A",
"4/ 	c #575329",
"5/ 	c #4F4F23",
"6/ 	c #494F1F",
"7/ 	c #4A521E",
"8/ 	c #61682B",
"9/ 	c #828740",
"0/ 	c #909146",
"a/ 	c #898941",
"b/ 	c #767935",
"c/ 	c #60672B",
"d/ 	c #545E27",
"e/ 	c #4B5521",
"f/ 	c #44501C",
"g/ 	c #45501E",
"h/ 	c #444F1E",
"i/ 	c #424C1E",
"j/ 	c #434E1F",
"k/ 	c #3E461A",
"l/ 	c #3A4215",
"m/ 	c #3E4A18",
"n/ 	c #485421",
"o/ 	c #485520",
"p/ 	c #46541D",
"q/ 	c #415118",
"r/ 	c #4B5A1F",
"s/ 	c #556127",
"t/ 	c #5E682F",
"u/ 	c #59642D",
"v/ 	c #4D5923",
"w/ 	c #45511D",
"x/ 	c #4C5924",
"y/ 	c #4B5624",
"z/ 	c #455425",
"A/ 	c #3A4822",
"B/ 	c #313B1D",
"C/ 	c #343919",
"D/ 	c #46471E",
"E/ 	c #4D491E",
"F/ 	c #49441C",
"G/ 	c #544D31",
"H/ 	c #746A5B",
"I/ 	c #81746B",
"J/ 	c #867A70",
"K/ 	c #7F746A",
"L/ 	c #6D6158",
"M/ 	c #63564D",
"N/ 	c #695E53",
"O/ 	c #6B6356",
"P/ 	c #595246",
"Q/ 	c #453B31",
"R/ 	c #493E35",
"S/ 	c #4E443A",
"T/ 	c #4E453A",
"U/ 	c #4B4339",
"V/ 	c #4B443B",
"W/ 	c #4B453C",
"X/ 	c #4C473F",
"Y/ 	c #4D4741",
"Z/ 	c #4D473F",
"`/ 	c #4B453D",
" ( 	c #443E36",
".( 	c #5C5346",
"+( 	c #776855",
"@( 	c #84755C",
"#( 	c #85735A",
"$( 	c #837056",
"%( 	c #705D44",
"&( 	c #66563C",
"*( 	c #726249",
"=( 	c #A19178",
"-( 	c #B9AA91",
";( 	c #BCAD91",
">( 	c #BFAE90",
",( 	c #AA9A81",
"'( 	c #807765",
")( 	c #716A5D",
"!( 	c #736B5B",
"~( 	c #6B604D",
"{( 	c #524232",
"]( 	c #473627",
"^( 	c #41332A",
"/( 	c #322827",
"(( 	c #1E1A1C",
"_( 	c #1C1819",
":( 	c #231E1E",
"<( 	c #312C2B",
"[( 	c #363230",
"}( 	c #332E2D",
"|( 	c #171412",
"1( 	c #030203",
"2( 	c #151415",
"3( 	c #1C1A1B",
"4( 	c #2C2A27",
"5( 	c #2D2A26",
"6( 	c #302E28",
"7( 	c #484138",
"8( 	c #4F483D",
"9( 	c #534B42",
"0( 	c #61594E",
"a( 	c #72695B",
"b( 	c #7B6F5E",
"c( 	c #8F8473",
"d( 	c #A19786",
"e( 	c #A19788",
"f( 	c #998F81",
"g( 	c #7A7066",
"h( 	c #6A6258",
"i( 	c #595049",
"j( 	c #4E4941",
"k( 	c #3F3B35",
"l( 	c #302C29",
"m( 	c #2F2B2A",
"n( 	c #2C2828",
"o( 	c #211F1F",
"p( 	c #0F0D0F",
"q( 	c #09080B",
"r( 	c #151417",
"s( 	c #1F1E21",
"t( 	c #2B282A",
"u( 	c #403D3A",
"v( 	c #413E3B",
"w( 	c #3F3C38",
"x( 	c #37352E",
"y( 	c #36332C",
"z( 	c #37322D",
"A( 	c #403C35",
"B( 	c #37312D",
"C( 	c #1D1814",
"D( 	c #110D09",
"E( 	c #221C18",
"F( 	c #38322B",
"G( 	c #36302B",
"H( 	c #221E1A",
"I( 	c #090707",
"J( 	c #0F0B0A",
"K( 	c #746B62",
"L( 	c #7F7467",
"M( 	c #7C7263",
"N( 	c #706759",
"O( 	c #5D574C",
"P( 	c #504A42",
"Q( 	c #4D473E",
"R( 	c #474137",
"S( 	c #61584B",
"T( 	c #756B5B",
"U( 	c #766C5C",
"V( 	c #706758",
"W( 	c #524940",
"X( 	c #504840",
"Y( 	c #585048",
"Z( 	c #8A8070",
"`( 	c #958A78",
" _ 	c #948B78",
"._ 	c #827967",
"+_ 	c #726957",
"@_ 	c #706553",
"#_ 	c #6D6250",
"$_ 	c #685D4A",
"%_ 	c #716554",
"&_ 	c #867A67",
"*_ 	c #8D826A",
"=_ 	c #887D63",
"-_ 	c #887B61",
";_ 	c #84775F",
">_ 	c #7F7560",
",_ 	c #63594B",
"'_ 	c #382F26",
")_ 	c #2B231D",
"!_ 	c #29231F",
"~_ 	c #211B1A",
"{_ 	c #1F1A19",
"]_ 	c #1E1A18",
"^_ 	c #221E19",
"/_ 	c #332D24",
"(_ 	c #4F493A",
"__ 	c #5F5747",
":_ 	c #63594C",
"<_ 	c #675D51",
"[_ 	c #625850",
"}_ 	c #564E49",
"|_ 	c #342E2B",
"1_ 	c #1B1715",
"2_ 	c #171313",
"3_ 	c #1A1717",
"4_ 	c #070508",
"5_ 	c #343231",
"6_ 	c #34302E",
"7_ 	c #2B2825",
"8_ 	c #2C2925",
"9_ 	c #322E2A",
"0_ 	c #393635",
"a_ 	c #3A3834",
"b_ 	c #33302C",
"c_ 	c #2B2620",
"d_ 	c #262017",
"e_ 	c #2A2014",
"f_ 	c #302113",
"g_ 	c #362515",
"h_ 	c #382615",
"i_ 	c #3A2916",
"j_ 	c #392A19",
"k_ 	c #392B1A",
"l_ 	c #3A2C1A",
"m_ 	c #3A2C1B",
"n_ 	c #3D3021",
"o_ 	c #372E22",
"p_ 	c #28221A",
"q_ 	c #121012",
"r_ 	c #161516",
"s_ 	c #1A1617",
"t_ 	c #2A2622",
"u_ 	c #3E3832",
"v_ 	c #48403A",
"w_ 	c #4D483F",
"x_ 	c #47443D",
"y_ 	c #43443E",
"z_ 	c #333734",
"A_ 	c #232726",
"B_ 	c #141715",
"C_ 	c #1E1C15",
"D_ 	c #41392F",
"E_ 	c #423E36",
"F_ 	c #201F1C",
"G_ 	c #0C0C0F",
"H_ 	c #141314",
"I_ 	c #110F10",
"J_ 	c #0F0E0E",
"K_ 	c #101011",
"L_ 	c #1E1E20",
"M_ 	c #292A2A",
"N_ 	c #2F2E2D",
"O_ 	c #353330",
"P_ 	c #403D39",
"Q_ 	c #44403B",
"R_ 	c #36322E",
"S_ 	c #241F1F",
"T_ 	c #292324",
"U_ 	c #292323",
"V_ 	c #25201D",
"W_ 	c #2F2820",
"X_ 	c #534B3E",
"Y_ 	c #7C7261",
"Z_ 	c #897E6C",
"`_ 	c #877D6B",
" : 	c #6B6456",
".: 	c #38342F",
"+: 	c #3C3734",
"@: 	c #3E3835",
"#: 	c #342E29",
"$: 	c #312C25",
"%: 	c #332D26",
"&: 	c #322C26",
"*: 	c #302C26",
"=: 	c #2C2923",
"-: 	c #292620",
";: 	c #6A6356",
">: 	c #565243",
",: 	c #4E4D3D",
"': 	c #52523C",
"): 	c #555535",
"!: 	c #5B572F",
"~: 	c #635C32",
"{: 	c #695F35",
"]: 	c #6C6337",
"^: 	c #6B6434",
"/: 	c #696331",
"(: 	c #605F2D",
"_: 	c #595D27",
":: 	c #575F25",
"<: 	c #697131",
"[: 	c #868C45",
"}: 	c #96984D",
"|: 	c #8F9047",
"1: 	c #787C39",
"2: 	c #60672C",
"3: 	c #545F27",
"4: 	c #4B5620",
"5: 	c #47521E",
"6: 	c #4A5622",
"7: 	c #515B28",
"8: 	c #4E5926",
"9: 	c #465220",
"0: 	c #414C1D",
"a: 	c #424D1E",
"b: 	c #414C1F",
"c: 	c #414A1E",
"d: 	c #40491C",
"e: 	c #424E1D",
"f: 	c #475421",
"g: 	c #434F1D",
"h: 	c #42521B",
"i: 	c #404F17",
"j: 	c #4E5D23",
"k: 	c #626F33",
"l: 	c #6B773A",
"m: 	c #556329",
"n: 	c #4D5B24",
"o: 	c #525F28",
"p: 	c #485424",
"q: 	c #34411B",
"r: 	c #223014",
"s: 	c #253217",
"t: 	c #3A441F",
"u: 	c #4B5324",
"v: 	c #4F5424",
"w: 	c #45471E",
"x: 	c #47442B",
"y: 	c #5D5649",
"z: 	c #6A5E58",
"A: 	c #6F635C",
"B: 	c #685F57",
"C: 	c #514843",
"D: 	c #403732",
"E: 	c #433C34",
"F: 	c #362E28",
"G: 	c #312B24",
"H: 	c #2F2A23",
"I: 	c #302B25",
"J: 	c #302D28",
"K: 	c #312E2A",
"L: 	c #322E2B",
"M: 	c #322F2C",
"N: 	c #322F2A",
"O: 	c #342F2A",
"P: 	c #332F2A",
"Q: 	c #423C35",
"R: 	c #5C5045",
"S: 	c #756352",
"T: 	c #816D56",
"U: 	c #826B52",
"V: 	c #7F684C",
"W: 	c #6B5339",
"X: 	c #634E33",
"Y: 	c #6E5B42",
"Z: 	c #9D8C73",
"`: 	c #B7A88F",
" < 	c #BAAA8F",
".< 	c #BDAC90",
"+< 	c #AA9A84",
"@< 	c #83796A",
"#< 	c #736C61",
"$< 	c #6A6154",
"%< 	c #4E4136",
"&< 	c #42372D",
"*< 	c #3D3530",
"=< 	c #2E2A2C",
"-< 	c #1C1B1E",
";< 	c #1B191C",
">< 	c #1B1819",
",< 	c #121011",
"'< 	c #171413",
")< 	c #332D2D",
"!< 	c #2D2827",
"~< 	c #020102",
"{< 	c #060507",
"]< 	c #100E10",
"^< 	c #26221E",
"/< 	c #26211D",
"(< 	c #2F2823",
"_< 	c #403730",
":< 	c #494037",
"<< 	c #4E453D",
"[< 	c #544B43",
"}< 	c #5F564A",
"|< 	c #61564B",
"1< 	c #665C4F",
"2< 	c #6F6458",
"3< 	c #867C70",
"4< 	c #867E72",
"5< 	c #524C46",
"6< 	c #48443C",
"7< 	c #423E38",
"8< 	c #3B3835",
"9< 	c #312E2D",
"0< 	c #2C2A2A",
"a< 	c #171618",
"b< 	c #020105",
"c< 	c #1D1D20",
"d< 	c #272426",
"e< 	c #363434",
"f< 	c #393735",
"g< 	c #373533",
"h< 	c #3A3736",
"i< 	c #312F2B",
"j< 	c #2E2C26",
"k< 	c #2D2A25",
"l< 	c #312E29",
"m< 	c #322B29",
"n< 	c #2B2522",
"o< 	c #1E1815",
"p< 	c #312B27",
"q< 	c #453D37",
"r< 	c #403835",
"s< 	c #14100E",
"t< 	c #191512",
"u< 	c #716960",
"v< 	c #7D7267",
"w< 	c #7A6F61",
"x< 	c #7A7163",
"y< 	c #655F54",
"z< 	c #544E45",
"A< 	c #4B463E",
"B< 	c #433D35",
"C< 	c #61584C",
"D< 	c #776D5E",
"E< 	c #7B7060",
"F< 	c #665B50",
"G< 	c #554B45",
"H< 	c #4E463F",
"I< 	c #554D46",
"J< 	c #665D56",
"K< 	c #877C6F",
"L< 	c #948978",
"M< 	c #928A77",
"N< 	c #827868",
"O< 	c #706656",
"P< 	c #6B604F",
"Q< 	c #675B4C",
"R< 	c #746859",
"S< 	c #7D7161",
"T< 	c #7D735F",
"U< 	c #796D58",
"V< 	c #786B55",
"W< 	c #736652",
"X< 	c #706554",
"Y< 	c #5A4F43",
"Z< 	c #332A22",
"`< 	c #281F1B",
" [ 	c #28211E",
".[ 	c #231D1B",
"+[ 	c #211C1B",
"@[ 	c #231F1D",
"#[ 	c #25201B",
"$[ 	c #363027",
"%[ 	c #50493C",
"&[ 	c #63584C",
"*[ 	c #5E544C",
"=[ 	c #4F4742",
"-[ 	c #302A26",
";[ 	c #181211",
">[ 	c #161112",
",[ 	c #161212",
"'[ 	c #050406",
")[ 	c #000002",
"![ 	c #070509",
"~[ 	c #1E1C1F",
"{[ 	c #363232",
"][ 	c #342F2E",
"^[ 	c #2C2823",
"/[ 	c #2D2922",
"([ 	c #302A24",
"_[ 	c #35312D",
":[ 	c #373332",
"<[ 	c #201B15",
"[[ 	c #261E15",
"}[ 	c #2D2115",
"|[ 	c #322417",
"1[ 	c #342416",
"2[ 	c #362617",
"3[ 	c #362718",
"4[ 	c #36281A",
"5[ 	c #392B1B",
"6[ 	c #382A1B",
"7[ 	c #3A2D1F",
"8[ 	c #382D23",
"9[ 	c #28211B",
"0[ 	c #161211",
"a[ 	c #161416",
"b[ 	c #1B1718",
"c[ 	c #3D362F",
"d[ 	c #443C36",
"e[ 	c #49443C",
"f[ 	c #44413A",
"g[ 	c #3E3F39",
"h[ 	c #2F3331",
"i[ 	c #222626",
"j[ 	c #161817",
"k[ 	c #201D18",
"l[ 	c #403930",
"m[ 	c #534C42",
"n[ 	c #3D3832",
"o[ 	c #1C1A19",
"p[ 	c #0A0A0D",
"q[ 	c #0C0C10",
"r[ 	c #161518",
"s[ 	c #1A1819",
"t[ 	c #171417",
"u[ 	c #1F1E20",
"v[ 	c #262627",
"w[ 	c #2E2C2B",
"x[ 	c #332F2E",
"y[ 	c #413C39",
"z[ 	c #35312E",
"A[ 	c #201A1B",
"B[ 	c #211D1C",
"C[ 	c #1E1917",
"D[ 	c #2C2520",
"E[ 	c #554B42",
"F[ 	c #7E7365",
"G[ 	c #857C6B",
"H[ 	c #6A6255",
"I[ 	c #3B3633",
"J[ 	c #3F3A37",
"K[ 	c #3F3A36",
"L[ 	c #3B3531",
"M[ 	c #39342C",
"N[ 	c #363229",
"O[ 	c #36322A",
"P[ 	c #322E27",
"Q[ 	c #2C2824",
"R[ 	c #25231F",
"S[ 	c #22211C",
"T[ 	c #3A3731",
"U[ 	c #5A564D",
"V[ 	c #615D4F",
"W[ 	c #565343",
"X[ 	c #555440",
"Y[ 	c #59583E",
"Z[ 	c #5A5A37",
"`[ 	c #5B582F",
" } 	c #635B30",
".} 	c #6C6035",
"+} 	c #726538",
"@} 	c #6F6535",
"#} 	c #6D6732",
"$} 	c #676530",
"%} 	c #5E622C",
"&} 	c #586026",
"*} 	c #666D2E",
"=} 	c #848A45",
"-} 	c #94974F",
";} 	c #8F914A",
">} 	c #777D3C",
",} 	c #5D652D",
"'} 	c #515B25",
")} 	c #49541F",
"!} 	c #48531E",
"~} 	c #505B27",
"{} 	c #57612E",
"]} 	c #535D2B",
"^} 	c #465221",
"/} 	c #3F4B1C",
"(} 	c #3E491C",
"_} 	c #3F4B1E",
":} 	c #444F21",
"<} 	c #454F21",
"[} 	c #485323",
"}} 	c #485422",
"|} 	c #485724",
"1} 	c #424F1F",
"2} 	c #42511D",
"3} 	c #43501D",
"4} 	c #626F34",
"5} 	c #677538",
"6} 	c #606E31",
"7} 	c #556328",
"8} 	c #4E5B25",
"9} 	c #525E29",
"0} 	c #455122",
"a} 	c #2B3713",
"b} 	c #19260D",
"c} 	c #273219",
"d} 	c #404B25",
"e} 	c #4C5525",
"f} 	c #485022",
"g} 	c #40451F",
"h} 	c #40402B",
"i} 	c #554F47",
"j} 	c #605653",
"k} 	c #655A57",
"l} 	c #5E5652",
"m} 	c #47403F",
"n} 	c #38342E",
"o} 	c #443D39",
"p} 	c #3C3532",
"q} 	c #34302C",
"r} 	c #312E2B",
"s} 	c #34312D",
"t} 	c #323130",
"u} 	c #333131",
"v} 	c #323131",
"w} 	c #32302F",
"x} 	c #343130",
"y} 	c #33302E",
"z} 	c #6E5B4A",
"A} 	c #79634D",
"B} 	c #786047",
"C} 	c #7F6749",
"D} 	c #7A6246",
"E} 	c #7B654A",
"F} 	c #836F55",
"G} 	c #A19075",
"H} 	c #AFA287",
"I} 	c #B2A58C",
"J} 	c #B3A68C",
"K} 	c #A19580",
"L} 	c #7E7769",
"M} 	c #706D62",
"N} 	c #726F64",
"O} 	c #676257",
"P} 	c #4A423A",
"Q} 	c #2C2B2E",
"R} 	c #1B1C20",
"S} 	c #1A1A1D",
"T} 	c #1A181A",
"U} 	c #0B0A0B",
"V} 	c #010001",
"W} 	c #040304",
"X} 	c #070607",
"Y} 	c #0D0B0B",
"Z} 	c #0D0A0A",
"`} 	c #130F0E",
" | 	c #1A1412",
".| 	c #241F1B",
"+| 	c #28221D",
"@| 	c #2C2621",
"#| 	c #2E2622",
"$| 	c #362F27",
"%| 	c #3F3830",
"&| 	c #443D34",
"*| 	c #595449",
"=| 	c #5C574E",
"-| 	c #5F5B52",
";| 	c #55524B",
">| 	c #4C4A44",
",| 	c #3E3C38",
"'| 	c #363530",
")| 	c #32302D",
"!| 	c #31302E",
"~| 	c #292727",
"{| 	c #222222",
"]| 	c #131415",
"^| 	c #030407",
"/| 	c #030406",
"(| 	c #0A0A0E",
"_| 	c #151418",
":| 	c #201F21",
"<| 	c #242224",
"[| 	c #31312E",
"}| 	c #302F2D",
"|| 	c #363431",
"1| 	c #3B3935",
"2| 	c #363430",
"3| 	c #35342E",
"4| 	c #2F2D27",
"5| 	c #282420",
"6| 	c #322D27",
"7| 	c #58524A",
"8| 	c #4F4841",
"9| 	c #433D36",
"0| 	c #58544B",
"a| 	c #6D685C",
"b| 	c #6F665B",
"c| 	c #746A5D",
"d| 	c #73695E",
"e| 	c #575047",
"f| 	c #504940",
"g| 	c #4A4239",
"h| 	c #4D463A",
"i| 	c #5E5648",
"j| 	c #6E6656",
"k| 	c #736859",
"l| 	c #726859",
"m| 	c #665D51",
"n| 	c #564E46",
"o| 	c #4D4640",
"p| 	c #504942",
"q| 	c #736A5E",
"r| 	c #7F7466",
"s| 	c #817867",
"t| 	c #766D5D",
"u| 	c #6B6152",
"v| 	c #645B4B",
"w| 	c #5E5347",
"x| 	c #655D4E",
"y| 	c #635947",
"z| 	c #5E5444",
"A| 	c #5E5546",
"B| 	c #312A21",
"C| 	c #29221E",
"D| 	c #27221E",
"E| 	c #26211F",
"F| 	c #272320",
"G| 	c #2A2623",
"H| 	c #292523",
"I| 	c #2A2522",
"J| 	c #2A2620",
"K| 	c #3E382E",
"L| 	c #585043",
"M| 	c #554B40",
"N| 	c #554A40",
"O| 	c #4E443C",
"P| 	c #413933",
"Q| 	c #2A221F",
"R| 	c #1A1312",
"S| 	c #181414",
"T| 	c #010004",
"U| 	c #050509",
"V| 	c #34302F",
"W| 	c #37312F",
"X| 	c #38322A",
"Y| 	c #383126",
"Z| 	c #373025",
"`| 	c #38312B",
" 1 	c #383231",
".1 	c #2F2C2B",
"+1 	c #24211F",
"@1 	c #28201B",
"#1 	c #30261D",
"$1 	c #33271D",
"%1 	c #33241A",
"&1 	c #312319",
"*1 	c #2D2017",
"=1 	c #2C2118",
"-1 	c #2C2217",
";1 	c #33271A",
">1 	c #35281B",
",1 	c #3A2E22",
"'1 	c #372E24",
")1 	c #29221D",
"!1 	c #141213",
"~1 	c #3E3730",
"{1 	c #403731",
"]1 	c #3A3833",
"^1 	c #393A35",
"/1 	c #2E3230",
"(1 	c #252828",
"_1 	c #20211F",
":1 	c #2A2720",
"<1 	c #453F35",
"[1 	c #524C41",
"}1 	c #3A362F",
"|1 	c #191716",
"11 	c #0E0D11",
"21 	c #1D1B1D",
"31 	c #1C1B1C",
"41 	c #19191A",
"51 	c #232324",
"61 	c #282725",
"71 	c #2D2928",
"81 	c #363330",
"91 	c #34302D",
"01 	c #25201F",
"a1 	c #241E1F",
"b1 	c #252020",
"c1 	c #463E38",
"d1 	c #655C51",
"e1 	c #6F6759",
"f1 	c #6F685A",
"g1 	c #5B554A",
"h1 	c #403B34",
"i1 	c #38332F",
"j1 	c #3E3934",
"k1 	c #3C3730",
"l1 	c #3B362D",
"m1 	c #38342A",
"n1 	c #363329",
"o1 	c #343028",
"p1 	c #312E26",
"q1 	c #2B2822",
"r1 	c #25231D",
"s1 	c #25241C",
"t1 	c #3B392E",
"u1 	c #555446",
"v1 	c #5C5A48",
"w1 	c #57573F",
"x1 	c #58583E",
"y1 	c #5B5A3C",
"z1 	c #5A5A34",
"A1 	c #58542A",
"B1 	c #5C5628",
"C1 	c #62572C",
"D1 	c #675B30",
"E1 	c #665D2E",
"F1 	c #68632F",
"G1 	c #61602B",
"H1 	c #535C22",
"I1 	c #5D6728",
"J1 	c #737D39",
"K1 	c #818843",
"L1 	c #7F8543",
"M1 	c #6C7437",
"N1 	c #58622B",
"O1 	c #505B26",
"P1 	c #495521",
"Q1 	c #46521D",
"R1 	c #4C5825",
"S1 	c #535E2C",
"T1 	c #4F5A29",
"U1 	c #445120",
"V1 	c #3D4A1B",
"W1 	c #3E4A1C",
"X1 	c #3E4B1D",
"Y1 	c #424E20",
"Z1 	c #434F20",
"`1 	c #455221",
" 2 	c #415021",
".2 	c #37441A",
"+2 	c #354319",
"@2 	c #39451A",
"#2 	c #4B5925",
"$2 	c #59662D",
"%2 	c #5A682D",
"&2 	c #556228",
"*2 	c #556226",
"=2 	c #535F26",
"-2 	c #475420",
";2 	c #334014",
">2 	c #394420",
",2 	c #4C5829",
"'2 	c #505E29",
")2 	c #465123",
"!2 	c #39421F",
"~2 	c #393C2B",
"{2 	c #4C4C46",
"]2 	c #575351",
"^2 	c #5B5553",
"/2 	c #544F4D",
"(2 	c #433F3D",
"_2 	c #34312E",
":2 	c #383631",
"<2 	c #44413D",
"[2 	c #47433F",
"}2 	c #413C38",
"|2 	c #393632",
"12 	c #333230",
"22 	c #323230",
"32 	c #323331",
"42 	c #313332",
"52 	c #323332",
"62 	c #333333",
"72 	c #333433",
"82 	c #343433",
"92 	c #353533",
"02 	c #443D36",
"a2 	c #4F453A",
"b2 	c #544335",
"c2 	c #5A4432",
"d2 	c #5D442D",
"e2 	c #80674C",
"f2 	c #A08A6F",
"g2 	c #A59279",
"h2 	c #A08E77",
"i2 	c #9F9078",
"j2 	c #978C77",
"k2 	c #968C78",
"l2 	c #8F8573",
"m2 	c #7E786A",
"n2 	c #66645B",
"o2 	c #5F5F58",
"p2 	c #61615A",
"q2 	c #57564E",
"r2 	c #413E39",
"s2 	c #383634",
"t2 	c #353536",
"u2 	c #292B2F",
"v2 	c #1A1D21",
"w2 	c #1A1B1F",
"x2 	c #19191B",
"y2 	c #111010",
"z2 	c #171416",
"A2 	c #1E1B1C",
"B2 	c #0D0908",
"C2 	c #16110F",
"D2 	c #181210",
"E2 	c #1A1512",
"F2 	c #1E1A15",
"G2 	c #201D1A",
"H2 	c #1F1C1A",
"I2 	c #211F1A",
"J2 	c #201E1A",
"K2 	c #22201C",
"L2 	c #23211D",
"M2 	c #2A2A24",
"N2 	c #2A2926",
"O2 	c #2E2E2A",
"P2 	c #292927",
"Q2 	c #252725",
"R2 	c #1D1E1E",
"S2 	c #1A1B1A",
"T2 	c #181818",
"U2 	c #1B1C1B",
"V2 	c #161617",
"W2 	c #090A0B",
"X2 	c #060709",
"Y2 	c #020206",
"Z2 	c #151518",
"`2 	c #221F20",
" 3 	c #292625",
".3 	c #282624",
"+3 	c #262422",
"@3 	c #2F2D29",
"#3 	c #3B3832",
"$3 	c #3C3A33",
"%3 	c #36332E",
"&3 	c #2A2722",
"*3 	c #1B1713",
"=3 	c #241E19",
"-3 	c #514944",
";3 	c #766B61",
">3 	c #6B6457",
",3 	c #575045",
"'3 	c #575046",
")3 	c #5E554E",
"!3 	c #70675F",
"~3 	c #726A5D",
"{3 	c #655B4F",
"]3 	c #60564A",
"^3 	c #695F53",
"/3 	c #74695D",
"(3 	c #74685D",
"_3 	c #645B4F",
":3 	c #61574B",
"<3 	c #61574A",
"[3 	c #5C5245",
"}3 	c #584F41",
"|3 	c #5A5044",
"13 	c #595046",
"23 	c #514A42",
"33 	c #4B443E",
"43 	c #574E44",
"53 	c #5C5145",
"63 	c #615749",
"73 	c #5E5446",
"83 	c #5D5244",
"93 	c #5C5044",
"03 	c #3E392F",
"a3 	c #38312A",
"b3 	c #3D352D",
"c3 	c #3D362D",
"d3 	c #3C352D",
"e3 	c #2D2721",
"f3 	c #2A231F",
"g3 	c #292421",
"h3 	c #292422",
"i3 	c #2B2725",
"j3 	c #2B2724",
"k3 	c #2E2923",
"l3 	c #423C33",
"m3 	c #524B40",
"n3 	c #4D4539",
"o3 	c #453A30",
"p3 	c #42372E",
"q3 	c #3E342C",
"r3 	c #3B322B",
"s3 	c #2A211F",
"t3 	c #1D1515",
"u3 	c #120F11",
"v3 	c #060608",
"w3 	c #000004",
"x3 	c #0D0D10",
"y3 	c #181517",
"z3 	c #282523",
"A3 	c #463F38",
"B3 	c #544C3D",
"C3 	c #2F2B2B",
"D3 	c #23201E",
"E3 	c #2C2523",
"F3 	c #322823",
"G3 	c #332821",
"H3 	c #30221E",
"I3 	c #291D18",
"J3 	c #211612",
"K3 	c #1C1410",
"L3 	c #1E1611",
"M3 	c #291F17",
"N3 	c #31241B",
"O3 	c #33281F",
"P3 	c #312821",
"Q3 	c #251F1A",
"R3 	c #151315",
"S3 	c #302927",
"T3 	c #3E3530",
"U3 	c #3B322D",
"V3 	c #31302B",
"W3 	c #31332F",
"X3 	c #2C302F",
"Y3 	c #2B2F2F",
"Z3 	c #2C2D2B",
"`3 	c #38352E",
" 4 	c #4F4A40",
".4 	c #322E29",
"+4 	c #09090D",
"@4 	c #0D0C11",
"#4 	c #19181C",
"$4 	c #1D1D1D",
"%4 	c #1C1C1E",
"&4 	c #211F1E",
"*4 	c #2D2927",
"=4 	c #272322",
"-4 	c #272222",
";4 	c #282323",
">4 	c #201C1B",
",4 	c #1E1A19",
"'4 	c #332C25",
")4 	c #3B332C",
"!4 	c #38322E",
"~4 	c #37322E",
"{4 	c #38332C",
"]4 	c #39342B",
"^4 	c #373329",
"/4 	c #363228",
"(4 	c #312E25",
"_4 	c #2C2A22",
":4 	c #28271C",
"<4 	c #2A281B",
"[4 	c #3A3928",
"}4 	c #4C4B34",
"|4 	c #57563A",
"14 	c #5A5A39",
"24 	c #575632",
"34 	c #585632",
"44 	c #5B5832",
"54 	c #58562B",
"64 	c #555022",
"74 	c #544E1D",
"84 	c #51491C",
"94 	c #53491D",
"04 	c #564F1F",
"a4 	c #5C5723",
"b4 	c #585923",
"c4 	c #535820",
"d4 	c #4D561D",
"e4 	c #515D1F",
"f4 	c #5B6726",
"g4 	c #626D2C",
"h4 	c #616A2D",
"i4 	c #58622A",
"j4 	c #505A26",
"k4 	c #4D5525",
"l4 	c #434D1C",
"m4 	c #454F20",
"n4 	c #444F1F",
"o4 	c #3E4A1B",
"p4 	c #3B461A",
"q4 	c #3D481C",
"r4 	c #3C481C",
"s4 	c #3E4B1E",
"t4 	c #3B481B",
"u4 	c #3C491C",
"v4 	c #2E3C16",
"w4 	c #1A270B",
"x4 	c #152209",
"y4 	c #1A260A",
"z4 	c #313F15",
"A4 	c #43511F",
"B4 	c #495621",
"C4 	c #48541F",
"D4 	c #4F5C23",
"E4 	c #535F25",
"F4 	c #586527",
"G4 	c #4B5921",
"H4 	c #4A5823",
"I4 	c #54602C",
"J4 	c #58642E",
"K4 	c #4F5D28",
"L4 	c #3E4920",
"M4 	c #2D361C",
"N4 	c #272E24",
"O4 	c #343937",
"P4 	c #3C3D40",
"Q4 	c #3F3F40",
"R4 	c #3A3A3B",
"S4 	c #323232",
"T4 	c #2A2929",
"U4 	c #2F2E2C",
"V4 	c #3C3A38",
"W4 	c #31302F",
"X4 	c #303131",
"Y4 	c #303231",
"Z4 	c #2F3232",
"`4 	c #303232",
" 5 	c #323333",
".5 	c #47423A",
"+5 	c #433E36",
"@5 	c #474035",
"#5 	c #423428",
"$5 	c #402F1E",
"%5 	c #46311C",
"&5 	c #7F6650",
"*5 	c #AD9A83",
"=5 	c #B1A28C",
"-5 	c #A99B89",
";5 	c #A19583",
">5 	c #8F8477",
",5 	c #888172",
"'5 	c #7B7368",
")5 	c #6A675F",
"!5 	c #575653",
"~5 	c #555552",
"{5 	c #565753",
"]5 	c #4B4C47",
"^5 	c #393836",
"/5 	c #343432",
"(5 	c #313334",
"_5 	c #272A2D",
":5 	c #1B1D22",
"<5 	c #191819",
"[5 	c #181617",
"}5 	c #1D1B1C",
"|5 	c #211E1F",
"15 	c #171414",
"25 	c #0C0909",
"35 	c #040302",
"45 	c #030202",
"55 	c #040202",
"65 	c #0A0606",
"75 	c #0E0A08",
"85 	c #100C0B",
"95 	c #110D0C",
"05 	c #181310",
"a5 	c #1D1A18",
"b5 	c #1F1C16",
"c5 	c #201E16",
"d5 	c #1E1B16",
"e5 	c #21201C",
"f5 	c #22231F",
"g5 	c #1E1E1D",
"h5 	c #1B1D1B",
"i5 	c #131514",
"j5 	c #111111",
"k5 	c #0F0F0F",
"l5 	c #131312",
"m5 	c #0F0F10",
"n5 	c #0B0B0C",
"o5 	c #0B0A0C",
"p5 	c #161517",
"q5 	c #201E20",
"r5 	c #211E20",
"s5 	c #1F1C1D",
"t5 	c #231F1F",
"u5 	c #282522",
"v5 	c #262320",
"w5 	c #292722",
"x5 	c #34322B",
"y5 	c #3C3931",
"z5 	c #3D3A32",
"A5 	c #39352F",
"B5 	c #292720",
"C5 	c #15120C",
"D5 	c #231E18",
"E5 	c #5F554F",
"F5 	c #86796E",
"G5 	c #827467",
"H5 	c #6F6658",
"I5 	c #595045",
"J5 	c #7B7164",
"K5 	c #7A6F62",
"L5 	c #685E50",
"M5 	c #62574A",
"N5 	c #7F7364",
"O5 	c #817466",
"P5 	c #7F7263",
"Q5 	c #827665",
"R5 	c #807363",
"S5 	c #807464",
"T5 	c #4C4436",
"U5 	c #473E34",
"V5 	c #4D433C",
"W5 	c #4C433D",
"X5 	c #483F3B",
"Y5 	c #48403C",
"Z5 	c #48403B",
"`5 	c #52483D",
" 6 	c #584D40",
".6 	c #5A4E41",
"+6 	c #52473D",
"@6 	c #3C352E",
"#6 	c #312B26",
"$6 	c #2C2723",
"%6 	c #26201E",
"&6 	c #28221E",
"*6 	c #2A241F",
"=6 	c #312A25",
"-6 	c #322C27",
";6 	c #2F2923",
">6 	c #2B2420",
",6 	c #292321",
"'6 	c #292322",
")6 	c #2A2523",
"!6 	c #554D41",
"~6 	c #4B4236",
"{6 	c #40362A",
"]6 	c #3F342B",
"^6 	c #423730",
"/6 	c #443934",
"(6 	c #362C2A",
"_6 	c #251D1C",
":6 	c #211A1A",
"<6 	c #251F1F",
"[6 	c #221E1D",
"}6 	c #131012",
"|6 	c #050407",
"16 	c #000003",
"26 	c #0E0A0C",
"36 	c #201C19",
"46 	c #302C27",
"56 	c #49443B",
"66 	c #5A5345",
"76 	c #675F4E",
"86 	c #5F5647",
"96 	c #463D35",
"06 	c #39322E",
"a6 	c #393433",
"b6 	c #252220",
"c6 	c #242020",
"d6 	c #332A26",
"e6 	c #352B25",
"f6 	c #2F231F",
"g6 	c #261B18",
"h6 	c #1A110F",
"i6 	c #140D0D",
"j6 	c #261C17",
"k6 	c #30251D",
"l6 	c #31261E",
"m6 	c #2C231C",
"n6 	c #221C17",
"o6 	c #1F1C1E",
"p6 	c #322B28",
"q6 	c #3D342F",
"r6 	c #3A332D",
"s6 	c #34302B",
"t6 	c #2F2E2A",
"u6 	c #30322E",
"v6 	c #2D3130",
"w6 	c #303432",
"x6 	c #333330",
"y6 	c #423E37",
"z6 	c #565046",
"A6 	c #545045",
"B6 	c #2F2C27",
"C6 	c #0B0B0E",
"D6 	c #18171A",
"E6 	c #1B1B1D",
"F6 	c #141417",
"G6 	c #0C0D0F",
"H6 	c #1B1612",
"I6 	c #352F2A",
"J6 	c #37322C",
"K6 	c #36312C",
"L6 	c #38352B",
"M6 	c #353328",
"N6 	c #302E24",
"O6 	c #2A291F",
"P6 	c #262618",
"Q6 	c #33331D",
"R6 	c #565637",
"S6 	c #63643B",
"T6 	c #5F6131",
"U6 	c #5C5F2C",
"V6 	c #5A5B28",
"W6 	c #5B5B2A",
"X6 	c #5D5B2A",
"Y6 	c #5C5B27",
"Z6 	c #58551F",
"`6 	c #544F1A",
" 7 	c #4B4514",
".7 	c #4A4616",
"+7 	c #4B4816",
"@7 	c #55531E",
"#7 	c #585C23",
"$7 	c #545D21",
"%7 	c #4F5A1D",
"&7 	c #4F5D1E",
"*7 	c #4F5E20",
"=7 	c #526022",
"-7 	c #505C22",
";7 	c #4E5A23",
">7 	c #596430",
",7 	c #565F2E",
"'7 	c #3C4718",
")7 	c #3C4618",
"!7 	c #3C481A",
"~7 	c #3D491D",
"{7 	c #3A471A",
"]7 	c #39451B",
"^7 	c #263212",
"/7 	c #0B1604",
"(7 	c #030A01",
"_7 	c #071201",
":7 	c #1F2C0C",
"<7 	c #38431A",
"[7 	c #596729",
"}7 	c #616F2A",
"|7 	c #627129",
"17 	c #64722B",
"27 	c #626F2A",
"37 	c #66742E",
"47 	c #5D6A2B",
"57 	c #4C5923",
"67 	c #343D16",
"77 	c #212810",
"87 	c #181D12",
"97 	c #1D201C",
"07 	c #1F1F22",
"a7 	c #1F1F21",
"b7 	c #201E1F",
"c7 	c #33312F",
"d7 	c #3E3A38",
"e7 	c #413B3A",
"f7 	c #3C3836",
"g7 	c #353331",
"h7 	c #2F3030",
"i7 	c #313333",
"j7 	c #313233",
"k7 	c #323231",
"l7 	c #423C36",
"m7 	c #474037",
"n7 	c #3F3329",
"o7 	c #372A1C",
"p7 	c #3D2D1A",
"q7 	c #796553",
"r7 	c #AB9B89",
"s7 	c #AEA290",
"t7 	c #A89E8E",
"u7 	c #A19889",
"v7 	c #90877C",
"w7 	c #898275",
"x7 	c #7B756B",
"y7 	c #6A6861",
"z7 	c #585955",
"A7 	c #575855",
"B7 	c #484946",
"C7 	c #2E2E2E",
"D7 	c #2C2F30",
"E7 	c #24272B",
"F7 	c #1C1D20",
"G7 	c #181718",
"H7 	c #161415",
"I7 	c #1B181A",
"J7 	c #242022",
"K7 	c #1A1718",
"L7 	c #0F0C0A",
"M7 	c #0D0A08",
"N7 	c #0C0807",
"O7 	c #0D0907",
"P7 	c #120C0B",
"Q7 	c #1A1411",
"R7 	c #1F1915",
"S7 	c #1F1814",
"T7 	c #231D17",
"U7 	c #271F1A",
"V7 	c #322A20",
"W7 	c #3D3127",
"X7 	c #3F3124",
"Y7 	c #433422",
"Z7 	c #43321E",
"`7 	c #42321D",
" 8 	c #3F2E1D",
".8 	c #423627",
"+8 	c #4A4536",
"@8 	c #4E4A40",
"#8 	c #4A4841",
"$8 	c #46453E",
"%8 	c #373530",
"&8 	c #282622",
"*8 	c #24221E",
"=8 	c #211F1D",
"-8 	c #1B1919",
";8 	c #080607",
">8 	c #0A090B",
",8 	c #171517",
"'8 	c #211D1E",
")8 	c #1E1A1B",
"!8 	c #221E1E",
"~8 	c #23201D",
"{8 	c #282520",
"]8 	c #3A3830",
"^8 	c #28251F",
"/8 	c #120E0B",
"(8 	c #1F1917",
"_8 	c #59514B",
":8 	c #7E7367",
"<8 	c #7C7063",
"[8 	c #6C6256",
"}8 	c #594F44",
"|8 	c #554C40",
"18 	c #696053",
"28 	c #71665A",
"38 	c #6D6154",
"48 	c #6A5F51",
"58 	c #726658",
"68 	c #807465",
"78 	c #857969",
"88 	c #867868",
"98 	c #887A68",
"08 	c #867866",
"a8 	c #847766",
"b8 	c #453C31",
"c8 	c #3F372D",
"d8 	c #4C433B",
"e8 	c #4A413C",
"f8 	c #4C453F",
"g8 	c #5B5143",
"h8 	c #5C5042",
"i8 	c #5C5043",
"j8 	c #5B5042",
"k8 	c #3C352F",
"l8 	c #2C2826",
"m8 	c #2A2421",
"n8 	c #38312C",
"o8 	c #312924",
"p8 	c #302822",
"q8 	c #2C251F",
"r8 	c #2D2521",
"s8 	c #2C2522",
"t8 	c #2D2824",
"u8 	c #2E2924",
"v8 	c #332D27",
"w8 	c #494038",
"x8 	c #574E40",
"y8 	c #504637",
"z8 	c #473C2E",
"A8 	c #4A3E33",
"B8 	c #51463C",
"C8 	c #544942",
"D8 	c #413633",
"E8 	c #29201D",
"F8 	c #221A19",
"G8 	c #241E1C",
"H8 	c #1F1A1A",
"I8 	c #020103",
"J8 	c #040204",
"K8 	c #312C26",
"L8 	c #484339",
"M8 	c #574F42",
"N8 	c #605746",
"O8 	c #584E3F",
"P8 	c #413830",
"Q8 	c #39312E",
"R8 	c #393332",
"S8 	c #302C2C",
"T8 	c #2B2524",
"U8 	c #322926",
"V8 	c #322824",
"W8 	c #2C201D",
"X8 	c #231816",
"Y8 	c #190F0E",
"Z8 	c #120C0C",
"`8 	c #171111",
" 9 	c #251D1A",
".9 	c #2E241D",
"+9 	c #2B221B",
"@9 	c #231C16",
"#9 	c #1C1716",
"$9 	c #38302B",
"%9 	c #37302B",
"&9 	c #34312B",
"*9 	c #302F2C",
"=9 	c #303230",
"-9 	c #2D3231",
";9 	c #2E3231",
">9 	c #32332F",
",9 	c #443F39",
"'9 	c #595149",
")9 	c #585148",
"!9 	c #0B090C",
"~9 	c #1D1A1D",
"{9 	c #1C1A1D",
"]9 	c #1D1D1E",
"^9 	c #1B1B1C",
"/9 	c #111214",
"(9 	c #1C1B1B",
"_9 	c #201E1D",
":9 	c #201B1B",
"<9 	c #161413",
"[9 	c #1C1916",
"}9 	c #35312C",
"|9 	c #34312C",
"19 	c #38352D",
"29 	c #38362C",
"39 	c #353428",
"49 	c #333227",
"59 	c #2E2E23",
"69 	c #28291D",
"79 	c #232515",
"89 	c #34361D",
"99 	c #575C34",
"09 	c #616632",
"a9 	c #5C6128",
"b9 	c #5C5F27",
"c9 	c #5B5D26",
"d9 	c #5C5E27",
"e9 	c #5A5B26",
"f9 	c #5B5D25",
"g9 	c #575720",
"h9 	c #57551F",
"i9 	c #4F4C1C",
"j9 	c #494819",
"k9 	c #464718",
"l9 	c #525421",
"m9 	c #585F27",
"n9 	c #556024",
"o9 	c #505D20",
"p9 	c #505F20",
"q9 	c #4D5C1F",
"r9 	c #4B5822",
"s9 	c #505C2A",
"t9 	c #5B6533",
"u9 	c #576130",
"v9 	c #455020",
"w9 	c #3A4417",
"x9 	c #3A4418",
"y9 	c #3C471A",
"z9 	c #3C461B",
"A9 	c #3C481B",
"B9 	c #3C491D",
"C9 	c #39471A",
"D9 	c #38441B",
"E9 	c #283313",
"F9 	c #111A06",
"G9 	c #040D01",
"H9 	c #091301",
"I9 	c #1E290D",
"J9 	c #343F1C",
"K9 	c #3F4920",
"L9 	c #424E1F",
"M9 	c #5E6C2B",
"N9 	c #66742A",
"O9 	c #667226",
"P9 	c #697629",
"Q9 	c #667227",
"R9 	c #647126",
"S9 	c #596623",
"T9 	c #47531B",
"U9 	c #313A10",
"V9 	c #21280A",
"W9 	c #1A1E0B",
"X9 	c #1C1F11",
"Y9 	c #1A1A14",
"Z9 	c #222220",
"`9 	c #2A2928",
" 0 	c #33312C",
".0 	c #3D3935",
"+0 	c #494340",
"@0 	c #4C4542",
"#0 	c #443E3B",
"$0 	c #383432",
"%0 	c #2F2F2E",
"&0 	c #2F312F",
"*0 	c #2E3130",
"=0 	c #313232",
"-0 	c #4B4640",
";0 	c #4D433B",
">0 	c #473D32",
",0 	c #483D2C",
"'0 	c #796A59",
")0 	c #A79A89",
"!0 	c #AEA594",
"~0 	c #A8A091",
"{0 	c #A09A8C",
"]0 	c #8F897D",
"^0 	c #868074",
"/0 	c #7A776C",
"(0 	c #67655E",
"_0 	c #585954",
":0 	c #575753",
"<0 	c #464642",
"[0 	c #2D2E2C",
"}0 	c #2B2D2E",
"|0 	c #222428",
"10 	c #1B1D20",
"20 	c #0B0C0C",
"30 	c #0E0B0B",
"40 	c #110D0B",
"50 	c #1B1511",
"60 	c #1B1411",
"70 	c #18110E",
"80 	c #1A120F",
"90 	c #1D1511",
"00 	c #261D18",
"a0 	c #2F251E",
"b0 	c #332921",
"c0 	c #32271E",
"d0 	c #392E23",
"e0 	c #423429",
"f0 	c #504030",
"g0 	c #55412D",
"h0 	c #5C452F",
"i0 	c #64472C",
"j0 	c #724E2C",
"k0 	c #754E29",
"l0 	c #724D26",
"m0 	c #6A4724",
"n0 	c #6F5638",
"o0 	c #85765C",
"p0 	c #908571",
"q0 	c #8D8576",
"r0 	c #888275",
"s0 	c #736F63",
"t0 	c #524D43",
"u0 	c #3E3932",
"v0 	c #302B26",
"w0 	c #312C29",
"x0 	c #221E1C",
"y0 	c #0B0908",
"z0 	c #0A080A",
"A0 	c #201D1E",
"B0 	c #22201D",
"C0 	c #272520",
"D0 	c #3C3932",
"E0 	c #3F3B33",
"F0 	c #3B372F",
"G0 	c #2A2721",
"H0 	c #140F0D",
"I0 	c #1E1916",
"J0 	c #544D47",
"K0 	c #7B6F62",
"L0 	c #72685A",
"M0 	c #665C51",
"N0 	c #62594D",
"O0 	c #62594C",
"P0 	c #696152",
"Q0 	c #6D6456",
"R0 	c #756A5D",
"S0 	c #73685B",
"T0 	c #73685A",
"U0 	c #736759",
"V0 	c #796F60",
"W0 	c #786D5E",
"X0 	c #706556",
"Y0 	c #6E6353",
"Z0 	c #695E4F",
"`0 	c #685E4F",
" a 	c #584F43",
".a 	c #3F392F",
"+a 	c #3D372E",
"@a 	c #433C36",
"#a 	c #453F39",
"$a 	c #453E38",
"%a 	c #504638",
"&a 	c #514638",
"*a 	c #514538",
"=a 	c #4E4336",
"-a 	c #2E2A28",
";a 	c #2E2927",
">a 	c #35302B",
",a 	c #3C3832",
"'a 	c #473F37",
")a 	c #494036",
"!a 	c #484034",
"~a 	c #423A2F",
"{a 	c #3E352C",
"]a 	c #39302A",
"^a 	c #36302A",
"/a 	c #4D453A",
"(a 	c #5B5142",
"_a 	c #5B503F",
":a 	c #594D3D",
"<a 	c #5D5041",
"[a 	c #5F5246",
"}a 	c #5E5249",
"|a 	c #463B35",
"1a 	c #2E241F",
"2a 	c #271F1B",
"3a 	c #29221F",
"4a 	c #322D29",
"5a 	c #3F3A32",
"6a 	c #584E41",
"7a 	c #594F40",
"8a 	c #4D4234",
"9a 	c #3D322B",
"0a 	c #39302E",
"aa 	c #3B3533",
"ba 	c #322E2D",
"ca 	c #2F2522",
"da 	c #302522",
"ea 	c #2A1E1B",
"fa 	c #231815",
"ga 	c #1A100E",
"ha 	c #150D0E",
"ia 	c #1A1414",
"ja 	c #30261E",
"ka 	c #352A20",
"la 	c #2F251D",
"ma 	c #29221A",
"na 	c #251E19",
"oa 	c #28221F",
"pa 	c #2D2723",
"qa 	c #302924",
"ra 	c #372F2A",
"sa 	c #303330",
"ta 	c #2F3332",
"ua 	c #343632",
"va 	c #554E47",
"wa 	c #5F5950",
"xa 	c #353131",
"ya 	c #343131",
"za 	c #2D2A2B",
"Aa 	c #242123",
"Ba 	c #232423",
"Ca 	c #252626",
"Da 	c #2B2B2D",
"Ea 	c #27282A",
"Fa 	c #202122",
"Ga 	c #171819",
"Ha 	c #1C1C1C",
"Ia 	c #282626",
"Ja 	c #181615",
"Ka 	c #1D1B18",
"La 	c #37332D",
"Ma 	c #3A3730",
"Na 	c #3D3B31",
"Oa 	c #3D3D2F",
"Pa 	c #393A2A",
"Qa 	c #353728",
"Ra 	c #2F3023",
"Sa 	c #2A2E1E",
"Ta 	c #262A16",
"Ua 	c #313719",
"Va 	c #444F22",
"Wa 	c #49541E",
"Xa 	c #49521D",
"Ya 	c #4B5320",
"Za 	c #484F22",
"`a 	c #464B21",
" b 	c #464B1F",
".b 	c #44481D",
"+b 	c #474A20",
"@b 	c #42431F",
"#b 	c #393B1A",
"$b 	c #323714",
"%b 	c #3D421A",
"&b 	c #454E20",
"*b 	c #46541F",
"=b 	c #44531B",
"-b 	c #47571C",
";b 	c #49591D",
">b 	c #48571F",
",b 	c #485522",
"'b 	c #4A5526",
")b 	c #505B2B",
"!b 	c #4D5728",
"~b 	c #424D1F",
"{b 	c #3C461A",
"]b 	c #3D461A",
"^b 	c #3D481B",
"/b 	c #3D4A1D",
"(b 	c #39461A",
"_b 	c #3B491C",
":b 	c #3B481D",
"<b 	c #2B3815",
"[b 	c #1A250A",
"}b 	c #152109",
"|b 	c #19240B",
"1b 	c #1D270F",
"2b 	c #232E15",
"3b 	c #293519",
"4b 	c #2F3A19",
"5b 	c #404B22",
"6b 	c #55612A",
"7b 	c #5F6E2B",
"8b 	c #5B6823",
"9b 	c #596622",
"0b 	c #57621F",
"ab 	c #55611D",
"bb 	c #4F5B1A",
"cb 	c #475217",
"db 	c #394313",
"eb 	c #313A13",
"fb 	c #2E3514",
"gb 	c #2C3317",
"hb 	c #292D19",
"ib 	c #2A2B20",
"jb 	c #30302A",
"kb 	c #3A3A35",
"lb 	c #433F38",
"mb 	c #49433D",
"nb 	c #534B46",
"ob 	c #544B46",
"pb 	c #4B443F",
"qb 	c #3C3633",
"rb 	c #34312F",
"sb 	c #30312F",
"tb 	c #333332",
"ub 	c #363634",
"vb 	c #3D3B37",
"wb 	c #4D4943",
"xb 	c #4F4D46",
"yb 	c #5E5B53",
"zb 	c #6C655D",
"Ab 	c #70675E",
"Bb 	c #9E9586",
"Cb 	c #AAA194",
"Db 	c #A8A194",
"Eb 	c #A0998D",
"Fb 	c #8D877C",
"Gb 	c #7F796F",
"Hb 	c #726E66",
"Ib 	c #5D5A55",
"Jb 	c #4C4A47",
"Kb 	c #494642",
"Lb 	c #3C3935",
"Mb 	c #292726",
"Nb 	c #272628",
"Ob 	c #222225",
"Pb 	c #1C1C20",
"Qb 	c #1B191B",
"Rb 	c #0C0C0C",
"Sb 	c #161315",
"Tb 	c #141214",
"Ub 	c #0C0B0B",
"Vb 	c #050404",
"Wb 	c #020001",
"Xb 	c #0D0807",
"Yb 	c #211814",
"Zb 	c #1F1612",
"`b 	c #1F1511",
" c 	c #201611",
".c 	c #221813",
"+c 	c #2F241D",
"@c 	c #382B23",
"#c 	c #3A2D24",
"$c 	c #382920",
"%c 	c #413127",
"&c 	c #4F3B2F",
"*c 	c #5D4735",
"=c 	c #5D432E",
"-c 	c #64452A",
";c 	c #744C28",
">c 	c #905D2F",
",c 	c #966030",
"'c 	c #8E5A2A",
")c 	c #7F5125",
"!c 	c #896742",
"~c 	c #A59070",
"{c 	c #B1A38A",
"]c 	c #B0A691",
"^c 	c #ADA594",
"/c 	c #958D80",
"(c 	c #6C6559",
"_c 	c #524A40",
":c 	c #4D453E",
"<c 	c #3A322C",
"[c 	c #382F2A",
"}c 	c #3D3531",
"|c 	c #282120",
"1c 	c #0B0706",
"2c 	c #020000",
"3c 	c #151314",
"4c 	c #1E1B1D",
"5c 	c #262120",
"6c 	c #24201F",
"7c 	c #26231F",
"8c 	c #3D3932",
"9c 	c #3E3931",
"0c 	c #130D0C",
"ac 	c #1B1412",
"bc 	c #4E4741",
"cc 	c #766B5D",
"dc 	c #7B7061",
"ec 	c #7B7062",
"fc 	c #7E7366",
"gc 	c #7D7364",
"hc 	c #807666",
"ic 	c #807567",
"jc 	c #84796B",
"kc 	c #7E7266",
"lc 	c #75675C",
"mc 	c #67594E",
"nc 	c #615648",
"oc 	c #443B31",
"pc 	c #40372E",
"qc 	c #40382E",
"rc 	c #3C332B",
"sc 	c #36312B",
"tc 	c #312C28",
"uc 	c #393026",
"vc 	c #403529",
"wc 	c #413429",
"xc 	c #44372B",
"yc 	c #41342A",
"zc 	c #342A23",
"Ac 	c #1F1816",
"Bc 	c #302A28",
"Cc 	c #39332F",
"Dc 	c #403933",
"Ec 	c #4F473D",
"Fc 	c #5A5043",
"Gc 	c #5C5142",
"Hc 	c #574B3C",
"Ic 	c #4D4336",
"Jc 	c #41372F",
"Kc 	c #3E362F",
"Lc 	c #3B332E",
"Mc 	c #39312C",
"Nc 	c #3B332B",
"Oc 	c #4C4136",
"Pc 	c #5E5243",
"Qc 	c #655746",
"Rc 	c #655545",
"Sc 	c #695848",
"Tc 	c #655448",
"Uc 	c #5B4C43",
"Vc 	c #443730",
"Wc 	c #2D211D",
"Xc 	c #281E1A",
"Yc 	c #29211D",
"Zc 	c #231D1A",
"`c 	c #0E0C0E",
" d 	c #0B090A",
".d 	c #2E2826",
"+d 	c #4F4941",
"@d 	c #594E40",
"#d 	c #4A3F33",
"$d 	c #3B302A",
"%d 	c #382E2D",
"&d 	c #332E2E",
"*d 	c #291E1B",
"=d 	c #271A18",
"-d 	c #231715",
";d 	c #1B0F0E",
">d 	c #160D0D",
",d 	c #1A1314",
"'d 	c #29211C",
")d 	c #31271E",
"!d 	c #352A1F",
"~d 	c #33291F",
"{d 	c #332920",
"]d 	c #302820",
"^d 	c #312A23",
"/d 	c #332B25",
"(d 	c #322B25",
"_d 	c #342D27",
":d 	c #2F312E",
"<d 	c #343735",
"[d 	c #3B3834",
"}d 	c #625C52",
"|d 	c #777169",
"1d 	c #7B7772",
"2d 	c #7B7573",
"3d 	c #77716E",
"4d 	c #524C4B",
"5d 	c #2D292A",
"6d 	c #232123",
"7d 	c #29292A",
"8d 	c #2E2D2F",
"9d 	c #343436",
"0d 	c #313033",
"ad 	c #272729",
"bd 	c #1E1E1F",
"cd 	c #33302F",
"dd 	c #3A3632",
"ed 	c #393430",
"fd 	c #3B3431",
"gd 	c #38312E",
"hd 	c #26221F",
"id 	c #100E0E",
"jd 	c #0C0B0C",
"kd 	c #0C0A0C",
"ld 	c #13100F",
"md 	c #2E2926",
"nd 	c #39342F",
"od 	c #37342D",
"pd 	c #3B3930",
"qd 	c #404033",
"rd 	c #41432F",
"sd 	c #3F432A",
"td 	c #3C4228",
"ud 	c #373E24",
"vd 	c #343C21",
"wd 	c #32381B",
"xd 	c #343F17",
"yd 	c #334112",
"zd 	c #2B390B",
"Ad 	c #252E0A",
"Bd 	c #242B0C",
"Cd 	c #21260B",
"Dd 	c #1F240D",
"Ed 	c #1D200D",
"Fd 	c #1B1F0B",
"Gd 	c #181C09",
"Hd 	c #1B1E0B",
"Id 	c #1A1A0B",
"Jd 	c #131508",
"Kd 	c #0D1003",
"Ld 	c #121603",
"Md 	c #1E2708",
"Nd 	c #29350E",
"Od 	c #2E3A0F",
"Pd 	c #384715",
"Qd 	c #41501A",
"Rd 	c #47551D",
"Sd 	c #444F20",
"Td 	c #3E491E",
"Ud 	c #3E471C",
"Vd 	c #3C451B",
"Wd 	c #3C441A",
"Xd 	c #3E461B",
"Yd 	c #3E481B",
"Zd 	c #3F4B1F",
"`d 	c #3D491E",
" e 	c #3C491E",
".e 	c #3A471C",
"+e 	c #39461B",
"@e 	c #354318",
"#e 	c #283511",
"$e 	c #202B0C",
"%e 	c #242F12",
"&e 	c #242D15",
"*e 	c #101909",
"=e 	c #030902",
"-e 	c #050C05",
";e 	c #070C04",
">e 	c #171F0B",
",e 	c #31391A",
"'e 	c #3C471C",
")e 	c #384216",
"!e 	c #364114",
"~e 	c #384313",
"{e 	c #414B15",
"]e 	c #434D13",
"^e 	c #444F15",
"/e 	c #424C17",
"(e 	c #414B19",
"_e 	c #3D4619",
":e 	c #3A431A",
"<e 	c #2E301F",
"[e 	c #33332A",
"}e 	c #3D3D36",
"|e 	c #434038",
"1e 	c #4C443E",
"2e 	c #524943",
"3e 	c #554A45",
"4e 	c #4B413D",
"5e 	c #302E2D",
"6e 	c #30312E",
"7e 	c #31322F",
"8e 	c #323330",
"9e 	c #383734",
"0e 	c #43413B",
"ae 	c #48453F",
"be 	c #46433E",
"ce 	c #525049",
"de 	c #52504A",
"ee 	c #646059",
"fe 	c #767067",
"ge 	c #7D756A",
"he 	c #7B7365",
"ie 	c #827A6A",
"je 	c #999383",
"ke 	c #A6A091",
"le 	c #A8A294",
"me 	c #9F9A8C",
"ne 	c #8B867A",
"oe 	c #7D786D",
"pe 	c #6F6C63",
"qe 	c #57554F",
"re 	c #43423D",
"se 	c #413F39",
"te 	c #262424",
"ue 	c #232224",
"ve 	c #0B0705",
"we 	c #211A16",
"xe 	c #241B17",
"ye 	c #1E1410",
"ze 	c #211711",
"Ae 	c #241A15",
"Be 	c #30251F",
"Ce 	c #392D26",
"De 	c #3E3128",
"Ee 	c #3E3026",
"Fe 	c #48382D",
"Ge 	c #574537",
"He 	c #634F3B",
"Ie 	c #634B32",
"Je 	c #6A4C2D",
"Ke 	c #7D552C",
"Le 	c #9D6A35",
"Me 	c #A56D35",
"Ne 	c #9A632D",
"Oe 	c #855524",
"Pe 	c #8C6941",
"Qe 	c #A99474",
"Re 	c #B6AA90",
"Se 	c #B3AA96",
"Te 	c #B1A998",
"Ue 	c #9A9386",
"Ve 	c #70685E",
"We 	c #534A42",
"Xe 	c #50483F",
"Ye 	c #3E352F",
"Ze 	c #3D342E",
"`e 	c #0C0907",
" f 	c #020100",
".f 	c #211D1A",
"+f 	c #26231E",
"@f 	c #3C3831",
"#f 	c #3E3B32",
"$f 	c #3B3730",
"%f 	c #292520",
"&f 	c #130E0B",
"*f 	c #4B443D",
"=f 	c #71695D",
"-f 	c #776D5F",
";f 	c #7E7664",
">f 	c #867B6B",
",f 	c #8E8372",
"'f 	c #8D8270",
")f 	c #8F8574",
"!f 	c #908676",
"~f 	c #887C6D",
"{f 	c #776A5D",
"]f 	c #5E5145",
"^f 	c #504537",
"/f 	c #42382E",
"(f 	c #3C342C",
"_f 	c #342C26",
":f 	c #312B23",
"<f 	c #332D25",
"[f 	c #2F2922",
"}f 	c #28241F",
"|f 	c #272420",
"1f 	c #27221F",
"2f 	c #231F1C",
"3f 	c #312820",
"4f 	c #3C3127",
"5f 	c #3E3227",
"6f 	c #413529",
"7f 	c #302721",
"8f 	c #0A0809",
"9f 	c #312B29",
"0f 	c #3D3633",
"af 	c #3C3632",
"bf 	c #3C3731",
"cf 	c #635746",
"df 	c #605343",
"ef 	c #53483A",
"ff 	c #43382F",
"gf 	c #3A312D",
"hf 	c #4B4135",
"if 	c #5F5343",
"jf 	c #695C49",
"kf 	c #6B5B49",
"lf 	c #6F5F4D",
"mf 	c #695A4A",
"nf 	c #5B4D41",
"of 	c #42352C",
"pf 	c #32251F",
"qf 	c #2D221E",
"rf 	c #2B221E",
"sf 	c #201915",
"tf 	c #191412",
"uf 	c #1C1A1A",
"vf 	c #0E0D0E",
"wf 	c #110E0D",
"xf 	c #4F4A41",
"yf 	c #5E574C",
"zf 	c #5F564B",
"Af 	c #4F4539",
"Bf 	c #39312F",
"Cf 	c #3E3836",
"Df 	c #363130",
"Ef 	c #262221",
"Ff 	c #1D1917",
"Gf 	c #1F1817",
"Hf 	c #241A17",
"If 	c #271B18",
"Jf 	c #251816",
"Kf 	c #1E1210",
"Lf 	c #180F0E",
"Mf 	c #1A1313",
"Nf 	c #261F1B",
"Of 	c #2F251C",
"Pf 	c #32281E",
"Qf 	c #342B20",
"Rf 	c #332A21",
"Sf 	c #332C23",
"Tf 	c #342C24",
"Uf 	c #352D26",
"Vf 	c #32322E",
"Wf 	c #30322F",
"Xf 	c #303331",
"Yf 	c #343736",
"Zf 	c #393833",
"`f 	c #413D35",
" g 	c #837B74",
".g 	c #908983",
"+g 	c #918A86",
"@g 	c #89837D",
"#g 	c #5A5451",
"$g 	c #322E2E",
"%g 	c #313031",
"&g 	c #373637",
"*g 	c #3E3D3E",
"=g 	c #38383A",
"-g 	c #303031",
";g 	c #262525",
">g 	c #3D3934",
",g 	c #443C37",
"'g 	c #0D0C0C",
")g 	c #3A3530",
"!g 	c #37332E",
"~g 	c #37352C",
"{g 	c #3D3C31",
"]g 	c #454734",
"^g 	c #47512A",
"/g 	c #475329",
"(g 	c #455326",
"_g 	c #455421",
":g 	c #42511B",
"<g 	c #415218",
"[g 	c #364712",
"}g 	c #212F07",
"|g 	c #121A03",
"1g 	c #111504",
"2g 	c #0F1104",
"3g 	c #0F0F05",
"4g 	c #0C0C05",
"5g 	c #0B0B04",
"6g 	c #0B0B03",
"7g 	c #0C0B04",
"8g 	c #0A0804",
"9g 	c #070602",
"0g 	c #020300",
"ag 	c #060801",
"bg 	c #141907",
"cg 	c #232B0F",
"dg 	c #2A3411",
"eg 	c #364317",
"fg 	c #42511C",
"gg 	c #38441A",
"hg 	c #354017",
"ig 	c #363F17",
"jg 	c #394219",
"kg 	c #3B421A",
"lg 	c #3F451C",
"mg 	c #3C4419",
"ng 	c #3D481A",
"og 	c #3E4A1D",
"pg 	c #424E21",
"qg 	c #3A471D",
"rg 	c #38461B",
"sg 	c #314116",
"tg 	c #24340C",
"ug 	c #1F2B09",
"vg 	c #273111",
"wg 	c #252F16",
"xg 	c #0A1308",
"yg 	c #050904",
"zg 	c #181D0F",
"Ag 	c #1F2411",
"Bg 	c #1A200A",
"Cg 	c #191F08",
"Dg 	c #242C0D",
"Eg 	c #363E14",
"Fg 	c #404B16",
"Gg 	c #424F18",
"Hg 	c #424E18",
"Ig 	c #435119",
"Jg 	c #404B1A",
"Kg 	c #343D19",
"Lg 	c #2F341E",
"Mg 	c #32342A",
"Ng 	c #3C3C35",
"Og 	c #403E37",
"Pg 	c #49423C",
"Qg 	c #544945",
"Rg 	c #4A423D",
"Sg 	c #323430",
"Tg 	c #373934",
"Ug 	c #43413A",
"Vg 	c #4B4741",
"Wg 	c #494641",
"Xg 	c #55524D",
"Yg 	c #524E4A",
"Zg 	c #625D57",
"`g 	c #736B62",
" h 	c #777064",
".h 	c #786E61",
"+h 	c #807668",
"@h 	c #968E80",
"#h 	c #A29A8C",
"$h 	c #A49D90",
"%h 	c #9C9588",
"&h 	c #878075",
"*h 	c #787368",
"=h 	c #6C685F",
"-h 	c #47443F",
";h 	c #342E28",
">h 	c #27211F",
",h 	c #272121",
"'h 	c #1D1B1F",
")h 	c #1F1C20",
"!h 	c #0C0B0D",
"~h 	c #100F10",
"{h 	c #0A0605",
"]h 	c #221A16",
"^h 	c #201914",
"/h 	c #1D1410",
"(h 	c #231A15",
"_h 	c #2F2620",
":h 	c #362C26",
"<h 	c #3E3228",
"[h 	c #483B2F",
"}h 	c #524235",
"|h 	c #5E4C39",
"1h 	c #624D35",
"2h 	c #6D5134",
"3h 	c #7E5A33",
"4h 	c #976A38",
"5h 	c #9D6C37",
"6h 	c #93612D",
"7h 	c #7C5125",
"8h 	c #846643",
"9h 	c #A19177",
"0h 	c #B1A893",
"ah 	c #ADA796",
"bh 	c #A9A496",
"ch 	c #928C80",
"dh 	c #686258",
"eh 	c #504941",
"fh 	c #4A433B",
"gh 	c #211A1B",
"hh 	c #241F1E",
"ih 	c #3D3831",
"jh 	c #27231E",
"kh 	c #110C09",
"lh 	c #18120F",
"mh 	c #463F3A",
"nh 	c #6C645B",
"oh 	c #73695D",
"ph 	c #797061",
"qh 	c #7F7465",
"rh 	c #8B7F6E",
"sh 	c #8E8170",
"th 	c #938875",
"uh 	c #8F8474",
"vh 	c #8E8173",
"wh 	c #85796B",
"xh 	c #5D4F44",
"yh 	c #52473B",
"zh 	c #483E34",
"Ah 	c #433B33",
"Bh 	c #362F29",
"Ch 	c #322B26",
"Dh 	c #322D26",
"Eh 	c #2A2621",
"Fh 	c #1F1C19",
"Gh 	c #221F1C",
"Hh 	c #25211D",
"Ih 	c #302922",
"Jh 	c #3D3229",
"Kh 	c #3F3429",
"Lh 	c #3B2E25",
"Mh 	c #392D24",
"Nh 	c #2B231E",
"Oh 	c #0C0A0A",
"Ph 	c #3C3732",
"Qh 	c #3B362F",
"Rh 	c #473F35",
"Sh 	c #5B5043",
"Th 	c #645748",
"Uh 	c #615444",
"Vh 	c #524639",
"Wh 	c #433830",
"Xh 	c #39322C",
"Yh 	c #3A312A",
"Zh 	c #473E32",
"`h 	c #564A3B",
" i 	c #625443",
".i 	c #665645",
"+i 	c #685947",
"@i 	c #635344",
"#i 	c #58483B",
"$i 	c #45362D",
"%i 	c #3C2E26",
"&i 	c #3A2D27",
"*i 	c #352925",
"=i 	c #261D19",
"-i 	c #3B342F",
";i 	c #585248",
">i 	c #5B534A",
",i 	c #5B5348",
"'i 	c #4F463D",
")i 	c #3D3735",
"!i 	c #373130",
"~i 	c #272221",
"{i 	c #1D1816",
"]i 	c #1D1715",
"^i 	c #251A18",
"/i 	c #251918",
"(i 	c #241817",
"_i 	c #1D1212",
":i 	c #160D0E",
"<i 	c #181212",
"[i 	c #241D19",
"}i 	c #2A221A",
"|i 	c #30271D",
"1i 	c #31271D",
"2i 	c #342A1F",
"3i 	c #332B22",
"4i 	c #332B23",
"5i 	c #332C24",
"6i 	c #352E28",
"7i 	c #2F302D",
"8i 	c #2F3231",
"9i 	c #313534",
"0i 	c #333533",
"ai 	c #353531",
"bi 	c #8B847D",
"ci 	c #99938C",
"di 	c #968E89",
"ei 	c #857E79",
"fi 	c #57514E",
"gi 	c #312D2E",
"hi 	c #2D2A2D",
"ii 	c #373536",
"ji 	c #3B3A3B",
"ki 	c #424142",
"li 	c #403E40",
"mi 	c #433B38",
"ni 	c #2C2724",
"oi 	c #110F0E",
"pi 	c #060607",
"qi 	c #080706",
"ri 	c #161310",
"si 	c #37302D",
"ti 	c #35332B",
"ui 	c #3B3B2F",
"vi 	c #434730",
"wi 	c #46512A",
"xi 	c #475524",
"yi 	c #4A5824",
"zi 	c #4A5821",
"Ai 	c #4B5D1D",
"Bi 	c #4A5B18",
"Ci 	c #475D15",
"Di 	c #3C4C14",
"Ei 	c #242F0C",
"Fi 	c #151B06",
"Gi 	c #141309",
"Hi 	c #16140B",
"Ii 	c #13110A",
"Ji 	c #12100A",
"Ki 	c #11100A",
"Li 	c #0C0A06",
"Mi 	c #090803",
"Ni 	c #040400",
"Oi 	c #090B02",
"Pi 	c #171C0C",
"Qi 	c #242B14",
"Ri 	c #293314",
"Si 	c #364219",
"Ti 	c #404F1B",
"Ui 	c #45541D",
"Vi 	c #44511E",
"Wi 	c #374219",
"Xi 	c #363F18",
"Yi 	c #363D18",
"Zi 	c #384019",
"`i 	c #393F18",
" j 	c #3A4018",
".j 	c #3C451A",
"+j 	c #414A1F",
"@j 	c #444F23",
"#j 	c #404B20",
"$j 	c #38461C",
"%j 	c #334118",
"&j 	c #26340E",
"*j 	c #202B09",
"=j 	c #273210",
"-j 	c #252F14",
";j 	c #0D1509",
">j 	c #060908",
",j 	c #151812",
"'j 	c #171B11",
")j 	c #11160A",
"!j 	c #111709",
"~j 	c #202611",
"{j 	c #373E1C",
"]j 	c #3F4A1E",
"^j 	c #414F20",
"/j 	c #3D4B1D",
"(j 	c #3A461A",
"_j 	c #2E341C",
":j 	c #303427",
"<j 	c #393B33",
"[j 	c #3F3E36",
"}j 	c #46403A",
"|j 	c #4F4741",
"1j 	c #514742",
"2j 	c #333331",
"3j 	c #343532",
"4j 	c #313430",
"5j 	c #353833",
"6j 	c #3F3E39",
"7j 	c #47453F",
"8j 	c #5A5750",
"9j 	c #55514B",
"0j 	c #645F56",
"aj 	c #756C63",
"bj 	c #7A7365",
"cj 	c #7C7365",
"dj 	c #897F71",
"ej 	c #9F9688",
"fj 	c #A8A092",
"gj 	c #A8A193",
"hj 	c #9A9486",
"ij 	c #7E786B",
"jj 	c #726E62",
"kj 	c #6B675D",
"lj 	c #605E56",
"mj 	c #55524C",
"nj 	c #545149",
"oj 	c #403831",
"pj 	c #312722",
"qj 	c #2E2421",
"rj 	c #2D2524",
"sj 	c #262123",
"tj 	c #1E1A1E",
"uj 	c #1B181B",
"vj 	c #0F0D0E",
"wj 	c #050505",
"xj 	c #040303",
"yj 	c #090705",
"zj 	c #14110E",
"Aj 	c #16120E",
"Bj 	c #15100C",
"Cj 	c #16100D",
"Dj 	c #191310",
"Ej 	c #211B17",
"Fj 	c #261F1A",
"Gj 	c #2B221C",
"Hj 	c #312921",
"Ij 	c #382E25",
"Jj 	c #403528",
"Kj 	c #443626",
"Lj 	c #4F3C29",
"Mj 	c #5D442C",
"Nj 	c #6C4F2E",
"Oj 	c #6F4F2C",
"Pj 	c #684824",
"Qj 	c #573C20",
"Rj 	c #5C4935",
"Sj 	c #7A766A",
"Tj 	c #77746B",
"Uj 	c #747269",
"Vj 	c #605D55",
"Wj 	c #444039",
"Xj 	c #35302A",
"Yj 	c #2A2320",
"Zj 	c #27211E",
"`j 	c #272120",
" k 	c #090605",
".k 	c #080506",
"+k 	c #221C1B",
"@k 	c #1F1A18",
"#k 	c #37312B",
"$k 	c #120E0C",
"%k 	c #3D3733",
"&k 	c #5C544D",
"*k 	c #60584D",
"=k 	c #6A6253",
"-k 	c #746B5B",
";k 	c #7E7462",
">k 	c #857866",
",k 	c #8B7F6D",
"'k 	c #897D6D",
")k 	c #877B6D",
"!k 	c #7D7263",
"~k 	c #756859",
"{k 	c #64574A",
"]k 	c #605447",
"^k 	c #5B5246",
"/k 	c #534C41",
"(k 	c #3D382F",
"_k 	c #332F29",
":k 	c #1F1D19",
"<k 	c #1F1E1A",
"[k 	c #302A22",
"}k 	c #3A3128",
"|k 	c #3C3227",
"1k 	c #3A2F26",
"2k 	c #1C1815",
"3k 	c #171513",
"4k 	c #332E2B",
"5k 	c #3F3934",
"6k 	c #3D3833",
"7k 	c #3C3630",
"8k 	c #433D33",
"9k 	c #51483C",
"0k 	c #504539",
"ak 	c #423931",
"bk 	c #3E3630",
"ck 	c #3F3832",
"dk 	c #463D32",
"ek 	c #4B4032",
"fk 	c #504434",
"gk 	c #514334",
"hk 	c #554738",
"ik 	c #554537",
"jk 	c #544437",
"kk 	c #4E3E33",
"lk 	c #493B31",
"mk 	c #493D34",
"nk 	c #463A32",
"ok 	c #332A24",
"pk 	c #231C17",
"qk 	c #100F0E",
"rk 	c #040201",
"sk 	c #251F1B",
"tk 	c #4F483F",
"uk 	c #4E483E",
"vk 	c #4E483F",
"wk 	c #3D3532",
"xk 	c #36312F",
"yk 	c #231B19",
"zk 	c #271F1C",
"Ak 	c #261C1B",
"Bk 	c #241B1A",
"Ck 	c #1D1413",
"Dk 	c #160F0F",
"Ek 	c #282119",
"Fk 	c #2F261C",
"Gk 	c #332A1F",
"Hk 	c #332B1F",
"Ik 	c #342D23",
"Jk 	c #322C23",
"Kk 	c #332F2B",
"Lk 	c #32312C",
"Mk 	c #2E302C",
"Nk 	c #323635",
"Ok 	c #363733",
"Pk 	c #3C3B36",
"Qk 	c #7F7B72",
"Rk 	c #8D8880",
"Sk 	c #8B837D",
"Tk 	c #7A746E",
"Uk 	c #4F4B46",
"Vk 	c #353233",
"Wk 	c #403E3D",
"Xk 	c #454342",
"Yk 	c #4D4947",
"Zk 	c #4B4745",
"`k 	c #47423F",
" l 	c #3D3730",
".l 	c #3E3733",
"+l 	c #1A1715",
"@l 	c #151311",
"#l 	c #2E2925",
"$l 	c #333028",
"%l 	c #37392B",
"&l 	c #3C4428",
"*l 	c #3C4B1D",
"=l 	c #3A4C13",
"-l 	c #384B13",
";l 	c #3A4C15",
">l 	c #3F5215",
",l 	c #405312",
"'l 	c #3E5310",
")l 	c #354412",
"!l 	c #222D0E",
"~l 	c #171D0D",
"{l 	c #1A1B11",
"]l 	c #1F1D16",
"^l 	c #211E17",
"/l 	c #201C16",
"(l 	c #1C1913",
"_l 	c #13100C",
":l 	c #0E0D09",
"<l 	c #0A0905",
"[l 	c #070703",
"}l 	c #040501",
"|l 	c #080802",
"1l 	c #101308",
"2l 	c #181D0D",
"3l 	c #1C230C",
"4l 	c #2A3412",
"5l 	c #394518",
"6l 	c #3D4A17",
"7l 	c #3D4918",
"8l 	c #3A441A",
"9l 	c #3C441C",
"0l 	c #3D441D",
"al 	c #3D431C",
"bl 	c #373C15",
"cl 	c #363C14",
"dl 	c #3D4419",
"el 	c #434C20",
"fl 	c #465024",
"gl 	c #414C21",
"hl 	c #364418",
"il 	c #3A481D",
"jl 	c #35431B",
"kl 	c #2B3811",
"ll 	c #25300B",
"ml 	c #2A3610",
"nl 	c #273214",
"ol 	c #101809",
"pl 	c #000201",
"ql 	c #000103",
"rl 	c #010306",
"sl 	c #0A0D0C",
"tl 	c #171A16",
"ul 	c #181D15",
"vl 	c #12180F",
"wl 	c #13190F",
"xl 	c #212619",
"yl 	c #323922",
"zl 	c #353E21",
"Al 	c #333E21",
"Bl 	c #2E391D",
"Cl 	c #2B3618",
"Dl 	c #2F3B17",
"El 	c #39451C",
"Fl 	c #39441D",
"Gl 	c #333C1F",
"Hl 	c #313826",
"Il 	c #383C31",
"Jl 	c #3C3D34",
"Kl 	c #3E3B33",
"Ll 	c #454039",
"Ml 	c #49413C",
"Nl 	c #403A35",
"Ol 	c #3B3734",
"Pl 	c #3A3835",
"Ql 	c #3C3B38",
"Rl 	c #393A37",
"Sl 	c #373935",
"Tl 	c #363834",
"Ul 	c #383B36",
"Vl 	c #3C3C37",
"Wl 	c #403E39",
"Xl 	c #58544E",
"Yl 	c #645D54",
"Zl 	c #7F7569",
"`l 	c #887F6F",
" m 	c #8D8472",
".m 	c #9F9686",
"+m 	c #B7AFA1",
"@m 	c #BEB6A8",
"#m 	c #BAB3A5",
"$m 	c #9B9487",
"%m 	c #6D675C",
"&m 	c #646056",
"*m 	c #66635A",
"=m 	c #66635D",
"-m 	c #68665F",
";m 	c #6B6961",
">m 	c #67625A",
",m 	c #564D45",
"'m 	c #3D332C",
")m 	c #372C26",
"!m 	c #342928",
"~m 	c #282123",
"{m 	c #1E191D",
"]m 	c #1F1B1E",
"^m 	c #100D0F",
"/m 	c #191618",
"(m 	c #070505",
"_m 	c #050302",
":m 	c #060402",
"<m 	c #070503",
"[m 	c #070403",
"}m 	c #060303",
"|m 	c #0A0706",
"1m 	c #090604",
"2m 	c #080504",
"3m 	c #0A0705",
"4m 	c #0B0805",
"5m 	c #0F0C06",
"6m 	c #100C05",
"7m 	c #181109",
"8m 	c #1E140A",
"9m 	c #251A0C",
"0m 	c #261A0B",
"am 	c #271B0C",
"bm 	c #21160D",
"cm 	c #2B2A27",
"dm 	c #282825",
"em 	c #272724",
"fm 	c #211F1C",
"gm 	c #191714",
"hm 	c #120D0C",
"im 	c #0A0707",
"jm 	c #060404",
"km 	c #070507",
"lm 	c #121113",
"mm 	c #1B1719",
"nm 	c #1F191A",
"om 	c #241E1E",
"pm 	c #211B1B",
"qm 	c #1F1919",
"rm 	c #251F1D",
"sm 	c #120E0E",
"tm 	c #231F1E",
"um 	c #312B28",
"vm 	c #423B31",
"wm 	c #5D5447",
"xm 	c #6C6050",
"ym 	c #6F6354",
"zm 	c #6B6052",
"Am 	c #695D4F",
"Bm 	c #635649",
"Cm 	c #65594C",
"Dm 	c #2D2722",
"Em 	c #2F2B26",
"Fm 	c #1D1B17",
"Gm 	c #1D1C19",
"Hm 	c #201E1B",
"Im 	c #1F1D1A",
"Jm 	c #1E1C19",
"Km 	c #221F1B",
"Lm 	c #2A251E",
"Mm 	c #2F2821",
"Nm 	c #322820",
"Om 	c #2F261E",
"Pm 	c #2D251E",
"Qm 	c #25221F",
"Rm 	c #36302C",
"Sm 	c #3D3732",
"Tm 	c #3F3931",
"Um 	c #433C33",
"Vm 	c #494236",
"Wm 	c #463F34",
"Xm 	c #423B34",
"Ym 	c #433D38",
"Zm 	c #464039",
"`m 	c #3F3529",
" n 	c #3E3326",
".n 	c #413628",
"+n 	c #44372A",
"@n 	c #4D3E32",
"#n 	c #4F3E34",
"$n 	c #514236",
"%n 	c #4E3F34",
"&n 	c #4D4036",
"*n 	c #3B3028",
"=n 	c #251D18",
"-n 	c #201A18",
";n 	c #12100E",
">n 	c #100C09",
",n 	c #5E5850",
"'n 	c #5D564C",
")n 	c #48423B",
"!n 	c #413C36",
"~n 	c #3A3431",
"{n 	c #312D2A",
"]n 	c #251E1D",
"^n 	c #1C1514",
"/n 	c #150E0E",
"(n 	c #161113",
"_n 	c #261F19",
":n 	c #2E251C",
"<n 	c #342C21",
"[n 	c #2F2F2B",
"}n 	c #2C2E2B",
"|n 	c #2C2F2C",
"1n 	c #2D302F",
"2n 	c #303332",
"3n 	c #353633",
"4n 	c #353431",
"5n 	c #3C3B35",
"6n 	c #47433E",
"7n 	c #4F4944",
"8n 	c #524A45",
"9n 	c #4F4842",
"0n 	c #413B37",
"an 	c #373333",
"bn 	c #393435",
"cn 	c #45413F",
"dn 	c #4D4845",
"en 	c #56514B",
"fn 	c #52493B",
"gn 	c #4C4235",
"hn 	c #433B2E",
"in 	c #342D25",
"jn 	c #312D29",
"kn 	c #302C28",
"ln 	c #2D2C24",
"mn 	c #303324",
"nn 	c #35411F",
"on 	c #354B13",
"pn 	c #2A4106",
"qn 	c #182D02",
"rn 	c #152704",
"sn 	c #1E2E07",
"tn 	c #223207",
"un 	c #233407",
"vn 	c #212E0C",
"wn 	c #1A2310",
"xn 	c #151913",
"yn 	c #1E1E1C",
"zn 	c #2D2926",
"An 	c #2A2423",
"Bn 	c #060503",
"Cn 	c #030301",
"Dn 	c #020200",
"En 	c #050403",
"Fn 	c #070704",
"Gn 	c #090B05",
"Hn 	c #0D1104",
"In 	c #1F260C",
"Jn 	c #333D15",
"Kn 	c #394516",
"Ln 	c #374214",
"Mn 	c #394417",
"Nn 	c #3C441B",
"On 	c #424920",
"Pn 	c #434822",
"Qn 	c #41471F",
"Rn 	c #393E18",
"Sn 	c #353914",
"Tn 	c #343912",
"Un 	c #3B4118",
"Vn 	c #434C21",
"Wn 	c #464F24",
"Xn 	c #38451D",
"Yn 	c #303C14",
"Zn 	c #28330C",
"`n 	c #29350D",
" o 	c #121A0A",
".o 	c #010402",
"+o 	c #040709",
"@o 	c #0F1212",
"#o 	c #1B1D1A",
"$o 	c #191C18",
"%o 	c #131612",
"&o 	c #111411",
"*o 	c #171A15",
"=o 	c #1F231A",
"-o 	c #1F2419",
";o 	c #1A2016",
">o 	c #151A10",
",o 	c #151B0B",
"'o 	c #232C11",
")o 	c #39431F",
"!o 	c #3D471F",
"~o 	c #353F1E",
"{o 	c #2E351F",
"]o 	c #333828",
"^o 	c #36392D",
"/o 	c #49433C",
"(o 	c #4D453F",
"_o 	c #4B433D",
":o 	c #46403B",
"<o 	c #44403C",
"[o 	c #413D3B",
"}o 	c #3E3E3A",
"|o 	c #3D3D3A",
"1o 	c #3A3C38",
"2o 	c #393A36",
"3o 	c #37352F",
"4o 	c #5B5752",
"5o 	c #545049",
"6o 	c #827A6D",
"7o 	c #8D8373",
"8o 	c #928875",
"9o 	c #A59A89",
"0o 	c #BCB4A5",
"ao 	c #C5BFB0",
"bo 	c #C3BDAF",
"co 	c #9F9A8D",
"do 	c #696459",
"eo 	c #605C54",
"fo 	c #65645C",
"go 	c #676661",
"ho 	c #6D6D67",
"io 	c #717069",
"jo 	c #5F5750",
"ko 	c #423630",
"lo 	c #3B2F29",
"mo 	c #382D2C",
"no 	c #2A2224",
"oo 	c #181516",
"po 	c #0E0C0D",
"qo 	c #0F0C0D",
"ro 	c #030101",
"so 	c #010000",
"to 	c #050201",
"uo 	c #080401",
"vo 	c #0C0803",
"wo 	c #0E0A07",
"xo 	c #0D0D0D",
"yo 	c #0E0E0E",
"zo 	c #0D0D0C",
"Ao 	c #0E0D0D",
"Bo 	c #070405",
"Co 	c #110F12",
"Do 	c #1C191B",
"Eo 	c #251E1F",
"Fo 	c #191413",
"Go 	c #181412",
"Ho 	c #130F10",
"Io 	c #110D0F",
"Jo 	c #120F0F",
"Ko 	c #15110E",
"Lo 	c #605446",
"Mo 	c #5E5344",
"No 	c #5A4F42",
"Oo 	c #615649",
"Po 	c #62574B",
"Qo 	c #5A4E44",
"Ro 	c #594E42",
"So 	c #554B41",
"To 	c #352F29",
"Uo 	c #28231E",
"Vo 	c #2F2B25",
"Wo 	c #201E19",
"Xo 	c #211E1A",
"Yo 	c #25211C",
"Zo 	c #29231D",
"`o 	c #2C261E",
" p 	c #2D251D",
".p 	c #2E261E",
"+p 	c #2C241C",
"@p 	c #282421",
"#p 	c #342F2B",
"$p 	c #3D3933",
"%p 	c #3E3834",
"&p 	c #3E3933",
"*p 	c #3F3A31",
"=p 	c #3F3B31",
"-p 	c #413D34",
";p 	c #423D37",
">p 	c #443F3A",
",p 	c #46423B",
"'p 	c #40382F",
")p 	c #3B3329",
"!p 	c #3A3126",
"~p 	c #3B3125",
"{p 	c #3E3327",
"]p 	c #493B30",
"^p 	c #514135",
"/p 	c #554538",
"(p 	c #514235",
"_p 	c #514337",
":p 	c #3E3229",
"<p 	c #241C16",
"[p 	c #1F1A16",
"}p 	c #141210",
"|p 	c #020202",
"1p 	c #1B1814",
"2p 	c #6E6A5F",
"3p 	c #666256",
"4p 	c #555046",
"5p 	c #3B3831",
"6p 	c #393530",
"7p 	c #393630",
"8p 	c #211C1A",
"9p 	c #1C1715",
"0p 	c #181314",
"ap 	c #272019",
"bp 	c #2D241B",
"cp 	c #33291E",
"dp 	c #362D21",
"ep 	c #352D1F",
"fp 	c #352E21",
"gp 	c #342D22",
"hp 	c #312C22",
"ip 	c #312D24",
"jp 	c #2F2D26",
"kp 	c #2F2F2A",
"lp 	c #2D302C",
"mp 	c #2E302E",
"np 	c #353835",
"op 	c #383936",
"pp 	c #2E2B25",
"qp 	c #312D26",
"rp 	c #3B332F",
"sp 	c #3A3331",
"tp 	c #3A3434",
"up 	c #3A3636",
"vp 	c #44413E",
"wp 	c #4D4946",
"xp 	c #59534D",
"yp 	c #5B534B",
"zp 	c #61584A",
"Ap 	c #605444",
"Bp 	c #615442",
"Cp 	c #574A39",
"Dp 	c #4D4232",
"Ep 	c #3C3226",
"Fp 	c #2B251F",
"Gp 	c #252120",
"Hp 	c #292624",
"Ip 	c #2A2724",
"Jp 	c #292522",
"Kp 	c #2F2B27",
"Lp 	c #2E2B26",
"Mp 	c #2A2B22",
"Np 	c #2D3421",
"Op 	c #33461A",
"Pp 	c #35510F",
"Qp 	c #264004",
"Rp 	c #0A1E00",
"Sp 	c #051601",
"Tp 	c #0E1B05",
"Up 	c #121E06",
"Vp 	c #142007",
"Wp 	c #141C0C",
"Xp 	c #141A13",
"Yp 	c #141718",
"Zp 	c #202023",
"`p 	c #2F2C2E",
" q 	c #353231",
".q 	c #302B2B",
"+q 	c #110E0E",
"@q 	c #030302",
"#q 	c #070803",
"$q 	c #1D210D",
"%q 	c #323C17",
"&q 	c #374416",
"*q 	c #374415",
"=q 	c #384516",
"-q 	c #434B22",
";q 	c #454A24",
">q 	c #424922",
",q 	c #3A411B",
"'q 	c #353A15",
")q 	c #353A13",
"!q 	c #3B4219",
"~q 	c #424B21",
"{q 	c #465025",
"]q 	c #404C21",
"^q 	c #384519",
"/q 	c #3B481F",
"(q 	c #333F16",
"_q 	c #2A360D",
":q 	c #2B370F",
"<q 	c #2B3616",
"[q 	c #151D0C",
"}q 	c #020602",
"|q 	c #000204",
"1q 	c #040809",
"2q 	c #121615",
"3q 	c #20221F",
"4q 	c #1E201D",
"5q 	c #141513",
"6q 	c #0F100F",
"7q 	c #0E100F",
"8q 	c #101210",
"9q 	c #0D0F0D",
"0q 	c #0C0E0C",
"aq 	c #080B09",
"bq 	c #0F1209",
"cq 	c #242A16",
"dq 	c #3D4523",
"eq 	c #3F4A21",
"fq 	c #35411C",
"gq 	c #2C3519",
"hq 	c #2D351E",
"iq 	c #303524",
"jq 	c #37382B",
"kq 	c #3F3C33",
"lq 	c #48443B",
"mq 	c #4B4540",
"nq 	c #4B4642",
"oq 	c #46433F",
"pq 	c #40403B",
"qq 	c #403F3B",
"rq 	c #3C3C38",
"sq 	c #323029",
"tq 	c #595651",
"uq 	c #524F49",
"vq 	c #656057",
"wq 	c #7F766C",
"xq 	c #8A7F71",
"yq 	c #8B806F",
"zq 	c #9D9080",
"Aq 	c #B8AFA1",
"Bq 	c #C2BBAE",
"Cq 	c #C2BDB0",
"Dq 	c #A09B8F",
"Eq 	c #69635B",
"Fq 	c #605C55",
"Gq 	c #64645D",
"Hq 	c #676663",
"Iq 	c #6D6E69",
"Jq 	c #6F6E69",
"Kq 	c #726E68",
"Lq 	c #5D554F",
"Mq 	c #40342F",
"Nq 	c #372B26",
"Oq 	c #352B2A",
"Pq 	c #1C181B",
"Qq 	c #1E1B1E",
"Rq 	c #110E0F",
"Sq 	c #0E0B0C",
"Tq 	c #0B0809",
"Uq 	c #070404",
"Vq 	c #0B0704",
"Wq 	c #0D0A07",
"Xq 	c #0F0D0B",
"Yq 	c #121010",
"Zq 	c #0A0708",
"`q 	c #050304",
" r 	c #1B1618",
".r 	c #1F181A",
"+r 	c #271F21",
"@r 	c #261E1F",
"#r 	c #201919",
"$r 	c #1B1414",
"%r 	c #150F0E",
"&r 	c #130E0E",
"*r 	c #151010",
"=r 	c #130E10",
"-r 	c #100D0C",
";r 	c #5D5344",
">r 	c #564D3E",
",r 	c #52483B",
"'r 	c #60554B",
")r 	c #61564C",
"!r 	c #554C42",
"~r 	c #49423A",
"{r 	c #332E29",
"]r 	c #2A261F",
"^r 	c #26231C",
"/r 	c #29251F",
"(r 	c #2C2722",
"_r 	c #2C2721",
":r 	c #2E2A23",
"<r 	c #332E27",
"[r 	c #342D26",
"}r 	c #322A22",
"|r 	c #322B21",
"1r 	c #312920",
"2r 	c #2E2720",
"3r 	c #2F2A28",
"4r 	c #3E3A35",
"5r 	c #413D36",
"6r 	c #413D38",
"7r 	c #433E3A",
"8r 	c #433E39",
"9r 	c #413B34",
"0r 	c #3E372E",
"ar 	c #3C3329",
"br 	c #3E3428",
"cr 	c #473A2E",
"dr 	c #4E4033",
"er 	c #514234",
"fr 	c #544537",
"gr 	c #524337",
"hr 	c #3C3026",
"ir 	c #211812",
"jr 	c #1C1613",
"kr 	c #201D19",
"lr 	c #12110F",
"mr 	c #4A4740",
"nr 	c #645F57",
"or 	c #5C584E",
"pr 	c #37342E",
"qr 	c #3D3834",
"rr 	c #3D3A34",
"sr 	c #3B3733",
"tr 	c #181411",
"ur 	c #150E0F",
"vr 	c #231D1D",
"wr 	c #362E20",
"xr 	c #373021",
"yr 	c #342C20",
"zr 	c #332C21",
"Ar 	c #312B21",
"Br 	c #312C23",
"Cr 	c #2F2C25",
"Dr 	c #2E2E29",
"Er 	c #2E312F",
"Fr 	c #313432",
"Gr 	c #353734",
"Hr 	c #383835",
"Ir 	c #393834",
"Jr 	c #373631",
"Kr 	c #3A362E",
"Lr 	c #3F3833",
"Mr 	c #383230",
"Nr 	c #343232",
"Or 	c #3D3B39",
"Pr 	c #494643",
"Qr 	c #56504B",
"Rr 	c #615443",
"Sr 	c #645541",
"Tr 	c #5C4D39",
"Ur 	c #504231",
"Vr 	c #3E3225",
"Wr 	c #352C23",
"Xr 	c #262322",
"Yr 	c #282422",
"Zr 	c #2F2C28",
"`r 	c #282920",
" s 	c #29311C",
".s 	c #314513",
"+s 	c #355108",
"@s 	c #273F03",
"#s 	c #0C1D00",
"$s 	c #051301",
"%s 	c #0D1706",
"&s 	c #101A07",
"*s 	c #121C0A",
"=s 	c #10170D",
"-s 	c #111514",
";s 	c #111317",
">s 	c #1D1D22",
",s 	c #2F2C2F",
"'s 	c #0C0A09",
")s 	c #0E0C0A",
"!s 	c #0B0A08",
"~s 	c #020302",
"{s 	c #070604",
"]s 	c #1E2011",
"^s 	c #333D19",
"/s 	c #364416",
"(s 	c #344012",
"_s 	c #354215",
":s 	c #364118",
"<s 	c #3A441E",
"[s 	c #3C4220",
"}s 	c #3C421F",
"|s 	c #383D1A",
"1s 	c #363A16",
"2s 	c #343913",
"3s 	c #3C4219",
"4s 	c #40481F",
"5s 	c #434D22",
"6s 	c #3E4A20",
"7s 	c #3D4A1E",
"8s 	c #3B481E",
"9s 	c #334015",
"0s 	c #2B360D",
"as 	c #2B370E",
"bs 	c #2B3515",
"cs 	c #151C0B",
"ds 	c #030602",
"es 	c #000203",
"fs 	c #131716",
"gs 	c #222221",
"hs 	c #20201E",
"is 	c #181817",
"js 	c #141514",
"ks 	c #151716",
"ls 	c #141614",
"ms 	c #151814",
"ns 	c #171914",
"os 	c #1D1F18",
"ps 	c #292D1E",
"qs 	c #353B20",
"rs 	c #343E1B",
"ss 	c #2D3815",
"ts 	c #283113",
"us 	c #2B331A",
"vs 	c #2D331F",
"ws 	c #343827",
"xs 	c #3B3C30",
"ys 	c #444238",
"zs 	c #47423D",
"As 	c #474440",
"Bs 	c #41403C",
"Cs 	c #3B3A36",
"Ds 	c #3B3B36",
"Es 	c #383834",
"Fs 	c #353632",
"Gs 	c #2D2B26",
"Hs 	c #504D46",
"Is 	c #656258",
"Js 	c #887E6D",
"Ks 	c #867C67",
"Ls 	c #968A76",
"Ms 	c #B2A797",
"Ns 	c #C1B9AB",
"Os 	c #C4BFB1",
"Ps 	c #A39E91",
"Qs 	c #6C665D",
"Rs 	c #635E57",
"Ss 	c #66655D",
"Ts 	c #696964",
"Us 	c #6C6D68",
"Vs 	c #70706B",
"Ws 	c #6F6D67",
"Xs 	c #322925",
"Ys 	c #312827",
"Zs 	c #1D191D",
"`s 	c #1F1C1F",
" t 	c #1D1A1C",
".t 	c #050504",
"+t 	c #040403",
"@t 	c #020201",
"#t 	c #070706",
"$t 	c #090907",
"%t 	c #0E0D0B",
"&t 	c #100E0C",
"*t 	c #14120E",
"=t 	c #15130F",
"-t 	c #181612",
";t 	c #1A1A16",
">t 	c #21221E",
",t 	c #1E1F1E",
"'t 	c #1D1D1C",
")t 	c #1A1A18",
"!t 	c #191715",
"~t 	c #1C181A",
"{t 	c #292121",
"]t 	c #2A2121",
"^t 	c #241C1C",
"/t 	c #17100F",
"(t 	c #160F0E",
"_t 	c #181311",
":t 	c #171314",
"<t 	c #141312",
"[t 	c #474138",
"}t 	c #5E5548",
"|t 	c #5D5345",
"1t 	c #564E3E",
"2t 	c #4C4236",
"3t 	c #4B4139",
"4t 	c #4B423A",
"5t 	c #3A332B",
"6t 	c #27241F",
"7t 	c #322E26",
"8t 	c #322D25",
"9t 	c #3B352C",
"0t 	c #423D34",
"at 	c #413A31",
"bt 	c #3F372E",
"ct 	c #3E352B",
"dt 	c #42392E",
"et 	c #453C30",
"ft 	c #3C342B",
"gt 	c #24211D",
"ht 	c #383330",
"it 	c #413C34",
"jt 	c #423C34",
"kt 	c #433F37",
"lt 	c #433E38",
"mt 	c #433F3A",
"nt 	c #433D39",
"ot 	c #433F39",
"pt 	c #403A34",
"qt 	c #403A32",
"rt 	c #413A30",
"st 	c #483E31",
"tt 	c #483E30",
"ut 	c #483C2D",
"vt 	c #4D4031",
"wt 	c #4F4031",
"xt 	c #534435",
"yt 	c #564637",
"zt 	c #554639",
"At 	c #3D3227",
"Bt 	c #231A13",
"Ct 	c #11110F",
"Dt 	c #000101",
"Et 	c #060502",
"Ft 	c #2C2924",
"Gt 	c #4A4640",
"Ht 	c #4B4840",
"It 	c #393631",
"Jt 	c #403D37",
"Kt 	c #3F3C36",
"Lt 	c #413E38",
"Mt 	c #3D3A35",
"Nt 	c #35322E",
"Ot 	c #302D29",
"Pt 	c #272321",
"Qt 	c #29231B",
"Rt 	c #322B20",
"St 	c #372F23",
"Tt 	c #3B3225",
"Ut 	c #3D3628",
"Vt 	c #3B3426",
"Wt 	c #3A3326",
"Xt 	c #393327",
"Yt 	c #3A342A",
"Zt 	c #36312A",
"`t 	c #2D302D",
" u 	c #313331",
".u 	c #333634",
"+u 	c #393B37",
"@u 	c #3B3B35",
"#u 	c #423F37",
"$u 	c #544E44",
"%u 	c #5E564D",
"&u 	c #2C2C2B",
"*u 	c #333431",
"=u 	c #3F3D3A",
"-u 	c #524D49",
";u 	c #5C554C",
">u 	c #635B4B",
",u 	c #625644",
"'u 	c #665843",
")u 	c #5E4F3B",
"!u 	c #514432",
"~u 	c #413527",
"{u 	c #382E24",
"]u 	c #2D2621",
"^u 	c #232221",
"/u 	c #322E28",
"(u 	c #25281D",
"_u 	c #242F17",
":u 	c #2A3F0E",
"<u 	c #304A06",
"[u 	c #233803",
"}u 	c #0B1A00",
"|u 	c #051001",
"1u 	c #0B1207",
"2u 	c #0D1408",
"3u 	c #0F170A",
"4u 	c #0E140C",
"5u 	c #0F1115",
"6u 	c #363131",
"7u 	c #1C1A18",
"8u 	c #1E1D1A",
"9u 	c #121312",
"0u 	c #0A0C0A",
"au 	c #0B0B08",
"bu 	c #1F2013",
"cu 	c #323B19",
"du 	c #364315",
"eu 	c #334012",
"fu 	c #2E3814",
"gu 	c #2A3113",
"hu 	c #282C11",
"iu 	c #2B3014",
"ju 	c #313416",
"ku 	c #373A18",
"lu 	c #393C18",
"mu 	c #3D431A",
"nu 	c #3E461C",
"ou 	c #414B1F",
"pu 	c #3B471C",
"qu 	c #384419",
"ru 	c #3F4B20",
"su 	c #3C481E",
"tu 	c #344015",
"uu 	c #2C370E",
"vu 	c #2C3810",
"wu 	c #161D0B",
"xu 	c #030601",
"yu 	c #010203",
"zu 	c #060909",
"Au 	c #171B1A",
"Bu 	c #242623",
"Cu 	c #1F201F",
"Du 	c #222423",
"Eu 	c #262827",
"Fu 	c #262927",
"Gu 	c #282B27",
"Hu 	c #272A24",
"Iu 	c #282A22",
"Ju 	c #232A14",
"Ku 	c #212A0D",
"Lu 	c #232C0E",
"Mu 	c #272F13",
"Nu 	c #2D371B",
"Ou 	c #303920",
"Pu 	c #343A26",
"Qu 	c #3C4031",
"Ru 	c #434439",
"Su 	c #414038",
"Tu 	c #3B3933",
"Uu 	c #3A3733",
"Vu 	c #3D3B38",
"Wu 	c #363533",
"Xu 	c #353532",
"Yu 	c #4C4841",
"Zu 	c #837767",
"`u 	c #80725F",
" v 	c #8A7A68",
".v 	c #A79A88",
"+v 	c #BCB1A0",
"@v 	c #C4BBAC",
"#v 	c #A49C8F",
"$v 	c #6D665C",
"%v 	c #645E56",
"&v 	c #67645D",
"*v 	c #676662",
"=v 	c #656663",
"-v 	c #686965",
";v 	c #64635E",
">v 	c #4C4944",
",v 	c #2A2322",
"'v 	c #241F21",
")v 	c #1D1A1E",
"!v 	c #211E21",
"~v 	c #040404",
"{v 	c #10100F",
"]v 	c #131211",
"^v 	c #1A1917",
"/v 	c #1D1D1A",
"(v 	c #242420",
"_v 	c #262622",
":v 	c #2A2A25",
"<v 	c #2F2E28",
"[v 	c #31302C",
"}v 	c #373834",
"|v 	c #2B2824",
"1v 	c #1C1A16",
"2v 	c #1B1617",
"3v 	c #1E1718",
"4v 	c #282021",
"5v 	c #2B2122",
"6v 	c #1D1615",
"7v 	c #1B1514",
"8v 	c #161214",
"9v 	c #14110F",
"0v 	c #51473C",
"av 	c #3E352D",
"bv 	c #2E2724",
"cv 	c #28231F",
"dv 	c #322C29",
"ev 	c #352E27",
"fv 	c #373028",
"gv 	c #443B32",
"hv 	c #463E35",
"iv 	c #483F37",
"jv 	c #423A32",
"kv 	c #42392F",
"lv 	c #504439",
"mv 	c #574C40",
"nv 	c #4A4035",
"ov 	c #2D2A27",
"pv 	c #322F2B",
"qv 	c #393532",
"rv 	c #443F36",
"sv 	c #433E35",
"tv 	c #423C38",
"uv 	c #4D4236",
"vv 	c #4F4335",
"wv 	c #4F4333",
"xv 	c #4E4031",
"yv 	c #514133",
"zv 	c #564738",
"Av 	c #544436",
"Bv 	c #524336",
"Cv 	c #221913",
"Dv 	c #0E0D0C",
"Ev 	c #0E0C08",
"Fv 	c #2E2A25",
"Gv 	c #36332F",
"Hv 	c #3C3834",
"Iv 	c #3F3C37",
"Jv 	c #3E3B36",
"Kv 	c #423E39",
"Lv 	c #423F3A",
"Mv 	c #403E38",
"Nv 	c #373431",
"Ov 	c #1A1614",
"Pv 	c #231D1E",
"Qv 	c #241E1A",
"Rv 	c #29221B",
"Sv 	c #362F23",
"Tv 	c #3C3427",
"Uv 	c #474031",
"Vv 	c #4A4334",
"Wv 	c #4A4336",
"Xv 	c #35332E",
"Yv 	c #2D2F2C",
"Zv 	c #353634",
"`v 	c #383A36",
" w 	c #393935",
".w 	c #393934",
"+w 	c #47443C",
"@w 	c #635B52",
"#w 	c #6F635A",
"$w 	c #5B514B",
"%w 	c #35302D",
"&w 	c #242324",
"*w 	c #252627",
"=w 	c #272828",
"-w 	c #373635",
";w 	c #4B4845",
">w 	c #58524B",
",w 	c #625A4D",
"'w 	c #635747",
")w 	c #615241",
"!w 	c #594A38",
"~w 	c #504230",
"{w 	c #403326",
"]w 	c #392E24",
"^w 	c #1E1C1B",
"/w 	c #2D2924",
"(w 	c #272622",
"_w 	c #1D1E18",
":w 	c #151F0D",
"<w 	c #162706",
"[w 	c #1B2F03",
"}w 	c #142301",
"|w 	c #051000",
"1w 	c #010500",
"2w 	c #030603",
"3w 	c #040603",
"4w 	c #050804",
"5w 	c #050805",
"6w 	c #08090E",
"7w 	c #16151A",
"8w 	c #2C2927",
"9w 	c #1F1E1E",
"0w 	c #121313",
"aw 	c #080707",
"bw 	c #15160C",
"cw 	c #283013",
"dw 	c #323D13",
"ew 	c #343F11",
"fw 	c #313C13",
"gw 	c #262D11",
"hw 	c #1A1F0C",
"iw 	c #151708",
"jw 	c #1B1D0B",
"kw 	c #2B2E16",
"lw 	c #38391C",
"mw 	c #3B3C1A",
"nw 	c #3D411A",
"ow 	c #3C411A",
"pw 	c #3E471D",
"qw 	c #3B451B",
"rw 	c #384218",
"sw 	c #394419",
"tw 	c #3D481E",
"uw 	c #353F15",
"vw 	c #2B350D",
"ww 	c #2A340E",
"xw 	c #293214",
"yw 	c #151C0A",
"zw 	c #020501",
"Aw 	c #000202",
"Bw 	c #050808",
"Cw 	c #161B1A",
"Dw 	c #252726",
"Ew 	c #242625",
"Fw 	c #2A2B2B",
"Gw 	c #2E2F30",
"Hw 	c #2F302F",
"Iw 	c #2C2D29",
"Jw 	c #272922",
"Kw 	c #1D2016",
"Lw 	c #151A0A",
"Mw 	c #131A05",
"Nw 	c #1C230B",
"Ow 	c #283115",
"Pw 	c #303B1C",
"Qw 	c #303A1F",
"Rw 	c #353C26",
"Sw 	c #3D4232",
"Tw 	c #424339",
"Uw 	c #3A3A33",
"Vw 	c #2C2B26",
"Ww 	c #282623",
"Xw 	c #2C2B29",
"Yw 	c #30302D",
"Zw 	c #2E2C29",
"`w 	c #302B27",
" x 	c #4A4741",
".x 	c #4B4740",
"+x 	c #625E56",
"@x 	c #7E7669",
"#x 	c #837766",
"$x 	c #7F705C",
"%x 	c #867660",
"&x 	c #9C8F77",
"*x 	c #AEA18D",
"=x 	c #B6AB98",
"-x 	c #9D9383",
";x 	c #726B5E",
">x 	c #6C675C",
",x 	c #6E6B62",
"'x 	c #666660",
")x 	c #5F615C",
"!x 	c #636661",
"~x 	c #5F605B",
"{x 	c #232124",
"]x 	c #0A0A0A",
"^x 	c #171516",
"/x 	c #1A171A",
"(x 	c #191617",
"_x 	c #100D0D",
":x 	c #060606",
"<x 	c #080809",
"[x 	c #1B1B19",
"}x 	c #1E1D1C",
"|x 	c #2A2927",
"1x 	c #2D2D2A",
"2x 	c #363532",
"3x 	c #373331",
"4x 	c #373531",
"5x 	c #3B3836",
"6x 	c #444341",
"7x 	c #434141",
"8x 	c #42403D",
"9x 	c #383331",
"0x 	c #211C18",
"ax 	c #030102",
"bx 	c #1A1618",
"cx 	c #282222",
"dx 	c #181111",
"ex 	c #191311",
"fx 	c #171110",
"gx 	c #14100F",
"hx 	c #110D0E",
"ix 	c #110E10",
"jx 	c #0B090B",
"kx 	c #231F18",
"lx 	c #4D463B",
"mx 	c #5C5146",
"nx 	c #51483E",
"ox 	c #2D2821",
"px 	c #2B2823",
"qx 	c #37332B",
"rx 	c #3A342C",
"sx 	c #373128",
"tx 	c #39332A",
"ux 	c #3B332A",
"vx 	c #443C32",
"wx 	c #474036",
"xx 	c #484037",
"yx 	c #494239",
"zx 	c #3F392E",
"Ax 	c #443C31",
"Bx 	c #564C41",
"Cx 	c #524A3C",
"Dx 	c #352E26",
"Ex 	c #2C2926",
"Fx 	c #2F2C29",
"Gx 	c #403B36",
"Hx 	c #464137",
"Ix 	c #484338",
"Jx 	c #464238",
"Kx 	c #443F38",
"Lx 	c #433B32",
"Mx 	c #4B4134",
"Nx 	c #534839",
"Ox 	c #544837",
"Px 	c #544836",
"Qx 	c #514533",
"Rx 	c #514233",
"Sx 	c #534436",
"Tx 	c #524436",
"Ux 	c #504337",
"Vx 	c #3A3028",
"Wx 	c #221B17",
"Xx 	c #1E1A17",
"Yx 	c #0E0F0E",
"Zx 	c #1F1D18",
"`x 	c #3B3934",
" y 	c #413F3A",
".y 	c #43423B",
"+y 	c #44413B",
"@y 	c #474540",
"#y 	c #4A4943",
"$y 	c #46443F",
"%y 	c #1C1816",
"&y 	c #29221C",
"*y 	c #2E251E",
"=y 	c #4C4536",
"-y 	c #534D3E",
";y 	c #5B5444",
">y 	c #5B5446",
",y 	c #5E5649",
"'y 	c #504B41",
")y 	c #393931",
"!y 	c #2E302D",
"~y 	c #323432",
"{y 	c #343634",
"]y 	c #645B53",
"^y 	c #72675C",
"/y 	c #5D544D",
"(y 	c #212325",
"_y 	c #222525",
":y 	c #464641",
"<y 	c #615B50",
"[y 	c #5F5548",
"}y 	c #4A3E2C",
"|y 	c #403225",
"1y 	c #3C3125",
"2y 	c #332A23",
"3y 	c #363029",
"4y 	c #4D443C",
"5y 	c #191A16",
"6y 	c #0C1309",
"7y 	c #091402",
"8y 	c #0B1701",
"9y 	c #071000",
"0y 	c #010800",
"ay 	c #000100",
"by 	c #010100",
"cy 	c #010204",
"dy 	c #05050A",
"ey 	c #2A2828",
"fy 	c #33302D",
"gy 	c #1C1918",
"hy 	c #292724",
"iy 	c #2A2826",
"jy 	c #2D2B2A",
"ky 	c #252424",
"ly 	c #171717",
"my 	c #0C0D05",
"ny 	c #1C230A",
"oy 	c #303B11",
"py 	c #344011",
"qy 	c #303D13",
"ry 	c #232B11",
"sy 	c #13170B",
"ty 	c #0B0D06",
"uy 	c #16170C",
"vy 	c #2B2D1B",
"wy 	c #3C3E22",
"xy 	c #3E411F",
"yy 	c #3F491E",
"zy 	c #404B1F",
"Ay 	c #3E481E",
"By 	c #343E16",
"Cy 	c #2A330E",
"Dy 	c #29330E",
"Ey 	c #272F12",
"Fy 	c #151D0A",
"Gy 	c #020600",
"Hy 	c #050907",
"Iy 	c #171C1A",
"Jy 	c #242826",
"Ky 	c #222322",
"Ly 	c #232523",
"My 	c #272929",
"Ny 	c #2C2E2E",
"Oy 	c #2C2D2D",
"Py 	c #2C2E2C",
"Qy 	c #292B27",
"Ry 	c #252821",
"Sy 	c #1C1E16",
"Ty 	c #13160A",
"Uy 	c #101405",
"Vy 	c #1B210B",
"Wy 	c #2A3415",
"Xy 	c #313F1A",
"Yy 	c #323F1E",
"Zy 	c #374227",
"`y 	c #3D4332",
" z 	c #414538",
".z 	c #36382F",
"+z 	c #25251F",
"@z 	c #272524",
"#z 	c #312F2E",
"$z 	c #2D2B28",
"%z 	c #4A4641",
"&z 	c #605B53",
"*z 	c #7C7367",
"=z 	c #7F7362",
"-z 	c #7C6D57",
";z 	c #84715A",
">z 	c #907D66",
",z 	c #988671",
"'z 	c #9B8A76",
")z 	c #8D7F6C",
"!z 	c #766A5D",
"~z 	c #776D64",
"{z 	c #767069",
"]z 	c #66645F",
"^z 	c #585956",
"/z 	c #5D5E5C",
"(z 	c #5C5B58",
"_z 	c #262223",
":z 	c #232024",
"<z 	c #130F11",
"[z 	c #1F1B1D",
"}z 	c #090606",
"|z 	c #1E1D1E",
"1z 	c #212120",
"2z 	c #212020",
"3z 	c #272526",
"4z 	c #313030",
"5z 	c #363535",
"6z 	c #3D3C3B",
"7z 	c #403C3C",
"8z 	c #43403F",
"9z 	c #423E3B",
"0z 	c #413D39",
"az 	c #4A4745",
"bz 	c #605F5D",
"cz 	c #656362",
"dz 	c #635E5A",
"ez 	c #564E4A",
"fz 	c #4E4540",
"gz 	c #0D0B0C",
"hz 	c #060508",
"iz 	c #0D0C0F",
"jz 	c #242222",
"kz 	c #211D19",
"lz 	c #211B18",
"mz 	c #150F0F",
"nz 	c #50463C",
"oz 	c #494136",
"pz 	c #3B342B",
"qz 	c #352F28",
"rz 	c #2E2A26",
"sz 	c #342F29",
"tz 	c #2F2A25",
"uz 	c #423A31",
"vz 	c #443C35",
"wz 	c #453E34",
"xz 	c #40392F",
"yz 	c #574E42",
"zz 	c #4C4438",
"Az 	c #362F28",
"Bz 	c #2F2A26",
"Cz 	c #2F2B29",
"Dz 	c #2E2B27",
"Ez 	c #2E2B28",
"Fz 	c #443F37",
"Gz 	c #484237",
"Hz 	c #464037",
"Iz 	c #564C42",
"Jz 	c #53473E",
"Kz 	c #504438",
"Lz 	c #4E4233",
"Mz 	c #524434",
"Nz 	c #534534",
"Oz 	c #524533",
"Pz 	c #4F4231",
"Qz 	c #4E4131",
"Rz 	c #473A2C",
"Sz 	c #45372B",
"Tz 	c #45382D",
"Uz 	c #44392F",
"Vz 	c #352C25",
"Wz 	c #211B19",
"Xz 	c #1E1C1A",
"Yz 	c #0D0E0D",
"Zz 	c #13110E",
"`z 	c #23221E",
" A 	c #393734",
".A 	c #3E3C37",
"+A 	c #42403B",
"@A 	c #3F3D39",
"#A 	c #3F3D38",
"$A 	c #44423D",
"%A 	c #484742",
"&A 	c #4B4A45",
"*A 	c #484642",
"=A 	c #221D1E",
"-A 	c #2D241F",
";A 	c #342E24",
">A 	c #3B3529",
",A 	c #4C463A",
"'A 	c #585044",
")A 	c #5F584A",
"!A 	c #60574B",
"~A 	c #61594C",
"{A 	c #393831",
"]A 	c #333633",
"^A 	c #45423C",
"/A 	c #5F5850",
"(A 	c #574F48",
"_A 	c #222223",
":A 	c #1F2023",
"<A 	c #202323",
"[A 	c #424240",
"}A 	c #4D4C47",
"|A 	c #555149",
"1A 	c #50493E",
"2A 	c #4E4636",
"3A 	c #473C2D",
"4A 	c #423727",
"5A 	c #3B2E21",
"6A 	c #392D23",
"7A 	c #332922",
"8A 	c #2D2622",
"9A 	c #25211E",
"0A 	c #2F2A24",
"aA 	c #574A42",
"bA 	c #564B41",
"cA 	c #443C34",
"dA 	c #252222",
"eA 	c #232321",
"fA 	c #0C1408",
"gA 	c #0D1605",
"hA 	c #080E01",
"iA 	c #060C02",
"jA 	c #060705",
"kA 	c #050503",
"lA 	c #030304",
"mA 	c #020305",
"nA 	c #030307",
"oA 	c #393431",
"pA 	c #2A2624",
"qA 	c #32302C",
"rA 	c #373633",
"sA 	c #302F2E",
"tA 	c #262625",
"uA 	c #171716",
"vA 	c #0D0E06",
"wA 	c #1A2009",
"xA 	c #2F3A12",
"yA 	c #333F10",
"zA 	c #2E3A11",
"AA 	c #202610",
"BA 	c #10130B",
"CA 	c #0A0B08",
"DA 	c #161610",
"EA 	c #2E2F20",
"FA 	c #3D3E26",
"GA 	c #3C3F1F",
"HA 	c #3D421C",
"IA 	c #40471E",
"JA 	c #40481E",
"KA 	c #3F481D",
"LA 	c #3D461C",
"MA 	c #3E491F",
"NA 	c #39421C",
"OA 	c #303915",
"PA 	c #262E0E",
"QA 	c #232A0D",
"RA 	c #20250E",
"SA 	c #121809",
"TA 	c #010401",
"UA 	c #060906",
"VA 	c #171A18",
"WA 	c #212422",
"XA 	c #222523",
"YA 	c #212221",
"ZA 	c #212321",
"`A 	c #232524",
" B 	c #2B2D2B",
".B 	c #2B2E2A",
"+B 	c #2D3029",
"@B 	c #26271F",
"#B 	c #181A10",
"$B 	c #111407",
"%B 	c #273213",
"&B 	c #2F3D18",
"*B 	c #323E1E",
"=B 	c #364228",
"-B 	c #373F2F",
";B 	c #3A3F32",
">B 	c #32352B",
",B 	c #252520",
"'B 	c #21201E",
")B 	c #272424",
"!B 	c #282525",
"~B 	c #4A4842",
"{B 	c #48443D",
"]B 	c #605C53",
"^B 	c #807563",
"/B 	c #7F7059",
"(B 	c #87745A",
"_B 	c #8B775E",
":B 	c #8C795F",
"<B 	c #85725B",
"[B 	c #80705A",
"}B 	c #7F7162",
"|B 	c #8A8174",
"1B 	c #868177",
"2B 	c #6E6C65",
"3B 	c #5B5B57",
"4B 	c #5F615D",
"5B 	c #5D5D59",
"6B 	c #44433E",
"7B 	c #332D2A",
"8B 	c #332D2B",
"9B 	c #242226",
"0B 	c #211F21",
"aB 	c #0C090A",
"bB 	c #272325",
"cB 	c #0F0D0D",
"dB 	c #2F2D2D",
"eB 	c #312F2F",
"fB 	c #30302F",
"gB 	c #373535",
"hB 	c #464443",
"iB 	c #4C4B48",
"jB 	c #585853",
"kB 	c #626059",
"lB 	c #5F5B54",
"mB 	c #5E5A53",
"nB 	c #64625C",
"oB 	c #7F7F7A",
"pB 	c #89867F",
"qB 	c #837A70",
"rB 	c #716459",
"sB 	c #66594D",
"tB 	c #51463F",
"uB 	c #373636",
"vB 	c #333232",
"wB 	c #292728",
"xB 	c #212023",
"yB 	c #0C0C0E",
"zB 	c #161719",
"AB 	c #1C1B1D",
"BB 	c #282A2A",
"CB 	c #242626",
"DB 	c #242524",
"EB 	c #272725",
"FB 	c #1F201C",
"GB 	c #1C1C17",
"HB 	c #26241E",
"IB 	c #3A3631",
"JB 	c #231E1A",
"KB 	c #1B1615",
"LB 	c #3A322A",
"MB 	c #3D362C",
"NB 	c #443C33",
"OB 	c #4C443C",
"PB 	c #38332D",
"QB 	c #312D27",
"RB 	c #1F1B17",
"SB 	c #13100D",
"TB 	c #2E2822",
"UB 	c #463F37",
"VB 	c #463D33",
"WB 	c #342F2C",
"XB 	c #433F36",
"YB 	c #484236",
"ZB 	c #433E34",
"`B 	c #3E3930",
" C 	c #5F544C",
".C 	c #6C6156",
"+C 	c #685B4F",
"@C 	c #514333",
"#C 	c #4E402F",
"$C 	c #4C3E2D",
"%C 	c #4D402E",
"&C 	c #4A3D2F",
"*C 	c #3C3024",
"=C 	c #35291E",
"-C 	c #342A20",
";C 	c #342B23",
">C 	c #1A1918",
",C 	c #0C0D0C",
"'C 	c #11100E",
")C 	c #302E2B",
"!C 	c #41403D",
"~C 	c #403E3B",
"{C 	c #32312D",
"]C 	c #26201F",
"^C 	c #2E2722",
"/C 	c #3D382E",
"(C 	c #4C463B",
"_C 	c #595147",
":C 	c #564D43",
"<C 	c #4C453B",
"[C 	c #393731",
"}C 	c #323433",
"|C 	c #343633",
"1C 	c #3A3A36",
"2C 	c #575149",
"3C 	c #504943",
"4C 	c #1F2122",
"5C 	c #202322",
"6C 	c #404240",
"7C 	c #47443E",
"8C 	c #443F35",
"9C 	c #494233",
"0C 	c #493E30",
"aC 	c #443829",
"bC 	c #3B2F23",
"cC 	c #392E25",
"dC 	c #362E27",
"eC 	c #2E2A22",
"fC 	c #645649",
"gC 	c #5F5447",
"hC 	c #1A1F19",
"iC 	c #0C110A",
"jC 	c #0F1309",
"kC 	c #101207",
"lC 	c #15190C",
"mC 	c #1C1D14",
"nC 	c #21201A",
"oC 	c #1B1B16",
"pC 	c #050708",
"qC 	c #141515",
"rC 	c #44413C",
"sC 	c #403C38",
"tC 	c #383431",
"uC 	c #3A3734",
"vC 	c #45433E",
"wC 	c #3C3D3A",
"xC 	c #272623",
"yC 	c #1E240D",
"zC 	c #313B13",
"AC 	c #2E3C13",
"BC 	c #1D2410",
"CC 	c #0E0F0A",
"DC 	c #080808",
"EC 	c #26251C",
"FC 	c #32311F",
"GC 	c #2D2F14",
"HC 	c #2C300E",
"IC 	c #333711",
"JC 	c #3D451C",
"KC 	c #394018",
"LC 	c #313913",
"MC 	c #2E3615",
"NC 	c #272E12",
"OC 	c #1F260D",
"PC 	c #161B07",
"QC 	c #141A06",
"RC 	c #121707",
"SC 	c #13190B",
"TC 	c #11180C",
"UC 	c #13190E",
"VC 	c #161A11",
"WC 	c #1F231B",
"XC 	c #252921",
"YC 	c #272B22",
"ZC 	c #262821",
"`C 	c #272924",
" D 	c #252825",
".D 	c #282B29",
"+D 	c #2F332F",
"@D 	c #343834",
"#D 	c #3B3E38",
"$D 	c #32342D",
"%D 	c #1D2017",
"&D 	c #111509",
"*D 	c #191E0C",
"=D 	c #263014",
"-D 	c #313E1C",
";D 	c #303C25",
">D 	c #2B3526",
",D 	c #2C3428",
"'D 	c #2A2D25",
")D 	c #262523",
"!D 	c #2C2929",
"~D 	c #221F21",
"{D 	c #232022",
"]D 	c #5F5A51",
"^D 	c #7A7166",
"/D 	c #82745E",
"(D 	c #83715A",
"_D 	c #7E6A54",
":D 	c #7C6A50",
"<D 	c #76644C",
"[D 	c #796954",
"}D 	c #827365",
"|D 	c #92887C",
"1D 	c #8E887F",
"2D 	c #706E69",
"3D 	c #575754",
"4D 	c #595956",
"5D 	c #585854",
"6D 	c #33312D",
"7D 	c #292527",
"8D 	c #292425",
"9D 	c #252021",
"0D 	c #141011",
"aD 	c #262020",
"bD 	c #3D3A3A",
"cD 	c #444342",
"dD 	c #3F3D3D",
"eD 	c #434241",
"fD 	c #5B5954",
"gD 	c #67665E",
"hD 	c #6B675F",
"iD 	c #6F6C62",
"jD 	c #6A655B",
"kD 	c #676157",
"lD 	c #68655C",
"mD 	c #7E7C75",
"nD 	c #89837A",
"oD 	c #7B6C5F",
"pD 	c #5F4A3D",
"qD 	c #533D2F",
"rD 	c #463429",
"sD 	c #444544",
"tD 	c #343333",
"uD 	c #2A2A2B",
"vD 	c #232225",
"wD 	c #161618",
"xD 	c #1A1A1C",
"yD 	c #27292B",
"zD 	c #2A2E2F",
"AD 	c #262B2A",
"BD 	c #222625",
"CD 	c #1B1E1B",
"DD 	c #171813",
"ED 	c #27251F",
"FD 	c #46423D",
"GD 	c #534D47",
"HD 	c #201917",
"ID 	c #1F1C1B",
"JD 	c #1E1913",
"KD 	c #524941",
"LD 	c #655B53",
"MD 	c #62584F",
"ND 	c #312D28",
"OD 	c #191614",
"PD 	c #26201D",
"QD 	c #433D31",
"RD 	c #40392E",
"SD 	c #3C362C",
"TD 	c #383229",
"UD 	c #62574F",
"VD 	c #706359",
"WD 	c #6E6053",
"XD 	c #615244",
"YD 	c #4E3F30",
"ZD 	c #463828",
"`D 	c #423525",
" E 	c #453929",
".E 	c #483B2E",
"+E 	c #46392E",
"@E 	c #2D251F",
"#E 	c #1C1615",
"$E 	c #131110",
"%E 	c #09070A",
"&E 	c #222120",
"*E 	c #3C3B3B",
"=E 	c #3E3C3C",
"-E 	c #2B2A2A",
";E 	c #2D2A2A",
">E 	c #2F2926",
",E 	c #363734",
"'E 	c #3D3C38",
")E 	c #48413C",
"!E 	c #1E201F",
"~E 	c #2C2E2D",
"{E 	c #3D3E3D",
"]E 	c #434340",
"^E 	c #41403A",
"/E 	c #4C4539",
"(E 	c #55483B",
"_E 	c #4B3E2E",
":E 	c #403224",
"<E 	c #3E3024",
"[E 	c #3F3127",
"}E 	c #3D322A",
"|E 	c #372F28",
"1E 	c #564A3E",
"2E 	c #625345",
"3E 	c #5D5043",
"4E 	c #4A4138",
"5E 	c #333030",
"6E 	c #383535",
"7E 	c #353535",
"8E 	c #181B19",
"9E 	c #040705",
"0E 	c #050603",
"aE 	c #0F0E07",
"bE 	c #242217",
"cE 	c #343127",
"dE 	c #020306",
"eE 	c #45413C",
"fE 	c #423E3C",
"gE 	c #45413E",
"hE 	c #4F4D49",
"iE 	c #504D4A",
"jE 	c #4B4B48",
"kE 	c #3E3E3C",
"lE 	c #2B2B28",
"mE 	c #1B1C13",
"nE 	c #1F250F",
"oE 	c #303A13",
"pE 	c #2D3913",
"qE 	c #1B200F",
"rE 	c #090B08",
"sE 	c #1B1914",
"tE 	c #242216",
"uE 	c #21220B",
"vE 	c #202204",
"wE 	c #2D300D",
"xE 	c #3B3E1A",
"yE 	c #3C421C",
"zE 	c #313713",
"AE 	c #22280B",
"BE 	c #191F0B",
"CE 	c #101408",
"DE 	c #0A0F05",
"EE 	c #050701",
"FE 	c #030500",
"GE 	c #101409",
"HE 	c #22291A",
"IE 	c #282E1F",
"JE 	c #272C1D",
"KE 	c #2C301F",
"LE 	c #2E311F",
"ME 	c #333420",
"NE 	c #333221",
"OE 	c #272823",
"PE 	c #272825",
"QE 	c #2A2D2A",
"RE 	c #313532",
"SE 	c #383C3B",
"TE 	c #3E423F",
"UE 	c #323532",
"VE 	c #1A1E18",
"WE 	c #0D1109",
"XE 	c #14190C",
"YE 	c #232C17",
"ZE 	c #2F3A20",
"`E 	c #303A23",
" F 	c #273221",
".F 	c #1D281D",
"+F 	c #1D251D",
"@F 	c #222621",
"#F 	c #252624",
"$F 	c #282427",
"%F 	c #221E22",
"&F 	c #171419",
"*F 	c #151317",
"=F 	c #46443E",
"-F 	c #45413B",
";F 	c #5D5950",
">F 	c #7B7569",
",F 	c #8B8373",
"'F 	c #8C816D",
")F 	c #837560",
"!F 	c #71614C",
"~F 	c #695941",
"{F 	c #695743",
"]F 	c #786755",
"^F 	c #897B6C",
"/F 	c #998F82",
"(F 	c #928D83",
"_F 	c #73716B",
":F 	c #545450",
"<F 	c #51514D",
"[F 	c #4F4F4A",
"}F 	c #403F39",
"|F 	c #3A3732",
"1F 	c #252427",
"2F 	c #201C1E",
"3F 	c #2A2628",
"4F 	c #282326",
"5F 	c #272224",
"6F 	c #1E191B",
"7F 	c #221C1C",
"8F 	c #413F3F",
"9F 	c #3C393A",
"0F 	c #3B3938",
"aF 	c #434240",
"bF 	c #514E4B",
"cF 	c #57544E",
"dF 	c #636157",
"eF 	c #686459",
"fF 	c #645D53",
"gF 	c #635E54",
"hF 	c #79766E",
"iF 	c #847D72",
"jF 	c #6C5A4C",
"kF 	c #452A1C",
"lF 	c #391D0D",
"mF 	c #331C0F",
"nF 	c #3E342E",
"oF 	c #454545",
"pF 	c #474547",
"qF 	c #343233",
"rF 	c #242223",
"sF 	c #232323",
"tF 	c #0C0B0E",
"uF 	c #1B1A1C",
"vF 	c #2B2C2D",
"wF 	c #2F3233",
"xF 	c #2C312F",
"yF 	c #242927",
"zF 	c #222725",
"AF 	c #1B1E1A",
"BF 	c #181A14",
"CF 	c #272720",
"DF 	c #575049",
"EF 	c #332B26",
"FF 	c #25201E",
"GF 	c #15120F",
"HF 	c #15120D",
"IF 	c #595048",
"JF 	c #6E6359",
"KF 	c #685E53",
"LF 	c #5D544B",
"MF 	c #4A433C",
"NF 	c #322F29",
"OF 	c #232021",
"PF 	c #3F3A35",
"QF 	c #3B362E",
"RF 	c #3B352B",
"SF 	c #3C352A",
"TF 	c #3B3429",
"UF 	c #362F25",
"VF 	c #413932",
"WF 	c #5B5149",
"XF 	c #6B5E54",
"YF 	c #695A4E",
"ZF 	c #5D4E42",
"`F 	c #4B3D2F",
" G 	c #423426",
".G 	c #3E3123",
"+G 	c #403427",
"@G 	c #44392D",
"#G 	c #463C32",
"$G 	c #3B312A",
"%G 	c #322A25",
"&G 	c #2F2925",
"*G 	c #060506",
"=G 	c #050507",
"-G 	c #110F0F",
";G 	c #080709",
">G 	c #3A3A3A",
",G 	c #3E3D3D",
"'G 	c #272727",
")G 	c #252525",
"!G 	c #272626",
"~G 	c #2B2A29",
"{G 	c #373430",
"]G 	c #3D3B36",
"^G 	c #534941",
"/G 	c #3A3B37",
"(G 	c #373835",
"_G 	c #3C3B37",
":G 	c #4B4641",
"<G 	c #4E4742",
"[G 	c #46413D",
"}G 	c #302D2A",
"|G 	c #222123",
"1G 	c #1F1F20",
"2G 	c #2C2D2C",
"3G 	c #3E3E3D",
"4G 	c #41413B",
"5G 	c #413F36",
"6G 	c #4F493D",
"7G 	c #5B4E3F",
"8G 	c #504432",
"9G 	c #443726",
"0G 	c #433426",
"aG 	c #443629",
"bG 	c #42352B",
"cG 	c #514637",
"dG 	c #594B3C",
"eG 	c #584B3E",
"fG 	c #4B4138",
"gG 	c #383433",
"hG 	c #3A3939",
"iG 	c #1B1D1C",
"jG 	c #020402",
"kG 	c #0E0C06",
"lG 	c #28241A",
"mG 	c #0F0F0D",
"nG 	c #101010",
"oG 	c #43403D",
"pG 	c #464340",
"qG 	c #494743",
"rG 	c #524F4C",
"sG 	c #54514E",
"tG 	c #4E4E4B",
"uG 	c #2C2C28",
"vG 	c #1D1E14",
"wG 	c #303B14",
"xG 	c #364215",
"yG 	c #2F3A16",
"zG 	c #1A1F10",
"AG 	c #090B09",
"BG 	c #191814",
"CG 	c #232117",
"DG 	c #21210F",
"EG 	c #22240B",
"FG 	c #303314",
"GG 	c #3F4320",
"HG 	c #3E451F",
"IG 	c #2E3414",
"JG 	c #1A1F09",
"KG 	c #0F1408",
"LG 	c #060905",
"MG 	c #0B0F06",
"NG 	c #232B1A",
"OG 	c #2A311E",
"PG 	c #272D1A",
"QG 	c #2C301B",
"RG 	c #35351C",
"SG 	c #3D361B",
"TG 	c #3D331B",
"UG 	c #332D1C",
"VG 	c #28261B",
"WG 	c #272822",
"XG 	c #363A38",
"YG 	c #363A3B",
"ZG 	c #373C3B",
"`G 	c #2A2E2C",
" H 	c #161A16",
".H 	c #0C100A",
"+H 	c #13170E",
"@H 	c #202719",
"#H 	c #2B3322",
"$H 	c #2B3323",
"%H 	c #222C1F",
"&H 	c #182019",
"*H 	c #191F1B",
"=H 	c #202320",
"-H 	c #262726",
";H 	c #282827",
">H 	c #292827",
",H 	c #282727",
"'H 	c #252126",
")H 	c #1E1B21",
"!H 	c #131117",
"~H 	c #0D0B11",
"{H 	c #59564C",
"]H 	c #787569",
"^H 	c #8B8579",
"/H 	c #8A8372",
"(H 	c #7B725D",
"_H 	c #685D48",
":H 	c #685B47",
"<H 	c #6D5F4F",
"[H 	c #7E7060",
"}H 	c #8C7F71",
"|H 	c #988E80",
"1H 	c #8E877D",
"2H 	c #6E6A64",
"3H 	c #4E4C47",
"4H 	c #484640",
"5H 	c #423B37",
"6H 	c #272225",
"7H 	c #1D181A",
"8H 	c #120D0E",
"9H 	c #1E1817",
"0H 	c #353030",
"aH 	c #363333",
"bH 	c #363433",
"cH 	c #423F3F",
"dH 	c #54524B",
"eH 	c #5F5D52",
"fH 	c #666056",
"gH 	c #625B50",
"hH 	c #5F594C",
"iH 	c #635D53",
"jH 	c #78746C",
"kH 	c #81796F",
"lH 	c #645346",
"mH 	c #381F11",
"nH 	c #2D1205",
"oH 	c #2D170A",
"pH 	c #3C322C",
"qH 	c #454444",
"rH 	c #343132",
"sH 	c #1E1C1D",
"tH 	c #1A191A",
"uH 	c #303333",
"vH 	c #292D2B",
"wH 	c #262B28",
"xH 	c #20231F",
"yH 	c #1E201B",
"zH 	c #262620",
"AH 	c #3B3932",
"BH 	c #322A26",
"CH 	c #372F29",
"DH 	c #534940",
"EH 	c #5C5247",
"FH 	c #564C45",
"GH 	c #4A413B",
"HH 	c #3A342E",
"IH 	c #312C27",
"JH 	c #1D1915",
"KH 	c #0B0807",
"LH 	c #544C45",
"MH 	c #39342D",
"NH 	c #393229",
"OH 	c #393127",
"PH 	c #383027",
"QH 	c #362E26",
"RH 	c #3F362F",
"SH 	c #5B4F46",
"TH 	c #5B4D44",
"UH 	c #54453B",
"VH 	c #47392F",
"WH 	c #413328",
"XH 	c #3A2F24",
"YH 	c #40362C",
"ZH 	c #433A31",
"`H 	c #3A312C",
" I 	c #312A27",
".I 	c #282424",
"+I 	c #2D2E2E",
"@I 	c #343435",
"#I 	c #28282A",
"$I 	c #282829",
"%I 	c #282828",
"&I 	c #302D2E",
"*I 	c #322F2E",
"=I 	c #1F1B1A",
"-I 	c #241F20",
";I 	c #2A2525",
">I 	c #2F2A29",
",I 	c #34322E",
"'I 	c #3D3C37",
")I 	c #594F47",
"!I 	c #564E45",
"~I 	c #48453C",
"{I 	c #3F3F39",
"]I 	c #3D3E3A",
"^I 	c #3A3936",
"/I 	c #45433F",
"(I 	c #4B4844",
"_I 	c #4B4744",
":I 	c #222224",
"<I 	c #202120",
"[I 	c #3B3D3B",
"}I 	c #42433F",
"|I 	c #42413C",
"1I 	c #423F38",
"2I 	c #574C3C",
"3I 	c #4F4330",
"4I 	c #463725",
"5I 	c #453526",
"6I 	c #453629",
"7I 	c #44362B",
"8I 	c #40342A",
"9I 	c #40352B",
"0I 	c #42382B",
"aI 	c #4B4030",
"bI 	c #4E4232",
"cI 	c #473D34",
"dI 	c #3C3631",
"eI 	c #373432",
"fI 	c #3B3837",
"gI 	c #3A3938",
"hI 	c #1D1F1D",
"iI 	c #020301",
"jI 	c #0C0A05",
"kI 	c #28241C",
"lI 	c #38342D",
"mI 	c #2A2723",
"nI 	c #0C0C0B",
"oI 	c #10100E",
"pI 	c #474441",
"qI 	c #4F4C49",
"rI 	c #4B4A48",
"sI 	c #3E3D3C",
"tI 	c #2C2B27",
"uI 	c #1D1E13",
"vI 	c #1E240E",
"wI 	c #313915",
"xI 	c #373F15",
"yI 	c #2E3714",
"zI 	c #1B1E0F",
"AI 	c #0B0C09",
"BI 	c #0D0C0B",
"CI 	c #1B1A16",
"DI 	c #27251B",
"EI 	c #252615",
"FI 	c #262811",
"GI 	c #313417",
"HI 	c #3F4521",
"II 	c #3D4621",
"JI 	c #2C3415",
"KI 	c #171C0A",
"LI 	c #0B1008",
"MI 	c #040805",
"NI 	c #020401",
"OI 	c #0A0D04",
"PI 	c #1F2517",
"QI 	c #232B19",
"RI 	c #242B18",
"SI 	c #30321A",
"TI 	c #453E20",
"UI 	c #514220",
"VI 	c #4A371A",
"WI 	c #382A12",
"XI 	c #2A2111",
"YI 	c #2B251E",
"ZI 	c #3A3C3B",
"`I 	c #353839",
" J 	c #303433",
".J 	c #1A1D19",
"+J 	c #262B20",
"@J 	c #272D22",
"#J 	c #222920",
"$J 	c #1B201C",
"%J 	c #1C1F1D",
"&J 	c #211E22",
"*J 	c #1B171D",
"=J 	c #131017",
"-J 	c #0C0A10",
";J 	c #050203",
">J 	c #413D37",
",J 	c #535048",
"'J 	c #67635A",
")J 	c #6F6B62",
"!J 	c #6D695C",
"~J 	c #76705F",
"{J 	c #898070",
"]J 	c #988E7F",
"^J 	c #9C9183",
"/J 	c #A09586",
"(J 	c #9D9283",
"_J 	c #9A9082",
":J 	c #8A8278",
"<J 	c #6F6963",
"[J 	c #534F4A",
"}J 	c #4E4944",
"|J 	c #4E4A44",
"1J 	c #3A332E",
"2J 	c #080909",
"3J 	c #2A2528",
"4J 	c #292426",
"5J 	c #262023",
"6J 	c #140F0F",
"7J 	c #201B1A",
"8J 	c #383532",
"9J 	c #3D3A38",
"0J 	c #4C4A48",
"aJ 	c #5D5C53",
"bJ 	c #69675B",
"cJ 	c #757065",
"dJ 	c #736D63",
"eJ 	c #736E63",
"fJ 	c #757066",
"gJ 	c #807D75",
"hJ 	c #868075",
"iJ 	c #6B5E51",
"jJ 	c #433225",
"kJ 	c #3D291B",
"lJ 	c #3E2C21",
"mJ 	c #433A34",
"nJ 	c #454544",
"oJ 	c #484848",
"pJ 	c #353333",
"qJ 	c #1F1D1D",
"rJ 	c #1D1C1D",
"sJ 	c #171619",
"tJ 	c #2F2F30",
"uJ 	c #343635",
"vJ 	c #30332F",
"wJ 	c #2D2F2A",
"xJ 	c #2D2E29",
"yJ 	c #372F2B",
"zJ 	c #302725",
"AJ 	c #2E2623",
"BJ 	c #2B2421",
"CJ 	c #2B2621",
"DJ 	c #292420",
"EJ 	c #483E35",
"FJ 	c #483E33",
"GJ 	c #453A31",
"HJ 	c #4B4039",
"IJ 	c #4F443E",
"JJ 	c #3D372F",
"KJ 	c #302B24",
"LJ 	c #3C362D",
"MJ 	c #39312A",
"NJ 	c #483E38",
"OJ 	c #4F443D",
"PJ 	c #50433C",
"QJ 	c #4E4239",
"RJ 	c #473B32",
"SJ 	c #43362E",
"TJ 	c #3C3128",
"UJ 	c #2A2422",
"VJ 	c #262121",
"WJ 	c #121213",
"XJ 	c #121212",
"YJ 	c #060405",
"ZJ 	c #111011",
"`J 	c #111013",
" K 	c #191A1D",
".K 	c #212124",
"+K 	c #29292B",
"@K 	c #2B2B2C",
"#K 	c #2B2A2B",
"$K 	c #272627",
"%K 	c #2E2A2B",
"&K 	c #312D2D",
"*K 	c #2B2425",
"=K 	c #2E2828",
"-K 	c #322D2C",
";K 	c #34322F",
">K 	c #3F3E3B",
",K 	c #45433D",
"'K 	c #48433D",
")K 	c #494339",
"!K 	c #42403A",
"~K 	c #42423C",
"{K 	c #3E3E38",
"]K 	c #383733",
"^K 	c #393835",
"/K 	c #373634",
"(K 	c #1B1C1C",
"_K 	c #363837",
":K 	c #3B3D3A",
"<K 	c #4A453A",
"[K 	c #554B3B",
"}K 	c #514532",
"|K 	c #4C3C2A",
"1K 	c #4B3B2A",
"2K 	c #4A3A2B",
"3K 	c #493B2E",
"4K 	c #473B2F",
"5K 	c #483C2F",
"6K 	c #4E4132",
"7K 	c #4C4133",
"8K 	c #11120F",
"9K 	c #27221D",
"0K 	c #29241F",
"aK 	c #23201C",
"bK 	c #171614",
"cK 	c #403D38",
"dK 	c #403C39",
"eK 	c #3F3B39",
"fK 	c #4C4945",
"gK 	c #4E4B48",
"hK 	c #4A4947",
"iK 	c #3E3D3B",
"jK 	c #2F2E29",
"kK 	c #212116",
"lK 	c #222710",
"mK 	c #323915",
"nK 	c #373E14",
"oK 	c #313815",
"pK 	c #1B1816",
"qK 	c #1E1B19",
"rK 	c #29261E",
"sK 	c #232314",
"tK 	c #1F230E",
"uK 	c #262A11",
"vK 	c #333A1B",
"wK 	c #343B1C",
"xK 	c #242C11",
"yK 	c #111707",
"zK 	c #060B06",
"AK 	c #060A07",
"BK 	c #0C0F09",
"CK 	c #0E1109",
"DK 	c #1B2013",
"EK 	c #1E2517",
"FK 	c #1A2615",
"GK 	c #1D2816",
"HK 	c #363820",
"IK 	c #574D2B",
"JK 	c #625026",
"KK 	c #563F1B",
"LK 	c #412A0D",
"MK 	c #331F0A",
"NK 	c #34261D",
"OK 	c #3D3734",
"PK 	c #40403F",
"QK 	c #373A39",
"RK 	c #313533",
"SK 	c #2E312E",
"TK 	c #2C2A28",
"UK 	c #2B2C25",
"VK 	c #2E3028",
"WK 	c #2E2F28",
"XK 	c #292A27",
"YK 	c #292826",
"ZK 	c #2B2829",
"`K 	c #19161B",
" L 	c #120F16",
".L 	c #100D14",
"+L 	c #0F0B0B",
"@L 	c #504B46",
"#L 	c #58524E",
"$L 	c #535047",
"%L 	c #847D74",
"&L 	c #B7AEA4",
"*L 	c #C2BBAF",
"=L 	c #BFB7AB",
"-L 	c #BCB2A5",
";L 	c #AFA597",
">L 	c #9F9789",
",L 	c #8A8377",
"'L 	c #746F65",
")L 	c #615C54",
"!L 	c #5F5951",
"~L 	c #5B554D",
"{L 	c #4C483E",
"]L 	c #3F3831",
"^L 	c #403630",
"/L 	c #282226",
"(L 	c #251F22",
"_L 	c #1D181B",
":L 	c #140E0F",
"<L 	c #312927",
"[L 	c #302825",
"}L 	c #312925",
"|L 	c #3D3936",
"1L 	c #53514C",
"2L 	c #626157",
"3L 	c #656457",
"4L 	c #747265",
"5L 	c #7F7D71",
"6L 	c #838176",
"7L 	c #838276",
"8L 	c #87857B",
"9L 	c #88847C",
"0L 	c #8A8880",
"aL 	c #8A897C",
"bL 	c #7E776A",
"cL 	c #6C6052",
"dL 	c #6C5D4E",
"eL 	c #68594D",
"fL 	c #514A44",
"gL 	c #424342",
"hL 	c #444444",
"iL 	c #322E30",
"jL 	c #050508",
"kL 	c #323032",
"lL 	c #383736",
"mL 	c #343331",
"nL 	c #3A3832",
"oL 	c #332C28",
"pL 	c #312826",
"qL 	c #3C342E",
"rL 	c #443B33",
"sL 	c #3F352E",
"tL 	c #352A22",
"uL 	c #3F342D",
"vL 	c #51463E",
"wL 	c #5F554B",
"xL 	c #574F45",
"yL 	c #342E26",
"zL 	c #2E2721",
"AL 	c #27211D",
"BL 	c #3A302E",
"CL 	c #4F443F",
"DL 	c #574D46",
"EL 	c #60564D",
"FL 	c #645A4E",
"GL 	c #63594E",
"HL 	c #2D2823",
"IL 	c #2D2623",
"JL 	c #322B27",
"KL 	c #413834",
"LL 	c #413734",
"ML 	c #3F3631",
"NL 	c #3E332E",
"OL 	c #392F29",
"PL 	c #362D26",
"QL 	c #2E2725",
"RL 	c #1D1817",
"SL 	c #18181A",
"TL 	c #1A1A19",
"UL 	c #121211",
"VL 	c #141113",
"WL 	c #040408",
"XL 	c #05060A",
"YL 	c #161619",
"ZL 	c #242428",
"`L 	c #27252A",
" M 	c #272528",
".M 	c #2E2829",
"+M 	c #302A2A",
"@M 	c #2E2727",
"#M 	c #2F2828",
"$M 	c #443F3B",
"%M 	c #383732",
"&M 	c #343332",
"*M 	c #292929",
"=M 	c #262526",
"-M 	c #242325",
";M 	c #1D1D1F",
">M 	c #131316",
",M 	c #121414",
"'M 	c #1F2020",
")M 	c #2E2F2F",
"!M 	c #313231",
"~M 	c #514739",
"{M 	c #564A37",
"]M 	c #574734",
"^M 	c #564634",
"/M 	c #524333",
"(M 	c #504335",
"_M 	c #4F4436",
":M 	c #524739",
"<M 	c #574C3D",
"[M 	c #5C4F40",
"}M 	c #5A4C3E",
"|M 	c #33322E",
"1M 	c #32312E",
"2M 	c #171210",
"3M 	c #332F2D",
"4M 	c #3D3938",
"5M 	c #46423F",
"6M 	c #474543",
"7M 	c #3C3B39",
"8M 	c #242419",
"9M 	c #232710",
"0M 	c #303613",
"aM 	c #353B12",
"bM 	c #333815",
"cM 	c #343323",
"dM 	c #36302E",
"eM 	c #1B1B11",
"fM 	c #121505",
"gM 	c #171C07",
"hM 	c #262C13",
"iM 	c #2A3117",
"jM 	c #1D240F",
"kM 	c #0B1106",
"lM 	c #020604",
"mM 	c #080D0A",
"nM 	c #1E211A",
"oM 	c #2D2F23",
"pM 	c #333526",
"qM 	c #323325",
"rM 	c #2B2F22",
"sM 	c #151E11",
"tM 	c #081509",
"uM 	c #0E180C",
"vM 	c #2D2E1C",
"wM 	c #524628",
"xM 	c #614B24",
"yM 	c #583C19",
"zM 	c #45260A",
"AM 	c #3A1C07",
"BM 	c #3C241A",
"CM 	c #433734",
"DM 	c #363836",
"EM 	c #3D3C3A",
"FM 	c #45423F",
"GM 	c #47413E",
"HM 	c #3E3A36",
"IM 	c #383534",
"JM 	c #2F2B2C",
"KM 	c #1C191C",
"LM 	c #131115",
"MM 	c #0F0D12",
"NM 	c #110F15",
"OM 	c #3F3D36",
"PM 	c #423F39",
"QM 	c #505047",
"RM 	c #535349",
"SM 	c #86817A",
"TM 	c #B8B2A6",
"UM 	c #BEBBAD",
"VM 	c #BAB7AA",
"WM 	c #B9B4A7",
"XM 	c #AEA79A",
"YM 	c #9C9589",
"ZM 	c #857F75",
"`M 	c #716D63",
" N 	c #635E56",
".N 	c #635E55",
"+N 	c #5E574F",
"@N 	c #4D4840",
"#N 	c #272226",
"$N 	c #251F23",
"%N 	c #241F22",
"&N 	c #342C27",
"*N 	c #352C27",
"=N 	c #362F2A",
"-N 	c #525048",
";N 	c #605E53",
">N 	c #666556",
",N 	c #747364",
"'N 	c #7F7D73",
")N 	c #85857A",
"!N 	c #85857B",
"~N 	c #89897F",
"{N 	c #8C8B82",
"]N 	c #8A8A7F",
"^N 	c #868276",
"/N 	c #81786A",
"(N 	c #837666",
"_N 	c #424242",
":N 	c #363334",
"<N 	c #3F3B34",
"[N 	c #413E36",
"}N 	c #312A28",
"|N 	c #302926",
"1N 	c #463D34",
"2N 	c #40362F",
"3N 	c #3D342C",
"4N 	c #5C544A",
"5N 	c #353028",
"6N 	c #352D2A",
"7N 	c #544943",
"8N 	c #62574E",
"9N 	c #6A6155",
"0N 	c #6E6455",
"aN 	c #564F45",
"bN 	c #413C37",
"cN 	c #3C372F",
"dN 	c #181410",
"eN 	c #0D0C09",
"fN 	c #090808",
"gN 	c #191A1A",
"hN 	c #141413",
"iN 	c #1F1E1F",
"jN 	c #121216",
"kN 	c #212125",
"lN 	c #232325",
"mN 	c #322D2D",
"nN 	c #2E2A29",
"oN 	c #2F2D2B",
"pN 	c #333130",
"qN 	c #343533",
"rN 	c #3E3F3D",
"sN 	c #434441",
"tN 	c #44443E",
"uN 	c #373735",
"vN 	c #212223",
"wN 	c #1D1E1F",
"xN 	c #181A1B",
"yN 	c #1D1F1E",
"zN 	c #2E2F2E",
"AN 	c #2E2E2C",
"BN 	c #2E2D29",
"CN 	c #50483B",
"DN 	c #5C4E3C",
"EN 	c #5C4D3C",
"FN 	c #564939",
"GN 	c #4F473A",
"HN 	c #554D3F",
"IN 	c #5E5545",
"JN 	c #625647",
"KN 	c #574D3F",
"LN 	c #443E33",
"MN 	c #302E2A",
"NN 	c #1C1714",
"ON 	c #171311",
"PN 	c #383632",
"QN 	c #3D3A37",
"RN 	c #3E3B38",
"SN 	c #3E3B3A",
"TN 	c #3E3B39",
"UN 	c #484541",
"VN 	c #464441",
"WN 	c #3E3D3A",
"XN 	c #28281C",
"YN 	c #252A13",
"ZN 	c #323816",
"`N 	c #363D15",
" O 	c #333816",
".O 	c #393727",
"+O 	c #403935",
"@O 	c #282721",
"#O 	c #181912",
"$O 	c #0D1105",
"%O 	c #121807",
"&O 	c #222A12",
"*O 	c #1E2710",
"=O 	c #0B1307",
"-O 	c #020806",
";O 	c #090F0D",
">O 	c #22271F",
",O 	c #36362B",
"'O 	c #3C3C2D",
")O 	c #39382A",
"!O 	c #2C3123",
"~O 	c #131B11",
"{O 	c #040D05",
"]O 	c #091209",
"^O 	c #252919",
"/O 	c #494126",
"(O 	c #564422",
"_O 	c #553718",
":O 	c #48260B",
"<O 	c #3F1D08",
"[O 	c #412418",
"}O 	c #483832",
"|O 	c #3F423D",
"1O 	c #3B3C39",
"2O 	c #41413C",
"3O 	c #494742",
"4O 	c #49443E",
"5O 	c #48433F",
"6O 	c #484641",
"7O 	c #2F2D2A",
"8O 	c #322F2D",
"9O 	c #2B2929",
"0O 	c #0E0E11",
"aO 	c #111014",
"bO 	c #4D4A44",
"cO 	c #4E4D47",
"dO 	c #4B4A43",
"eO 	c #736C66",
"fO 	c #9F978D",
"gO 	c #AAA597",
"hO 	c #A8A497",
"iO 	c #A7A396",
"jO 	c #9E998E",
"kO 	c #8F8A81",
"lO 	c #77746C",
"mO 	c #64625B",
"nO 	c #54514C",
"oO 	c #55504B",
"pO 	c #524B46",
"qO 	c #4A443E",
"rO 	c #362D28",
"sO 	c #2A221E",
"tO 	c #15100E",
"uO 	c #252124",
"vO 	c #211D20",
"wO 	c #1A1619",
"xO 	c #120E10",
"yO 	c #2F2623",
"zO 	c #332923",
"AO 	c #524C44",
"BO 	c #625E54",
"CO 	c #636052",
"DO 	c #6D6A5D",
"EO 	c #78746D",
"FO 	c #827F78",
"GO 	c #85837B",
"HO 	c #8A887E",
"IO 	c #8B887F",
"JO 	c #89857D",
"KO 	c #888178",
"LO 	c #83786C",
"MO 	c #837567",
"NO 	c #796C5F",
"OO 	c #5A524C",
"PO 	c #444242",
"QO 	c #413F40",
"RO 	c #2F2A2A",
"SO 	c #3E3938",
"TO 	c #3A342F",
"UO 	c #2C2525",
"VO 	c #2E2726",
"WO 	c #3C342D",
"XO 	c #3B322C",
"YO 	c #3C3530",
"ZO 	c #2F2924",
"`O 	c #2B2520",
" P 	c #241D1C",
".P 	c #372E2C",
"+P 	c #514640",
"@P 	c #5E524A",
"#P 	c #655B4E",
"$P 	c #675B4F",
"%P 	c #6C6051",
"&P 	c #665A4C",
"*P 	c #534B40",
"=P 	c #3C3830",
"-P 	c #241F1C",
";P 	c #1D1713",
">P 	c #29211E",
",P 	c #130F0C",
"'P 	c #191A19",
")P 	c #131113",
"!P 	c #0E0D10",
"~P 	c #050408",
"{P 	c #0D0D11",
"]P 	c #141217",
"^P 	c #17161B",
"/P 	c #18181B",
"(P 	c #1B1A1D",
"_P 	c #2B2728",
":P 	c #302C2D",
"<P 	c #2C2A29",
"[P 	c #2E2B2C",
"}P 	c #313130",
"|P 	c #414140",
"1P 	c #41423F",
"2P 	c #3E3D37",
"3P 	c #3B3936",
"4P 	c #3D3C39",
"5P 	c #353534",
"6P 	c #1B1C1E",
"7P 	c #1C1C1F",
"8P 	c #1A1B1D",
"9P 	c #111212",
"0P 	c #1C1D1D",
"aP 	c #2A2B2C",
"bP 	c #2F2F2F",
"cP 	c #554A3E",
"dP 	c #564A3C",
"eP 	c #50453A",
"fP 	c #444037",
"gP 	c #4A453B",
"hP 	c #5A5144",
"iP 	c #50483C",
"jP 	c #423D33",
"kP 	c #3A3737",
"lP 	c #3C3A3A",
"mP 	c #3C3A35",
"nP 	c #484340",
"oP 	c #484542",
"pP 	c #373532",
"qP 	c #33302B",
"rP 	c #262A14",
"sP 	c #313616",
"tP 	c #323515",
"uP 	c #343223",
"vP 	c #3A3332",
"wP 	c #161611",
"xP 	c #0D1006",
"yP 	c #131909",
"zP 	c #232B14",
"AP 	c #1E2611",
"BP 	c #0C1308",
"CP 	c #040807",
"DP 	c #0D1211",
"EP 	c #242721",
"FP 	c #343329",
"GP 	c #38352A",
"HP 	c #343227",
"IP 	c #292C22",
"JP 	c #171D15",
"KP 	c #0B130C",
"LP 	c #0F160F",
"MP 	c #24271B",
"NP 	c #3C3621",
"OP 	c #4A391F",
"PP 	c #4C3017",
"QP 	c #46230C",
"RP 	c #411A08",
"SP 	c #422116",
"TP 	c #4B3630",
"UP 	c #4C4340",
"VP 	c #43413F",
"WP 	c #47413C",
"XP 	c #443E3A",
"YP 	c #47403C",
"ZP 	c #463F3C",
"`P 	c #45413D",
" Q 	c #0F0E12",
".Q 	c #36322F",
"+Q 	c #211F1B",
"@Q 	c #262420",
"#Q 	c #61594F",
"$Q 	c #6D675A",
"%Q 	c #716B60",
"&Q 	c #747064",
"*Q 	c #6F6E64",
"=Q 	c #65675F",
"-Q 	c #545852",
";Q 	c #464A44",
">Q 	c #3C3F3A",
",Q 	c #3C3F38",
"'Q 	c #3A3934",
")Q 	c #34342E",
"!Q 	c #2B2924",
"~Q 	c #050402",
"{Q 	c #2F261F",
"]Q 	c #3D342B",
"^Q 	c #40372C",
"/Q 	c #5D574D",
"(Q 	c #6A655D",
"_Q 	c #68655A",
":Q 	c #69675A",
"<Q 	c #6A6860",
"[Q 	c #76736A",
"}Q 	c #7B776D",
"|Q 	c #858075",
"1Q 	c #888377",
"2Q 	c #8B877A",
"3Q 	c #888378",
"4Q 	c #888276",
"5Q 	c #847767",
"6Q 	c #7A6E5F",
"7Q 	c #484545",
"8Q 	c #454242",
"9Q 	c #383334",
"0Q 	c #3F3836",
"aQ 	c #3F3935",
"bQ 	c #413A32",
"cQ 	c #453C35",
"dQ 	c #473E39",
"eQ 	c #2F2824",
"fQ 	c #24201B",
"gQ 	c #231E1B",
"hQ 	c #251F1C",
"iQ 	c #2E2823",
"jQ 	c #3A322F",
"kQ 	c #433935",
"lQ 	c #50453C",
"mQ 	c #54483C",
"nQ 	c #5A4F40",
"oQ 	c #5F5243",
"pQ 	c #675947",
"qQ 	c #635645",
"rQ 	c #544B3E",
"sQ 	c #393732",
"tQ 	c #35312A",
"uQ 	c #342F27",
"vQ 	c #0B0909",
"wQ 	c #1A1515",
"xQ 	c #161110",
"yQ 	c #28201C",
"zQ 	c #312923",
"AQ 	c #2C241F",
"BQ 	c #1A1919",
"CQ 	c #1B1B1A",
"DQ 	c #141412",
"EQ 	c #050605",
"FQ 	c #1D1C1C",
"GQ 	c #171718",
"HQ 	c #141416",
"IQ 	c #262325",
"JQ 	c #2E2D2C",
"KQ 	c #2D2C2C",
"LQ 	c #393B3A",
"MQ 	c #3D3F3D",
"NQ 	c #3E403D",
"OQ 	c #3A3A37",
"PQ 	c #3A3935",
"QQ 	c #3B3833",
"RQ 	c #35332F",
"SQ 	c #2E2D2D",
"TQ 	c #121215",
"UQ 	c #0E0F12",
"VQ 	c #101014",
"WQ 	c #121316",
"XQ 	c #131416",
"YQ 	c #111012",
"ZQ 	c #2C2C2C",
"`Q 	c #383530",
" R 	c #4B4137",
".R 	c #4C4238",
"+R 	c #423B33",
"@R 	c #35322F",
"#R 	c #302D2B",
"$R 	c #191414",
"%R 	c #2A2829",
"&R 	c #302D2F",
"*R 	c #302C2F",
"=R 	c #494541",
"-R 	c #312F29",
";R 	c #28271B",
">R 	c #262912",
",R 	c #323615",
"'R 	c #363A15",
")R 	c #303313",
"!R 	c #2C2A1A",
"~R 	c #2C2627",
"{R 	c #262323",
"]R 	c #161713",
"^R 	c #0E1307",
"/R 	c #252E14",
"(R 	c #202A12",
"_R 	c #0F160A",
":R 	c #090F0C",
"<R 	c #181D1A",
"[R 	c #2B2D26",
"}R 	c #353229",
"|R 	c #373429",
"1R 	c #353227",
"2R 	c #2E3027",
"3R 	c #232822",
"4R 	c #1F251F",
"5R 	c #222721",
"6R 	c #2E2E26",
"7R 	c #3D3627",
"8R 	c #463723",
"9R 	c #492E1A",
"0R 	c #47240F",
"aR 	c #431908",
"bR 	c #441F13",
"cR 	c #4D332C",
"dR 	c #514440",
"eR 	c #494442",
"fR 	c #433F3C",
"gR 	c #201F1D",
"hR 	c #131213",
"iR 	c #0F0F11",
"jR 	c #3C3934",
"kR 	c #1E1D1B",
"lR 	c #2B241D",
"mR 	c #312D23",
"nR 	c #37362E",
"oR 	c #343731",
"pR 	c #313835",
"qR 	c #273030",
"rR 	c #222A2A",
"sR 	c #1B2221",
"tR 	c #1C2320",
"uR 	c #191D1C",
"vR 	c #171B18",
"wR 	c #121311",
"xR 	c #110F0D",
"yR 	c #0E0B09",
"zR 	c #0B0806",
"AR 	c #080807",
"BR 	c #0C0B0A",
"CR 	c #070605",
"DR 	c #161316",
"ER 	c #171518",
"FR 	c #0A090A",
"GR 	c #2C2521",
"HR 	c #2C231B",
"IR 	c #362C23",
"JR 	c #5A5045",
"KR 	c #6C675E",
"LR 	c #76746E",
"MR 	c #73726C",
"NR 	c #66645D",
"OR 	c #57534F",
"PR 	c #5B564D",
"QR 	c #5F574E",
"RR 	c #6C6257",
"SR 	c #7A7065",
"TR 	c #847C71",
"UR 	c #847F73",
"VR 	c #857E73",
"WR 	c #83796E",
"XR 	c #837668",
"YR 	c #796E60",
"ZR 	c #4B4849",
"`R 	c #4A4747",
" S 	c #3B3635",
".S 	c #2A2625",
"+S 	c #0C0B0F",
"@S 	c #19171B",
"#S 	c #393436",
"$S 	c #433D3C",
"%S 	c #433D3A",
"&S 	c #1C1919",
"*S 	c #302A27",
"=S 	c #3F3933",
"-S 	c #5E544E",
";S 	c #615851",
">S 	c #4C423F",
",S 	c #261F1E",
"'S 	c #120F0D",
")S 	c #1F1A17",
"!S 	c #433C38",
"~S 	c #49403D",
"{S 	c #4D433F",
"]S 	c #4C413B",
"^S 	c #4C3F36",
"/S 	c #4A3E30",
"(S 	c #4C402F",
"_S 	c #524331",
":S 	c #5B4C37",
"<S 	c #5B4D3A",
"[S 	c #3C3A37",
"}S 	c #363432",
"|S 	c #231E1D",
"1S 	c #241F1D",
"2S 	c #27211C",
"3S 	c #27201B",
"4S 	c #2F2720",
"5S 	c #393028",
"6S 	c #423830",
"7S 	c #4D443F",
"8S 	c #453F3B",
"9S 	c #1D1C1B",
"0S 	c #060605",
"aS 	c #191818",
"bS 	c #202022",
"cS 	c #18171B",
"dS 	c #161519",
"eS 	c #141215",
"fS 	c #2C2B2B",
"gS 	c #2D2D2D",
"hS 	c #363738",
"iS 	c #393B39",
"jS 	c #383A37",
"kS 	c #3B3B38",
"lS 	c #41403B",
"mS 	c #44423F",
"nS 	c #010104",
"oS 	c #090A0C",
"pS 	c #302F2F",
"qS 	c #323030",
"rS 	c #3C342F",
"sS 	c #3F3632",
"tS 	c #3E3633",
"uS 	c #373231",
"vS 	c #332F2C",
"wS 	c #393531",
"xS 	c #363331",
"yS 	c #353130",
"zS 	c #0E0B0A",
"AS 	c #302E2F",
"BS 	c #302E30",
"CS 	c #1B1A1E",
"DS 	c #19171D",
"ES 	c #211F24",
"FS 	c #4A4440",
"GS 	c #4A4541",
"HS 	c #262519",
"IS 	c #22250F",
"JS 	c #303413",
"KS 	c #343613",
"LS 	c #2E3012",
"MS 	c #272518",
"NS 	c #141512",
"OS 	c #0F1509",
"PS 	c #151D0B",
"QS 	c #242E14",
"RS 	c #293516",
"SS 	c #1E2810",
"TS 	c #0F1412",
"US 	c #39352E",
"VS 	c #363128",
"WS 	c #332F27",
"XS 	c #32322C",
"YS 	c #333532",
"ZS 	c #48372A",
"`S 	c #4C2F1F",
" T 	c #492311",
".T 	c #441606",
"+T 	c #43180D",
"@T 	c #4E2E27",
"#T 	c #53413D",
"$T 	c #4F4744",
"%T 	c #443E37",
"&T 	c #3E3631",
"*T 	c #141311",
"=T 	c #0A0A0C",
"-T 	c #120F0E",
";T 	c #151411",
">T 	c #17100A",
",T 	c #18130A",
"'T 	c #17130C",
")T 	c #1A1812",
"!T 	c #171917",
"~T 	c #171E1E",
"{T 	c #131C1F",
"]T 	c #141C1D",
"^T 	c #0F1617",
"/T 	c #0F1515",
"(T 	c #0D1111",
"_T 	c #0C100E",
":T 	c #060806",
"<T 	c #050301",
"[T 	c #070809",
"}T 	c #2D2620",
"|T 	c #2B231B",
"1T 	c #382F25",
"2T 	c #584D41",
"3T 	c #695E50",
"4T 	c #665E50",
"5T 	c #716E63",
"6T 	c #797C74",
"7T 	c #767973",
"8T 	c #666561",
"9T 	c #524D4A",
"0T 	c #524A43",
"aT 	c #52463C",
"bT 	c #5C4F41",
"cT 	c #6C5E50",
"dT 	c #81766A",
"eT 	c #867D73",
"fT 	c #847A6E",
"gT 	c #837769",
"hT 	c #605A53",
"iT 	c #4E4C4C",
"jT 	c #4D4A4A",
"kT 	c #3E3A39",
"lT 	c #252325",
"mT 	c #08080C",
"nT 	c #242124",
"oT 	c #3B3639",
"pT 	c #453F40",
"qT 	c #45403F",
"rT 	c #232120",
"sT 	c #272423",
"tT 	c #423B38",
"uT 	c #5C554F",
"vT 	c #6D655E",
"wT 	c #231D19",
"xT 	c #352E2A",
"yT 	c #4C443F",
"zT 	c #4F4540",
"AT 	c #524741",
"BT 	c #4C413A",
"CT 	c #44392B",
"DT 	c #453927",
"ET 	c #493B28",
"FT 	c #53452F",
"GT 	c #564934",
"HT 	c #514738",
"IT 	c #454441",
"JT 	c #363534",
"KT 	c #303030",
"LT 	c #302D27",
"MT 	c #040506",
"NT 	c #262021",
"OT 	c #251F19",
"PT 	c #382E26",
"QT 	c #473C33",
"RT 	c #4F453C",
"ST 	c #353230",
"TT 	c #1C1D1B",
"UT 	c #2D2C2B",
"VT 	c #242323",
"WT 	c #181717",
"XT 	c #252327",
"YT 	c #222024",
"ZT 	c #060509",
"`T 	c #0D0C10",
" U 	c #07060A",
".U 	c #141114",
"+U 	c #262426",
"@U 	c #353737",
"#U 	c #373938",
"$U 	c #383A39",
"%U 	c #393A38",
"&U 	c #3F3E3D",
"*U 	c #42413E",
"=U 	c #454440",
"-U 	c #44433F",
";U 	c #444340",
">U 	c #282726",
",U 	c #19171A",
"'U 	c #1B191D",
")U 	c #121114",
"!U 	c #100F12",
"~U 	c #131314",
"{U 	c #342F2F",
"]U 	c #38312D",
"^U 	c #3C3533",
"/U 	c #343030",
"(U 	c #393634",
"_U 	c #222122",
":U 	c #2E2C2F",
"<U 	c #302E31",
"[U 	c #252428",
"}U 	c #16161B",
"|U 	c #121218",
"1U 	c #1C1B21",
"2U 	c #222027",
"3U 	c #2B282C",
"4U 	c #45403D",
"5U 	c #4A4743",
"6U 	c #423F3D",
"7U 	c #252519",
"8U 	c #21250D",
"9U 	c #2E3311",
"0U 	c #333717",
"aU 	c #272619",
"bU 	c #19171C",
"cU 	c #151713",
"dU 	c #11170B",
"eU 	c #18210D",
"fU 	c #263114",
"gU 	c #293616",
"hU 	c #1E2910",
"iU 	c #10180A",
"jU 	c #121714",
"kU 	c #34332F",
"lU 	c #353635",
"mU 	c #383A3A",
"nU 	c #393939",
"oU 	c #3F3B3B",
"pU 	c #453B38",
"qU 	c #4B3A32",
"rU 	c #4D3126",
"sU 	c #4A2215",
"tU 	c #431508",
"uU 	c #43160B",
"vU 	c #4E2B22",
"wU 	c #57413C",
"xU 	c #564D47",
"yU 	c #524D46",
"zU 	c #46423C",
"AU 	c #292828",
"BU 	c #252425",
"CU 	c #1F1C18",
"DU 	c #1B1A18",
"EU 	c #201E1C",
"FU 	c #262521",
"GU 	c #282621",
"HU 	c #2C2116",
"IU 	c #2B2011",
"JU 	c #291D10",
"KU 	c #2B2217",
"LU 	c #2B2921",
"MU 	c #2B2F2B",
"NU 	c #282E2D",
"OU 	c #292F2D",
"PU 	c #262A28",
"QU 	c #272A26",
"RU 	c #252522",
"SU 	c #1D1E19",
"TU 	c #13130F",
"UU 	c #130E09",
"VU 	c #090403",
"WU 	c #090809",
"XU 	c #09090E",
"YU 	c #05070A",
"ZU 	c #010205",
"`U 	c #2C2623",
" V 	c #2F2822",
".V 	c #5E5244",
"+V 	c #5D5142",
"@V 	c #737164",
"#V 	c #6E6D63",
"$V 	c #615F55",
"%V 	c #574B44",
"&V 	c #58493E",
"*V 	c #5C4C3B",
"=V 	c #655340",
"-V 	c #786957",
";V 	c #85756A",
">V 	c #897C71",
",V 	c #817565",
"'V 	c #786D5F",
")V 	c #625A54",
"!V 	c #504D4D",
"~V 	c #4E4B4B",
"{V 	c #3E3939",
"]V 	c #262326",
"^V 	c #0B0B0F",
"/V 	c #201D20",
"(V 	c #312E31",
"_V 	c #3C383A",
":V 	c #292626",
"<V 	c #211D1F",
"[V 	c #534D49",
"}V 	c #5E5752",
"|V 	c #443C38",
"1V 	c #4A403B",
"2V 	c #4B403B",
"3V 	c #473A31",
"4V 	c #433629",
"5V 	c #433625",
"6V 	c #463825",
"7V 	c #4E3F2A",
"8V 	c #524531",
"9V 	c #4E4435",
"0V 	c #403D3C",
"aV 	c #383838",
"bV 	c #2F3132",
"cV 	c #2C2F31",
"dV 	c #2F3133",
"eV 	c #252320",
"fV 	c #161515",
"gV 	c #07090C",
"hV 	c #090A0E",
"iV 	c #221C1D",
"jV 	c #2B2423",
"kV 	c #2A2220",
"lV 	c #251D19",
"mV 	c #29201A",
"nV 	c #362C24",
"oV 	c #4A3F37",
"pV 	c #4C4540",
"qV 	c #111110",
"rV 	c #252326",
"sV 	c #0E0C10",
"tV 	c #232223",
"uV 	c #292928",
"vV 	c #2B2B2A",
"wV 	c #2E3030",
"xV 	c #333434",
"yV 	c #3B3B3B",
"zV 	c #403F3E",
"AV 	c #41413F",
"BV 	c #3F3F3D",
"CV 	c #3F3E3C",
"DV 	c #262524",
"EV 	c #38302D",
"FV 	c #352E2D",
"GV 	c #383633",
"HV 	c #393636",
"IV 	c #322F31",
"JV 	c #121115",
"KV 	c #252429",
"LV 	c #1F1F24",
"MV 	c #13141A",
"NV 	c #111218",
"OV 	c #1D1D25",
"PV 	c #25232B",
"QV 	c #2A282D",
"RV 	c #2F2D2E",
"SV 	c #3E3B3B",
"TV 	c #3A3838",
"UV 	c #26271A",
"VV 	c #232910",
"WV 	c #2F3513",
"XV 	c #363B14",
"YV 	c #323616",
"ZV 	c #19181D",
"`V 	c #1B1A1F",
" W 	c #1A191C",
".W 	c #141613",
"+W 	c #11170A",
"@W 	c #19210C",
"#W 	c #263013",
"$W 	c #2A3615",
"%W 	c #1F2910",
"&W 	c #0F1609",
"*W 	c #101511",
"=W 	c #31302D",
"-W 	c #343437",
";W 	c #36373A",
">W 	c #383A3C",
",W 	c #3E3C3F",
"'W 	c #413A3A",
")W 	c #443733",
"!W 	c #462D27",
"~W 	c #442118",
"{W 	c #40150B",
"]W 	c #40130A",
"^W 	c #49241C",
"/W 	c #553C36",
"(W 	c #564A44",
"_W 	c #504B43",
":W 	c #2E2D2A",
"<W 	c #2B2B29",
"[W 	c #212123",
"}W 	c #1A1A1B",
"|W 	c #484643",
"1W 	c #4C4947",
"2W 	c #54534F",
"3W 	c #5C5952",
"4W 	c #665B4F",
"5W 	c #6A5741",
"6W 	c #6C5334",
"7W 	c #6C5032",
"8W 	c #705B43",
"9W 	c #766C5A",
"0W 	c #77766A",
"aW 	c #74776F",
"bW 	c #75776F",
"cW 	c #717068",
"dW 	c #727069",
"eW 	c #706B62",
"fW 	c #5C594E",
"gW 	c #252221",
"hW 	c #080708",
"iW 	c #2C251C",
"jW 	c #372E23",
"kW 	c #4D3F34",
"lW 	c #544435",
"mW 	c #4D3B2C",
"nW 	c #503D2C",
"oW 	c #61503E",
"pW 	c #6C5D4C",
"qW 	c #645848",
"rW 	c #5C5443",
"sW 	c #5B5249",
"tW 	c #685C4E",
"uW 	c #6A5943",
"vW 	c #634E32",
"wW 	c #675034",
"xW 	c #725A47",
"yW 	c #7A6559",
"zW 	c #807060",
"AW 	c #827360",
"BW 	c #796C5D",
"CW 	c #524F4F",
"DW 	c #504C4C",
"EW 	c #403B39",
"FW 	c #141216",
"GW 	c #131014",
"HW 	c #262226",
"IW 	c #262225",
"JW 	c #252224",
"KW 	c #1C1A1C",
"LW 	c #252323",
"MW 	c #342E2C",
"NW 	c #2D2625",
"OW 	c #151110",
"PW 	c #1A1413",
"QW 	c #473C38",
"RW 	c #493D39",
"SW 	c #493C32",
"TW 	c #46392C",
"UW 	c #463927",
"VW 	c #483A27",
"WW 	c #50412C",
"XW 	c #544533",
"YW 	c #4B4033",
"ZW 	c #28282B",
"`W 	c #242427",
" X 	c #25282D",
".X 	c #282B30",
"+X 	c #202225",
"@X 	c #0D0A09",
"#X 	c #070708",
"$X 	c #101116",
"%X 	c #16181C",
"&X 	c #19191D",
"*X 	c #17161A",
"=X 	c #151011",
"-X 	c #1B1516",
";X 	c #261F1F",
">X 	c #2C2423",
",X 	c #2F2626",
"'X 	c #2C2422",
")X 	c #2A211B",
"!X 	c #473C32",
"~X 	c #1A1C1B",
"{X 	c #0F1110",
"]X 	c #282628",
"^X 	c #29272A",
"/X 	c #1B1B1E",
"(X 	c #161418",
"_X 	c #272827",
":X 	c #232425",
"<X 	c #272728",
"[X 	c #141115",
"}X 	c #181519",
"|X 	c #131212",
"1X 	c #22201F",
"2X 	c #232220",
"3X 	c #353332",
"4X 	c #383637",
"5X 	c #323134",
"6X 	c #1F1F23",
"7X 	c #121318",
"8X 	c #15151A",
"9X 	c #19181F",
"0X 	c #1E1E23",
"aX 	c #1B1B21",
"bX 	c #131318",
"cX 	c #0E0D13",
"dX 	c #111116",
"eX 	c #100F15",
"fX 	c #0C0C13",
"gX 	c #0E0E16",
"hX 	c #1C1B24",
"iX 	c #22212A",
"jX 	c #222127",
"kX 	c #2C2E20",
"lX 	c #343C16",
"mX 	c #3A4217",
"nX 	c #39401D",
"oX 	c #2D2F21",
"pX 	c #1C1A1F",
"qX 	c #1E1D21",
"rX 	c #161814",
"sX 	c #1A230D",
"tX 	c #2A3913",
"uX 	c #202B0E",
"vX 	c #101608",
"wX 	c #0C0F0C",
"xX 	c #151616",
"yX 	c #302D30",
"zX 	c #37363B",
"AX 	c #393A3E",
"BX 	c #35393C",
"CX 	c #323338",
"DX 	c #322829",
"EX 	c #32201E",
"FX 	c #351813",
"GX 	c #370F09",
"HX 	c #3A0E07",
"IX 	c #451E16",
"JX 	c #4E332D",
"KX 	c #4D3E38",
"LX 	c #2D2C27",
"MX 	c #181915",
"NX 	c #0A0C0E",
"OX 	c #0C0E11",
"PX 	c #101214",
"QX 	c #171A1D",
"RX 	c #1E2024",
"SX 	c #1C1C21",
"TX 	c #1F2022",
"UX 	c #4F4D4B",
"VX 	c #51504F",
"WX 	c #545352",
"XX 	c #575555",
"YX 	c #60605F",
"ZX 	c #6E6D65",
"`X 	c #7E7263",
" Y 	c #897053",
".Y 	c #916B44",
"+Y 	c #906741",
"@Y 	c #9C7C5A",
"#Y 	c #AA9580",
"$Y 	c #A9A293",
"%Y 	c #A3A094",
"&Y 	c #A19C8E",
"*Y 	c #9B9286",
"=Y 	c #9E9588",
"-Y 	c #998E81",
";Y 	c #686054",
">Y 	c #695C52",
",Y 	c #594E45",
"'Y 	c #362C29",
")Y 	c #282221",
"!Y 	c #2D2A2C",
"~Y 	c #2A2728",
"{Y 	c #272324",
"]Y 	c #151312",
"^Y 	c #000102",
"/Y 	c #141313",
"(Y 	c #2D261F",
"_Y 	c #352B22",
":Y 	c #44362C",
"<Y 	c #473527",
"[Y 	c #442E1D",
"}Y 	c #4C321F",
"|Y 	c #654731",
"1Y 	c #6D5039",
"2Y 	c #644B33",
"3Y 	c #604C37",
"4Y 	c #605247",
"5Y 	c #6C6157",
"6Y 	c #716256",
"7Y 	c #725E4A",
"8Y 	c #62462B",
"9Y 	c #4E2D10",
"0Y 	c #492910",
"aY 	c #523726",
"bY 	c #735C4A",
"cY 	c #836D5C",
"dY 	c #78695B",
"eY 	c #645A54",
"fY 	c #524E4E",
"gY 	c #504C4B",
"hY 	c #403A39",
"iY 	c #312C2A",
"jY 	c #282527",
"kY 	c #100E12",
"lY 	c #151318",
"mY 	c #19151B",
"nY 	c #1C181E",
"oY 	c #1E1A1F",
"pY 	c #040307",
"qY 	c #1B191E",
"rY 	c #2B292A",
"sY 	c #282627",
"tY 	c #252122",
"uY 	c #181213",
"vY 	c #100B0B",
"wY 	c #463B38",
"xY 	c #483C38",
"yY 	c #473A34",
"zY 	c #493C33",
"AY 	c #493C30",
"BY 	c #4B3D2D",
"CY 	c #564734",
"DY 	c #594A3A",
"EY 	c #4D4238",
"FY 	c #1C1C22",
"GY 	c #19181E",
"HY 	c #181A1F",
"IY 	c #1E2228",
"JY 	c #24262E",
"KY 	c #12131A",
"LY 	c #1C1C23",
"MY 	c #201F24",
"NY 	c #1E1C20",
"OY 	c #110C0D",
"PY 	c #2D2424",
"QY 	c #2D2523",
"RY 	c #251E1A",
"SY 	c #2A211C",
"TY 	c #372E27",
"UY 	c #433931",
"VY 	c #483E37",
"WY 	c #151516",
"XY 	c #161818",
"YY 	c #0C0E0D",
"ZY 	c #282728",
"`Y 	c #312F30",
" Z 	c #262427",
".Z 	c #322F32",
"+Z 	c #373539",
"@Z 	c #2E2D30",
"#Z 	c #232226",
"$Z 	c #1C1B1F",
"%Z 	c #121116",
"&Z 	c #18161A",
"*Z 	c #262626",
"=Z 	c #212122",
"-Z 	c #2A292B",
";Z 	c #2D2B2D",
">Z 	c #2E2D2E",
",Z 	c #2B292B",
"'Z 	c #0B080A",
")Z 	c #080407",
"!Z 	c #09060A",
"~Z 	c #221F24",
"{Z 	c #252226",
"]Z 	c #221F23",
"^Z 	c #0F0B0D",
"/Z 	c #393432",
"(Z 	c #3A3432",
"_Z 	c #322B2B",
":Z 	c #141415",
"<Z 	c #1C1B1A",
"[Z 	c #201F1F",
"}Z 	c #333133",
"|Z 	c #363435",
"1Z 	c #393738",
"2Z 	c #393739",
"3Z 	c #3A393B",
"4Z 	c #333237",
"5Z 	c #212228",
"6Z 	c #17181F",
"7Z 	c #191921",
"8Z 	c #1D1C24",
"9Z 	c #202027",
"0Z 	c #1E1E25",
"aZ 	c #131219",
"bZ 	c #08080E",
"cZ 	c #09070D",
"dZ 	c #07060D",
"eZ 	c #090711",
"fZ 	c #16141E",
"gZ 	c #1D1C25",
"hZ 	c #1D1C23",
"iZ 	c #1A181C",
"jZ 	c #1A171C",
"kZ 	c #19191E",
"lZ 	c #1E1F22",
"mZ 	c #2E3123",
"nZ 	c #333C1C",
"oZ 	c #3B471A",
"pZ 	c #3C4420",
"qZ 	c #313126",
"rZ 	c #1F1D24",
"sZ 	c #1D1B21",
"tZ 	c #1D1B20",
"uZ 	c #161815",
"vZ 	c #151A0D",
"wZ 	c #1A220D",
"xZ 	c #263211",
"yZ 	c #2A3810",
"zZ 	c #1F2A0C",
"AZ 	c #0F1307",
"BZ 	c #090A09",
"CZ 	c #0F0E0F",
"DZ 	c #322F33",
"EZ 	c #3C3B42",
"FZ 	c #3C3C43",
"GZ 	c #35373D",
"HZ 	c #272930",
"IZ 	c #1B1A20",
"JZ 	c #1A1518",
"KZ 	c #1C1112",
"LZ 	c #230E0C",
"MZ 	c #2C0A07",
"NZ 	c #350C08",
"OZ 	c #3D1711",
"PZ 	c #442622",
"QZ 	c #45322E",
"RZ 	c #3C332F",
"SZ 	c #090A07",
"TZ 	c #010105",
"UZ 	c #050307",
"VZ 	c #06070B",
"WZ 	c #14171C",
"XZ 	c #25272D",
"YZ 	c #27292D",
"ZZ 	c #26282B",
"`Z 	c #252629",
" ` 	c #191919",
".` 	c #474340",
"+` 	c #4B4A4A",
"@` 	c #49494A",
"#` 	c #504F4F",
"$` 	c #515052",
"%` 	c #5D5D5E",
"&` 	c #6F6F69",
"*` 	c #7C7267",
"=` 	c #856C52",
"-` 	c #8D6740",
";` 	c #8D633B",
">` 	c #9E7D5B",
",` 	c #B19D85",
"'` 	c #B0A99B",
")` 	c #A5A096",
"!` 	c #A09A8B",
"~` 	c #998E80",
"{` 	c #938779",
"]` 	c #796F62",
"^` 	c #645A4F",
"/` 	c #685C52",
"(` 	c #685C53",
"_` 	c #574C46",
":` 	c #332A27",
"<` 	c #2B282B",
"[` 	c #2A272A",
"}` 	c #181616",
"|` 	c #151514",
"1` 	c #2E2C28",
"2` 	c #43382D",
"3` 	c #433528",
"4` 	c #432F20",
"5` 	c #4E341F",
"6` 	c #67452C",
"7` 	c #6E4B2D",
"8` 	c #674727",
"9` 	c #664B30",
"0` 	c #695645",
"a` 	c #736454",
"b` 	c #756653",
"c` 	c #7A634A",
"d` 	c #694A2C",
"e` 	c #4D2909",
"f` 	c #3E1D05",
"g` 	c #442A14",
"h` 	c #6B5443",
"i` 	c #846D5D",
"j` 	c #7B6B5D",
"k` 	c #524F4E",
"l` 	c #504D4B",
"m` 	c #322D2B",
"n` 	c #0E0E10",
"o` 	c #100E11",
"p` 	c #1B191F",
"q` 	c #1A181D",
"r` 	c #131216",
"s` 	c #110B0B",
"t` 	c #140E0D",
"u` 	c #403836",
"v` 	c #443A37",
"w` 	c #443A36",
"x` 	c #463C34",
"y` 	c #4A3F31",
"z` 	c #4F4334",
"A` 	c #57493A",
"B` 	c #594D40",
"C` 	c #4A433A",
"D` 	c #1C1E23",
"E` 	c #17181D",
"F` 	c #15181B",
"G` 	c #181D22",
"H` 	c #1D2026",
"I` 	c #17191D",
"J` 	c #080A0C",
"K` 	c #121219",
"L` 	c #1A1B21",
"M` 	c #1D1C20",
"N` 	c #191415",
"O` 	c #261F21",
"P` 	c #2D2525",
"Q` 	c #2C2524",
"R` 	c #292220",
"S` 	c #453D39",
"T` 	c #141516",
"U` 	c #0B0D0C",
"V` 	c #333132",
"W` 	c #333134",
"X` 	c #3B393C",
"Y` 	c #323034",
"Z` 	c #252529",
"`` 	c #1D1C21",
"  .	c #1D1D21",
". .	c #111015",
"+ .	c #151419",
"@ .	c #131217",
"# .	c #212121",
"$ .	c #202021",
"% .	c #202121",
"& .	c #242425",
"* .	c #2C2B2C",
"= .	c #2C2C2D",
"- .	c #2A292A",
"; .	c #080609",
"> .	c #201E22",
", .	c #232025",
"' .	c #221E23",
") .	c #211E23",
"! .	c #1B181D",
"~ .	c #0D0A0C",
"{ .	c #2E2928",
"] .	c #191918",
"^ .	c #282929",
"/ .	c #2F2E2F",
"( .	c #323132",
"_ .	c #363537",
": .	c #37373A",
"< .	c #323237",
"[ .	c #23242A",
"} .	c #1A1C23",
"| .	c #1C1D24",
"1 .	c #1D1E25",
"2 .	c #1F2025",
"3 .	c #131419",
"4 .	c #0B0C11",
"5 .	c #0C0C11",
"6 .	c #0B0A0F",
"7 .	c #07060C",
"8 .	c #08070E",
"9 .	c #15151C",
"0 .	c #1B1B22",
"a .	c #1D1E23",
"b .	c #1D1E21",
"c .	c #1F1E22",
"d .	c #1F1D21",
"e .	c #1C1D22",
"f .	c #1D1F24",
"g .	c #2A2F21",
"h .	c #313D19",
"i .	c #394817",
"j .	c #3B4422",
"k .	c #2F2F28",
"l .	c #27242A",
"m .	c #1F1E25",
"n .	c #151B0E",
"o .	c #1B240D",
"p .	c #263312",
"q .	c #2A3910",
"r .	c #202C0B",
"s .	c #0F1406",
"t .	c #0A0B0A",
"u .	c #0E0E0F",
"v .	c #161313",
"w .	c #2D2C2E",
"x .	c #393A3F",
"y .	c #3E3F46",
"z .	c #37393F",
"A .	c #25282E",
"B .	c #16171D",
"C .	c #191315",
"D .	c #221212",
"E .	c #2C100F",
"F .	c #37110E",
"G .	c #42251E",
"H .	c #422F28",
"I .	c #39302B",
"J .	c #0D0F0C",
"K .	c #050609",
"L .	c #15191E",
"M .	c #2C3036",
"N .	c #303336",
"O .	c #2A2B2E",
"P .	c #141315",
"Q .	c #1D1C1E",
"R .	c #282729",
"S .	c #373534",
"T .	c #44413F",
"U .	c #413E3D",
"V .	c #4B494B",
"W .	c #474749",
"X .	c #49484A",
"Y .	c #4C4C4E",
"Z .	c #5C5D5D",
"` .	c #6A6967",
" ..	c #756D65",
"...	c #78644E",
"+..	c #7A5A39",
"@..	c #7E5836",
"#..	c #957759",
"$..	c #B09E8A",
"%..	c #AEA79D",
"&..	c #A8A39B",
"*..	c #9C9488",
"=..	c #897E73",
"-..	c #887B6F",
";..	c #817568",
">..	c #6C6357",
",..	c #60554D",
"'..	c #5D534C",
")..	c #221C20",
"!..	c #262327",
"~..	c #262428",
"{..	c #232023",
"]..	c #030507",
"^..	c #4B423B",
"/..	c #4D4239",
"(..	c #4A3A2E",
"_..	c #503523",
":..	c #5C371E",
"<..	c #653B1C",
"[..	c #663B19",
"}..	c #674222",
"|..	c #6A4D36",
"1..	c #735944",
"2..	c #745A43",
"3..	c #72593A",
"4..	c #684C29",
"5..	c #644625",
"6..	c #5F432D",
"7..	c #614C3A",
"8..	c #726051",
"9..	c #826F5F",
"0..	c #7A6A5C",
"a..	c #635A54",
"b..	c #504E4E",
"c..	c #4F4B4A",
"d..	c #100E14",
"e..	c #121017",
"f..	c #131118",
"g..	c #131218",
"h..	c #141319",
"i..	c #16141A",
"j..	c #151316",
"k..	c #151113",
"l..	c #161213",
"m..	c #120E0F",
"n..	c #0F0B0C",
"o..	c #110B0C",
"p..	c #282223",
"q..	c #2C2727",
"r..	c #302928",
"s..	c #312A26",
"t..	c #131317",
"u..	c #141418",
"v..	c #0E0F11",
"w..	c #0A0B10",
"x..	c #0A0C11",
"y..	c #090A0D",
"z..	c #030405",
"A..	c #020104",
"B..	c #0E0E13",
"C..	c #131319",
"D..	c #100B0D",
"E..	c #151012",
"F..	c #1E181A",
"G..	c #231C1D",
"H..	c #292623",
"I..	c #090B0B",
"J..	c #2D2B2E",
"K..	c #272429",
"L..	c #1C1B20",
"M..	c #17151B",
"N..	c #121015",
"O..	c #0F0E13",
"P..	c #1B1B1B",
"Q..	c #0D0B0D",
"R..	c #0C090C",
"S..	c #0E0C0F",
"T..	c #18141A",
"U..	c #1F1C21",
"V..	c #201D22",
"W..	c #1D1A1F",
"X..	c #19161A",
"Y..	c #0C0D10",
"Z..	c #0C0D0E",
"`..	c #262528",
" +.	c #28282D",
".+.	c #25262B",
"++.	c #181921",
"@+.	c #191A22",
"#+.	c #181920",
"$+.	c #18191F",
"%+.	c #0D0D12",
"&+.	c #0A0A0F",
"*+.	c #0B0B10",
"=+.	c #101017",
"-+.	c #16171E",
";+.	c #191A20",
">+.	c #191A1E",
",+.	c #1A191D",
"'+.	c #15161C",
")+.	c #14161C",
"!+.	c #141519",
"~+.	c #1F2416",
"{+.	c #293610",
"]+.	c #31400D",
"^+.	c #333D10",
"/+.	c #2D3319",
"(+.	c #1B1A21",
"_+.	c #18181F",
":+.	c #191A1F",
"<+.	c #16171B",
"[+.	c #111312",
"}+.	c #151F09",
"|+.	c #22300D",
"1+.	c #27360C",
"2+.	c #1C2907",
"3+.	c #0C1203",
"4+.	c #060807",
"5+.	c #121110",
"6+.	c #28282E",
"7+.	c #2F3036",
"8+.	c #2D2F34",
"9+.	c #212329",
"0+.	c #181A1E",
"a+.	c #271919",
"b+.	c #311716",
"c+.	c #391612",
"d+.	c #3A1710",
"e+.	c #3E1F18",
"f+.	c #39241D",
"g+.	c #312721",
"h+.	c #11110E",
"i+.	c #060707",
"j+.	c #12141B",
"k+.	c #292B31",
"l+.	c #2C2D31",
"m+.	c #120F13",
"n+.	c #1A171B",
"o+.	c #242023",
"p+.	c #4D4B4C",
"q+.	c #464748",
"r+.	c #474748",
"s+.	c #4C4D4D",
"t+.	c #5F6260",
"u+.	c #686A66",
"v+.	c #69665F",
"w+.	c #645747",
"x+.	c #624C33",
"y+.	c #6B4E32",
"z+.	c #8D7359",
"A+.	c #AEA08D",
"B+.	c #B3AEA2",
"C+.	c #B0AEA2",
"D+.	c #9C958A",
"E+.	c #80776C",
"F+.	c #796E63",
"G+.	c #71685C",
"H+.	c #5E574D",
"I+.	c #514943",
"J+.	c #534B45",
"K+.	c #211D22",
"L+.	c #222025",
"M+.	c #060504",
"N+.	c #040507",
"O+.	c #080A0B",
"P+.	c #5B554F",
"Q+.	c #56483E",
"R+.	c #523A27",
"S+.	c #553016",
"T+.	c #5E300E",
"U+.	c #632F09",
"V+.	c #68350E",
"W+.	c #673917",
"X+.	c #693E20",
"Y+.	c #663E1D",
"Z+.	c #67461F",
"`+.	c #6E522C",
" @.	c #836D50",
".@.	c #857566",
"+@.	c #7E7265",
"@@.	c #756A5C",
"#@.	c #786959",
"$@.	c #736556",
"%@.	c #4D4C4C",
"&@.	c #4D4948",
"*@.	c #0E0C12",
"=@.	c #0E0C13",
"-@.	c #0C0B12",
";@.	c #0F0E14",
">@.	c #100F14",
",@.	c #121016",
"'@.	c #151214",
")@.	c #151215",
"!@.	c #100D10",
"~@.	c #0C090B",
"{@.	c #0E0A0D",
"]@.	c #140F12",
"^@.	c #08070B",
"/@.	c #110E11",
"(@.	c #100B0F",
"_@.	c #181214",
":@.	c #040505",
"<@.	c #242225",
"[@.	c #100E13",
"}@.	c #0B090D",
"|@.	c #201C21",
"1@.	c #201F22",
"2@.	c #201D21",
"3@.	c #101013",
"4@.	c #1D1C22",
"5@.	c #1C1B22",
"6@.	c #1A1A21",
"7@.	c #171820",
"8@.	c #16161C",
"9@.	c #0D0E12",
"0@.	c #06060A",
"a@.	c #050409",
"b@.	c #020207",
"c@.	c #0C0C12",
"d@.	c #14141B",
"e@.	c #14141A",
"f@.	c #0C0E13",
"g@.	c #0A0C12",
"h@.	c #0A0D10",
"i@.	c #181F0F",
"j@.	c #263509",
"k@.	c #2E4007",
"l@.	c #2E3A09",
"m@.	c #222910",
"n@.	c #131414",
"o@.	c #111018",
"p@.	c #16171C",
"q@.	c #121418",
"r@.	c #0B0E0E",
"s@.	c #070D03",
"t@.	c #0E1702",
"u@.	c #1D2B07",
"v@.	c #253409",
"w@.	c #1D2A07",
"x@.	c #0C1303",
"y@.	c #070908",
"z@.	c #0F0E0C",
"A@.	c #151519",
"B@.	c #211616",
"C@.	c #281312",
"D@.	c #30110D",
"E@.	c #310E09",
"F@.	c #32110C",
"G@.	c #2D1510",
"H@.	c #261914",
"I@.	c #17110D",
"J@.	c #0C0B09",
"K@.	c #070808",
"L@.	c #070504",
"M@.	c #030100",
"N@.	c #121417",
"O@.	c #26272C",
"P@.	c #262529",
"Q@.	c #070406",
"R@.	c #0D0A0E",
"S@.	c #494648",
"T@.	c #474848",
"U@.	c #4C4E4C",
"V@.	c #4F4F51",
"W@.	c #5C5C5D",
"X@.	c #5F605F",
"Y@.	c #5C5A56",
"Z@.	c #50493F",
"`@.	c #4D402F",
" #.	c #56412D",
".#.	c #7B6753",
"+#.	c #A99D8D",
"@#.	c #B6B2A6",
"##.	c #B2AFA3",
"$#.	c #989288",
"%#.	c #736C62",
"&#.	c #5B534D",
"*#.	c #413C3B",
"=#.	c #3C3737",
"-#.	c #343031",
";#.	c #1F1C22",
">#.	c #1E1C22",
",#.	c #1F1D22",
"'#.	c #060403",
")#.	c #151615",
"!#.	c #444241",
"~#.	c #5A5756",
"{#.	c #5F5A57",
"]#.	c #594C44",
"^#.	c #503928",
"/#.	c #542E14",
"(#.	c #5F2D0A",
"_#.	c #672E05",
":#.	c #6E3105",
"<#.	c #6B3006",
"[#.	c #6E350B",
"}#.	c #6A370C",
"|#.	c #6E471C",
"1#.	c #795D3C",
"2#.	c #897A65",
"3#.	c #868176",
"4#.	c #7B776C",
"5#.	c #685A4B",
"6#.	c #635547",
"7#.	c #464547",
"8#.	c #494645",
"9#.	c #312E2E",
"0#.	c #29272B",
"a#.	c #0E0D12",
"b#.	c #110F16",
"c#.	c #121117",
"d#.	c #141318",
"e#.	c #131215",
"f#.	c #0F0C0F",
"g#.	c #110D10",
"h#.	c #0F0F12",
"i#.	c #0F1012",
"j#.	c #171113",
"k#.	c #191514",
"l#.	c #212021",
"m#.	c #0F0D11",
"n#.	c #0D0C0E",
"o#.	c #0D0B0A",
"p#.	c #0B0A09",
"q#.	c #0B080C",
"r#.	c #151217",
"s#.	c #1D191E",
"t#.	c #1F1B20",
"u#.	c #020304",
"v#.	c #141517",
"w#.	c #1C1D1F",
"x#.	c #1A1A1E",
"y#.	c #1A1B22",
"z#.	c #191A21",
"A#.	c #17171C",
"B#.	c #141518",
"C#.	c #111114",
"D#.	c #0C0D11",
"E#.	c #090B10",
"F#.	c #080B0C",
"G#.	c #181E0B",
"H#.	c #293A08",
"I#.	c #2F4204",
"J#.	c #2C3B04",
"K#.	c #1F270C",
"L#.	c #111118",
"M#.	c #14131B",
"N#.	c #17171D",
"O#.	c #15161A",
"P#.	c #111216",
"Q#.	c #07090A",
"R#.	c #020701",
"S#.	c #091100",
"T#.	c #1C2904",
"U#.	c #263506",
"V#.	c #202C05",
"W#.	c #0F1403",
"X#.	c #0A080B",
"Y#.	c #090706",
"Z#.	c #1E1514",
"`#.	c #231110",
" $.	c #2B100C",
".$.	c #2F0F0A",
"+$.	c #33120C",
"@$.	c #2F1610",
"#$.	c #23140E",
"$$.	c #110B07",
"%$.	c #030104",
"&$.	c #130F13",
"*$.	c #161419",
"=$.	c #474646",
"-$.	c #4C4D4E",
";$.	c #555756",
">$.	c #575759",
",$.	c #5B5E5D",
"'$.	c #575A58",
")$.	c #51524E",
"!$.	c #49453F",
"~$.	c #6A6151",
"{$.	c #969083",
"]$.	c #A6A39B",
"^$.	c #9F9D95",
"/$.	c #817F77",
"($.	c #4A4643",
"_$.	c #353334",
":$.	c #2F2D2F",
"<$.	c #1E1C21",
"[$.	c #1E1B20",
"}$.	c #201D1F",
"|$.	c #0D0E0E",
"1$.	c #161514",
"2$.	c #464442",
"3$.	c #5B5957",
"4$.	c #625D5A",
"5$.	c #5A4E45",
"6$.	c #533D2B",
"7$.	c #593418",
"8$.	c #64320D",
"9$.	c #682F05",
"0$.	c #6E3104",
"a$.	c #6F3104",
"b$.	c #743708",
"c$.	c #733D0F",
"d$.	c #815A31",
"e$.	c #8B7458",
"f$.	c #8C806E",
"g$.	c #837E73",
"h$.	c #787467",
"i$.	c #665B4E",
"j$.	c #604E3F",
"k$.	c #59473A",
"l$.	c #4B433E",
"m$.	c #403F40",
"n$.	c #111016",
"o$.	c #0D0D0E",
"p$.	c #09080A",
"q$.	c #0A0807",
"r$.	c #252524",
"s$.	c #252426",
"t$.	c #0C0A0D",
"u$.	c #0A0A08",
"v$.	c #1E1B1F",
"w$.	c #0A0B0C",
"x$.	c #1B1B1F",
"y$.	c #1A1A20",
"z$.	c #1A1B20",
"A$.	c #17171B",
"B$.	c #0E0F10",
"C$.	c #0D0E10",
"D$.	c #090B0E",
"E$.	c #090C0A",
"F$.	c #171F08",
"G$.	c #283A05",
"H$.	c #2F4502",
"I$.	c #2C3D02",
"J$.	c #20290B",
"K$.	c #111210",
"L$.	c #100F17",
"M$.	c #131418",
"N$.	c #0F1114",
"O$.	c #0B1100",
"P$.	c #1E2A05",
"Q$.	c #2A3B07",
"R$.	c #131805",
"S$.	c #1E1615",
"T$.	c #231412",
"U$.	c #29130F",
"V$.	c #2C140D",
"W$.	c #301610",
"X$.	c #2C1712",
"Y$.	c #21140F",
"Z$.	c #0F0906",
"`$.	c #050607",
" %.	c #323235",
".%.	c #393A3D",
"+%.	c #3A3A3D",
"@%.	c #3B3E3F",
"#%.	c #383C3D",
"$%.	c #383B3B",
"%%.	c #383837",
"&%.	c #4F504D",
"*%.	c #545555",
"=%.	c #4F504F",
"-%.	c #434342",
";%.	c #333231",
">%.	c #292829",
",%.	c #242525",
"'%.	c #1C1D21",
")%.	c #1D1E22",
"!%.	c #141419",
"~%.	c #0C0D0D",
"{%.	c #302E2C",
"]%.	c #403D3B",
"^%.	c #3A3635",
"/%.	c #454241",
"(%.	c #5B5756",
"_%.	c #5E5B57",
":%.	c #584C45",
"<%.	c #564131",
"[%.	c #56331A",
"}%.	c #61310E",
"|%.	c #642D06",
"1%.	c #682E04",
"2%.	c #6A2E03",
"3%.	c #6E3206",
"4%.	c #784315",
"5%.	c #8D6742",
"6%.	c #948166",
"7%.	c #908672",
"8%.	c #898372",
"9%.	c #7C7361",
"0%.	c #665744",
"a%.	c #5F4A36",
"b%.	c #533F2F",
"c%.	c #3B3A3A",
"d%.	c #07060B",
"e%.	c #070609",
"f%.	c #060407",
"g%.	c #090709",
"h%.	c #12100F",
"i%.	c #020303",
"j%.	c #1E1F20",
"k%.	c #1D1E20",
"l%.	c #07080A",
"m%.	c #040608",
"n%.	c #040509",
"o%.	c #040707",
"p%.	c #131C07",
"q%.	c #243603",
"r%.	c #2A3E01",
"s%.	c #2B3A02",
"t%.	c #1B2308",
"u%.	c #060706",
"v%.	c #030209",
"w%.	c #0C1201",
"x%.	c #202C06",
"y%.	c #2D3D07",
"z%.	c #283509",
"A%.	c #090A0A",
"B%.	c #140C0B",
"C%.	c #170C0A",
"D%.	c #170A08",
"E%.	c #180B08",
"F%.	c #160A08",
"G%.	c #110906",
"H%.	c #080302",
"I%.	c #050305",
"J%.	c #0D0B0F",
"K%.	c #0D0B10",
"L%.	c #030408",
"M%.	c #101114",
"N%.	c #131518",
"O%.	c #18191C",
"P%.	c #1A1B1E",
"Q%.	c #1A1C1E",
"R%.	c #181A1D",
"S%.	c #171B1C",
"T%.	c #15181A",
"U%.	c #151719",
"V%.	c #131315",
"W%.	c #121315",
"X%.	c #07090D",
"Y%.	c #07080C",
"Z%.	c #07070D",
"`%.	c #08080D",
" &.	c #06070C",
".&.	c #050606",
"+&.	c #2D2D2B",
"@&.	c #3E3C3B",
"#&.	c #454341",
"$&.	c #5B5755",
"%&.	c #615D59",
"&&.	c #5E524C",
"*&.	c #5C4939",
"=&.	c #593A23",
"-&.	c #5E3413",
";&.	c #5F2E09",
">&.	c #622E08",
",&.	c #632E07",
"'&.	c #673109",
")&.	c #754319",
"!&.	c #916E49",
"~&.	c #998867",
"{&.	c #93886D",
"]&.	c #8C8069",
"^&.	c #7D6D56",
"/&.	c #604B33",
"(&.	c #513820",
"_&.	c #46301B",
":&.	c #0B0C0E",
"<&.	c #111115",
"[&.	c #16161A",
"}&.	c #0E0F13",
"|&.	c #010202",
"1&.	c #020406",
"2&.	c #040706",
"3&.	c #121A06",
"4&.	c #233503",
"5&.	c #2B3F01",
"6&.	c #2C3B03",
"7&.	c #1A2209",
"8&.	c #0C1402",
"9&.	c #2D3F08",
"0&.	c #2A370C",
"a&.	c #151B09",
"b&.	c #030001",
"c&.	c #030000",
"d&.	c #040000",
"e&.	c #020002",
"f&.	c #101113",
"g&.	c #0E1010",
"h&.	c #0C0E0E",
"i&.	c #060408",
"j&.	c #09070C",
"k&.	c #383735",
"l&.	c #67605B",
"m&.	c #645850",
"n&.	c #5F4E3F",
"o&.	c #583C26",
"p&.	c #593316",
"q&.	c #582C0C",
"r&.	c #5A2B08",
"s&.	c #5A2906",
"t&.	c #602D08",
"u&.	c #6E3D17",
"v&.	c #8D6944",
"w&.	c #95805F",
"x&.	c #907F62",
"y&.	c #89775E",
"z&.	c #715B43",
"A&.	c #52381F",
"B&.	c #42250A",
"C&.	c #3A2009",
"D&.	c #382A1E",
"E&.	c #0C0B10",
"F&.	c #0E1504",
"G&.	c #213005",
"H&.	c #283902",
"I&.	c #283704",
"J&.	c #19210A",
"K&.	c #0A1002",
"L&.	c #202D06",
"M&.	c #2D3C08",
"N&.	c #29360D",
"O&.	c #15190A",
"P&.	c #252422",
"Q&.	c #35322C",
"R&.	c #33302A",
"S&.	c #0E0E0D",
"T&.	c #2E2C27",
"U&.	c #565048",
"V&.	c #615950",
"W&.	c #61544A",
"X&.	c #5F4D3C",
"Y&.	c #573E29",
"Z&.	c #59391E",
"`&.	c #563115",
" *.	c #593010",
".*.	c #592C0A",
"+*.	c #5D2C08",
"@*.	c #6C401A",
"#*.	c #8E7048",
"$*.	c #98835F",
"%*.	c #917E61",
"&*.	c #88755A",
"**.	c #4F361F",
"=*.	c #442911",
"-*.	c #3D2512",
";*.	c #392B21",
">*.	c #322C2A",
",*.	c #242326",
"'*.	c #030504",
")*.	c #101506",
"!*.	c #1F2A08",
"~*.	c #263307",
"{*.	c #273308",
"]*.	c #040605",
"^*.	c #0A1001",
"/*.	c #222F07",
"(*.	c #2E3E0B",
"_*.	c #27340E",
":*.	c #131809",
"<*.	c #45443F",
"[*.	c #4C4942",
"}*.	c #514E44",
"|*.	c #5E584E",
"1*.	c #6C6359",
"2*.	c #7B7162",
"3*.	c #837B6B",
"4*.	c #887F70",
"5*.	c #8C8275",
"6*.	c #8C8277",
"7*.	c #4F473E",
"8*.	c #4A433D",
"9*.	c #4A453F",
"0*.	c #423D38",
"a*.	c #0E0B0E",
"b*.	c #0A0704",
"c*.	c #0E0906",
"d*.	c #0A0504",
"e*.	c #50483E",
"f*.	c #54473A",
"g*.	c #584939",
"h*.	c #564331",
"i*.	c #5B4530",
"j*.	c #5C422D",
"k*.	c #5E3F27",
"l*.	c #5D371C",
"m*.	c #5C3213",
"n*.	c #67401E",
"o*.	c #8D714D",
"p*.	c #9C8868",
"q*.	c #98876C",
"r*.	c #907F67",
"s*.	c #786650",
"t*.	c #5B4834",
"u*.	c #543F2C",
"v*.	c #4E3C2E",
"w*.	c #0A0805",
"x*.	c #080503",
"y*.	c #080502",
"z*.	c #040301",
"A*.	c #060302",
"B*.	c #181513",
"C*.	c #030103",
"D*.	c #14100B",
"E*.	c #19140F",
"F*.	c #1C1712",
"G*.	c #1B1712",
"H*.	c #1C1814",
"I*.	c #1A1612",
"J*.	c #1A1511",
"K*.	c #18140F",
"L*.	c #110F0B",
"M*.	c #100D0A",
"N*.	c #110E0B",
"O*.	c #12100C",
"P*.	c #12100D",
"Q*.	c #110F0C",
"R*.	c #0F0D0A",
"S*.	c #0E0C09",
"T*.	c #090703",
"U*.	c #0C0804",
"V*.	c #0F0A06",
"W*.	c #100B07",
"X*.	c #130D08",
"Y*.	c #150E09",
"Z*.	c #16100B",
"`*.	c #150F0B",
" =.	c #150F0C",
".=.	c #140F0C",
"+=.	c #150F0A",
"@=.	c #140D09",
"#=.	c #120C08",
"$=.	c #0D0805",
"%=.	c #010201",
"&=.	c #0D1107",
"*=.	c #171F0A",
"==.	c #1E260C",
"-=.	c #20270D",
";=.	c #1A1E10",
">=.	c #0A0F01",
",=.	c #202C08",
"'=.	c #2B3A0F",
")=.	c #232F0F",
"!=.	c #080605",
"~=.	c #0A0907",
"{=.	c #0A0806",
"]=.	c #090806",
"^=.	c #090704",
"/=.	c #080604",
"(=.	c #080603",
"_=.	c #090603",
":=.	c #0B0707",
"<=.	c #0E0B08",
"[=.	c #14110C",
"}=.	c #13100B",
"|=.	c #54534C",
"1=.	c #5E5D54",
"2=.	c #646157",
"3=.	c #676357",
"4=.	c #666152",
"5=.	c #6D6454",
"6=.	c #796D5C",
"7=.	c #897C68",
"8=.	c #958773",
"9=.	c #A49782",
"0=.	c #AB9D8B",
"a=.	c #AFA393",
"b=.	c #B1A595",
"c=.	c #8B8074",
"d=.	c #534E47",
"e=.	c #4D4843",
"f=.	c #3F3A38",
"g=.	c #373433",
"h=.	c #1B1611",
"i=.	c #3D352F",
"j=.	c #3F3731",
"k=.	c #15100D",
"l=.	c #15110F",
"m=.	c #1B1917",
"n=.	c #51473B",
"o=.	c #564B3D",
"p=.	c #594D3E",
"q=.	c #5D5240",
"r=.	c #5B4F3E",
"s=.	c #5B4936",
"t=.	c #563C24",
"u=.	c #543318",
"v=.	c #624324",
"w=.	c #8F7A59",
"x=.	c #A5967A",
"y=.	c #A49880",
"z=.	c #9E927C",
"A=.	c #877A67",
"B=.	c #6D6150",
"C=.	c #66594B",
"D=.	c #060301",
"E=.	c #130E0D",
"F=.	c #0E0D08",
"G=.	c #040300",
"H=.	c #191410",
"I=.	c #362E25",
"J=.	c #302B23",
"K=.	c #29241E",
"L=.	c #221E18",
"M=.	c #191713",
"N=.	c #171512",
"O=.	c #151412",
"P=.	c #161412",
"Q=.	c #1A1714",
"R=.	c #211E19",
"S=.	c #1D1A15",
"T=.	c #181611",
"U=.	c #14110D",
"V=.	c #15110D",
"W=.	c #1D1912",
"X=.	c #29241B",
"Y=.	c #342F26",
"Z=.	c #221C16",
"`=.	c #1F1A15",
" -.	c #1F1B15",
".-.	c #1F1A14",
"+-.	c #231D18",
"@-.	c #3D3830",
"#-.	c #5A544C",
"$-.	c #625B53",
"%-.	c #554E48",
"&-.	c #37302C",
"*-.	c #39312D",
"=-.	c #44403F",
"--.	c #494544",
";-.	c #100C0C",
">-.	c #2C2720",
",-.	c #6B6054",
"'-.	c #6E6457",
")-.	c #6C6155",
"!-.	c #6A6054",
"~-.	c #675C51",
"{-.	c #62574C",
"]-.	c #5C5246",
"^-.	c #534A3E",
"/-.	c #544A3E",
"(-.	c #574E41",
"_-.	c #554B3F",
":-.	c #52493D",
"<-.	c #4E4438",
"[-.	c #4D4338",
"}-.	c #4C4135",
"|-.	c #4C4234",
"1-.	c #4F4437",
"2-.	c #53473A",
"3-.	c #56493C",
"4-.	c #574B3D",
"5-.	c #5A4D3F",
"6-.	c #5B4E41",
"7-.	c #574D42",
"8-.	c #574D43",
"9-.	c #574C42",
"0-.	c #26221C",
"a-.	c #201D17",
"b-.	c #16120F",
"c-.	c #1A1814",
"d-.	c #252321",
"e-.	c #171715",
"f-.	c #0B0B0A",
"g-.	c #0D0F0B",
"h-.	c #0D0F07",
"i-.	c #111308",
"j-.	c #161710",
"k-.	c #0F1111",
"l-.	c #101211",
"m-.	c #0C0F08",
"n-.	c #0F1604",
"o-.	c #1F2B0A",
"p-.	c #283610",
"q-.	c #1F2B10",
"r-.	c #08090A",
"s-.	c #0D0D0A",
"t-.	c #0F0F0C",
"u-.	c #191712",
"v-.	c #27231D",
"w-.	c #28231C",
"x-.	c #231F17",
"y-.	c #242019",
"z-.	c #302B22",
"A-.	c #3E3A30",
"B-.	c #13120E",
"C-.	c #4F473F",
"D-.	c #524A42",
"E-.	c #544D41",
"F-.	c #514A3E",
"G-.	c #504D47",
"H-.	c #59554F",
"I-.	c #6D695F",
"J-.	c #6F695E",
"K-.	c #675F51",
"L-.	c #615846",
"M-.	c #675C49",
"N-.	c #7B6E59",
"O-.	c #8D7F6A",
"P-.	c #A2947F",
"Q-.	c #AB9C8A",
"R-.	c #ACA18E",
"S-.	c #ACA290",
"T-.	c #877F71",
"U-.	c #514B44",
"V-.	c #4F4A46",
"W-.	c #433E3C",
"X-.	c #43403E",
"Y-.	c #5D5349",
"Z-.	c #5F534A",
"`-.	c #554B43",
" ;.	c #575147",
".;.	c #565145",
"+;.	c #5B5549",
"@;.	c #554F44",
"#;.	c #4F4538",
"$;.	c #453321",
"%;.	c #3F2711",
"&;.	c #563D25",
"*;.	c #8F7D63",
"=;.	c #A99B84",
"-;.	c #AA9F8B",
";;.	c #A69C8A",
">;.	c #8E8576",
",;.	c #6A6159",
"';.	c #625D58",
");.	c #484746",
"!;.	c #322F30",
"~;.	c #2A282B",
"{;.	c #070302",
"];.	c #36302D",
"^;.	c #57514A",
"/;.	c #625C58",
"(;.	c #181712",
"_;.	c #080804",
":;.	c #665C50",
"<;.	c #655A4C",
"[;.	c #403B33",
"};.	c #2F2E2B",
"|;.	c #2F2F2D",
"1;.	c #2A2824",
"2;.	c #4F4940",
"3;.	c #776D61",
"4;.	c #3A342D",
"5;.	c #3F3A33",
"6;.	c #625D53",
"7;.	c #91887C",
"8;.	c #8A8075",
"9;.	c #756B62",
"0;.	c #5C524A",
"a;.	c #584E46",
"b;.	c #63574E",
"c;.	c #6B6155",
"d;.	c #665B51",
"e;.	c #534C45",
"f;.	c #5C5751",
"g;.	c #69655F",
"h;.	c #696460",
"i;.	c #635E59",
"j;.	c #56524E",
"k;.	c #504C48",
"l;.	c #484241",
"m;.	c #151413",
"n;.	c #544B3F",
"o;.	c #7E7364",
"p;.	c #978A79",
"q;.	c #988B7A",
"r;.	c #928575",
"s;.	c #8E8171",
"t;.	c #897C6E",
"u;.	c #877A6C",
"v;.	c #827567",
"w;.	c #7C6F61",
"x;.	c #76695B",
"y;.	c #736657",
"z;.	c #746757",
"A;.	c #776959",
"B;.	c #796C5A",
"C;.	c #786958",
"D;.	c #776957",
"E;.	c #766857",
"F;.	c #776857",
"G;.	c #776958",
"H;.	c #786B59",
"I;.	c #796B59",
"J;.	c #786A58",
"K;.	c #796A57",
"L;.	c #796B58",
"M;.	c #7C6E5B",
"N;.	c #7F705E",
"O;.	c #80715F",
"P;.	c #7F7160",
"Q;.	c #7E7161",
"R;.	c #7D7062",
"S;.	c #7C7061",
"T;.	c #796E61",
"U;.	c #7A6F60",
"V;.	c #7C7062",
"W;.	c #7A6E61",
"X;.	c #6A6256",
"Y;.	c #524E45",
"Z;.	c #45423A",
"`;.	c #413E37",
" >.	c #33312B",
".>.	c #42423F",
"+>.	c #4C4B47",
"@>.	c #454340",
"#>.	c #1A1A17",
"$>.	c #0E0E0C",
"%>.	c #1A1A1A",
"&>.	c #1C1C1B",
"*>.	c #22221F",
"=>.	c #23231F",
"->.	c #1E1F1A",
";>.	c #16190F",
">>.	c #131A08",
",>.	c #202D0E",
"'>.	c #233111",
")>.	c #18220E",
"!>.	c #090D08",
"~>.	c #090B0C",
"{>.	c #161612",
"]>.	c #191915",
"^>.	c #27241E",
"/>.	c #24211C",
"(>.	c #2C2A25",
"_>.	c #3D3931",
":>.	c #413B32",
"<>.	c #383329",
"[>.	c #3C372C",
"}>.	c #5D584C",
"|>.	c #615A4F",
"1>.	c #1E1D19",
"2>.	c #252423",
"3>.	c #47413D",
"4>.	c #70665A",
"5>.	c #756B5F",
"6>.	c #796E5D",
"7>.	c #55534B",
"8>.	c #5C5A51",
"9>.	c #6D6C61",
"0>.	c #726F63",
"a>.	c #757064",
"b>.	c #6A6355",
"c>.	c #635A48",
"d>.	c #756A57",
"e>.	c #867B68",
"f>.	c #998F7C",
"g>.	c #9E9382",
"h>.	c #9F9484",
"i>.	c #998F80",
"j>.	c #787063",
"k>.	c #534D44",
"l>.	c #595551",
"m>.	c #54514D",
"n>.	c #3B3838",
"o>.	c #524840",
"p>.	c #62554A",
"q>.	c #594D44",
"r>.	c #383029",
"s>.	c #1D1714",
"t>.	c #565549",
"u>.	c #555148",
"v>.	c #57544A",
"w>.	c #57544B",
"x>.	c #5B594E",
"y>.	c #535147",
"z>.	c #392D1F",
"A>.	c #342410",
"B>.	c #54422D",
"C>.	c #95856F",
"D>.	c #B0A58E",
"E>.	c #B1A793",
"F>.	c #ABA391",
"G>.	c #928B7E",
"H>.	c #736C63",
"I>.	c #69655E",
"J>.	c #61605C",
"K>.	c #48494A",
"L>.	c #333135",
"M>.	c #333032",
"N>.	c #322E2F",
"O>.	c #2C2A2C",
"P>.	c #28272A",
"Q>.	c #37302E",
"R>.	c #433C37",
"S>.	c #5C5652",
"T>.	c #080805",
"U>.	c #070705",
"V>.	c #030403",
"W>.	c #0C0605",
"X>.	c #352B26",
"Y>.	c #6A5E55",
"Z>.	c #766758",
"`>.	c #6F6153",
" ,.	c #6B6154",
".,.	c #5A5249",
"+,.	c #413F3C",
"@,.	c #4B4842",
"#,.	c #544E48",
"$,.	c #6F675C",
"%,.	c #82786C",
"&,.	c #6E645B",
"*,.	c #39332C",
"=,.	c #45423B",
"-,.	c #928B7F",
";,.	c #9C9285",
">,.	c #83786D",
",,.	c #645951",
"',.	c #5A4F47",
"),.	c #65584F",
"!,.	c #6F6357",
"~,.	c #5D5248",
"{,.	c #51483F",
"],.	c #544C44",
"^,.	c #6F6A64",
"/,.	c #706B65",
"(,.	c #6F6A63",
"_,.	c #66625C",
":,.	c #5D5955",
"<,.	c #474241",
"[,.	c #817364",
"},.	c #9E8F7D",
"|,.	c #A0917E",
"1,.	c #978878",
"2,.	c #938574",
"3,.	c #8D7E6F",
"4,.	c #8C7D6D",
"5,.	c #7F7262",
"6,.	c #756758",
"7,.	c #726455",
"8,.	c #716353",
"9,.	c #7A6C59",
"0,.	c #7D6F5B",
"a,.	c #7B6B59",
"b,.	c #7B6C58",
"c,.	c #796957",
"d,.	c #7A6A58",
"e,.	c #7A6B58",
"f,.	c #7D6E5A",
"g,.	c #7C6D59",
"h,.	c #7B6C57",
"i,.	c #796955",
"j,.	c #7A6B55",
"k,.	c #7B6B56",
"l,.	c #7E6F5A",
"m,.	c #80705C",
"n,.	c #81715D",
"o,.	c #80715D",
"p,.	c #81725E",
"q,.	c #7F715F",
"r,.	c #7F725F",
"s,.	c #7D7160",
"t,.	c #7E7160",
"u,.	c #7E7260",
"v,.	c #7E7363",
"w,.	c #6E6658",
"x,.	c #524E43",
"y,.	c #33322D",
"z,.	c #262421",
"A,.	c #3F3F3E",
"B,.	c #181512",
"C,.	c #201F1E",
"D,.	c #1F1E1C",
"E,.	c #1F1F1B",
"F,.	c #15180E",
"G,.	c #212F11",
"H,.	c #233114",
"I,.	c #16210F",
"J,.	c #070B08",
"K,.	c #181814",
"L,.	c #1A1915",
"M,.	c #3E382D",
"N,.	c #3C362B",
"O,.	c #322C24",
"P,.	c #231F19",
"Q,.	c #3E3A32",
"R,.	c #423E35",
"S,.	c #3F3A30",
"T,.	c #3B362B",
"U,.	c #4D483B",
"V,.	c #5B5548",
"W,.	c #60594C",
"X,.	c #4B463A",
"Y,.	c #2A271F",
"Z,.	c #574D45",
"`,.	c #65594D",
" '.	c #6A5D50",
".'.	c #74685B",
"+'.	c #847666",
"@'.	c #877866",
"#'.	c #867864",
"$'.	c #4F4B44",
"%'.	c #4C483F",
"&'.	c #696559",
"*'.	c #706C5E",
"='.	c #726C5E",
"-'.	c #7A7364",
";'.	c #867E6F",
">'.	c #928A7B",
",'.	c #958E7E",
"''.	c #9A9282",
")'.	c #988F81",
"!'.	c #978D7F",
"~'.	c #8E8577",
"{'.	c #6F685C",
"]'.	c #5D5A56",
"^'.	c #64615D",
"/'.	c #585653",
"('.	c #474443",
"_'.	c #413F3E",
":'.	c #302821",
"<'.	c #52483E",
"['.	c #64574B",
"}'.	c #625348",
"|'.	c #584C42",
"1'.	c #382F28",
"2'.	c #2D2D2C",
"3'.	c #353432",
"4'.	c #302F2B",
"5'.	c #505049",
"6'.	c #55564D",
"7'.	c #53514A",
"8'.	c #53524A",
"9'.	c #54534B",
"0'.	c #5E5D55",
"a'.	c #5A5C54",
"b'.	c #55544A",
"c'.	c #514838",
"d'.	c #6C6150",
"e'.	c #9C917F",
"f'.	c #B0A794",
"g'.	c #B1A997",
"h'.	c #ACA594",
"i'.	c #716C65",
"j'.	c #65615E",
"k'.	c #5E5E5C",
"l'.	c #46484A",
"m'.	c #323136",
"n'.	c #343234",
"o'.	c #2C2A2D",
"p'.	c #27262A",
"q'.	c #100E0F",
"r'.	c #080404",
"s'.	c #362D2C",
"t'.	c #443A39",
"u'.	c #47403D",
"v'.	c #3D332D",
"w'.	c #77695D",
"x'.	c #746558",
"y'.	c #6D5F53",
"z'.	c #685D52",
"A'.	c #292723",
"B'.	c #383635",
"C'.	c #534D46",
"D'.	c #5A524B",
"E'.	c #686057",
"F'.	c #73695F",
"G'.	c #61574F",
"H'.	c #39312B",
"I'.	c #36322D",
"J'.	c #676159",
"K'.	c #8D8477",
"L'.	c #988D7E",
"M'.	c #928577",
"N'.	c #766B5F",
"O'.	c #50473E",
"P'.	c #423A34",
"Q'.	c #463B36",
"R'.	c #574B43",
"S'.	c #5F5247",
"T'.	c #494035",
"U'.	c #4F453D",
"V'.	c #5A514B",
"W'.	c #655E57",
"X'.	c #645D56",
"Y'.	c #5E5751",
"Z'.	c #998A77",
"`'.	c #9F907B",
" ).	c #988977",
".).	c #948573",
"+).	c #8D7F6D",
"@).	c #8A7B6A",
"#).	c #817363",
"$).	c #756959",
"%).	c #685B4D",
"&).	c #665848",
"*).	c #706150",
"=).	c #7A6B57",
"-).	c #7D6E5B",
";).	c #766553",
">).	c #796856",
",).	c #7E6C59",
"').	c #7E6E58",
")).	c #7B6B55",
"!).	c #796853",
"~).	c #7A6A53",
"{).	c #7B6B54",
"]).	c #7F6E58",
"^).	c #81705B",
"/).	c #82715C",
"().	c #81715C",
"_).	c #80715E",
":).	c #7F715E",
"<).	c #7D705E",
"[).	c #7E715F",
"}).	c #7D7060",
"|).	c #7F7261",
"1).	c #807261",
"2).	c #817361",
"3).	c #807260",
"4).	c #807463",
"5).	c #6E6558",
"6).	c #3F3C34",
"7).	c #353434",
"8).	c #494746",
"9).	c #161215",
"0).	c #141013",
"a).	c #22211B",
"b).	c #181B0E",
"c).	c #141C09",
"d).	c #1E2A10",
"e).	c #202C14",
"f).	c #151E0F",
"g).	c #141411",
"h).	c #181711",
"i).	c #27231B",
"j).	c #3E362B",
"k).	c #3A3227",
"l).	c #2F281E",
"m).	c #1F1912",
"n).	c #3D3930",
"o).	c #3C362F",
"p).	c #3F3B32",
"q).	c #524C40",
"r).	c #443F33",
"s).	c #27231A",
"t).	c #66584C",
"u).	c #6B5E50",
"v).	c #786B5E",
"w).	c #897C6D",
"x).	c #8B7D6D",
"y).	c #8D7E6B",
"z).	c #8E7E6B",
"A).	c #4A453C",
"B).	c #49433B",
"C).	c #605B50",
"D).	c #6F6B5E",
"E).	c #757162",
"F).	c #858071",
"G).	c #938E80",
"H).	c #9E998B",
"I).	c #9E998C",
"J).	c #9F998B",
"K).	c #9D9588",
"L).	c #9A9283",
"M).	c #908979",
"N).	c #726C5F",
"O).	c #5F5B53",
"P).	c #686662",
"Q).	c #6D6C67",
"R).	c #5D5C59",
"S).	c #474444",
"T).	c #42403F",
"U).	c #424141",
"V).	c #352D25",
"W).	c #564B40",
"X).	c #67594C",
"Y).	c #5A4E42",
"Z).	c #3A3229",
"`).	c #1F1916",
" !.	c #2C2C2A",
".!.	c #4E504A",
"+!.	c #54564E",
"@!.	c #54534D",
"#!.	c #53544B",
"$!.	c #53544D",
"%!.	c #676660",
"&!.	c #7D7D73",
"*!.	c #7E7B70",
"=!.	c #848072",
"-!.	c #908A79",
";!.	c #A6A08D",
">!.	c #B1AA98",
",!.	c #B2AA99",
"'!.	c #AEA797",
")!.	c #938E82",
"!!.	c #716D66",
"~!.	c #63625F",
"{!.	c #5C5E5D",
"]!.	c #45484A",
"^!.	c #333338",
"/!.	c #353335",
"(!.	c #28272B",
"_!.	c #261E1D",
":!.	c #2A2120",
"<!.	c #372D2C",
"[!.	c #3A3230",
"}!.	c #73685C",
"|!.	c #76695A",
"1!.	c #6E6255",
"2!.	c #242522",
"3!.	c #222323",
"4!.	c #2B2C2C",
"5!.	c #2A2A2A",
"6!.	c #272523",
"7!.	c #22201B",
"8!.	c #2D2B27",
"9!.	c #524C45",
"0!.	c #454037",
"a!.	c #5C524B",
"b!.	c #50463F",
"c!.	c #3E3732",
"d!.	c #454038",
"e!.	c #696358",
"f!.	c #867A6C",
"g!.	c #8B7C6E",
"h!.	c #817265",
"i!.	c #5D5146",
"j!.	c #28211D",
"k!.	c #443A33",
"l!.	c #605349",
"m!.	c #63564B",
"n!.	c #5F5347",
"o!.	c #574C41",
"p!.	c #564B43",
"q!.	c #544B44",
"r!.	c #49423B",
"s!.	c #37322B",
"t!.	c #131313",
"u!.	c #292424",
"v!.	c #857865",
"w!.	c #8F816D",
"x!.	c #887966",
"y!.	c #857664",
"z!.	c #897B68",
"A!.	c #8C7D6B",
"B!.	c #7D6E5F",
"C!.	c #635648",
"D!.	c #483D2F",
"E!.	c #695949",
"F!.	c #7E6E5B",
"G!.	c #857562",
"H!.	c #827260",
"I!.	c #7D6D5A",
"J!.	c #756552",
"K!.	c #736350",
"L!.	c #776551",
"M!.	c #7F6D59",
"N!.	c #84735C",
"O!.	c #817059",
"P!.	c #827059",
"Q!.	c #85735C",
"R!.	c #86745E",
"S!.	c #83725C",
"T!.	c #84735E",
"U!.	c #82725E",
"V!.	c #81735F",
"W!.	c #817360",
"X!.	c #807360",
"Y!.	c #817462",
"Z!.	c #827463",
"`!.	c #837563",
" ~.	c #847563",
".~.	c #847663",
"+~.	c #837662",
"@~.	c #817664",
"#~.	c #504B40",
"$~.	c #403C34",
"%~.	c #242423",
"&~.	c #514F4B",
"*~.	c #5A564F",
"=~.	c #665F57",
"-~.	c #5C5651",
";~.	c #3A3533",
">~.	c #46413B",
",~.	c #3E3C32",
"'~.	c #272B19",
")~.	c #19230C",
"!~.	c #1E2B10",
"~~.	c #1E2A13",
"{~.	c #151E10",
"]~.	c #0B110D",
"^~.	c #1F211D",
"/~.	c #23241D",
"(~.	c #201E18",
"_~.	c #1D1B14",
":~.	c #25221A",
"<~.	c #544A40",
"[~.	c #5B5045",
"}~.	c #443B30",
"|~.	c #2E271E",
"1~.	c #2A261E",
"2~.	c #3B3830",
"3~.	c #4A453E",
"4~.	c #504B42",
"5~.	c #524C43",
"6~.	c #514A43",
"7~.	c #504A41",
"8~.	c #504A3F",
"9~.	c #514A40",
"0~.	c #5A5346",
"a~.	c #4A4537",
"b~.	c #312D22",
"c~.	c #514C46",
"d~.	c #675B50",
"e~.	c #706455",
"f~.	c #837669",
"g~.	c #8E8274",
"h~.	c #928676",
"i~.	c #958673",
"j~.	c #948572",
"k~.	c #423A33",
"l~.	c #5E594E",
"m~.	c #6B675C",
"n~.	c #716C61",
"o~.	c #817D71",
"p~.	c #8F8A80",
"q~.	c #99958A",
"r~.	c #9B958B",
"s~.	c #9F968A",
"t~.	c #9B9184",
"u~.	c #978E7F",
"v~.	c #8C8374",
"w~.	c #5D5852",
"x~.	c #66625F",
"y~.	c #6B6865",
"z~.	c #5B5A58",
"A~.	c #444243",
"B~.	c #3F3E3E",
"C~.	c #302F31",
"D~.	c #594D43",
"E~.	c #685A4D",
"F~.	c #67574B",
"G~.	c #1A1816",
"H~.	c #30302E",
"I~.	c #51534D",
"J~.	c #55544D",
"K~.	c #514F48",
"L~.	c #7E7F76",
"M~.	c #8A8B7F",
"N~.	c #8E8C80",
"O~.	c #969285",
"P~.	c #9C9789",
"Q~.	c #A7A392",
"R~.	c #B0A999",
"S~.	c #B2AA9B",
"T~.	c #AEA698",
"U~.	c #938E84",
"V~.	c #6E6C66",
"W~.	c #5F5E5C",
"X~.	c #585A5A",
"Y~.	c #45474A",
"Z~.	c #363538",
"`~.	c #373538",
" {.	c #2D2B2F",
".{.	c #26262A",
"+{.	c #171213",
"@{.	c #1F1718",
"#{.	c #1E1616",
"${.	c #211819",
"%{.	c #332B2B",
"&{.	c #352E2E",
"*{.	c #312B2C",
"={.	c #332F31",
"-{.	c #3B3534",
";{.	c #524946",
">{.	c #756A63",
",{.	c #73675B",
"'{.	c #665C52",
"){.	c #4F4A43",
"!{.	c #28292A",
"~{.	c #2E2E2F",
"{{.	c #3B3937",
"]{.	c #393736",
"^{.	c #423E3A",
"/{.	c #58524C",
"({.	c #605951",
"_{.	c #5C554B",
":{.	c #433F3E",
"<{.	c #454140",
"[{.	c #423D3B",
"}{.	c #453F3A",
"|{.	c #4E4641",
"1{.	c #534945",
"2{.	c #463D38",
"3{.	c #655E58",
"4{.	c #69645D",
"5{.	c #656059",
"6{.	c #625D55",
"7{.	c #4E4A42",
"8{.	c #655C54",
"9{.	c #827569",
"0{.	c #87786A",
"a{.	c #7C6C60",
"b{.	c #5F554C",
"c{.	c #6D6256",
"d{.	c #62564D",
"e{.	c #5B5148",
"f{.	c #514840",
"g{.	c #4E473E",
"h{.	c #4A413A",
"i{.	c #433B34",
"j{.	c #373230",
"k{.	c #675C4C",
"l{.	c #706353",
"m{.	c #685B4A",
"n{.	c #6B5D4D",
"o{.	c #867567",
"p{.	c #6F6053",
"q{.	c #32291D",
"r{.	c #2D2419",
"s{.	c #3B3025",
"t{.	c #5F5144",
"u{.	c #8C7C6A",
"v{.	c #827461",
"w{.	c #726351",
"x{.	c #6A5C48",
"y{.	c #6D5D49",
"z{.	c #7A6955",
"A{.	c #867560",
"B{.	c #887761",
"C{.	c #887660",
"D{.	c #897760",
"E{.	c #88765F",
"F{.	c #89765F",
"G{.	c #88745E",
"H{.	c #86735D",
"I{.	c #84735D",
"J{.	c #83725D",
"K{.	c #82735F",
"L{.	c #827460",
"M{.	c #837562",
"N{.	c #827563",
"O{.	c #837564",
"P{.	c #847665",
"Q{.	c #857765",
"R{.	c #857864",
"S{.	c #847763",
"T{.	c #6C6456",
"U{.	c #4E493E",
"V{.	c #55534F",
"W{.	c #645B50",
"X{.	c #796F65",
"Y{.	c #877D74",
"Z{.	c #79716C",
"`{.	c #494341",
" ].	c #272223",
".].	c #433C39",
"+].	c #49483B",
"@].	c #2C301D",
"#].	c #1B230D",
"$].	c #1D2910",
"%].	c #1B2712",
"&].	c #111B0E",
"*].	c #0C140F",
"=].	c #1B201D",
"-].	c #34332B",
";].	c #302D25",
">].	c #2D2C22",
",].	c #3F3C32",
"'].	c #807366",
")].	c #877A69",
"!].	c #817464",
"~].	c #736658",
"{].	c #60564B",
"]].	c #5B5449",
"^].	c #756E63",
"/].	c #766E63",
"(].	c #716860",
"_].	c #6C655A",
":].	c #6C6659",
"<].	c #6B6458",
"[].	c #6B6559",
"}].	c #6F685B",
"|].	c #6F665A",
"1].	c #696051",
"2].	c #5D5647",
"3].	c #453F34",
"4].	c #3A362D",
"5].	c #423D39",
"6].	c #524C4A",
"7].	c #6F6257",
"8].	c #716555",
"9].	c #84786B",
"0].	c #908578",
"a].	c #94887B",
"b].	c #948778",
"c].	c #958776",
"d].	c #948574",
"e].	c #443E34",
"f].	c #5B584C",
"g].	c #706C61",
"h].	c #7F7B70",
"i].	c #8D897E",
"j].	c #99978A",
"k].	c #9D9789",
"l].	c #A19784",
"m].	c #9E8F79",
"n].	c #978870",
"o].	c #8B7B64",
"p].	c #6F6452",
"q].	c #5D594F",
"r].	c #65645D",
"s].	c #666762",
"t].	c #595855",
"u].	c #333233",
"v].	c #5F5448",
"w].	c #6C5F51",
"x].	c #2C2C29",
"y].	c #343431",
"z].	c #464742",
"A].	c #51544D",
"B].	c #53534A",
"C].	c #4D4C42",
"D].	c #4E4B40",
"E].	c #656154",
"F].	c #7B7A6C",
"G].	c #888878",
"H].	c #8C8B7A",
"I].	c #95917F",
"J].	c #9C9686",
"K].	c #A9A28F",
"L].	c #B0AA99",
"M].	c #B2AB9B",
"N].	c #AEA898",
"O].	c #949084",
"P].	c #6E6D66",
"Q].	c #5F5F5C",
"R].	c #5A5C5C",
"S].	c #48494C",
"T].	c #363539",
"U].	c #373537",
"V].	c #2E2B2E",
"W].	c #2B2A2D",
"X].	c #262629",
"Y].	c #1F1819",
"Z].	c #201818",
"`].	c #221919",
" ^.	c #2C2223",
".^.	c #2E2627",
"+^.	c #312B2B",
"@^.	c #2E292A",
"#^.	c #0D0D0F",
"$^.	c #161616",
"%^.	c #504745",
"&^.	c #7D726D",
"*^.	c #82796F",
"=^.	c #776E63",
"-^.	c #665D55",
";^.	c #403F3C",
">^.	c #474642",
",^.	c #433F3B",
"'^.	c #534E46",
")^.	c #474541",
"!^.	c #44423E",
"~^.	c #42413D",
"{^.	c #544F4A",
"]^.	c #686155",
"^^.	c #474239",
"/^.	c #403D36",
"(^.	c #413D3C",
"_^.	c #474240",
":^.	c #46413C",
"<^.	c #47403B",
"[^.	c #554F49",
"}^.	c #38322C",
"|^.	c #58514A",
"1^.	c #787269",
"2^.	c #7E796F",
"3^.	c #787369",
"4^.	c #736D64",
"5^.	c #5A564C",
"6^.	c #474339",
"7^.	c #665E55",
"8^.	c #7F7468",
"9^.	c #847567",
"0^.	c #7C6E62",
"a^.	c #5C5348",
"b^.	c #6D6358",
"c^.	c #4F4840",
"d^.	c #141414",
"e^.	c #2A282A",
"f^.	c #534838",
"g^.	c #594E3D",
"h^.	c #786C5C",
"i^.	c #807164",
"j^.	c #372D22",
"k^.	c #231C12",
"l^.	c #241E14",
"m^.	c #564C3F",
"n^.	c #776A5B",
"o^.	c #887C6B",
"p^.	c #887A69",
"q^.	c #6E6250",
"r^.	c #665946",
"s^.	c #685B46",
"t^.	c #786955",
"u^.	c #877863",
"v^.	c #8D7D67",
"w^.	c #8C7B65",
"x^.	c #8C7B64",
"y^.	c #8A7963",
"z^.	c #8B7A63",
"A^.	c #887760",
"B^.	c #86755E",
"C^.	c #83735C",
"D^.	c #84745E",
"E^.	c #83745F",
"F^.	c #867865",
"G^.	c #867966",
"H^.	c #877A66",
"I^.	c #867964",
"J^.	c #867A64",
"K^.	c #817562",
"L^.	c #6C6555",
"M^.	c #4F4B3E",
"N^.	c #3E3C36",
"O^.	c #393937",
"P^.	c #625A4F",
"Q^.	c #736A5F",
"R^.	c #7C7269",
"S^.	c #6A625C",
"T^.	c #3F3937",
"U^.	c #494640",
"V^.	c #3F3E32",
"W^.	c #2A2F1D",
"X^.	c #1D2611",
"Y^.	c #212E15",
"Z^.	c #1D2A13",
"`^.	c #101C0E",
" /.	c #0C1710",
"./.	c #232A24",
"+/.	c #46453B",
"@/.	c #3B372D",
"#/.	c #887C6C",
"$/.	c #8E826F",
"%/.	c #8B7E6D",
"&/.	c #897C6C",
"*/.	c #847D6F",
"=/.	c #8A8374",
"-/.	c #8A8073",
";/.	c #857C6E",
">/.	c #7C7567",
",/.	c #777164",
"'/.	c #756F62",
")/.	c #756E60",
"!/.	c #766E60",
"~/.	c #746D5F",
"{/.	c #766F61",
"]/.	c #776E61",
"^/.	c #756D5D",
"//.	c #706655",
"(/.	c #6B6351",
"_/.	c #5C5547",
":/.	c #37312C",
"</.	c #615A53",
"[/.	c #6B6058",
"}/.	c #695E52",
"|/.	c #6E6454",
"1/.	c #7F7567",
"2/.	c #887D72",
"3/.	c #8C8276",
"4/.	c #8C8274",
"5/.	c #8E8272",
"6/.	c #8C806F",
"7/.	c #565047",
"8/.	c #646055",
"9/.	c #6B685C",
"0/.	c #88847A",
"a/.	c #928E82",
"b/.	c #96897A",
"c/.	c #917960",
"d/.	c #8A6547",
"e/.	c #845B38",
"f/.	c #774F2C",
"g/.	c #60442D",
"h/.	c #54463C",
"i/.	c #5C5B57",
"j/.	c #52504E",
"k/.	c #403E3F",
"l/.	c #414141",
"m/.	c #353435",
"n/.	c #6E6155",
"o/.	c #6C5F52",
"p/.	c #211C19",
"q/.	c #1F1F1E",
"r/.	c #2E2D2B",
"s/.	c #4D4C45",
"t/.	c #504C43",
"u/.	c #4B4336",
"v/.	c #604F3D",
"w/.	c #736450",
"x/.	c #847662",
"y/.	c #8D7F68",
"z/.	c #958771",
"A/.	c #A59884",
"B/.	c #B0A795",
"C/.	c #B1AA9A",
"D/.	c #ADA798",
"E/.	c #949085",
"F/.	c #626060",
"G/.	c #5D5F61",
"H/.	c #494A4F",
"I/.	c #36353A",
"J/.	c #353437",
"K/.	c #29282B",
"L/.	c #232327",
"M/.	c #272022",
"N/.	c #292122",
"O/.	c #271E1F",
"P/.	c #271D1F",
"Q/.	c #241C1E",
"R/.	c #282426",
"S/.	c #504845",
"T/.	c #7A706C",
"U/.	c #817671",
"V/.	c #7C726A",
"W/.	c #6F665D",
"X/.	c #6C6259",
"Y/.	c #645A53",
"Z/.	c #504A43",
"`/.	c #4C4642",
" (.	c #5A5552",
".(.	c #585451",
"+(.	c #474341",
"@(.	c #3B3634",
"#(.	c #68625C",
"$(.	c #766E66",
"%(.	c #695F58",
"&(.	c #564F48",
"*(.	c #4D4B45",
"=(.	c #605A54",
"-(.	c #6F675F",
";(.	c #5E554B",
">(.	c #464241",
",(.	c #443E3F",
"'(.	c #574E47",
")(.	c #5A514A",
"!(.	c #5E564F",
"~(.	c #5E5651",
"{(.	c #5C5550",
"](.	c #4B4440",
"^(.	c #615954",
"/(.	c #787068",
"((.	c #7B756A",
"_(.	c #777066",
":(.	c #5E584F",
"<(.	c #4C463D",
"[(.	c #796D63",
"}(.	c #5C534C",
"|(.	c #3C3636",
"1(.	c #5A534E",
"2(.	c #635952",
"3(.	c #635A51",
"4(.	c #4D463F",
"5(.	c #33322F",
"6(.	c #393730",
"7(.	c #524A3E",
"8(.	c #51493A",
"9(.	c #5C5244",
"0(.	c #796D5F",
"a(.	c #776C5E",
"b(.	c #51493C",
"c(.	c #2E261C",
"d(.	c #231B16",
"e(.	c #2B241F",
"f(.	c #322B24",
"g(.	c #4F463B",
"h(.	c #645A4B",
"i(.	c #685E4E",
"j(.	c #6A5E4E",
"k(.	c #6C5E4E",
"l(.	c #796B5A",
"m(.	c #8A7D69",
"n(.	c #897B67",
"o(.	c #877A64",
"p(.	c #857763",
"q(.	c #83745E",
"r(.	c #82745F",
"s(.	c #837664",
"t(.	c #857867",
"u(.	c #867968",
"v(.	c #857967",
"w(.	c #857863",
"x(.	c #7B6F5D",
"y(.	c #6A6252",
"z(.	c #534D41",
"A(.	c #2A2A29",
"B(.	c #595653",
"C(.	c #6C6660",
"D(.	c #60584F",
"E(.	c #6B6359",
"F(.	c #6B635B",
"G(.	c #544E49",
"H(.	c #221D20",
"I(.	c #201B1F",
"J(.	c #524E4C",
"K(.	c #615B5A",
"L(.	c #4D4945",
"M(.	c #36362D",
"N(.	c #272B1C",
"O(.	c #1F2714",
"P(.	c #212D15",
"Q(.	c #1D2913",
"R(.	c #0F1B0D",
"S(.	c #0A140E",
"T(.	c #272F29",
"U(.	c #4D4D46",
"V(.	c #59554A",
"W(.	c #514B40",
"X(.	c #71675B",
"Y(.	c #7F7165",
"Z(.	c #847768",
"`(.	c #847668",
" _.	c #837568",
"._.	c #867A6D",
"+_.	c #887D6F",
"@_.	c #8C8071",
"#_.	c #857668",
"$_.	c #7F7264",
"%_.	c #7C7463",
"&_.	c #7A7366",
"*_.	c #776E62",
"=_.	c #766D61",
"-_.	c #776E60",
";_.	c #776F61",
">_.	c #786F63",
",_.	c #736958",
"'_.	c #6F6558",
")_.	c #4F463E",
"!_.	c #403A37",
"~_.	c #594F48",
"{_.	c #584D43",
"]_.	c #64594D",
"^_.	c #6E6458",
"/_.	c #716A60",
"(_.	c #706960",
"__.	c #71685E",
":_.	c #746B5E",
"<_.	c #756B5C",
"[_.	c #565248",
"}_.	c #58554B",
"|_.	c #6B685F",
"1_.	c #837E75",
"2_.	c #8F887F",
"3_.	c #8D7C6C",
"4_.	c #735135",
"5_.	c #612D0C",
"6_.	c #622604",
"7_.	c #5D2102",
"8_.	c #52280C",
"9_.	c #513D2E",
"0_.	c #5D574E",
"a_.	c #5A5853",
"b_.	c #504E4B",
"c_.	c #403F3F",
"d_.	c #434444",
"e_.	c #393839",
"f_.	c #2F2C2D",
"g_.	c #444240",
"h_.	c #6E6258",
"i_.	c #6C6056",
"j_.	c #5F564E",
"k_.	c #2A2A27",
"l_.	c #2D2C28",
"m_.	c #3F3E35",
"n_.	c #54493C",
"o_.	c #523F2F",
"p_.	c #523422",
"q_.	c #623D23",
"r_.	c #6B4326",
"s_.	c #6F472C",
"t_.	c #6F492F",
"u_.	c #735035",
"v_.	c #785A3F",
"w_.	c #8C765C",
"x_.	c #AB9E88",
"y_.	c #B4AC99",
"z_.	c #AEA897",
"A_.	c #99968A",
"B_.	c #7B7B74",
"C_.	c #6E6F6E",
"D_.	c #696C6D",
"E_.	c #4F5255",
"F_.	c #36363B",
"G_.	c #262628",
"H_.	c #373032",
"I_.	c #382F30",
"J_.	c #261C1E",
"K_.	c #1D1517",
"L_.	c #1D1718",
"M_.	c #1C1719",
"N_.	c #4D4841",
"O_.	c #5E5851",
"P_.	c #78726A",
"Q_.	c #827A73",
"R_.	c #888077",
"S_.	c #827971",
"T_.	c #887F73",
"U_.	c #887D71",
"V_.	c #7C7467",
"W_.	c #756D62",
"X_.	c #777067",
"Y_.	c #706964",
"Z_.	c #68645F",
"`_.	c #4A4744",
" :.	c #45403C",
".:.	c #716D67",
"+:.	c #867F76",
"@:.	c #776F66",
"#:.	c #59544E",
"$:.	c #5A5550",
"%:.	c #5D5A53",
"&:.	c #5F5A54",
"*:.	c #645E57",
"=:.	c #675E53",
"-:.	c #655C50",
";:.	c #54504F",
">:.	c #6A6563",
",:.	c #534E4B",
"':.	c #685F55",
"):.	c #71675C",
"!:.	c #756B60",
"~:.	c #776F64",
"{:.	c #716961",
"]:.	c #69625B",
"^:.	c #5D5651",
"/:.	c #7C736B",
"(:.	c #7C7569",
"_:.	c #787064",
"::.	c #554E45",
"<:.	c #5F584E",
"[:.	c #686056",
"}:.	c #423D3C",
"|:.	c #5D544C",
"1:.	c #494139",
"2:.	c #4E4841",
"3:.	c #49433A",
"4:.	c #625A52",
"5:.	c #524D48",
"6:.	c #3E3C35",
"7:.	c #434036",
"8:.	c #484238",
"9:.	c #514940",
"0:.	c #5C5449",
"a:.	c #544D42",
"b:.	c #39342A",
"c:.	c #26211A",
"d:.	c #2E271F",
"e:.	c #2B251C",
"f:.	c #2E261B",
"g:.	c #4B4237",
"h:.	c #7B7063",
"i:.	c #7A6E60",
"j:.	c #887D6D",
"k:.	c #8B8170",
"l:.	c #827866",
"m:.	c #736955",
"n:.	c #746857",
"o:.	c #7D6F5D",
"p:.	c #81745F",
"q:.	c #837765",
"r:.	c #847867",
"s:.	c #867A68",
"t:.	c #887C68",
"u:.	c #877B66",
"v:.	c #807460",
"w:.	c #756855",
"x:.	c #6F6451",
"y:.	c #696150",
"z:.	c #575347",
"A:.	c #4A463E",
"B:.	c #434140",
"C:.	c #545350",
"D:.	c #66615C",
"E:.	c #665F58",
"F:.	c #6E675D",
"G:.	c #514B46",
"H:.	c #231F22",
"I:.	c #121111",
"J:.	c #100F0D",
"K:.	c #6D6B69",
"L:.	c #878280",
"M:.	c #7D7A76",
"N:.	c #625E59",
"O:.	c #33352A",
"P:.	c #252F17",
"Q:.	c #243216",
"R:.	c #1C2911",
"S:.	c #101C0C",
"T:.	c #0E1A11",
"U:.	c #343E34",
"V:.	c #66675C",
"W:.	c #787264",
"X:.	c #746A5F",
"Y:.	c #756C5E",
"Z:.	c #7E7163",
"`:.	c #7E7162",
" <.	c #7D7262",
".<.	c #847868",
"+<.	c #897E70",
"@<.	c #85766A",
"#<.	c #7B685A",
"$<.	c #675443",
"%<.	c #5F4F3F",
"&<.	c #807468",
"*<.	c #7C7366",
"=<.	c #797163",
"-<.	c #7A7263",
";<.	c #7A7264",
"><.	c #7C7266",
",<.	c #7B7264",
"'<.	c #776E5E",
")<.	c #7A705E",
"!<.	c #5C5148",
"~<.	c #5B564C",
"{<.	c #4A4338",
"]<.	c #211916",
"^<.	c #211915",
"/<.	c #2A221D",
"(<.	c #5D5953",
"_<.	c #817E76",
":<.	c #928C84",
"<<.	c #948374",
"[<.	c #755236",
"}<.	c #552105",
"|<.	c #591C01",
"1<.	c #571B00",
"2<.	c #4E2308",
"3<.	c #4E3929",
"4<.	c #565450",
"5<.	c #4D4B49",
"6<.	c #454445",
"7<.	c #3B3A3C",
"8<.	c #2E2C2C",
"9<.	c #352E29",
"0<.	c #4F453F",
"a<.	c #4C423D",
"b<.	c #1B1D1D",
"c<.	c #2B2722",
"d<.	c #463C30",
"e<.	c #4E392B",
"f<.	c #553524",
"g<.	c #5B301C",
"h<.	c #69351A",
"i<.	c #6A3315",
"j<.	c #6D3517",
"k<.	c #673316",
"l<.	c #643518",
"m<.	c #5E3618",
"n<.	c #715438",
"o<.	c #A39279",
"p<.	c #B2A794",
"q<.	c #ACA495",
"r<.	c #9C988D",
"s<.	c #85837D",
"t<.	c #787675",
"u<.	c #6E6F70",
"v<.	c #515355",
"w<.	c #363639",
"x<.	c #313032",
"y<.	c #322D28",
"z<.	c #342D2C",
"A<.	c #3A3033",
"B<.	c #372D2F",
"C<.	c #211818",
"D<.	c #191112",
"E<.	c #191213",
"F<.	c #181113",
"G<.	c #1C1618",
"H<.	c #181316",
"I<.	c #514C44",
"J<.	c #5C554D",
"K<.	c #5E5650",
"L<.	c #57504A",
"M<.	c #5A554E",
"N<.	c #615A56",
"O<.	c #79716B",
"P<.	c #877D73",
"Q<.	c #8D8174",
"R<.	c #968A7A",
"S<.	c #948877",
"T<.	c #928576",
"U<.	c #8C8072",
"V<.	c #746B66",
"W<.	c #67615C",
"X<.	c #4A4542",
"Y<.	c #433E3B",
"Z<.	c #6C6863",
"`<.	c #7E786F",
" [.	c #706A5F",
".[.	c #5F5852",
"+[.	c #69635D",
"@[.	c #69625C",
"#[.	c #5F574D",
"$[.	c #60554C",
"%[.	c #61584E",
"&[.	c #4A453D",
"*[.	c #635E5C",
"=[.	c #6E6865",
"-[.	c #514C48",
";[.	c #3D352E",
">[.	c #796E62",
",[.	c #817669",
"'[.	c #7C736A",
")[.	c #776F67",
"![.	c #6F6761",
"~[.	c #6B645F",
"{[.	c #756E68",
"][.	c #847E76",
"^[.	c #867D6F",
"/[.	c #827869",
"([.	c #837A6A",
"_[.	c #7C7466",
":[.	c #473F3A",
"<[.	c #3E3531",
"[[.	c #352F2C",
"}[.	c #453F3D",
"|[.	c #4E453F",
"1[.	c #5B544A",
"2[.	c #403C3B",
"3[.	c #2C2B2A",
"4[.	c #110E13",
"5[.	c #110F13",
"6[.	c #323233",
"7[.	c #383937",
"8[.	c #373732",
"9[.	c #393932",
"0[.	c #32302A",
"a[.	c #22211F",
"b[.	c #262522",
"c[.	c #252018",
"d[.	c #7B7369",
"e[.	c #857D70",
"f[.	c #867B6D",
"g[.	c #8F8576",
"h[.	c #807466",
"i[.	c #635848",
"j[.	c #554B3A",
"k[.	c #564D3B",
"l[.	c #5F5445",
"m[.	c #807462",
"n[.	c #7F7361",
"o[.	c #857766",
"p[.	c #867967",
"q[.	c #897C69",
"r[.	c #897A67",
"s[.	c #7B6E5B",
"t[.	c #695C48",
"u[.	c #645846",
"v[.	c #645C4F",
"w[.	c #585147",
"x[.	c #393837",
"y[.	c #313230",
"z[.	c #343434",
"A[.	c #6B655F",
"B[.	c #716B65",
"C[.	c #55504D",
"D[.	c #201C1F",
"E[.	c #757372",
"F[.	c #8F8B8A",
"G[.	c #85827F",
"H[.	c #64615E",
"I[.	c #2E2F2A",
"J[.	c #272A22",
"K[.	c #252B1B",
"L[.	c #253315",
"M[.	c #1D2B11",
"N[.	c #101D0B",
"O[.	c #0F1A11",
"P[.	c #3C443B",
"Q[.	c #767669",
"R[.	c #8A8474",
"S[.	c #888072",
"T[.	c #857B6F",
"U[.	c #786B60",
"V[.	c #7C6F64",
"W[.	c #85786E",
"X[.	c #877A6F",
"Y[.	c #7D6C62",
"Z[.	c #685144",
"`[.	c #4C3322",
" }.	c #493323",
".}.	c #715F52",
"+}.	c #827568",
"@}.	c #7D7466",
"#}.	c #7D7465",
"$}.	c #797060",
"%}.	c #766B5A",
"&}.	c #7B7160",
"*}.	c #7F7666",
"=}.	c #26201B",
"-}.	c #2C251D",
";}.	c #6D645C",
">}.	c #555049",
",}.	c #3B352A",
"'}.	c #251E1B",
")}.	c #231C19",
"!}.	c #363028",
"~}.	c #5B5750",
"{}.	c #85847B",
"]}.	c #96958B",
"^}.	c #775C44",
"/}.	c #4F250A",
"(}.	c #4F1D02",
"_}.	c #501E02",
":}.	c #4D270F",
"<}.	c #503D2D",
"[}.	c #585751",
"}}.	c #504E4A",
"|}.	c #444443",
"1}.	c #3C3B3C",
"2}.	c #201B19",
"3}.	c #342B28",
"4}.	c #322927",
"5}.	c #151618",
"6}.	c #1E1E1E",
"7}.	c #2A1E17",
"8}.	c #32251A",
"9}.	c #362015",
"0}.	c #3E2011",
"a}.	c #4E2817",
"b}.	c #5F311B",
"c}.	c #623017",
"d}.	c #633116",
"e}.	c #5C2D12",
"f}.	c #592C11",
"g}.	c #50290E",
"h}.	c #63462B",
"i}.	c #9C8A71",
"j}.	c #B3A693",
"k}.	c #AEA495",
"l}.	c #9D978B",
"m}.	c #88847D",
"n}.	c #6F6F6E",
"o}.	c #535455",
"p}.	c #373639",
"q}.	c #18130F",
"r}.	c #5C5549",
"s}.	c #5C5347",
"t}.	c #584E43",
"u}.	c #382F2B",
"v}.	c #2B2124",
"w}.	c #281F20",
"x}.	c #201718",
"y}.	c #1F1517",
"z}.	c #1A1213",
"A}.	c #191417",
"B}.	c #585149",
"C}.	c #49433F",
"D}.	c #3D3835",
"E}.	c #4D4A45",
"F}.	c #57514D",
"G}.	c #6E645E",
"H}.	c #82766C",
"I}.	c #948779",
"J}.	c #9F9280",
"K}.	c #94867A",
"L}.	c #897E75",
"M}.	c #655F59",
"N}.	c #403A36",
"O}.	c #5C5750",
"P}.	c #686158",
"Q}.	c #5E564B",
"R}.	c #696259",
"S}.	c #716A62",
"T}.	c #746D66",
"U}.	c #6E6960",
"V}.	c #635C53",
"W}.	c #60574C",
"X}.	c #6B6055",
"Y}.	c #635B51",
"Z}.	c #665F5A",
"`}.	c #665C53",
" |.	c #7D7265",
".|.	c #82786B",
"+|.	c #82796E",
"@|.	c #7D746C",
"#|.	c #797169",
"$|.	c #706863",
"%|.	c #706762",
"&|.	c #7D766F",
"*|.	c #8B857C",
"=|.	c #8A8277",
"-|.	c #8B8275",
";|.	c #877F6F",
">|.	c #8A8170",
",|.	c #88806F",
"'|.	c #81796B",
")|.	c #695F55",
"!|.	c #544A42",
"~|.	c #4D4744",
"{|.	c #3F362E",
"]|.	c #3B352F",
"^|.	c #5C564D",
"/|.	c #7C766C",
"(|.	c #3D3E3B",
"_|.	c #3F3F3C",
":|.	c #3F3E3A",
"<|.	c #2F2E2E",
"[|.	c #191C1B",
"}|.	c #151717",
"||.	c #1A1B1B",
"1|.	c #2D2920",
"2|.	c #7F786F",
"3|.	c #877F74",
"4|.	c #837A6E",
"5|.	c #867C6F",
"6|.	c #8E8476",
"7|.	c #918879",
"8|.	c #817667",
"9|.	c #645849",
"0|.	c #534737",
"a|.	c #504634",
"b|.	c #857564",
"c|.	c #877865",
"d|.	c #7C705D",
"e|.	c #7D705D",
"f|.	c #817261",
"g|.	c #867765",
"h|.	c #897A68",
"i|.	c #8C7D6A",
"j|.	c #8B7C67",
"k|.	c #7C6E58",
"l|.	c #655843",
"m|.	c #625543",
"n|.	c #6E6352",
"o|.	c #645C51",
"p|.	c #4B4742",
"q|.	c #443F3D",
"r|.	c #333334",
"s|.	c #363635",
"t|.	c #363631",
"u|.	c #615E5A",
"v|.	c #716C69",
"w|.	c #757371",
"x|.	c #8E8C8A",
"y|.	c #858380",
"z|.	c #2B2B27",
"A|.	c #21251D",
"B|.	c #222A18",
"C|.	c #293319",
"D|.	c #2D3A19",
"E|.	c #253314",
"F|.	c #14200B",
"G|.	c #142013",
"H|.	c #424A3F",
"I|.	c #888174",
"J|.	c #8B8174",
"K|.	c #8B8475",
"L|.	c #887E72",
"M|.	c #776E5F",
"N|.	c #877E70",
"O|.	c #786A5C",
"P|.	c #624A3A",
"Q|.	c #462818",
"R|.	c #492F21",
"S|.	c #726054",
"T|.	c #82776A",
"U|.	c #7D7566",
"V|.	c #7E7567",
"W|.	c #7B7262",
"X|.	c #786D5D",
"Y|.	c #7D7361",
"Z|.	c #807766",
"`|.	c #27201A",
" 1.	c #686157",
".1.	c #241C1B",
"+1.	c #251D1B",
"@1.	c #87837C",
"#1.	c #97948D",
"$1.	c #989085",
"%1.	c #766352",
"&1.	c #4F341F",
"*1.	c #523217",
"=1.	c #56361B",
"-1.	c #563B27",
";1.	c #544639",
">1.	c #58534A",
",1.	c #4F4B48",
"'1.	c #302929",
")1.	c #2A2526",
"!1.	c #0F0F13",
"~1.	c #101115",
"{1.	c #221C19",
"]1.	c #2A1D17",
"^1.	c #30231A",
"/1.	c #312016",
"(1.	c #362216",
"_1.	c #4B3326",
":1.	c #5C4031",
"<1.	c #5F402F",
"[1.	c #60402F",
"}1.	c #604330",
"|1.	c #614530",
"11.	c #5C412B",
"21.	c #6D5742",
"31.	c #998A76",
"41.	c #AB9F8D",
"51.	c #A2988A",
"61.	c #908A7C",
"71.	c #77736B",
"81.	c #6C6963",
"91.	c #666664",
"01.	c #515252",
"a1.	c #373739",
"b1.	c #202020",
"c1.	c #685C4D",
"d1.	c #635748",
"e1.	c #50443A",
"f1.	c #382E2A",
"g1.	c #22181A",
"h1.	c #1B1214",
"i1.	c #201819",
"j1.	c #1E1617",
"k1.	c #171316",
"l1.	c #504B44",
"m1.	c #59524A",
"n1.	c #443F3C",
"o1.	c #766B62",
"p1.	c #93897A",
"q1.	c #968C7B",
"r1.	c #9A9180",
"s1.	c #867B71",
"t1.	c #5B554E",
"u1.	c #5B534F",
"v1.	c #59514C",
"w1.	c #554C47",
"x1.	c #5A524A",
"y1.	c #625A50",
"z1.	c #686053",
"A1.	c #6B6258",
"B1.	c #6A645B",
"C1.	c #6B665E",
"D1.	c #69635C",
"E1.	c #5D5549",
"F1.	c #655A4E",
"G1.	c #6E6358",
"H1.	c #70675C",
"I1.	c #645C54",
"J1.	c #403B38",
"K1.	c #71685D",
"L1.	c #746C61",
"M1.	c #746D63",
"N1.	c #6E6861",
"O1.	c #6A645E",
"P1.	c #635C59",
"Q1.	c #6F6964",
"R1.	c #7A756D",
"S1.	c #7A746A",
"T1.	c #7C756A",
"U1.	c #7F7769",
"V1.	c #80796B",
"W1.	c #797266",
"X1.	c #342E2A",
"Y1.	c #37332C",
"Z1.	c #6E6962",
"`1.	c #726E67",
" 2.	c #635F5A",
".2.	c #3C3D3B",
"+2.	c #3D3D3B",
"@2.	c #454541",
"#2.	c #4A4944",
"$2.	c #494843",
"%2.	c #494943",
"&2.	c #3B3A38",
"*2.	c #1F2222",
"=2.	c #131515",
"-2.	c #161819",
";2.	c #524B42",
">2.	c #787169",
",2.	c #807970",
"'2.	c #7B7469",
")2.	c #7D7368",
"!2.	c #83796D",
"~2.	c #867C6E",
"{2.	c #655A48",
"]2.	c #5A4E3E",
"^2.	c #5C503F",
"/2.	c #605443",
"(2.	c #736653",
"_2.	c #837561",
":2.	c #867763",
"<2.	c #847562",
"[2.	c #7B6D5B",
"}2.	c #7E6F5D",
"|2.	c #857563",
"12.	c #8B7B67",
"22.	c #8B7C65",
"32.	c #7F6F59",
"42.	c #6E5F4A",
"52.	c #6E5F4C",
"62.	c #746855",
"72.	c #776C5A",
"82.	c #736959",
"92.	c #6C6356",
"02.	c #6B6358",
"a2.	c #645C55",
"b2.	c #5A554F",
"c2.	c #363637",
"d2.	c #363737",
"e2.	c #5C5958",
"f2.	c #2A2729",
"g2.	c #110E0C",
"h2.	c #6B6A68",
"i2.	c #80807C",
"j2.	c #757571",
"k2.	c #252622",
"l2.	c #1C2017",
"m2.	c #222815",
"n2.	c #2F3719",
"o2.	c #37411B",
"p2.	c #2D3814",
"q2.	c #161F09",
"r2.	c #41453A",
"s2.	c #706D60",
"t2.	c #7E7868",
"u2.	c #7E7568",
"v2.	c #817A6B",
"w2.	c #6D6255",
"x2.	c #73665A",
"y2.	c #7F7266",
"z2.	c #796B61",
"A2.	c #736659",
"B2.	c #675647",
"C2.	c #573C2C",
"D2.	c #462314",
"E2.	c #4A2D1F",
"F2.	c #6F5E50",
"G2.	c #7D7365",
"H2.	c #7F7668",
"I2.	c #7F7568",
"J2.	c #3A312B",
"K2.	c #5D564B",
"L2.	c #524E47",
"M2.	c #524E46",
"N2.	c #5C564C",
"O2.	c #675F54",
"P2.	c #2F2826",
"Q2.	c #48433A",
"R2.	c #625D56",
"S2.	c #8B867F",
"T2.	c #9A9790",
"U2.	c #989289",
"V2.	c #605241",
"W2.	c #635341",
"X2.	c #655644",
"Y2.	c #685B4B",
"Z2.	c #625B4F",
"`2.	c #625E55",
" 3.	c #504D49",
".3.	c #2D2727",
"+3.	c #2E2729",
"@3.	c #0E1014",
"#3.	c #342921",
"$3.	c #3D3128",
"%3.	c #41342B",
"&3.	c #54473E",
"*3.	c #62564B",
"=3.	c #625549",
"-3.	c #6B5D53",
";3.	c #7C6F65",
">3.	c #8C7D6F",
",3.	c #908172",
"'3.	c #9A8D7E",
")3.	c #766C5F",
"!3.	c #665F52",
"~3.	c #554F46",
"{3.	c #5F5E5B",
"]3.	c #535353",
"^3.	c #3C3C3D",
"/3.	c #383737",
"(3.	c #272625",
"_3.	c #1F1F1F",
":3.	c #17130E",
"<3.	c #625A4B",
"[3.	c #5F5545",
"}3.	c #5D5242",
"|3.	c #4E4339",
"13.	c #231A1B",
"23.	c #1C1516",
"33.	c #231C1C",
"43.	c #20191A",
"53.	c #1E1819",
"63.	c #101012",
"73.	c #191917",
"83.	c #544F47",
"93.	c #5B554B",
"03.	c #7A7165",
"a3.	c #58524F",
"b3.	c #6B6460",
"c3.	c #756B63",
"d3.	c #786E64",
"e3.	c #7B7165",
"f3.	c #817467",
"g3.	c #72685C",
"h3.	c #655D53",
"i3.	c #555048",
"j3.	c #4D4941",
"k3.	c #49453E",
"l3.	c #514C45",
"m3.	c #59534C",
"n3.	c #5A534A",
"o3.	c #584F46",
"p3.	c #6A5E52",
"q3.	c #7C7164",
"r3.	c #807469",
"s3.	c #49443F",
"t3.	c #544D45",
"u3.	c #48423E",
"v3.	c #3B3636",
"w3.	c #3E3837",
"x3.	c #4E4840",
"y3.	c #4C4740",
"z3.	c #47413A",
"A3.	c #47433B",
"B3.	c #36342F",
"C3.	c #4D4A46",
"D3.	c #54524C",
"E3.	c #4E4A46",
"F3.	c #26211E",
"G3.	c #4D4944",
"H3.	c #101015",
"I3.	c #0F0F14",
"J3.	c #363636",
"K3.	c #40413E",
"L3.	c #4A4A45",
"M3.	c #4C4C45",
"N3.	c #4B4A44",
"O3.	c #222424",
"P3.	c #2A2A28",
"Q3.	c #5A534D",
"R3.	c #6A6056",
"S3.	c #695D4E",
"T3.	c #6A5F4C",
"U3.	c #6C604E",
"V3.	c #726553",
"W3.	c #726552",
"X3.	c #786C58",
"Y3.	c #887964",
"Z3.	c #80725E",
"`3.	c #7C6D5A",
" 4.	c #7B6D59",
".4.	c #7E6F5B",
"+4.	c #847560",
"@4.	c #887963",
"#4.	c #8B7A65",
"$4.	c #87765D",
"%4.	c #81715A",
"&4.	c #83735D",
"*4.	c #81735D",
"=4.	c #736855",
"-4.	c #615647",
";4.	c #59504A",
">4.	c #3E3B37",
",4.	c #363736",
"'4.	c #383938",
")4.	c #383836",
"!4.	c #3F3D3C",
"~4.	c #4C4C49",
"{4.	c #525250",
"]4.	c #484944",
"^4.	c #353530",
"/4.	c #2B2D25",
"(4.	c #252A1B",
"_4.	c #2A3116",
":4.	c #3A421A",
"<4.	c #424D1C",
"[4.	c #354014",
"}4.	c #1D2509",
"|4.	c #18210F",
"14.	c #363A2C",
"24.	c #524E40",
"34.	c #5A5344",
"44.	c #57483D",
"54.	c #59483C",
"64.	c #59453B",
"74.	c #5C463A",
"84.	c #563E33",
"94.	c #50382C",
"04.	c #4A2C21",
"a4.	c #4B2618",
"b4.	c #491F0E",
"c4.	c #4D2C1E",
"d4.	c #6D5B4C",
"e4.	c #7E7465",
"f4.	c #7F7667",
"g4.	c #80786A",
"h4.	c #807769",
"i4.	c #7A6F5F",
"j4.	c #7C7262",
"k4.	c #675E52",
"l4.	c #544D44",
"m4.	c #5F5549",
"n4.	c #625A4C",
"o4.	c #706659",
"p4.	c #8A847D",
"q4.	c #99948E",
"r4.	c #948F87",
"s4.	c #777166",
"t4.	c #635A4E",
"u4.	c #645E52",
"v4.	c #615D55",
"w4.	c #605C56",
"x4.	c #4F4B47",
"y4.	c #2B2527",
"z4.	c #252123",
"A4.	c #141618",
"B4.	c #261E1A",
"C4.	c #2C201A",
"D4.	c #3B2F24",
"E4.	c #43372B",
"F4.	c #463B2F",
"G4.	c #5F594F",
"H4.	c #5D574F",
"I4.	c #6A645D",
"J4.	c #A39B91",
"K4.	c #A89E93",
"L4.	c #ABA093",
"M4.	c #968C7D",
"N4.	c #483C32",
"O4.	c #5F5B58",
"P4.	c #545251",
"Q4.	c #3B3A39",
"R4.	c #1E1D1D",
"S4.	c #140F0B",
"T4.	c #524A3F",
"U4.	c #4E4439",
"V4.	c #4E4236",
"W4.	c #23191C",
"X4.	c #1B1315",
"Y4.	c #1C1517",
"Z4.	c #21191A",
"`4.	c #2E2C2D",
" 5.	c #564F46",
".5.	c #5F584D",
"+5.	c #302A2B",
"@5.	c #534E4E",
"#5.	c #6D6763",
"$5.	c #7E756B",
"%5.	c #857A6E",
"&5.	c #887C6F",
"*5.	c #8B7E6F",
"=5.	c #87796A",
"-5.	c #4E4842",
";5.	c #4A4540",
">5.	c #7F7267",
",5.	c #7B7065",
"'5.	c #3D3736",
")5.	c #47423E",
"!5.	c #4B453F",
"~5.	c #37312A",
"{5.	c #454138",
"]5.	c #464239",
"^5.	c #403934",
"/5.	c #433B35",
"(5.	c #443B35",
"_5.	c #473D36",
":5.	c #34322D",
"<5.	c #393936",
"[5.	c #5B534E",
"}5.	c #756E64",
"|5.	c #7A726A",
"15.	c #67615B",
"25.	c #41403E",
"35.	c #4B4945",
"45.	c #4B4A42",
"55.	c #4A4742",
"65.	c #3C3A36",
"75.	c #181819",
"85.	c #2D2C2A",
"95.	c #3E342D",
"05.	c #413931",
"a5.	c #595148",
"b5.	c #7E6F5E",
"c5.	c #7D6F5E",
"d5.	c #7C6D5B",
"e5.	c #81735E",
"f5.	c #867762",
"g5.	c #837460",
"h5.	c #7C6C58",
"i5.	c #88755F",
"j5.	c #8B7960",
"k5.	c #8C7961",
"l5.	c #8E7B65",
"m5.	c #897964",
"n5.	c #736555",
"o5.	c #413C32",
"p5.	c #2C2A2B",
"q5.	c #373738",
"r5.	c #21201F",
"s5.	c #262725",
"t5.	c #282824",
"u5.	c #313027",
"v5.	c #2F311F",
"w5.	c #343918",
"x5.	c #404718",
"y5.	c #475018",
"z5.	c #3A4213",
"A5.	c #22280A",
"B5.	c #181D0C",
"C5.	c #252718",
"D5.	c #302A1D",
"E5.	c #362C20",
"F5.	c #453B30",
"G5.	c #4B3E34",
"H5.	c #4E3D35",
"I5.	c #4B352D",
"J5.	c #493025",
"K5.	c #42261A",
"L5.	c #3F1E12",
"M5.	c #391409",
"N5.	c #3E150A",
"O5.	c #3E1207",
"P5.	c #481707",
"Q5.	c #481606",
"R5.	c #4C271A",
"S5.	c #6B5749",
"T5.	c #7D6F62",
"U5.	c #7C7264",
"V5.	c #807669",
"W5.	c #7A7060",
"X5.	c #594C46",
"Y5.	c #655B50",
"Z5.	c #6D6355",
"`5.	c #716557",
" 6.	c #6C6054",
".6.	c #585047",
"+6.	c #675D52",
"@6.	c #332C2C",
"#6.	c #403937",
"$6.	c #655E55",
"%6.	c #8C867D",
"&6.	c #9A958C",
"*6.	c #6D6559",
"=6.	c #6B6256",
"-6.	c #2B2727",
";6.	c #29211B",
">6.	c #30241C",
",6.	c #3C2F23",
"'6.	c #45362A",
")6.	c #615B51",
"!6.	c #5F5A50",
"~6.	c #6C675F",
"{6.	c #908B83",
"]6.	c #A8A196",
"^6.	c #ACA296",
"/6.	c #ABA394",
"(6.	c #958B7A",
"_6.	c #6C6151",
":6.	c #4C3F33",
"<6.	c #45392E",
"[6.	c #443A30",
"}6.	c #41403F",
"|6.	c #3A3837",
"16.	c #110D08",
"26.	c #332E26",
"36.	c #382F2D",
"46.	c #261D1F",
"56.	c #1F1717",
"66.	c #201918",
"76.	c #16171A",
"86.	c #18191D",
"96.	c #57534C",
"06.	c #565149",
"a6.	c #2E2E2D",
"b6.	c #6B6662",
"c6.	c #79726A",
"d6.	c #867B6E",
"e6.	c #877A6D",
"f6.	c #867969",
"g6.	c #7C7161",
"h6.	c #4C4842",
"i6.	c #666159",
"j6.	c #6E6559",
"k6.	c #6E6354",
"l6.	c #46423E",
"m6.	c #3C372E",
"n6.	c #444138",
"o6.	c #423F36",
"p6.	c #4A4139",
"q6.	c #494238",
"r6.	c #463E37",
"s6.	c #2C2D2A",
"t6.	c #635E58",
"u6.	c #70685F",
"v6.	c #756F63",
"w6.	c #756E62",
"x6.	c #787266",
"y6.	c #666158",
"z6.	c #42413F",
"A6.	c #4E4C45",
"B6.	c #4F4B43",
"C6.	c #504D43",
"D6.	c #47433D",
"E6.	c #232422",
"F6.	c #353430",
"G6.	c #463E36",
"H6.	c #5D574B",
"I6.	c #7E7362",
"J6.	c #837966",
"K6.	c #827664",
"L6.	c #817461",
"M6.	c #847762",
"N6.	c #7E705C",
"O6.	c #7F6F5C",
"P6.	c #82735E",
"Q6.	c #847460",
"R6.	c #877862",
"S6.	c #897863",
"T6.	c #8D7D65",
"U6.	c #8F7E66",
"V6.	c #93836B",
"W6.	c #8E806A",
"X6.	c #564D40",
"Y6.	c #464038",
"Z6.	c #343536",
"`6.	c #343535",
" 7.	c #171719",
".7.	c #0C0C0A",
"+7.	c #171713",
"@7.	c #2A2921",
"#7.	c #393829",
"$7.	c #3A3C21",
"%7.	c #40461B",
"&7.	c #495217",
"*7.	c #4D5819",
"=7.	c #282D0D",
"-7.	c #222212",
";7.	c #241F11",
">7.	c #271E12",
",7.	c #291E14",
"'7.	c #352C21",
")7.	c #453B2F",
"!7.	c #4E3E34",
"~7.	c #4D352D",
"{7.	c #4C3024",
"]7.	c #452316",
"^7.	c #411A0C",
"/7.	c #3F1206",
"(7.	c #441104",
"_7.	c #4A1305",
":7.	c #521A08",
"<7.	c #4E1906",
"[7.	c #512919",
"}7.	c #6E5847",
"|7.	c #7F7669",
"17.	c #81786B",
"27.	c #7A7062",
"37.	c #7B7161",
"47.	c #74695C",
"57.	c #64594E",
"67.	c #665A51",
"77.	c #6D6357",
"87.	c #72665A",
"97.	c #766A5B",
"07.	c #726758",
"a7.	c #665C4C",
"b7.	c #655A4A",
"c7.	c #373334",
"d7.	c #383233",
"e7.	c #453F3C",
"f7.	c #4A423F",
"g7.	c #695F57",
"h7.	c #8C847A",
"i7.	c #989087",
"j7.	c #948C82",
"k7.	c #837A6F",
"l7.	c #756A60",
"m7.	c #6C6358",
"n7.	c #615C53",
"o7.	c #5F5A52",
"p7.	c #4D4842",
"q7.	c #211C1D",
"r7.	c #2A2426",
"s7.	c #281F19",
"t7.	c #31231B",
"u7.	c #483C30",
"v7.	c #463C31",
"w7.	c #605A50",
"x7.	c #6F685F",
"y7.	c #918B82",
"z7.	c #A7A094",
"A7.	c #A99F92",
"B7.	c #A99F8F",
"C7.	c #978A7A",
"D7.	c #766858",
"E7.	c #4C4033",
"F7.	c #483E32",
"G7.	c #65605A",
"H7.	c #565451",
"I7.	c #403D3D",
"J7.	c #3C3838",
"K7.	c #282524",
"L7.	c #1B1A19",
"M7.	c #352D29",
"N7.	c #342B2A",
"O7.	c #251B1D",
"P7.	c #1F1616",
"Q7.	c #221A18",
"R7.	c #251C19",
"S7.	c #17100E",
"T7.	c #15171B",
"U7.	c #1B1C1D",
"V7.	c #53504A",
"W7.	c #59544C",
"X7.	c #68615E",
"Y7.	c #877B6B",
"Z7.	c #776C5C",
"`7.	c #685F53",
" 8.	c #524D47",
".8.	c #6D6155",
"+8.	c #6C6255",
"@8.	c #6A6257",
"#8.	c #4E4843",
"$8.	c #4C4742",
"%8.	c #403D35",
"&8.	c #3F3C35",
"*8.	c #433A33",
"=8.	c #493F36",
"-8.	c #4B4037",
";8.	c #3F3C3B",
">8.	c #585550",
",8.	c #666055",
"'8.	c #201E1E",
")8.	c #514E45",
"!8.	c #585247",
"~8.	c #564F47",
"{8.	c #4A443A",
"]8.	c #5D584E",
"^8.	c #70685B",
"/8.	c #786F61",
"(8.	c #7B7564",
"_8.	c #7C7464",
":8.	c #7F7462",
"<8.	c #7F7562",
"[8.	c #827564",
"}8.	c #847664",
"|8.	c #8B7C68",
"18.	c #8F806A",
"28.	c #93866F",
"38.	c #897C6A",
"48.	c #6F6456",
"58.	c #4C4741",
"68.	c #2D2C2D",
"78.	c #313133",
"88.	c #222124",
"98.	c #0D0E0C",
"08.	c #0E0F0D",
"a8.	c #1A1916",
"b8.	c #2A2822",
"c8.	c #383626",
"d8.	c #3A3B1E",
"e8.	c #414619",
"f8.	c #4E5418",
"g8.	c #525C1B",
"h8.	c #444B17",
"i8.	c #2B300F",
"j8.	c #242812",
"k8.	c #323120",
"l8.	c #363021",
"m8.	c #322A1B",
"n8.	c #2F2518",
"o8.	c #383023",
"p8.	c #493A31",
"q8.	c #49342B",
"r8.	c #4A2F23",
"s8.	c #49251A",
"t8.	c #4C2214",
"u8.	c #4D1B0E",
"v8.	c #561C0D",
"w8.	c #581B0A",
"x8.	c #581907",
"y8.	c #561905",
"z8.	c #5D2D1B",
"A8.	c #755746",
"B8.	c #826D5B",
"C8.	c #816F5D",
"D8.	c #837463",
"E8.	c #827669",
"F8.	c #84796C",
"G8.	c #807568",
"H8.	c #7B7163",
"I8.	c #7E7467",
"J8.	c #695D53",
"K8.	c #706557",
"L8.	c #5E554A",
"M8.	c #655D52",
"N8.	c #675B4A",
"O8.	c #655848",
"P8.	c #474342",
"Q8.	c #56514D",
"R8.	c #5D5650",
"S8.	c #786D62",
"T8.	c #9A9084",
"U8.	c #A79E91",
"V8.	c #A69C90",
"W8.	c #9F9488",
"X8.	c #978C80",
"Y8.	c #92887B",
"Z8.	c #898074",
"`8.	c #81786E",
" 9.	c #767065",
".9.	c #726B62",
"+9.	c #6F6960",
"@9.	c #5B564E",
"#9.	c #3F3B3A",
"$9.	c #292325",
"%9.	c #3A2E24",
"&9.	c #473F33",
"*9.	c #726C62",
"=9.	c #928B81",
"-9.	c #A79F92",
";9.	c #A99F90",
">9.	c #A89E8C",
",9.	c #9A8E7B",
"'9.	c #675A48",
")9.	c #5B4F3F",
"!9.	c #575552",
"~9.	c #251B19",
"{9.	c #2D221D",
"]9.	c #2B2018",
"^9.	c #281E16",
"/9.	c #211813",
"(9.	c #121518",
"_9.	c #1A1D1D",
":9.	c #423F3B",
"<9.	c #383636",
"[9.	c #494745",
"}9.	c #5A5551",
"|9.	c #746B61",
"19.	c #6C6355",
"29.	c #66615A",
"39.	c #726D63",
"49.	c #70665B",
"59.	c #46413E",
"69.	c #3F382E",
"79.	c #2B2922",
"89.	c #2B2A24",
"99.	c #292823",
"09.	c #2A2924",
"a9.	c #443A31",
"b9.	c #483D33",
"c9.	c #473D33",
"d9.	c #403A33",
"e9.	c #373733",
"f9.	c #363935",
"g9.	c #2F3230",
"h9.	c #282A29",
"i9.	c #676056",
"j9.	c #3C3A34",
"k9.	c #6E6758",
"l9.	c #665F50",
"m9.	c #615A4C",
"n9.	c #5E574B",
"o9.	c #363632",
"p9.	c #4F4C46",
"q9.	c #524F47",
"r9.	c #555047",
"s9.	c #5D584D",
"t9.	c #656054",
"u9.	c #656055",
"v9.	c #676155",
"w9.	c #696255",
"x9.	c #6D6657",
"y9.	c #665F53",
"z9.	c #5C5349",
"A9.	c #584F45",
"B9.	c #5B5046",
"C9.	c #685D4F",
"D9.	c #857968",
"E9.	c #2B2A2C",
"F9.	c #262728",
"G9.	c #2B2C2E",
"H9.	c #242426",
"I9.	c #121210",
"J9.	c #181816",
"K9.	c #1C1C1A",
"L9.	c #1E1F1D",
"M9.	c #272723",
"N9.	c #333425",
"O9.	c #34371B",
"P9.	c #414518",
"Q9.	c #565B1F",
"R9.	c #5A6422",
"S9.	c #4A531D",
"T9.	c #333B15",
"U9.	c #32381F",
"V9.	c #4B4A38",
"W9.	c #554F3D",
"X9.	c #504636",
"Y9.	c #483E2E",
"Z9.	c #4D4436",
"`9.	c #4C4339",
" 0.	c #3E342B",
".0.	c #2F2218",
"+0.	c #2E1D13",
"@0.	c #361C13",
"#0.	c #442115",
"$0.	c #4A1E11",
"%0.	c #542010",
"&0.	c #581D0B",
"*0.	c #5E1C08",
"=0.	c #5D1B06",
"-0.	c #642713",
";0.	c #744331",
">0.	c #7D5441",
",0.	c #7A5845",
"'0.	c #79604E",
")0.	c #7A695B",
"!0.	c #83776A",
"~0.	c #857C6F",
"{0.	c #696155",
"]0.	c #6C6459",
"^0.	c #685E55",
"/0.	c #6B6257",
"(0.	c #655D51",
"_0.	c #615A50",
":0.	c #61594D",
"<0.	c #63594A",
"[0.	c #605748",
"}0.	c #4A4849",
"|0.	c #5B5753",
"10.	c #675E55",
"20.	c #695E54",
"30.	c #7C6F63",
"40.	c #A3978A",
"50.	c #B4AA9C",
"60.	c #B4A99D",
"70.	c #B1A79A",
"80.	c #AAA094",
"90.	c #A69D8F",
"00.	c #9D9489",
"a0.	c #928A80",
"b0.	c #837C72",
"c0.	c #817B72",
"d0.	c #6D6860",
"e0.	c #4D4847",
"f0.	c #211B1C",
"g0.	c #262022",
"h0.	c #2E261F",
"i0.	c #635F57",
"j0.	c #908A7F",
"k0.	c #9F9586",
"l0.	c #9F9583",
"m0.	c #978B77",
"n0.	c #736654",
"o0.	c #695D4C",
"p0.	c #151517",
"q0.	c #141014",
"r0.	c #131013",
"s0.	c #1E191C",
"t0.	c #2E272A",
"u0.	c #302728",
"v0.	c #3D3122",
"w0.	c #392E1F",
"x0.	c #31281D",
"y0.	c #312922",
"z0.	c #181715",
"A0.	c #242320",
"B0.	c #62594E",
"C0.	c #60584A",
"D0.	c #4F4A44",
"E0.	c #696258",
"F0.	c #534B41",
"G0.	c #3A3630",
"H0.	c #1D1916",
"I0.	c #0D0F0F",
"J0.	c #13100E",
"K0.	c #17110E",
"L0.	c #261E18",
"M0.	c #43392F",
"N0.	c #42382F",
"O0.	c #353733",
"P0.	c #252125",
"Q0.	c #2D2B2C",
"R0.	c #34332E",
"S0.	c #5A554C",
"T0.	c #736A59",
"U0.	c #6C6353",
"V0.	c #62594B",
"W0.	c #2A2C2D",
"X0.	c #2B2B2E",
"Y0.	c #3F3F3F",
"Z0.	c #47453E",
"`0.	c #4B4841",
" a.	c #4E4A41",
".a.	c #565148",
"+a.	c #6D645A",
"@a.	c #333335",
"#a.	c #323234",
"$a.	c #1A191E",
"%a.	c #222019",
"&a.	c #23230E",
"*a.	c #3A3A13",
"=a.	c #585A22",
"-a.	c #5D6225",
";a.	c #4E5320",
">a.	c #353B15",
",a.	c #545440",
"'a.	c #67604D",
")a.	c #665A48",
"!a.	c #625645",
"~a.	c #5A5147",
"{a.	c #18110A",
"]a.	c #110A03",
"^a.	c #201109",
"/a.	c #311A10",
"(a.	c #3B1B11",
"_a.	c #4A1F12",
":a.	c #541E0E",
"<a.	c #5E1C0A",
"[a.	c #611605",
"}a.	c #611505",
"|a.	c #641D0B",
"1a.	c #672311",
"2a.	c #642514",
"3a.	c #5D2F1F",
"4a.	c #624637",
"5a.	c #75655A",
"6a.	c #7D7369",
"7a.	c #7B7167",
"8a.	c #655C53",
"9a.	c #3A352E",
"0a.	c #4A494B",
"aa.	c #4A4748",
"ba.	c #5C5855",
"ca.	c #6B6259",
"da.	c #807467",
"ea.	c #A99D8F",
"fa.	c #B9AFA0",
"ga.	c #B7AC9F",
"ha.	c #B3A89B",
"ia.	c #ABA094",
"ja.	c #A69C8F",
"ka.	c #9B9186",
"la.	c #8F877E",
"ma.	c #837E74",
"na.	c #837D73",
"oa.	c #858077",
"pa.	c #706D65",
"qa.	c #544F4C",
"ra.	c #373232",
"sa.	c #1F1A1B",
"ta.	c #201B1D",
"ua.	c #68665E",
"va.	c #79756C",
"wa.	c #908A80",
"xa.	c #999285",
"ya.	c #988F7F",
"za.	c #9A907F",
"Aa.	c #9B907D",
"Ba.	c #978B78",
"Ca.	c #817564",
"Da.	c #726B5F",
"Ea.	c #6C6860",
"Fa.	c #332D32",
"Ga.	c #3B3433",
"Ha.	c #40372F",
"Ia.	c #524534",
"Ja.	c #4A3D2B",
"Ka.	c #413423",
"La.	c #362C1F",
"Ma.	c #352D23",
"Na.	c #111316",
"Oa.	c #171818",
"Pa.	c #282826",
"Qa.	c #45413A",
"Ra.	c #23221F",
"Sa.	c #1C1A17",
"Ta.	c #262520",
"Ua.	c #282724",
"Va.	c #5B5147",
"Wa.	c #34332D",
"Xa.	c #333029",
"Ya.	c #353129",
"Za.	c #3A352B",
"`a.	c #383328",
" b.	c #2C2822",
".b.	c #0F0C0E",
"+b.	c #272522",
"@b.	c #171919",
"#b.	c #04080A",
"$b.	c #020408",
"%b.	c #1A1410",
"&b.	c #443930",
"*b.	c #41382D",
"=b.	c #2E2F2D",
"-b.	c #59544D",
";b.	c #5C5850",
">b.	c #4E4B47",
",b.	c #5B574D",
"'b.	c #736C5C",
")b.	c #6A5F4F",
"!b.	c #675C4E",
"~b.	c #686358",
"{b.	c #514E47",
"]b.	c #2C2F2F",
"^b.	c #262829",
"/b.	c #1C1D1E",
"(b.	c #242528",
"_b.	c #2E2F32",
":b.	c #3B3A37",
"<b.	c #393733",
"[b.	c #49433E",
"}b.	c #645C56",
"|b.	c #040409",
"1b.	c #1E1F21",
"2b.	c #2D2D2E",
"3b.	c #353537",
"4b.	c #353436",
"5b.	c #2F2E31",
"6b.	c #252328",
"7b.	c #35373A",
"8b.	c #303236",
"9b.	c #2F3131",
"0b.	c #151405",
"ab.	c #373411",
"bb.	c #5E5D2A",
"cb.	c #656A2E",
"db.	c #535826",
"eb.	c #383E18",
"fb.	c #353A1F",
"gb.	c #52513E",
"hb.	c #6D614F",
"ib.	c #706756",
"jb.	c #60594D",
"kb.	c #0D0804",
"lb.	c #19100A",
"mb.	c #281811",
"nb.	c #392016",
"ob.	c #4A2518",
"pb.	c #532214",
"qb.	c #5D1F0E",
"rb.	c #5E1506",
"sb.	c #5F1003",
"tb.	c #610D01",
"ub.	c #640F02",
"vb.	c #620E02",
"wb.	c #58190A",
"xb.	c #5F392D",
"yb.	c #725F57",
"zb.	c #796E66",
"Ab.	c #2A2825",
"Bb.	c #2D2A24",
"Cb.	c #454547",
"Db.	c #575251",
"Eb.	c #635B56",
"Fb.	c #6B5F55",
"Gb.	c #807267",
"Hb.	c #A89C8F",
"Ib.	c #B1A598",
"Jb.	c #A99B8E",
"Kb.	c #9B8E82",
"Lb.	c #94877B",
"Mb.	c #797168",
"Nb.	c #716A63",
"Ob.	c #766F69",
"Pb.	c #615C56",
"Qb.	c #1F191B",
"Rb.	c #1F191C",
"Sb.	c #181518",
"Tb.	c #434341",
"Ub.	c #484844",
"Vb.	c #595953",
"Wb.	c #6A6862",
"Xb.	c #6F6B64",
"Yb.	c #7D786F",
"Zb.	c #948D83",
"`b.	c #9D9587",
" c.	c #9B9282",
".c.	c #9F9684",
"+c.	c #A99E8A",
"@c.	c #ACA08C",
"#c.	c #A79B88",
"$c.	c #998E7B",
"%c.	c #867C6C",
"&c.	c #7D7569",
"*c.	c #736F66",
"=c.	c #54524E",
"-c.	c #312C31",
";c.	c #3B3434",
">c.	c #4A3F32",
",c.	c #4D4130",
"'c.	c #473927",
")c.	c #3F3120",
"!c.	c #33281B",
"~c.	c #30281E",
"{c.	c #111213",
"]c.	c #2A2823",
"^c.	c #675F55",
"/c.	c #494440",
"(c.	c #34322C",
"_c.	c #343029",
":c.	c #3A3328",
"<c.	c #2E281F",
"[c.	c #0B080B",
"}c.	c #040206",
"|c.	c #040205",
"1c.	c #161919",
"2c.	c #030709",
"3c.	c #020307",
"4c.	c #372E29",
"5c.	c #41352E",
"6c.	c #3E342A",
"7c.	c #413B33",
"8c.	c #363531",
"9c.	c #222226",
"0c.	c #08060C",
"ac.	c #0C080C",
"bc.	c #5C564F",
"cc.	c #35332D",
"dc.	c #5A554A",
"ec.	c #71695A",
"fc.	c #746A58",
"gc.	c #6A5F4E",
"hc.	c #504D45",
"ic.	c #2E3131",
"jc.	c #272B2B",
"kc.	c #222326",
"lc.	c #363638",
"mc.	c #403F3D",
"nc.	c #48453E",
"oc.	c #322F2F",
"pc.	c #484440",
"qc.	c #59564F",
"rc.	c #08090D",
"sc.	c #202024",
"tc.	c #303132",
"uc.	c #222125",
"vc.	c #35383D",
"wc.	c #383D44",
"xc.	c #32363D",
"yc.	c #2E3236",
"zc.	c #212427",
"Ac.	c #171608",
"Bc.	c #3C3B1D",
"Cc.	c #616036",
"Dc.	c #666939",
"Ec.	c #575A2F",
"Fc.	c #383C23",
"Gc.	c #51503E",
"Hc.	c #676150",
"Ic.	c #6E6453",
"Jc.	c #6C5F50",
"Kc.	c #5F574C",
"Lc.	c #100905",
"Mc.	c #1E140F",
"Nc.	c #32231D",
"Oc.	c #432D24",
"Pc.	c #4B2A20",
"Qc.	c #4F2115",
"Rc.	c #54190B",
"Sc.	c #581204",
"Tc.	c #5C0D02",
"Uc.	c #5E0901",
"Vc.	c #620B01",
"Wc.	c #600B01",
"Xc.	c #5C180A",
"Yc.	c #663D34",
"Zc.	c #77645E",
"`c.	c #7B7169",
" d.	c #5F564F",
".d.	c #362F2D",
"+d.	c #424245",
"@d.	c #555350",
"#d.	c #635D57",
"$d.	c #6C635A",
"%d.	c #AFA394",
"&d.	c #BBB0A1",
"*d.	c #B2A596",
"=d.	c #9F9082",
"-d.	c #8E8071",
";d.	c #887B6C",
">d.	c #776B5F",
",d.	c #696056",
"'d.	c #655D55",
")d.	c #6A635C",
"!d.	c #524E48",
"~d.	c #1F1A1D",
"{d.	c #1E1A1D",
"]d.	c #2A2A2C",
"^d.	c #484A48",
"/d.	c #4A4B49",
"(d.	c #5A5A54",
"_d.	c #6D6B64",
":d.	c #747067",
"<d.	c #827E73",
"[d.	c #979085",
"}d.	c #A0998A",
"|d.	c #A19886",
"1d.	c #A49A87",
"2d.	c #AFA590",
"3d.	c #B4AA94",
"4d.	c #B0A690",
"5d.	c #9F9582",
"6d.	c #8A8171",
"7d.	c #827B6E",
"8d.	c #77736A",
"9d.	c #373435",
"0d.	c #282428",
"ad.	c #30292B",
"bd.	c #362D27",
"cd.	c #443728",
"dd.	c #3E301F",
"ed.	c #3B2D1B",
"fd.	c #322619",
"gd.	c #30281D",
"hd.	c #101110",
"id.	c #21211E",
"jd.	c #3C3936",
"kd.	c #5C564E",
"ld.	c #797165",
"md.	c #6A6359",
"nd.	c #4E4B45",
"od.	c #4C4844",
"pd.	c #68655B",
"qd.	c #69645A",
"rd.	c #36342E",
"sd.	c #38332B",
"td.	c #41392E",
"ud.	c #2F291F",
"vd.	c #05090B",
"wd.	c #04060A",
"xd.	c #070506",
"yd.	c #3C332D",
"zd.	c #443A32",
"Ad.	c #41372E",
"Bd.	c #41382F",
"Cd.	c #473D35",
"Dd.	c #09080E",
"Ed.	c #565147",
"Fd.	c #514E49",
"Gd.	c #5B574A",
"Hd.	c #716A5A",
"Id.	c #746B59",
"Jd.	c #71685A",
"Kd.	c #525047",
"Ld.	c #373836",
"Md.	c #333535",
"Nd.	c #2B2F2E",
"Od.	c #242526",
"Pd.	c #2C2E2F",
"Qd.	c #40403E",
"Rd.	c #3F3E37",
"Sd.	c #504C45",
"Td.	c #59554C",
"Ud.	c #565249",
"Vd.	c #363332",
"Wd.	c #55514A",
"Xd.	c #514E48",
"Yd.	c #43413E",
"Zd.	c #151718",
"`d.	c #323335",
" e.	c #363939",
".e.	c #353636",
"+e.	c #353637",
"@e.	c #333435",
"#e.	c #343537",
"$e.	c #313134",
"%e.	c #2A2A2D",
"&e.	c #1E2124",
"*e.	c #3B3F44",
"=e.	c #41464B",
"-e.	c #3C4045",
";e.	c #373A3D",
">e.	c #292B2C",
",e.	c #292819",
"'e.	c #4F4D34",
")e.	c #71704D",
"!e.	c #72744D",
"~e.	c #62633F",
"{e.	c #4B4D30",
"]e.	c #464932",
"^e.	c #595846",
"/e.	c #6C6754",
"(e.	c #736B58",
"_e.	c #6E6555",
":e.	c #19140E",
"<e.	c #17110B",
"[e.	c #2D231D",
"}e.	c #483933",
"|e.	c #584037",
"1e.	c #58372B",
"2e.	c #502517",
"3e.	c #4E1809",
"4e.	c #4F0E02",
"5e.	c #560B01",
"6e.	c #590800",
"7e.	c #5D0800",
"8e.	c #5C0801",
"9e.	c #5B150A",
"0e.	c #673D34",
"ae.	c #77665D",
"be.	c #787067",
"ce.	c #726A61",
"de.	c #4B4946",
"ee.	c #685F56",
"fe.	c #87786B",
"ge.	c #BEB1A1",
"he.	c #AEA091",
"ie.	c #958677",
"je.	c #827264",
"ke.	c #7E7061",
"le.	c #706258",
"me.	c #635950",
"ne.	c #211B1E",
"oe.	c #221E21",
"pe.	c #201C20",
"qe.	c #2C2C2E",
"re.	c #2F2E30",
"se.	c #3A3B3C",
"te.	c #484949",
"ue.	c #4C4B4A",
"ve.	c #5D5B56",
"we.	c #6E6B64",
"xe.	c #767167",
"ye.	c #847E74",
"ze.	c #989186",
"Ae.	c #A0988A",
"Be.	c #A19787",
"Ce.	c #A59B89",
"De.	c #AFA591",
"Ee.	c #B3A995",
"Fe.	c #B0A692",
"Ge.	c #9D9282",
"He.	c #7E766C",
"Ie.	c #75706A",
"Je.	c #55514F",
"Ke.	c #373335",
"Le.	c #252022",
"Me.	c #2C2420",
"Ne.	c #3B3126",
"Oe.	c #413426",
"Pe.	c #3E3020",
"Qe.	c #3B2D1C",
"Re.	c #35291B",
"Se.	c #1B1A17",
"Te.	c #403C3A",
"Ue.	c #5C544E",
"Ve.	c #766D63",
"We.	c #675E57",
"Xe.	c #4F4943",
"Ye.	c #44403D",
"Ze.	c #3E362A",
"`e.	c #2F2920",
" f.	c #17191A",
".f.	c #05080B",
"+f.	c #05070C",
"@f.	c #0A090E",
"#f.	c #0F0B0E",
"$f.	c #100C0D",
"%f.	c #140E0E",
"&f.	c #261F1D",
"*f.	c #423933",
"=f.	c #413831",
"-f.	c #433932",
";f.	c #4C423A",
">f.	c #232125",
",f.	c #0A080E",
"'f.	c #0E0B10",
")f.	c #413B35",
"!f.	c #544F46",
"~f.	c #1D1B1E",
"{f.	c #575349",
"]f.	c #6E6858",
"^f.	c #746B5A",
"/f.	c #6F6659",
"(f.	c #686359",
"_f.	c #282928",
":f.	c #5E584D",
"<f.	c #504C44",
"[f.	c #272326",
"}f.	c #17181B",
"|f.	c #26262B",
"1f.	c #353639",
"2f.	c #383A3B",
"3f.	c #2D2D31",
"4f.	c #2C2D30",
"5f.	c #201E23",
"6f.	c #1C1F22",
"7f.	c #3B3D41",
"8f.	c #444348",
"9f.	c #423F43",
"0f.	c #3E3A3A",
"af.	c #3D3527",
"bf.	c #645D46",
"cf.	c #7F7B5D",
"df.	c #7F805D",
"ef.	c #6D6C4E",
"ff.	c #5A5B41",
"gf.	c #565542",
"hf.	c #646150",
"if.	c #726B5A",
"jf.	c #776D5C",
"kf.	c #726557",
"lf.	c #6A6052",
"mf.	c #544B42",
"nf.	c #16120D",
"of.	c #322722",
"pf.	c #52433C",
"qf.	c #62483C",
"rf.	c #5D3B2D",
"sf.	c #4E2315",
"tf.	c #461205",
"uf.	c #460901",
"vf.	c #4E0800",
"wf.	c #500300",
"xf.	c #540300",
"yf.	c #520A05",
"zf.	c #582B24",
"Af.	c #5C4B43",
"Bf.	c #594F49",
"Cf.	c #564E47",
"Df.	c #463F39",
"Ef.	c #303233",
"Ff.	c #2F3031",
"Gf.	c #40403C",
"Hf.	c #524B47",
"If.	c #695F51",
"Jf.	c #86796B",
"Kf.	c #B0A495",
"Lf.	c #BAAE9E",
"Mf.	c #A6998A",
"Nf.	c #8E8070",
"Of.	c #7C6E5F",
"Pf.	c #796C5C",
"Qf.	c #534D45",
"Rf.	c #221D21",
"Sf.	c #252528",
"Tf.	c #2D2D2F",
"Uf.	c #3C3D3D",
"Vf.	c #494A48",
"Wf.	c #4D4C4A",
"Xf.	c #4D4C48",
"Yf.	c #5F5D56",
"Zf.	c #737068",
"`f.	c #9A9387",
" g.	c #A29A8B",
".g.	c #A19887",
"+g.	c #A69D89",
"@g.	c #B0A792",
"#g.	c #B5AD97",
"$g.	c #B1A894",
"%g.	c #9C9482",
"&g.	c #797268",
"*g.	c #524E4B",
"=g.	c #45392B",
"-g.	c #403321",
";g.	c #3A2E20",
">g.	c #161411",
",g.	c #201C18",
"'g.	c #4B443A",
")g.	c #3D3B3A",
"!g.	c #4E4942",
"~g.	c #59524B",
"{g.	c #3C352B",
"]g.	c #3D362B",
"^g.	c #212222",
"/g.	c #141719",
"(g.	c #342C29",
"_g.	c #342C28",
":g.	c #312E28",
"<g.	c #5A554D",
"[g.	c #504E48",
"}g.	c #545147",
"|g.	c #6B6759",
"1g.	c #706A5B",
"2g.	c #676052",
"3g.	c #625C53",
"4g.	c #504F46",
"5g.	c #42413B",
"6g.	c #3C3C39",
"7g.	c #3E3D38",
"8g.	c #44423A",
"9g.	c #49463D",
"0g.	c #585348",
"ag.	c #2B2729",
"bg.	c #49463F",
"cg.	c #1A1C1F",
"dg.	c #222327",
"eg.	c #313235",
"fg.	c #3A3B3D",
"gg.	c #3D3F3F",
"hg.	c #3A3B3B",
"ig.	c #2A2B2D",
"jg.	c #242327",
"kg.	c #1F1E23",
"lg.	c #18181C",
"mg.	c #373233",
"ng.	c #453738",
"og.	c #483232",
"pg.	c #49312A",
"qg.	c #402920",
"rg.	c #3C271B",
"sg.	c #453320",
"tg.	c #66573C",
"ug.	c #786E50",
"vg.	c #7A7351",
"wg.	c #666246",
"xg.	c #53543B",
"yg.	c #4D4E3B",
"zg.	c #5A5847",
"Ag.	c #665F4F",
"Bg.	c #6B6251",
"Cg.	c #635B49",
"Dg.	c #241D17",
"Eg.	c #34281F",
"Fg.	c #4D3A30",
"Gg.	c #5D3E31",
"Hg.	c #5C3223",
"Ig.	c #4E2012",
"Jg.	c #431105",
"Kg.	c #420B01",
"Lg.	c #480800",
"Mg.	c #490300",
"Ng.	c #4A0200",
"Og.	c #4A0100",
"Pg.	c #480501",
"Qg.	c #401610",
"Rg.	c #392921",
"Sg.	c #322A24",
"Tg.	c #352D28",
"Ug.	c #292824",
"Vg.	c #53493F",
"Wg.	c #685C50",
"Xg.	c #85796C",
"Yg.	c #8D8273",
"Zg.	c #817566",
"`g.	c #736757",
" h.	c #675A4C",
".h.	c #4B443C",
"+h.	c #130F12",
"@h.	c #151115",
"#h.	c #121014",
"$h.	c #0A080C",
"%h.	c #2D2C2F",
"&h.	c #3D3D3C",
"*h.	c #494947",
"=h.	c #4D4B47",
"-h.	c #4E4C46",
";h.	c #615D56",
">h.	c #767168",
",h.	c #7E786D",
"'h.	c #9A9286",
")h.	c #A19789",
"!h.	c #A49987",
"~h.	c #B4AB97",
"{h.	c #B0A895",
"]h.	c #999181",
"^h.	c #776E64",
"/h.	c #6C645D",
"(h.	c #302F30",
"_h.	c #221E1F",
":h.	c #3A3228",
"<h.	c #463B2D",
"[h.	c #463928",
"}h.	c #453826",
"|h.	c #3D3023",
"1h.	c #372C22",
"2h.	c #332C27",
"3h.	c #1E1816",
"4h.	c #2B2521",
"5h.	c #383333",
"6h.	c #4A4442",
"7h.	c #5E554D",
"8h.	c #5E554C",
"9h.	c #4E4640",
"0h.	c #413F3D",
"ah.	c #383939",
"bh.	c #323031",
"ch.	c #1A1415",
"dh.	c #382F2C",
"eh.	c #413A36",
"fh.	c #342F31",
"gh.	c #2E292D",
"hh.	c #534E45",
"ih.	c #504D48",
"jh.	c #514D46",
"kh.	c #4D4940",
"lh.	c #4C4840",
"mh.	c #413E3A",
"nh.	c #46433B",
"oh.	c #4C473C",
"ph.	c #57554D",
"qh.	c #4C4A45",
"rh.	c #363739",
"sh.	c #393A3B",
"th.	c #393A3C",
"uh.	c #3C3D3F",
"vh.	c #3D3E3F",
"wh.	c #3C3D3E",
"xh.	c #333436",
"yh.	c #2F3032",
"zh.	c #232427",
"Ah.	c #1B1B20",
"Bh.	c #18161C",
"Ch.	c #060305",
"Dh.	c #0B0304",
"Eh.	c #231311",
"Fh.	c #3D1E1B",
"Gh.	c #4D1E1A",
"Hh.	c #541914",
"Ih.	c #581A0F",
"Jh.	c #4E1309",
"Kh.	c #451308",
"Lh.	c #3F1708",
"Mh.	c #4E2912",
"Nh.	c #5D3C22",
"Oh.	c #5A4327",
"Ph.	c #483720",
"Qh.	c #2F2714",
"Rh.	c #221E12",
"Sh.	c #2A251B",
"Th.	c #493C2E",
"Uh.	c #4B3E31",
"Vh.	c #55493C",
"Wh.	c #52453D",
"Xh.	c #4A3D39",
"Yh.	c #3C302C",
"Zh.	c #342720",
"`h.	c #37231A",
" i.	c #47291F",
".i.	c #592D21",
"+i.	c #5B2518",
"@i.	c #51180D",
"#i.	c #440E04",
"$i.	c #450E02",
"%i.	c #4A0E01",
"&i.	c #460400",
"*i.	c #3C0100",
"=i.	c #360000",
"-i.	c #360100",
";i.	c #35110D",
">i.	c #2E211A",
",i.	c #2A2925",
"'i.	c #232322",
")i.	c #423930",
"!i.	c #4D4237",
"~i.	c #54483B",
"{i.	c #524538",
"]i.	c #504436",
"^i.	c #4A3D31",
"/i.	c #483C31",
"(i.	c #0D090D",
"_i.	c #0F0B0F",
":i.	c #0C090D",
"<i.	c #09070B",
"[i.	c #262527",
"}i.	c #2E2C2E",
"|i.	c #3E3C3A",
"1i.	c #4A4845",
"2i.	c #4E4A45",
"3i.	c #4F4C44",
"4i.	c #797469",
"5i.	c #837C6F",
"6i.	c #8E8679",
"7i.	c #9F9687",
"8i.	c #9D9481",
"9i.	c #A39884",
"0i.	c #B0A591",
"ai.	c #B7AD9A",
"bi.	c #B5AC9A",
"ci.	c #70695E",
"di.	c #43413C",
"ei.	c #231F21",
"fi.	c #383228",
"gi.	c #453C2E",
"hi.	c #493D2C",
"ii.	c #473A29",
"ji.	c #3E3224",
"ki.	c #362D22",
"li.	c #514B45",
"mi.	c #534944",
"ni.	c #49413B",
"oi.	c #33332F",
"pi.	c #26201A",
"qi.	c #4E4D49",
"ri.	c #4D4D4B",
"si.	c #211C1F",
"ti.	c #1A161A",
"ui.	c #110E12",
"vi.	c #433B37",
"wi.	c #3A3435",
"xi.	c #363134",
"yi.	c #4D4A42",
"zi.	c #534F47",
"Ai.	c #58544D",
"Bi.	c #4F4D48",
"Ci.	c #0C0A08",
"Di.	c #4A4843",
"Ei.	c #474640",
"Fi.	c #48473F",
"Gi.	c #5E594D",
"Hi.	c #5B574C",
"Ii.	c #403F3A",
"Ji.	c #4F4C43",
"Ki.	c #444139",
"Li.	c #56534C",
"Mi.	c #4D4C46",
"Ni.	c #262727",
"Oi.	c #343636",
"Pi.	c #3E3E3F",
"Qi.	c #404041",
"Ri.	c #424243",
"Si.	c #3F4040",
"Ti.	c #3E4040",
"Ui.	c #3C3E3E",
"Vi.	c #3B3C3C",
"Wi.	c #303133",
"Xi.	c #292B2D",
"Yi.	c #1E2023",
"Zi.	c #080406",
"`i.	c #0F0302",
" j.	c #2C0D08",
".j.	c #4E130B",
"+j.	c #610E05",
"@j.	c #650501",
"#j.	c #660801",
"$j.	c #5E0600",
"%j.	c #530300",
"&j.	c #480300",
"*j.	c #480C01",
"=j.	c #4E1907",
"-j.	c #4B200C",
";j.	c #3D1D0B",
">j.	c #1E0C02",
",j.	c #080200",
"'j.	c #0A0301",
")j.	c #190C05",
"!j.	c #332417",
"~j.	c #46372B",
"{j.	c #53463B",
"]j.	c #564A43",
"^j.	c #5A4E47",
"/j.	c #4F433B",
"(j.	c #48372D",
"_j.	c #44281D",
":j.	c #51271A",
"<j.	c #602517",
"[j.	c #652213",
"}j.	c #5A190B",
"|j.	c #4C1407",
"1j.	c #51190B",
"2j.	c #5A1D0C",
"3j.	c #4A0F04",
"4j.	c #360300",
"5j.	c #280000",
"6j.	c #280301",
"7j.	c #321914",
"8j.	c #322922",
"9j.	c #2B2C2B",
"0j.	c #212220",
"aj.	c #4C4035",
"bj.	c #4C4032",
"cj.	c #4C4132",
"dj.	c #493B2F",
"ej.	c #44382C",
"fj.	c #42372B",
"gj.	c #100C0F",
"hj.	c #0D0B0E",
"ij.	c #615B52",
"jj.	c #80796C",
"kj.	c #908A7D",
"lj.	c #948E7E",
"mj.	c #928877",
"nj.	c #988D78",
"oj.	c #ACA08B",
"pj.	c #BAAF9B",
"qj.	c #B9B09D",
"rj.	c #9B9384",
"sj.	c #6C645A",
"tj.	c #29282A",
"uj.	c #242021",
"vj.	c #342D24",
"wj.	c #42392D",
"xj.	c #463A2B",
"yj.	c #423527",
"zj.	c #32291F",
"Aj.	c #090607",
"Bj.	c #383332",
"Cj.	c #4F4A48",
"Dj.	c #554F4D",
"Ej.	c #514A47",
"Fj.	c #544C46",
"Gj.	c #4A423E",
"Hj.	c #35302E",
"Ij.	c #2A2726",
"Jj.	c #3B3939",
"Kj.	c #454442",
"Lj.	c #4A4A47",
"Mj.	c #51514C",
"Nj.	c #555550",
"Oj.	c #1B171C",
"Pj.	c #131116",
"Qj.	c #3A332F",
"Rj.	c #383235",
"Sj.	c #363133",
"Tj.	c #55514C",
"Uj.	c #4D4B48",
"Vj.	c #080505",
"Wj.	c #3F3C39",
"Xj.	c #43413D",
"Yj.	c #4B4944",
"Zj.	c #4B463C",
"`j.	c #60584C",
" k.	c #4E4B46",
".k.	c #514D44",
"+k.	c #4B463D",
"@k.	c #08060A",
"#k.	c #44423B",
"$k.	c #55534C",
"%k.	c #292C2C",
"&k.	c #3E4041",
"*k.	c #3F4041",
"=k.	c #404141",
"-k.	c #3C3E3F",
";k.	c #393B3B",
">k.	c #313234",
",k.	c #2D2D30",
"'k.	c #26272A",
")k.	c #191B1E",
"!k.	c #0E1012",
"~k.	c #191A1C",
"{k.	c #070305",
"]k.	c #130403",
"^k.	c #330803",
"/k.	c #570803",
"(k.	c #6A0400",
"_k.	c #690200",
":k.	c #660200",
"<k.	c #5D0200",
"[k.	c #560300",
"}k.	c #4D0200",
"|k.	c #4C0700",
"1k.	c #4F1003",
"2k.	c #501A09",
"3k.	c #44190A",
"4k.	c #220A02",
"5k.	c #0A0100",
"6k.	c #080100",
"7k.	c #1A0B05",
"8k.	c #342219",
"9k.	c #4B3B32",
"0k.	c #544944",
"ak.	c #574C44",
"bk.	c #51453C",
"ck.	c #4C3830",
"dk.	c #4C2921",
"ek.	c #592318",
"fk.	c #671F12",
"gk.	c #6B1E0F",
"hk.	c #5D1508",
"ik.	c #511708",
"jk.	c #561F10",
"kk.	c #5E2514",
"lk.	c #320400",
"mk.	c #1F0100",
"nk.	c #210602",
"ok.	c #2F1E18",
"pk.	c #25211B",
"qk.	c #4B463F",
"rk.	c #4D4740",
"sk.	c #3B352E",
"tk.	c #4C4743",
"uk.	c #665B49",
"vk.	c #65584A",
"wk.	c #625648",
"xk.	c #100D11",
"yk.	c #58534B",
"zk.	c #716A61",
"Ak.	c #7D776D",
"Bk.	c #8D867A",
"Ck.	c #8D8375",
"Dk.	c #928876",
"Ek.	c #9E9580",
"Fk.	c #ADA28F",
"Gk.	c #ADA391",
"Hk.	c #686156",
"Ik.	c #5B544C",
"Jk.	c #3F362A",
"Kk.	c #433728",
"Lk.	c #403324",
"Mk.	c #362B1F",
"Nk.	c #080507",
"Ok.	c #46403F",
"Pk.	c #534D4B",
"Qk.	c #504B47",
"Rk.	c #46403C",
"Sk.	c #463F3B",
"Tk.	c #4A433F",
"Uk.	c #4E4643",
"Vk.	c #47403E",
"Wk.	c #343334",
"Xk.	c #474843",
"Yk.	c #4E4E48",
"Zk.	c #201A19",
"`k.	c #463C36",
" l.	c #403734",
".l.	c #3A3534",
"+l.	c #514F47",
"@l.	c #59564E",
"#l.	c #535049",
"$l.	c #48463F",
"%l.	c #494744",
"&l.	c #181614",
"*l.	c #4A4844",
"=l.	c #50493D",
"-l.	c #4E4943",
";l.	c #413F3B",
">l.	c #141012",
",l.	c #4A473F",
"'l.	c #484842",
")l.	c #292B2A",
"!l.	c #2E3031",
"~l.	c #3B3D3D",
"{l.	c #414444",
"]l.	c #414243",
"^l.	c #404142",
"/l.	c #3F4141",
"(l.	c #3C3F3E",
"_l.	c #393C3C",
":l.	c #252628",
"<l.	c #212024",
"[l.	c #232527",
"}l.	c #1B1C1F",
"|l.	c #090405",
"1l.	c #160402",
"2l.	c #390803",
"3l.	c #5D0702",
"4l.	c #6A0200",
"5l.	c #640100",
"6l.	c #620400",
"7l.	c #550300",
"8l.	c #4A0301",
"9l.	c #430301",
"0l.	c #430801",
"al.	c #480F04",
"bl.	c #4D180A",
"cl.	c #40150A",
"dl.	c #210A03",
"el.	c #0B0201",
"fl.	c #1D0F09",
"gl.	c #38271C",
"hl.	c #44342B",
"il.	c #4D423A",
"jl.	c #4C4139",
"kl.	c #4E3B31",
"ll.	c #512D22",
"ml.	c #5B2217",
"nl.	c #6C1F12",
"ol.	c #6F1D0E",
"pl.	c #611609",
"ql.	c #4C1608",
"rl.	c #441A0D",
"sl.	c #4B2213",
"tl.	c #41180A",
"ul.	c #300C03",
"vl.	c #210801",
"wl.	c #231007",
"xl.	c #2D1F19",
"yl.	c #28231D",
"zl.	c #4B453E",
"Al.	c #423D3A",
"Bl.	c #3C3D3C",
"Cl.	c #4E4032",
"Dl.	c #72624F",
"El.	c #958770",
"Fl.	c #A29785",
"Gl.	c #A29786",
"Hl.	c #807A71",
"Il.	c #605D58",
"Jl.	c #595754",
"Kl.	c #4F4E4B",
"Ll.	c #655F5B",
"Ml.	c #8F877F",
"Nl.	c #978D81",
"Ol.	c #968D7D",
"Pl.	c #948B7A",
"Ql.	c #978D7C",
"Rl.	c #92887A",
"Sl.	c #7C7568",
"Tl.	c #58514C",
"Ul.	c #46413F",
"Vl.	c #332F30",
"Wl.	c #2D292B",
"Xl.	c #32271C",
"Yl.	c #2C2624",
"Zl.	c #060306",
"`l.	c #362E2A",
" m.	c #443E3C",
".m.	c #272529",
"+m.	c #3D3836",
"@m.	c #3E3937",
"#m.	c #171315",
"$m.	c #171418",
"%m.	c #38342C",
"&m.	c #4F463C",
"*m.	c #574C3F",
"=m.	c #584A3E",
"-m.	c #554E42",
";m.	c #4E4A43",
">m.	c #414343",
",m.	c #3E3F40",
"'m.	c #3D3E3E",
")m.	c #3E3F3F",
"!m.	c #170201",
"~m.	c #370301",
"{m.	c #580301",
"]m.	c #610100",
"^m.	c #560000",
"/m.	c #4E0200",
"(m.	c #3B0201",
"_m.	c #2F0303",
":m.	c #240201",
"<m.	c #260402",
"[m.	c #290502",
"}m.	c #2E0904",
"|m.	c #260804",
"1m.	c #120301",
"2m.	c #060101",
"3m.	c #140806",
"4m.	c #291810",
"5m.	c #2F1E16",
"6m.	c #2E231D",
"7m.	c #483B34",
"8m.	c #4B362E",
"9m.	c #4D271D",
"0m.	c #581E13",
"am.	c #691D10",
"bm.	c #6F1B0D",
"cm.	c #62180C",
"dm.	c #3D1107",
"em.	c #240C04",
"fm.	c #241108",
"gm.	c #2A1209",
"hm.	c #321C13",
"im.	c #312018",
"jm.	c #32261D",
"km.	c #352C24",
"lm.	c #4D443A",
"mm.	c #393737",
"nm.	c #3B3C3D",
"om.	c #423A2D",
"pm.	c #4C3E2C",
"qm.	c #72624B",
"rm.	c #AEA087",
"sm.	c #BAB098",
"tm.	c #BCB39E",
"um.	c #C0B6A3",
"vm.	c #BCB4A2",
"wm.	c #9B968B",
"xm.	c #696763",
"ym.	c #5E5E59",
"zm.	c #52524B",
"Am.	c #47473F",
"Bm.	c #48463D",
"Cm.	c #4A473E",
"Dm.	c #5A5754",
"Em.	c #8A847E",
"Fm.	c #979181",
"Gm.	c #8F8778",
"Hm.	c #847D70",
"Im.	c #57504C",
"Jm.	c #454240",
"Km.	c #3F3225",
"Lm.	c #3B2E20",
"Mm.	c #34291E",
"Nm.	c #2E251F",
"Om.	c #2E2523",
"Pm.	c #574D40",
"Qm.	c #685C4A",
"Rm.	c #726550",
"Sm.	c #6C5E4C",
"Tm.	c #5C4F43",
"Um.	c #56524A",
"Vm.	c #1C1A21",
"Wm.	c #3F3D3B",
"Xm.	c #474139",
"Ym.	c #5F574B",
"Zm.	c #46423A",
"`m.	c #3A3A38",
" n.	c #444239",
".n.	c #333432",
"+n.	c #3E403F",
"@n.	c #414342",
"#n.	c #414242",
"$n.	c #404040",
"%n.	c #414240",
"&n.	c #3A3D3C",
"*n.	c #3B3B3C",
"=n.	c #0B0303",
"-n.	c #180202",
";n.	c #360302",
">n.	c #500301",
",n.	c #590200",
"'n.	c #500201",
")n.	c #3B0100",
"!n.	c #1F0000",
"~n.	c #140102",
"{n.	c #0A0000",
"]n.	c #0B0000",
"^n.	c #0E0000",
"/n.	c #140000",
"(n.	c #090101",
"_n.	c #170703",
":n.	c #1B0803",
"<n.	c #1A0C07",
"[n.	c #1B110F",
"}n.	c #352A27",
"|n.	c #4A3B36",
"1n.	c #4F362F",
"2n.	c #50281E",
"3n.	c #592014",
"4n.	c #671D0F",
"5n.	c #641C10",
"6n.	c #3A140B",
"7n.	c #160902",
"8n.	c #0E0802",
"9n.	c #1D120A",
"0n.	c #34271F",
"an.	c #3D312B",
"bn.	c #4F473B",
"cn.	c #42403E",
"dn.	c #424344",
"en.	c #464644",
"fn.	c #43392E",
"gn.	c #4D3E2C",
"hn.	c #6A5841",
"in.	c #938067",
"jn.	c #A6957E",
"kn.	c #B7AA92",
"ln.	c #BBAF9A",
"mn.	c #BFB4A0",
"nn.	c #BCB2A1",
"on.	c #9B9489",
"pn.	c #706D68",
"qn.	c #676562",
"rn.	c #615F5B",
"sn.	c #56534D",
"tn.	c #40372D",
"un.	c #221A15",
"vn.	c #0A080D",
"wn.	c #040207",
"xn.	c #030105",
"yn.	c #252527",
"zn.	c #4E4846",
"An.	c #4C4745",
"Bn.	c #4A4645",
"Cn.	c #716D69",
"Dn.	c #847D75",
"En.	c #8B8578",
"Fn.	c #888074",
"Gn.	c #877F73",
"Hn.	c #7D766C",
"In.	c #544E4A",
"Jn.	c #514B48",
"Kn.	c #302C2E",
"Ln.	c #3A2E25",
"Mn.	c #3E2F24",
"Nn.	c #3E3023",
"On.	c #362A21",
"Pn.	c #2D2520",
"Qn.	c #2B2625",
"Rn.	c #2E2522",
"Sn.	c #2C2321",
"Tn.	c #2B2221",
"Un.	c #252223",
"Vn.	c #30302C",
"Wn.	c #272629",
"Xn.	c #363536",
"Yn.	c #393838",
"Zn.	c #49453C",
"`n.	c #272521",
" o.	c #685A49",
".o.	c #6F614D",
"+o.	c #6A5B48",
"@o.	c #574B3E",
"#o.	c #45433A",
"$o.	c #3D3B34",
"%o.	c #1A191F",
"&o.	c #1A1920",
"*o.	c #0F0C0C",
"=o.	c #393637",
"-o.	c #60564E",
";o.	c #554E46",
">o.	c #373737",
",o.	c #42403C",
"'o.	c #312F32",
")o.	c #2B292D",
"!o.	c #2E2F31",
"~o.	c #0A0303",
"{o.	c #140101",
"]o.	c #2E0202",
"^o.	c #420302",
"/o.	c #4B0202",
"(o.	c #420203",
"_o.	c #2F0503",
":o.	c #0C0001",
"<o.	c #0C0000",
"[o.	c #130000",
"}o.	c #150000",
"|o.	c #190000",
"1o.	c #070000",
"2o.	c #140301",
"3o.	c #190300",
"4o.	c #1B0703",
"5o.	c #1E0F0C",
"6o.	c #392A27",
"7o.	c #4E3B36",
"8o.	c #53362F",
"9o.	c #54291E",
"0o.	c #5B2013",
"ao.	c #631B0F",
"bo.	c #6A1C0D",
"co.	c #601A11",
"do.	c #39160D",
"eo.	c #160C05",
"fo.	c #0D0A05",
"go.	c #1A130E",
"ho.	c #50473F",
"io.	c #444541",
"jo.	c #4E4235",
"ko.	c #544432",
"lo.	c #645239",
"mo.	c #806F50",
"no.	c #907F63",
"oo.	c #A89B7E",
"po.	c #B0A38A",
"qo.	c #B7AB92",
"ro.	c #938D7E",
"so.	c #6A6761",
"to.	c #63615D",
"uo.	c #484032",
"vo.	c #483E2F",
"wo.	c #3A3023",
"xo.	c #241B13",
"yo.	c #1E1715",
"zo.	c #0B0A0E",
"Ao.	c #4B4743",
"Bo.	c #55514D",
"Co.	c #544E4D",
"Do.	c #504C4A",
"Eo.	c #5C5954",
"Fo.	c #756F65",
"Go.	c #7F796C",
"Ho.	c #797369",
"Io.	c #4C4843",
"Jo.	c #282325",
"Ko.	c #2C241D",
"Lo.	c #3A2E23",
"Mo.	c #403125",
"No.	c #443427",
"Oo.	c #3B2F26",
"Po.	c #2F2825",
"Qo.	c #2E2E2B",
"Ro.	c #221F1A",
"So.	c #3D3A31",
"To.	c #5E5142",
"Uo.	c #594C3C",
"Vo.	c #3F3D34",
"Wo.	c #424039",
"Xo.	c #373936",
"Yo.	c #3D3B35",
"Zo.	c #3D3D39",
"`o.	c #424343",
" p.	c #3E3F3E",
".p.	c #3F403E",
"+p.	c #464645",
"@p.	c #343335",
"#p.	c #2E2C30",
"$p.	c #0B0404",
"%p.	c #110101",
"&p.	c #240604",
"*p.	c #320505",
"=p.	c #3C0A0B",
"-p.	c #36080A",
";p.	c #2A0908",
">p.	c #1A0403",
",p.	c #1A0203",
"'p.	c #210201",
")p.	c #2F0502",
"!p.	c #340502",
"~p.	c #380905",
"{p.	c #280502",
"]p.	c #0B0100",
"^p.	c #090000",
"/p.	c #1B0301",
"(p.	c #230300",
"_p.	c #2A0904",
":p.	c #2E120D",
"<p.	c #3D2520",
"[p.	c #462E28",
"}p.	c #4C2C24",
"|p.	c #532319",
"1p.	c #5D1F13",
"2p.	c #621A0F",
"3p.	c #681C0F",
"4p.	c #5A1E12",
"5p.	c #3E1F15",
"6p.	c #251B13",
"7p.	c #201B16",
"8p.	c #27201C",
"9p.	c #524435",
"0p.	c #574531",
"ap.	c #59452C",
"bp.	c #655131",
"cp.	c #705B3C",
"dp.	c #897757",
"ep.	c #948366",
"fp.	c #A29276",
"gp.	c #9F9179",
"hp.	c #57514C",
"ip.	c #534F4C",
"jp.	c #4F4A47",
"kp.	c #32271B",
"lp.	c #2F2316",
"mp.	c #221912",
"np.	c #201717",
"op.	c #1F181B",
"pp.	c #0F0C11",
"qp.	c #484442",
"rp.	c #514D4A",
"sp.	c #54504C",
"tp.	c #55504E",
"up.	c #4F4A4A",
"vp.	c #746E63",
"wp.	c #716B62",
"xp.	c #3B3736",
"yp.	c #292628",
"zp.	c #382B20",
"Ap.	c #413023",
"Bp.	c #453227",
"Cp.	c #3E2F28",
"Dp.	c #302722",
"Ep.	c #292A25",
"Fp.	c #282722",
"Gp.	c #2F2F2C",
"Hp.	c #262729",
"Ip.	c #313132",
"Jp.	c #57534B",
"Kp.	c #514D47",
"Lp.	c #363630",
"Mp.	c #2B2925",
"Np.	c #2B2A26",
"Op.	c #4D4439",
"Pp.	c #494034",
"Qp.	c #232326",
"Rp.	c #202025",
"Sp.	c #5A544B",
"Tp.	c #373734",
"Up.	c #2F3130",
"Vp.	c #1E2020",
"Wp.	c #3A3937",
"Xp.	c #292A29",
"Yp.	c #3C3C3C",
"Zp.	c #444344",
"`p.	c #434343",
" q.	c #414040",
".q.	c #3A3B3A",
"+q.	c #3A3C39",
"@q.	c #474648",
"#q.	c #353336",
"$q.	c #2E2D31",
"%q.	c #060203",
"&q.	c #090102",
"*q.	c #140505",
"=q.	c #1A0507",
"-q.	c #270A0D",
";q.	c #25090D",
">q.	c #250B0C",
",q.	c #2C0D0B",
"'q.	c #3C0D0A",
")q.	c #480603",
"!q.	c #560A03",
"~q.	c #5B0C05",
"{q.	c #5C0E08",
"]q.	c #420904",
"^q.	c #150100",
"/q.	c #200200",
"(q.	c #300300",
"_q.	c #3A0704",
":q.	c #3A0A08",
"<q.	c #3A120E",
"[q.	c #350E09",
"}q.	c #3D0F07",
"|q.	c #491008",
"1q.	c #59170E",
"2q.	c #5F160E",
"3q.	c #5E170C",
"4q.	c #511A10",
"5q.	c #41251B",
"6q.	c #403832",
"7q.	c #3F3732",
"8q.	c #22211E",
"9q.	c #4A4236",
"0q.	c #554430",
"aq.	c #564228",
"bq.	c #5F4827",
"cq.	c #654E2B",
"dq.	c #796340",
"eq.	c #8D7956",
"fq.	c #9C8A68",
"gq.	c #9C8A6F",
"hq.	c #7A6F5E",
"iq.	c #524D4B",
"jq.	c #4E4947",
"kq.	c #2A2016",
"lq.	c #281D14",
"mq.	c #271D15",
"nq.	c #251C18",
"oq.	c #251D1E",
"pq.	c #231E21",
"qq.	c #242321",
"rq.	c #554F4C",
"sq.	c #524B4A",
"tq.	c #514A48",
"uq.	c #676054",
"vq.	c #70685D",
"wq.	c #6F685E",
"xq.	c #181417",
"yq.	c #282324",
"zq.	c #27201E",
"Aq.	c #2C221B",
"Bq.	c #38291E",
"Cq.	c #3F2D1F",
"Dq.	c #422E21",
"Eq.	c #3A2B22",
"Fq.	c #292725",
"Gq.	c #21221F",
"Hq.	c #1C1D19",
"Iq.	c #2B2B2B",
"Jq.	c #2D2E2B",
"Kq.	c #070603",
"Lq.	c #26282A",
"Mq.	c #636058",
"Nq.	c #67655C",
"Oq.	c #5F5E57",
"Pq.	c #3E3E39",
"Qq.	c #3C3C36",
"Rq.	c #3B3A35",
"Sq.	c #4D493F",
"Tq.	c #4C473E",
"Uq.	c #403B32",
"Vq.	c #383833",
"Wq.	c #4D4A43",
"Xq.	c #1D1D23",
"Yq.	c #1F1F25",
"Zq.	c #222228",
"`q.	c #3B3B37",
" r.	c #373736",
".r.	c #3A3836",
"+r.	c #454546",
"@r.	c #464545",
"#r.	c #3F3E3F",
"$r.	c #393A39",
"%r.	c #50504F",
"&r.	c #4E4F4F",
"*r.	c #37363A",
"=r.	c #302F33",
"-r.	c #060205",
";r.	c #080305",
">r.	c #0C0508",
",r.	c #160C0F",
"'r.	c #160B10",
")r.	c #1D0C0D",
"!r.	c #37110F",
"~r.	c #56130E",
"{r.	c #650D05",
"]r.	c #6D0C02",
"^r.	c #6E0B01",
"/r.	c #6C1006",
"(r.	c #510D06",
"_r.	c #210300",
":r.	c #100000",
"<r.	c #240100",
"[r.	c #350200",
"}r.	c #430402",
"|r.	c #430404",
"1r.	c #400604",
"2r.	c #380200",
"3r.	c #3D0300",
"4r.	c #480702",
"5r.	c #58130A",
"6r.	c #5C150C",
"7r.	c #5C180C",
"8r.	c #4C190E",
"9r.	c #42291F",
"0r.	c #46433C",
"ar.	c #483F38",
"br.	c #4A443C",
"cr.	c #242221",
"dr.	c #51412D",
"er.	c #544028",
"fr.	c #5B4426",
"gr.	c #5E4727",
"hr.	c #705837",
"ir.	c #88734F",
"jr.	c #978161",
"kr.	c #9C896C",
"lr.	c #514D4C",
"mr.	c #4E4A48",
"nr.	c #2A221B",
"or.	c #29201C",
"pr.	c #1C181D",
"qr.	c #5C544F",
"rr.	c #726A59",
"sr.	c #7B7364",
"tr.	c #3D3A39",
"ur.	c #2C211B",
"vr.	c #39281D",
"wr.	c #3B271A",
"xr.	c #392718",
"yr.	c #312218",
"zr.	c #291F1A",
"Ar.	c #262623",
"Br.	c #1A1D1A",
"Cr.	c #1A1C18",
"Dr.	c #2A2B29",
"Er.	c #2F302E",
"Fr.	c #12110E",
"Gr.	c #11100D",
"Hr.	c #333638",
"Ir.	c #353739",
"Jr.	c #363839",
"Kr.	c #3E3E3B",
"Lr.	c #65625B",
"Mr.	c #696761",
"Nr.	c #5F5E59",
"Or.	c #444440",
"Pr.	c #2F302B",
"Qr.	c #3D3E38",
"Rr.	c #3E3F37",
"Sr.	c #3E3E37",
"Tr.	c #3F3E38",
"Ur.	c #3E3D34",
"Vr.	c #4A463B",
"Wr.	c #49453D",
"Xr.	c #484740",
"Yr.	c #47463F",
"Zr.	c #44433C",
"`r.	c #1D1E24",
" s.	c #3C3938",
".s.	c #3D3D38",
"+s.	c #1D1E1C",
"@s.	c #1E1F1F",
"#s.	c #434142",
"$s.	c #3F3D3E",
"%s.	c #565556",
"&s.	c #525052",
"*s.	c #302E32",
"=s.	c #040104",
"-s.	c #090509",
";s.	c #0D090E",
">s.	c #0B060E",
",s.	c #15080C",
"'s.	c #370F0E",
")s.	c #5D120E",
"!s.	c #6D0E05",
"~s.	c #720C01",
"{s.	c #700A01",
"]s.	c #701005",
"^s.	c #5A0E07",
"/s.	c #2A0300",
"(s.	c #280100",
"_s.	c #410100",
":s.	c #440101",
"<s.	c #450402",
"[s.	c #440603",
"}s.	c #470602",
"|s.	c #500C04",
"1s.	c #541007",
"2s.	c #551409",
"3s.	c #4A180F",
"4s.	c #412823",
"5s.	c #443A35",
"6s.	c #48413B",
"7s.	c #4D3F2E",
"8s.	c #54442E",
"9s.	c #58462D",
"0s.	c #675539",
"as.	c #7C6B4D",
"bs.	c #8E7E60",
"cs.	c #95866C",
"ds.	c #53504B",
"es.	c #4A4847",
"fs.	c #1C191E",
"gs.	c #0C0A0E",
"hs.	c #57534D",
"is.	c #706A62",
"js.	c #857B6D",
"ks.	c #8B806B",
"ls.	c #968B74",
"ms.	c #9E937D",
"ns.	c #9E9481",
"os.	c #867F6F",
"ps.	c #5E5853",
"qs.	c #5C5854",
"rs.	c #54514F",
"ss.	c #423F3E",
"ts.	c #251F1E",
"us.	c #2B211B",
"vs.	c #38281E",
"ws.	c #39261A",
"xs.	c #372417",
"ys.	c #2E2016",
"zs.	c #271E18",
"As.	c #2C2B28",
"Bs.	c #252724",
"Cs.	c #212421",
"Ds.	c #20211E",
"Es.	c #2A2B2A",
"Fs.	c #333636",
"Gs.	c #35393A",
"Hs.	c #393B3D",
"Is.	c #3D3F40",
"Js.	c #40413F",
"Ks.	c #40403D",
"Ls.	c #4C4B45",
"Ms.	c #595752",
"Ns.	c #5C5A55",
"Os.	c #514F4C",
"Ps.	c #373833",
"Qs.	c #3C3D37",
"Rs.	c #3F3F38",
"Ss.	c #3B3A34",
"Ts.	c #3C3B33",
"Us.	c #4E4940",
"Vs.	c #4A463C",
"Ws.	c #4A463F",
"Xs.	c #45443E",
"Ys.	c #46443D",
"Zs.	c #4B4941",
"`s.	c #25252A",
" t.	c #3A393A",
".t.	c #3B3C38",
"+t.	c #2B2C29",
"@t.	c #272826",
"#t.	c #191A1B",
"$t.	c #3D3C3C",
"%t.	c #444345",
"&t.	c #58565A",
"*t.	c #515053",
"=t.	c #2F2F33",
"-t.	c #050103",
";t.	c #050204",
">t.	c #080508",
",t.	c #0D070E",
"'t.	c #15080A",
")t.	c #360E0B",
"!t.	c #5F120C",
"~t.	c #6F0E05",
"{t.	c #750E02",
"]t.	c #740E02",
"^t.	c #741307",
"/t.	c #611209",
"(t.	c #360802",
"_t.	c #1D0300",
":t.	c #1E0000",
"<t.	c #2E0100",
"[t.	c #440100",
"}t.	c #430100",
"|t.	c #440201",
"1t.	c #400303",
"2t.	c #420604",
"3t.	c #430501",
"4t.	c #4D0C04",
"5t.	c #510F06",
"6t.	c #531408",
"7t.	c #4B1B11",
"8t.	c #462E27",
"9t.	c #4A3F2F",
"0t.	c #534936",
"at.	c #5F5542",
"bt.	c #3A3637",
"ct.	c #37353A",
"dt.	c #333235",
"et.	c #1C181F",
"ft.	c #1D1A20",
"gt.	c #0E0C11",
"ht.	c #988C7C",
"it.	c #A0927F",
"jt.	c #A1937E",
"kt.	c #A4967F",
"lt.	c #A3957C",
"mt.	c #A99A7F",
"nt.	c #B1A387",
"ot.	c #B4A78B",
"pt.	c #B4A990",
"qt.	c #9B927F",
"rt.	c #70685C",
"st.	c #66605A",
"tt.	c #5B5854",
"ut.	c #45403E",
"vt.	c #34251D",
"wt.	c #38261B",
"xt.	c #372519",
"yt.	c #2C1F16",
"zt.	c #241C17",
"At.	c #2B2726",
"Bt.	c #292926",
"Ct.	c #2A2C29",
"Dt.	c #292B29",
"Et.	c #242726",
"Ft.	c #232525",
"Gt.	c #323536",
"Ht.	c #33373A",
"It.	c #363A3C",
"Jt.	c #383A3D",
"Kt.	c #3C3F40",
"Lt.	c #3F403F",
"Mt.	c #43423E",
"Nt.	c #292A26",
"Ot.	c #3B3B34",
"Pt.	c #3E3D36",
"Qt.	c #3D3C36",
"Rt.	c #3A3933",
"St.	c #4C4940",
"Tt.	c #45433C",
"Ut.	c #4A4840",
"Vt.	c #27282B",
"Wt.	c #4C4A43",
"Xt.	c #3D3B3C",
"Yt.	c #434040",
"Zt.	c #474442",
"`t.	c #464440",
" u.	c #3E3D3F",
".u.	c #373839",
"+u.	c #363838",
"@u.	c #343638",
"#u.	c #333537",
"$u.	c #2C2F33",
"%u.	c #393C42",
"&u.	c #484A50",
"*u.	c #45464B",
"=u.	c #303238",
"-u.	c #2E2E33",
";u.	c #333437",
">u.	c #040105",
",u.	c #040103",
"'u.	c #050102",
")u.	c #090406",
"!u.	c #0E060B",
"~u.	c #0E050C",
"{u.	c #130406",
"]u.	c #340A06",
"^u.	c #5E0F07",
"/u.	c #700C03",
"(u.	c #761003",
"_u.	c #730D02",
":u.	c #721105",
"<u.	c #65140A",
"[u.	c #400A04",
"}u.	c #2A0602",
"|u.	c #280503",
"1u.	c #290100",
"2u.	c #330100",
"3u.	c #3E0100",
"4u.	c #3D0101",
"5u.	c #330000",
"6u.	c #330101",
"7u.	c #460903",
"8u.	c #501008",
"9u.	c #54160C",
"0u.	c #491A11",
"au.	c #422C24",
"bu.	c #38302C",
"cu.	c #302925",
"du.	c #212127",
"eu.	c #15151D",
"fu.	c #15141C",
"gu.	c #17161D",
"hu.	c #211F25",
"iu.	c #2F2D34",
"ju.	c #2E2D32",
"ku.	c #202124",
"lu.	c #1C1A1E",
"mu.	c #898075",
"nu.	c #9C8F7F",
"ou.	c #A59782",
"pu.	c #A79882",
"qu.	c #AB9C85",
"ru.	c #AD9D85",
"su.	c #B3A588",
"tu.	c #B6A98B",
"uu.	c #B9AB8E",
"vu.	c #BBB095",
"wu.	c #9F9682",
"xu.	c #655F58",
"yu.	c #5C5752",
"zu.	c #4B4644",
"Au.	c #423B39",
"Bu.	c #33261D",
"Cu.	c #39291E",
"Du.	c #2E221A",
"Eu.	c #323531",
"Fu.	c #202222",
"Gu.	c #242627",
"Hu.	c #292A2B",
"Iu.	c #2D2E2D",
"Ju.	c #2B2D2D",
"Ku.	c #2F302C",
"Lu.	c #313435",
"Mu.	c #313537",
"Nu.	c #323638",
"Ou.	c #343739",
"Pu.	c #404140",
"Qu.	c #31322E",
"Ru.	c #3A3B35",
"Su.	c #3D3C35",
"Tu.	c #3E3E36",
"Uu.	c #403F37",
"Vu.	c #3C3C33",
"Wu.	c #545046",
"Xu.	c #4E4A3F",
"Yu.	c #48453D",
"Zu.	c #47453D",
"`u.	c #4C4941",
" v.	c #47453C",
".v.	c #1E1F23",
"+v.	c #29292C",
"@v.	c #514F46",
"#v.	c #4F4C45",
"$v.	c #3A3B36",
"%v.	c #2E2E31",
"&v.	c #2B2C2F",
"*v.	c #282A2C",
"=v.	c #26282C",
"-v.	c #272A2F",
";v.	c #262930",
">v.	c #2A2E35",
",v.	c #2D3239",
"'v.	c #353A41",
")v.	c #33373D",
"!v.	c #2E3036",
"~v.	c #2D2E34",
"{v.	c #323337",
"]v.	c #2B2C30",
"^v.	c #040002",
"/v.	c #060102",
"(v.	c #0F0406",
"_v.	c #16080B",
":v.	c #16060B",
"<v.	c #190405",
"[v.	c #370803",
"}v.	c #600E05",
"|v.	c #710E03",
"1v.	c #761004",
"2v.	c #740F03",
"3v.	c #721306",
"4v.	c #651409",
"5v.	c #450B04",
"6v.	c #310601",
"7v.	c #310604",
"8v.	c #340200",
"9v.	c #3C0200",
"0v.	c #400100",
"av.	c #460200",
"bv.	c #430201",
"cv.	c #3B0202",
"dv.	c #2E0000",
"ev.	c #290000",
"fv.	c #410904",
"gv.	c #52150D",
"hv.	c #571910",
"iv.	c #4A1B12",
"jv.	c #402C21",
"kv.	c #2F2724",
"lv.	c #1D1612",
"mv.	c #171616",
"nv.	c #161614",
"ov.	c #1F2127",
"pv.	c #14151D",
"qv.	c #27272A",
"rv.	c #323138",
"sv.	c #313137",
"tv.	c #0A0C0F",
"uv.	c #827A71",
"vv.	c #958A7D",
"wv.	c #A09582",
"xv.	c #A49784",
"yv.	c #AB9D88",
"zv.	c #AC9D88",
"Av.	c #B1A58B",
"Bv.	c #B6A98D",
"Cv.	c #B9AE92",
"Dv.	c #B7AC95",
"Ev.	c #99907F",
"Fv.	c #696256",
"Gv.	c #5F5853",
"Hv.	c #57524E",
"Iv.	c #484240",
"Jv.	c #453E3C",
"Kv.	c #322721",
"Lv.	c #362920",
"Mv.	c #362820",
"Nv.	c #241D1A",
"Ov.	c #333531",
"Pv.	c #1A1C1D",
"Qv.	c #1D2021",
"Rv.	c #222426",
"Sv.	c #292A2C",
"Tv.	c #31312D",
"Uv.	c #2B2E2F",
"Vv.	c #393A3A",
"Wv.	c #3F403D",
"Xv.	c #3E3F3B",
"Yv.	c #343530",
"Zv.	c #3E3D35",
"`v.	c #3C3C34",
" w.	c #504C41",
".w.	c #47433A",
"+w.	c #403C33",
"@w.	c #49463E",
"#w.	c #3C3B3A",
"$w.	c #4E4B44",
"%w.	c #3B3C37",
"&w.	c #222229",
"*w.	c #24252D",
"=w.	c #28292F",
"-w.	c #27272E",
";w.	c #29292F",
">w.	c #28262D",
",w.	c #272428",
"'w.	c #040003",
")w.	c #130203",
"!w.	c #1F0507",
"~w.	c #1F0408",
"{w.	c #1F0102",
"]w.	c #3B0603",
"^w.	c #620E06",
"/w.	c #6F0B01",
"(w.	c #730F02",
"_w.	c #721004",
":w.	c #711206",
"<w.	c #631107",
"[w.	c #440701",
"}w.	c #310200",
"|w.	c #330401",
"1w.	c #3C0301",
"2w.	c #410200",
"3w.	c #420100",
"4w.	c #450100",
"5w.	c #420101",
"6w.	c #390100",
"7w.	c #2A0000",
"8w.	c #220000",
"9w.	c #3D0804",
"0w.	c #52150F",
"aw.	c #581711",
"bw.	c #4D1A13",
"cw.	c #3C261B",
"dw.	c #343129",
"ew.	c #403938",
"fw.	c #443B37",
"gw.	c #1C110D",
"hw.	c #251A15",
"iw.	c #322822",
"jw.	c #1C1711",
"kw.	c #332C2B",
"lw.	c #2F2827",
"mw.	c #1C1D23",
"nw.	c #1B1D23",
"ow.	c #1B1C22",
"pw.	c #111219",
"qw.	c #111319",
"rw.	c #17181E",
"sw.	c #1E1E22",
"tw.	c #3F3D35",
"uw.	c #2D2E30",
"vw.	c #2D2E33",
"ww.	c #1F2124",
"xw.	c #08090C",
"yw.	c #524E49",
"zw.	c #6B665F",
"Aw.	c #79736A",
"Bw.	c #857E72",
"Cw.	c #8C8376",
"Dw.	c #938A7B",
"Ew.	c #978E7D",
"Fw.	c #9D9581",
"Gw.	c #A29A83",
"Hw.	c #A8A08A",
"Iw.	c #A49B8A",
"Jw.	c #7F796B",
"Kw.	c #514C43",
"Lw.	c #3D3838",
"Mw.	c #3C3635",
"Nw.	c #372C25",
"Ow.	c #382D26",
"Pw.	c #2D2420",
"Qw.	c #242424",
"Rw.	c #383A34",
"Sw.	c #3E403B",
"Tw.	c #1C1F20",
"Uw.	c #232628",
"Vw.	c #33342F",
"Ww.	c #191613",
"Xw.	c #1C1B18",
"Yw.	c #262828",
"Zw.	c #252827",
"`w.	c #42423E",
" x.	c #3F3F3B",
".x.	c #40403A",
"+x.	c #34342F",
"@x.	c #383933",
"#x.	c #403F36",
"$x.	c #413F38",
"%x.	c #403F38",
"&x.	c #49473F",
"*x.	c #4D4A41",
"=x.	c #4B473E",
"-x.	c #49453B",
";x.	c #414039",
">x.	c #454136",
",x.	c #4B463B",
"'x.	c #534C43",
")x.	c #59554B",
"!x.	c #524F46",
"~x.	c #242322",
"{x.	c #131413",
"]x.	c #1A1B19",
"^x.	c #261819",
"/x.	c #281212",
"(x.	c #291310",
"_x.	c #261311",
":x.	c #251514",
"<x.	c #221516",
"[x.	c #251B1C",
"}x.	c #251C1F",
"|x.	c #261F22",
"1x.	c #282122",
"2x.	c #251D1F",
"3x.	c #27201F",
"4x.	c #221B1A",
"5x.	c #0F0A0C",
"6x.	c #030002",
"7x.	c #040001",
"8x.	c #180101",
"9x.	c #260404",
"0x.	c #240304",
"ax.	c #210101",
"bx.	c #5F0D06",
"cx.	c #6D0E02",
"dx.	c #701002",
"ex.	c #6F0F02",
"fx.	c #701306",
"gx.	c #631006",
"hx.	c #470700",
"ix.	c #370400",
"jx.	c #430602",
"kx.	c #470301",
"lx.	c #470200",
"mx.	c #2F0000",
"nx.	c #2B0000",
"ox.	c #320100",
"px.	c #430B05",
"qx.	c #55180F",
"rx.	c #5B1B13",
"sx.	c #511A13",
"tx.	c #3C2118",
"ux.	c #2C291F",
"vx.	c #2F322A",
"wx.	c #2C231D",
"xx.	c #261B12",
"yx.	c #24170E",
"zx.	c #32231B",
"Ax.	c #372A22",
"Bx.	c #3B3127",
"Cx.	c #1E1912",
"Dx.	c #332B2A",
"Ex.	c #0E0E14",
"Fx.	c #0D0D13",
"Gx.	c #0F0F16",
"Hx.	c #0D0D14",
"Ix.	c #0F0F15",
"Jx.	c #212025",
"Kx.	c #141619",
"Lx.	c #100E0D",
"Mx.	c #494644",
"Nx.	c #4D4A47",
"Ox.	c #605D53",
"Px.	c #626056",
"Qx.	c #5B584F",
"Rx.	c #3C3B34",
"Sx.	c #342D28",
"Tx.	c #2A2321",
"Ux.	c #3A3A34",
"Vx.	c #313131",
"Wx.	c #252829",
"Xx.	c #26292B",
"Yx.	c #292A28",
"Zx.	c #41413E",
"`x.	c #43433D",
" y.	c #434139",
".y.	c #3A3831",
"+y.	c #595248",
"@y.	c #15161B",
"#y.	c #4B433B",
"$y.	c #1F1F1D",
"%y.	c #161615",
"&y.	c #252523",
"*y.	c #1F1E1B",
"=y.	c #22201E",
"-y.	c #1C1010",
";y.	c #2E1010",
">y.	c #400D0C",
",y.	c #470B09",
"'y.	c #430A08",
")y.	c #3C0C0A",
"!y.	c #340C0B",
"~y.	c #300D0C",
"{y.	c #2B0B0C",
"]y.	c #2A0E0F",
"^y.	c #240B0D",
"/y.	c #250E0E",
"(y.	c #220B0B",
"_y.	c #210B09",
":y.	c #1D0A08",
"<y.	c #0F0405",
"[y.	c #250100",
"}y.	c #210000",
"|y.	c #1D0000",
"1y.	c #330200",
"2y.	c #560903",
"3y.	c #680D02",
"4y.	c #6A0D01",
"5y.	c #690D01",
"6y.	c #6C1004",
"7y.	c #630F06",
"8y.	c #4B0801",
"9y.	c #3A0300",
"0y.	c #3C0501",
"ay.	c #460502",
"by.	c #480301",
"cy.	c #480200",
"dy.	c #3A0100",
"ey.	c #3F0502",
"fy.	c #4B0E08",
"gy.	c #56150E",
"hy.	c #5A1710",
"iy.	c #531813",
"jy.	c #422219",
"ky.	c #30271E",
"ly.	c #292922",
"my.	c #2D211A",
"ny.	c #2C1C12",
"oy.	c #2A170C",
"py.	c #321C11",
"qy.	c #352217",
"ry.	c #2F2217",
"sy.	c #2B2118",
"ty.	c #322A2A",
"uy.	c #0D0E11",
"vy.	c #08070C",
"wy.	c #0A090F",
"xy.	c #1C1917",
"yy.	c #1E1B18",
"zy.	c #1D1A16",
"Ay.	c #0D0A0D",
"By.	c #161718",
"Cy.	c #161716",
"Dy.	c #070909",
"Ey.	c #57544D",
"Fy.	c #45443C",
"Gy.	c #2B2D2F",
"Hy.	c #2C3030",
"Iy.	c #313433",
"Jy.	c #4B4942",
"Ky.	c #4C4A41",
"Ly.	c #464640",
"My.	c #45453F",
"Ny.	c #4B4B44",
"Oy.	c #515049",
"Py.	c #31312C",
"Qy.	c #3D3D37",
"Ry.	c #42423B",
"Sy.	c #44443D",
"Ty.	c #45453C",
"Uy.	c #41413A",
"Vy.	c #3A3932",
"Wy.	c #35332C",
"Xy.	c #2D2C26",
"Yy.	c #6A6357",
"Zy.	c #73695B",
"`y.	c #6F6455",
" z.	c #57524A",
".z.	c #514A41",
"+z.	c #5D554B",
"@z.	c #171615",
"#z.	c #272621",
"$z.	c #2A2626",
"%z.	c #1A0D0B",
"&z.	c #340B09",
"*z.	c #500B07",
"=z.	c #5C0804",
"-z.	c #5A0502",
";z.	c #530704",
">z.	c #470403",
",z.	c #3F0503",
"'z.	c #350201",
")z.	c #2F0302",
"!z.	c #230101",
"~z.	c #200101",
"{z.	c #200000",
"]z.	c #050001",
"^z.	c #1C0000",
"/z.	c #230000",
"(z.	c #2D0000",
"_z.	c #4E0701",
":z.	c #610B01",
"<z.	c #670D01",
"[z.	c #680D01",
"}z.	c #6B1104",
"|z.	c #641107",
"1z.	c #510A02",
"2z.	c #430703",
"3z.	c #480602",
"4z.	c #4A0401",
"5z.	c #480703",
"6z.	c #4D0B08",
"7z.	c #4E0D07",
"8z.	c #53120A",
"9z.	c #56140C",
"0z.	c #5B180F",
"az.	c #581B12",
"bz.	c #4A2418",
"cz.	c #3B291E",
"dz.	c #2E2820",
"ez.	c #25211A",
"fz.	c #26221A",
"gz.	c #29231A",
"hz.	c #37261B",
"iz.	c #382213",
"jz.	c #33190A",
"kz.	c #331809",
"lz.	c #30180A",
"mz.	c #2D1A0D",
"nz.	c #2A1C12",
"oz.	c #06050A",
"pz.	c #08070D",
"qz.	c #09070E",
"rz.	c #120F12",
"sz.	c #0C0D12",
"tz.	c #090A10",
"uz.	c #060708",
"vz.	c #2B2424",
"wz.	c #160F10",
"xz.	c #151013",
"yz.	c #090508",
"zz.	c #68645C",
"Az.	c #353132",
"Bz.	c #2D2E2F",
"Cz.	c #2D2F30",
"Dz.	c #544E47",
"Ez.	c #4F4A3F",
"Fz.	c #45443D",
"Gz.	c #45453E",
"Hz.	c #46453F",
"Iz.	c #43423C",
"Jz.	c #383630",
"Kz.	c #6F675A",
"Lz.	c #776C5D",
"Mz.	c #0B0B11",
"Nz.	c #54504B",
"Oz.	c #685D51",
"Pz.	c #20201F",
"Qz.	c #1B0E0B",
"Rz.	c #350B06",
"Sz.	c #530803",
"Tz.	c #5E0501",
"Uz.	c #5B0200",
"Vz.	c #540201",
"Wz.	c #460000",
"Xz.	c #3E0000",
"Yz.	c #1A0000",
"Zz.	c #120000",
"`z.	c #050000",
" A.	c #260000",
".A.	c #2C0000",
"+A.	c #4B0500",
"@A.	c #5E0A01",
"#A.	c #650D01",
"$A.	c #660E02",
"%A.	c #681003",
"&A.	c #640F06",
"*A.	c #550B03",
"=A.	c #490600",
"-A.	c #460501",
";A.	c #4A0501",
">A.	c #4A0300",
",A.	c #470100",
"'A.	c #460100",
")A.	c #4B0704",
"!A.	c #4F0B08",
"~A.	c #500D08",
"{A.	c #541109",
"]A.	c #551009",
"^A.	c #5B130C",
"/A.	c #5A150D",
"(A.	c #521E12",
"_A.	c #402215",
":A.	c #2F2117",
"<A.	c #251D12",
"[A.	c #261E12",
"}A.	c #2C2316",
"|A.	c #36291B",
"1A.	c #3B2416",
"2A.	c #3E1F0F",
"3A.	c #391A08",
"4A.	c #361806",
"5A.	c #341A08",
"6A.	c #331F0E",
"7A.	c #2F2014",
"8A.	c #342B22",
"9A.	c #0D0C12",
"0A.	c #0C0B11",
"aA.	c #2B2321",
"bA.	c #181110",
"cA.	c #0A0607",
"dA.	c #060304",
"eA.	c #1C1B19",
"fA.	c #615F5A",
"gA.	c #323434",
"hA.	c #4C463C",
"iA.	c #59534A",
"jA.	c #5D5952",
"kA.	c #58554E",
"lA.	c #44433D",
"mA.	c #45463E",
"nA.	c #766B5C",
"oA.	c #706356",
"pA.	c #65594E",
"qA.	c #131417",
"rA.	c #534F4B",
"sA.	c #615C55",
"tA.	c #584F42",
"uA.	c #232428",
"vA.	c #3E0F09",
"wA.	c #580A03",
"xA.	c #600500",
"yA.	c #4C0100",
"zA.	c #480100",
"AA.	c #400000",
"BA.	c #240000",
"CA.	c #170000",
"DA.	c #0D0000",
"EA.	c #320000",
"FA.	c #4C0400",
"GA.	c #5F0C02",
"HA.	c #650E02",
"IA.	c #650D02",
"JA.	c #670F03",
"KA.	c #641006",
"LA.	c #580B03",
"MA.	c #490200",
"NA.	c #480201",
"OA.	c #480402",
"PA.	c #450504",
"QA.	c #450807",
"RA.	c #450804",
"SA.	c #4E0E07",
"TA.	c #55100A",
"UA.	c #5C120C",
"VA.	c #590F0A",
"WA.	c #56140B",
"XA.	c #47170A",
"YA.	c #391B0E",
"ZA.	c #321C0E",
"`A.	c #341F10",
" B.	c #372414",
".B.	c #3E2C1A",
"+B.	c #3E2714",
"@B.	c #3C1E0C",
"#B.	c #391905",
"$B.	c #432B15",
"%B.	c #45331F",
"&B.	c #403425",
"*B.	c #262624",
"=B.	c #151319",
"-B.	c #17191C",
";B.	c #303032",
">B.	c #474645",
",B.	c #504F4E",
"'B.	c #090609",
")B.	c #383434",
"!B.	c #2B2322",
"~B.	c #271F1E",
"{B.	c #281F1E",
"]B.	c #211717",
"^B.	c #181010",
"/B.	c #090507",
"(B.	c #58564F",
"_B.	c #48463E",
":B.	c #3F3835",
"<B.	c #474238",
"[B.	c #3C3939",
"}B.	c #3D3A33",
"|B.	c #4B473F",
"1B.	c #675C50",
"2B.	c #5D534A",
"3B.	c #05060B",
"4B.	c #09090F",
"5B.	c #57524C",
"6B.	c #131519",
"7B.	c #291412",
"8B.	c #4A150E",
"9B.	c #5E0E05",
"0B.	c #650C01",
"aB.	c #5F0800",
"bB.	c #5C0A02",
"cB.	c #5D0C04",
"dB.	c #570A03",
"eB.	c #490601",
"fB.	c #340100",
"gB.	c #350100",
"hB.	c #340101",
"iB.	c #180000",
"jB.	c #0F0000",
"kB.	c #380100",
"lB.	c #310000",
"mB.	c #3A0000",
"nB.	c #4F0400",
"oB.	c #5E0C01",
"pB.	c #620D01",
"qB.	c #640E02",
"rB.	c #661004",
"sB.	c #620E05",
"tB.	c #570901",
"uB.	c #420201",
"vB.	c #360101",
"wB.	c #2F0100",
"xB.	c #310100",
"yB.	c #430904",
"zB.	c #560B08",
"AB.	c #550806",
"BB.	c #560A04",
"CB.	c #510E03",
"DB.	c #4E180A",
"EB.	c #481B0C",
"FB.	c #462210",
"GB.	c #40220F",
"HB.	c #3E2611",
"IB.	c #3C2411",
"JB.	c #371A09",
"KB.	c #321303",
"LB.	c #391C09",
"MB.	c #4D3923",
"NB.	c #554832",
"OB.	c #4B4433",
"PB.	c #4C4A46",
"QB.	c #524F4A",
"RB.	c #17141A",
"SB.	c #19161C",
"TB.	c #2F2B2D",
"UB.	c #17171E",
"VB.	c #191C20",
"WB.	c #181B1F",
"XB.	c #231C1A",
"YB.	c #38373A",
"ZB.	c #605F5C",
"`B.	c #605E5A",
" C.	c #5E5C58",
".C.	c #595753",
"+C.	c #595854",
"@C.	c #4D4C4B",
"#C.	c #333031",
"$C.	c #221B19",
"%C.	c #231A19",
"&C.	c #1E1515",
"*C.	c #453D38",
"=C.	c #3C3C3A",
"-C.	c #4E4D46",
";C.	c #54524D",
">C.	c #524F48",
",C.	c #464541",
"'C.	c #655D54",
")C.	c #55504C",
"!C.	c #030409",
"~C.	c #020308",
"{C.	c #06060C",
"]C.	c #51473E",
"^C.	c #463C33",
"/C.	c #3F3B38",
"(C.	c #3F3F3A",
"_C.	c #272726",
":C.	c #11100C",
"<C.	c #13120D",
"[C.	c #170F0F",
"}C.	c #0E0A0B",
"|C.	c #070408",
"1C.	c #0D0709",
"2C.	c #230C09",
"3C.	c #48120A",
"4C.	c #611306",
"5C.	c #681403",
"6C.	c #661203",
"7C.	c #661304",
"8C.	c #661406",
"9C.	c #6B1809",
"0C.	c #671507",
"aC.	c #5A1004",
"bC.	c #420600",
"cC.	c #410201",
"dC.	c #480401",
"eC.	c #1D0001",
"fC.	c #060000",
"gC.	c #2B0101",
"hC.	c #400401",
"iC.	c #530701",
"jC.	c #5E0B01",
"kC.	c #630E03",
"lC.	c #651005",
"mC.	c #600E04",
"nC.	c #4E0500",
"oC.	c #4F0602",
"pC.	c #4D0502",
"qC.	c #4F0603",
"rC.	c #490403",
"sC.	c #3E0402",
"tC.	c #3B0905",
"uC.	c #4B0D09",
"vC.	c #510A07",
"wC.	c #4F0503",
"xC.	c #550802",
"yC.	c #5B0F04",
"zC.	c #611D0E",
"AC.	c #5A2210",
"BC.	c #522711",
"CC.	c #44240D",
"DC.	c #3C240F",
"EC.	c #341F0F",
"FC.	c #331A0C",
"GC.	c #2D1406",
"HC.	c #331D0D",
"IC.	c #4C3E2A",
"JC.	c #58503A",
"KC.	c #4F4B3B",
"LC.	c #444237",
"MC.	c #31312B",
"NC.	c #21211F",
"OC.	c #07080B",
"PC.	c #4E4D4A",
"QC.	c #1F1B1F",
"RC.	c #19151A",
"SC.	c #18141B",
"TC.	c #1B161D",
"UC.	c #1C171E",
"VC.	c #1E191E",
"WC.	c #2D292E",
"XC.	c #322D2F",
"YC.	c #1F1E24",
"ZC.	c #1B1C21",
"`C.	c #1A1A1F",
" D.	c #0B0608",
".D.	c #271E1D",
"+D.	c #261D1B",
"@D.	c #2C2421",
"#D.	c #3A383A",
"$D.	c #413E3E",
"%D.	c #5B5853",
"&D.	c #535150",
"*D.	c #211F23",
"=D.	c #242228",
"-D.	c #1C191D",
";D.	c #1A1111",
">D.	c #1A1010",
",D.	c #191010",
"'D.	c #140F11",
")D.	c #463D39",
"!D.	c #3F3B37",
"~D.	c #484644",
"{D.	c #524F4B",
"]D.	c #504C46",
"^D.	c #504B45",
"/D.	c #48443F",
"(D.	c #464240",
"_D.	c #444141",
":D.	c #474544",
"<D.	c #514D49",
"[D.	c #05050B",
"}D.	c #101016",
"|D.	c #534942",
"1D.	c #4F443C",
"2D.	c #281E1D",
"3D.	c #271B1A",
"4D.	c #1B0E0E",
"5D.	c #110504",
"6D.	c #070001",
"7D.	c #0D0101",
"8D.	c #230602",
"9D.	c #481107",
"0D.	c #601405",
"aD.	c #671202",
"bD.	c #651202",
"cD.	c #671604",
"dD.	c #651405",
"eD.	c #681506",
"fD.	c #681606",
"gD.	c #5E1103",
"hD.	c #490801",
"iD.	c #3D0200",
"jD.	c #3D0302",
"kD.	c #440300",
"lD.	c #570701",
"mD.	c #5F0B01",
"nD.	c #620D02",
"oD.	c #610D02",
"pD.	c #610E03",
"qD.	c #5E0C02",
"rD.	c #580801",
"sD.	c #510400",
"tD.	c #510601",
"uD.	c #4E0602",
"vD.	c #4E0704",
"wD.	c #4C0704",
"xD.	c #4C0705",
"yD.	c #480504",
"zD.	c #3A0302",
"AD.	c #160000",
"BD.	c #330603",
"CD.	c #410906",
"DD.	c #460705",
"ED.	c #4B0602",
"FD.	c #551008",
"GD.	c #5C1D10",
"HD.	c #542111",
"ID.	c #4B2410",
"JD.	c #3E220D",
"KD.	c #342210",
"LD.	c #2C1C11",
"MD.	c #2B1A11",
"ND.	c #261309",
"OD.	c #2B1A0E",
"PD.	c #433729",
"QD.	c #524A3A",
"RD.	c #4C473B",
"SD.	c #07090B",
"TD.	c #464342",
"UD.	c #242227",
"VD.	c #201D23",
"WD.	c #201C23",
"XD.	c #221E25",
"YD.	c #262228",
"ZD.	c #231F24",
"`D.	c #25262A",
" E.	c #212226",
".E.	c #2C2320",
"+E.	c #625B54",
"@E.	c #5D5750",
"#E.	c #5D5751",
"$E.	c #28262B",
"%E.	c #29262C",
"&E.	c #211C23",
"*E.	c #140D0B",
"=E.	c #150D0B",
"-E.	c #150D0C",
";E.	c #0E0F0F",
">E.	c #4B4843",
",E.	c #4B4943",
"'E.	c #494842",
")E.	c #3B3B39",
"!E.	c #373837",
"~E.	c #0A0C0B",
"{E.	c #211716",
"]E.	c #210E0E",
"^E.	c #220908",
"/E.	c #1F0503",
"(E.	c #250602",
"_E.	c #360A03",
":E.	c #531207",
"<E.	c #661606",
"[E.	c #6D1805",
"}E.	c #691605",
"|E.	c #681705",
"1E.	c #671606",
"2E.	c #661303",
"3E.	c #611304",
"4E.	c #500E04",
"5E.	c #410602",
"6E.	c #3D0100",
"7E.	c #440501",
"8E.	c #360200",
"9E.	c #4B0400",
"0E.	c #530500",
"aE.	c #5B0901",
"bE.	c #630D02",
"cE.	c #600C02",
"dE.	c #600D02",
"eE.	c #5D0B01",
"fE.	c #590A01",
"gE.	c #560901",
"hE.	c #540A03",
"iE.	c #4C0803",
"jE.	c #410503",
"kE.	c #390402",
"lE.	c #3C0604",
"mE.	c #390303",
"nE.	c #310302",
"oE.	c #2C0603",
"pE.	c #330703",
"qE.	c #350804",
"rE.	c #350502",
"sE.	c #370804",
"tE.	c #3B0D07",
"uE.	c #40180E",
"vE.	c #3A1A0E",
"wE.	c #361E10",
"xE.	c #301E10",
"yE.	c #2E2215",
"zE.	c #2A1E16",
"AE.	c #22160E",
"BE.	c #25190E",
"CE.	c #393022",
"DE.	c #464133",
"EE.	c #414035",
"FE.	c #393830",
"GE.	c #292925",
"HE.	c #3F3B3F",
"IE.	c #3F3C40",
"JE.	c #343136",
"KE.	c #2C282D",
"LE.	c #29262A",
"ME.	c #302C30",
"NE.	c #302D31",
"OE.	c #282629",
"PE.	c #2A262A",
"QE.	c #2A292C",
"RE.	c #29282C",
"SE.	c #080303",
"TE.	c #1A1110",
"UE.	c #271D1A",
"VE.	c #3E3734",
"WE.	c #4C4744",
"XE.	c #5B5754",
"YE.	c #767064",
"ZE.	c #867F70",
"`E.	c #877E71",
" F.	c #867D70",
".F.	c #756D64",
"+F.	c #28252D",
"@F.	c #2D2A31",
"#F.	c #29262B",
"$F.	c #161011",
"%F.	c #0A0709",
"&F.	c #252526",
"*F.	c #454543",
"=F.	c #53534E",
"-F.	c #4C4946",
";F.	c #4B4A47",
">F.	c #3D3A3B",
",F.	c #3D3B3B",
"'F.	c #3C3A3B",
")F.	c #3E3B3D",
"!F.	c #4A4644",
"~F.	c #4A4642",
"{F.	c #46403D",
"]F.	c #464540",
"^F.	c #383839",
"/F.	c #1C1C1D",
"(F.	c #200708",
"_F.	c #3A0E0C",
":F.	c #400E09",
"<F.	c #451009",
"[F.	c #61180C",
"}F.	c #6D1909",
"|F.	c #701805",
"1F.	c #6C1504",
"2F.	c #691404",
"3F.	c #651304",
"4F.	c #651204",
"5F.	c #631103",
"6F.	c #631607",
"7F.	c #551208",
"8F.	c #3F0602",
"9F.	c #3C0300",
"0F.	c #250000",
"aF.	c #260102",
"bF.	c #2C0100",
"cF.	c #410400",
"dF.	c #500600",
"eF.	c #550600",
"fF.	c #580700",
"gF.	c #5D0A01",
"hF.	c #610C02",
"iF.	c #600C01",
"jF.	c #5F0C01",
"kF.	c #5B0A01",
"lF.	c #580B02",
"mF.	c #530B05",
"nF.	c #270000",
"oF.	c #1B0000",
"pF.	c #180001",
"qF.	c #1A0001",
"rF.	c #200302",
"sF.	c #1E0301",
"tF.	c #1E0403",
"uF.	c #1C0302",
"vF.	c #1C0504",
"wF.	c #190504",
"xF.	c #180806",
"yF.	c #150907",
"zF.	c #180D09",
"AF.	c #20140F",
"BF.	c #291F19",
"CF.	c #29201B",
"DF.	c #291E19",
"EF.	c #231711",
"FF.	c #21140C",
"GF.	c #251C11",
"HF.	c #292319",
"IF.	c #191916",
"JF.	c #3D393B",
"KF.	c #555153",
"LF.	c #535152",
"MF.	c #423F41",
"NF.	c #332F32",
"OF.	c #363336",
"PF.	c #393538",
"QF.	c #343235",
"RF.	c #59554D",
"SF.	c #0C0706",
"TF.	c #100806",
"UF.	c #180E0C",
"VF.	c #211714",
"WF.	c #4F4844",
"XF.	c #5D5754",
"YF.	c #6A6662",
"ZF.	c #6E6965",
"`F.	c #8C8577",
" G.	c #A29B8A",
".G.	c #A59C8B",
"+G.	c #A39988",
"@G.	c #968A7D",
"#G.	c #6F6860",
"$G.	c #4F4C4B",
"%G.	c #363436",
"&G.	c #312F35",
"*G.	c #353238",
"=G.	c #312E33",
"-G.	c #312E2F",
";G.	c #2C282A",
">G.	c #191517",
",G.	c #3C3A39",
"'G.	c #4A4942",
")G.	c #504F49",
"!G.	c #514F4A",
"~G.	c #393938",
"{G.	c #232426",
"]G.	c #15151B",
"^G.	c #0C0D13",
"/G.	c #0D0E13",
"(G.	c #1D0203",
"_G.	c #480D0A",
":G.	c #561009",
"<G.	c #591409",
"[G.	c #5D1609",
"}G.	c #6B1C0D",
"|G.	c #701A08",
"1G.	c #731B06",
"2G.	c #701704",
"3G.	c #6D1705",
"4G.	c #691505",
"5G.	c #671304",
"6G.	c #661404",
"7G.	c #671909",
"8G.	c #5B170B",
"9G.	c #420A05",
"0G.	c #370504",
"aG.	c #3D0402",
"bG.	c #5F0D02",
"cG.	c #5C0B02",
"dG.	c #5A0B01",
"eG.	c #5A0D03",
"fG.	c #520D06",
"gG.	c #390501",
"hG.	c #170103",
"iG.	c #150001",
"jG.	c #0E0101",
"kG.	c #0B0101",
"lG.	c #070204",
"mG.	c #0D0505",
"nG.	c #1A0F0C",
"oG.	c #251B16",
"pG.	c #231814",
"qG.	c #21110D",
"rG.	c #210D08",
"sG.	c #1C0A05",
"tG.	c #170B07",
"uG.	c #100808",
"vG.	c #3E3A3B",
"wG.	c #565251",
"xG.	c #504F4D",
"yG.	c #343133",
"zG.	c #383638",
"AG.	c #2F2F31",
"BG.	c #605A4F",
"CG.	c #0D0706",
"DG.	c #0B0403",
"EG.	c #110A08",
"FG.	c #383232",
"GG.	c #4E4946",
"HG.	c #5D5855",
"IG.	c #6F6A66",
"JG.	c #6A645F",
"KG.	c #898174",
"LG.	c #A19A8A",
"MG.	c #A59C8C",
"NG.	c #93877B",
"OG.	c #81766D",
"PG.	c #6B645E",
"QG.	c #575452",
"RG.	c #534F4F",
"SG.	c #373436",
"TG.	c #2F2D33",
"UG.	c #312D32",
"VG.	c #343134",
"WG.	c #262122",
"XG.	c #242628",
"YG.	c #494848",
"ZG.	c #4B494A",
"`G.	c #0B0D12",
" H.	c #0C0F15",
".H.	c #0B0F13",
"+H.	c #16181B",
"@H.	c #4C4846",
"#H.	c #494441",
"$H.	c #342F2D",
"%H.	c #121217",
"&H.	c #353133",
"*H.	c #2C2B2D",
"=H.	c #504F48",
"-H.	c #52504B",
";H.	c #41413D",
">H.	c #26252A",
",H.	c #19191F",
"'H.	c #0E0F15",
")H.	c #101018",
"!H.	c #0F1117",
"~H.	c #0A0C13",
"{H.	c #0B0C12",
"]H.	c #1E0101",
"^H.	c #4C0A07",
"/H.	c #5B0E06",
"(H.	c #5C0F03",
"_H.	c #601406",
":H.	c #6A1909",
"<H.	c #6E1806",
"[H.	c #6F1602",
"}H.	c #6E1402",
"|H.	c #6D1605",
"1H.	c #681406",
"2H.	c #691607",
"3H.	c #661405",
"4H.	c #651707",
"5H.	c #5D180B",
"6H.	c #300100",
"7H.	c #3C0201",
"8H.	c #460300",
"9H.	c #4F0700",
"0H.	c #5C0E03",
"aH.	c #631003",
"bH.	c #630E01",
"cH.	c #610C01",
"dH.	c #600D01",
"eH.	c #600E02",
"fH.	c #5F0D03",
"gH.	c #5E0E03",
"hH.	c #5C0D03",
"iH.	c #5B0D02",
"jH.	c #580C02",
"kH.	c #510C04",
"lH.	c #100001",
"mH.	c #110102",
"nH.	c #110000",
"oH.	c #080000",
"pH.	c #080101",
"qH.	c #1B0806",
"rH.	c #210F09",
"sH.	c #1E0E0A",
"tH.	c #1D0402",
"uH.	c #240503",
"vH.	c #220301",
"wH.	c #160101",
"xH.	c #4C4949",
"yH.	c #373838",
"zH.	c #323435",
"AH.	c #756C5D",
"BH.	c #857A6B",
"CH.	c #897F72",
"DH.	c #1C1713",
"EH.	c #595652",
"FH.	c #6A6560",
"GH.	c #847C70",
"HH.	c #999284",
"IH.	c #9B9386",
"JH.	c #968E82",
"KH.	c #7A7167",
"LH.	c #54504D",
"MH.	c #4D4A49",
"NH.	c #5B5856",
"OH.	c #555150",
"PH.	c #373336",
"QH.	c #302D32",
"RH.	c #2E2E30",
"SH.	c #4C4A4C",
"TH.	c #414042",
"UH.	c #0A0D13",
"VH.	c #0C1017",
"WH.	c #0D1017",
"XH.	c #0D1117",
"YH.	c #0C1116",
"ZH.	c #171B20",
"`H.	c #313438",
" I.	c #3D4042",
".I.	c #373939",
"+I.	c #1B171B",
"@I.	c #191619",
"#I.	c #444041",
"$I.	c #4B4746",
"%I.	c #403B3A",
"&I.	c #2B272A",
"*I.	c #484743",
"=I.	c #4C4B46",
"-I.	c #53524C",
";I.	c #54534E",
">I.	c #53524E",
",I.	c #4B4A46",
"'I.	c #222325",
")I.	c #0A0B11",
"!I.	c #0C0D14",
"~I.	c #0F0F17",
"{I.	c #0E0F16",
"]I.	c #270101",
"^I.	c #530906",
"/I.	c #5F0E03",
"(I.	c #5F1104",
"_I.	c #661507",
":I.	c #6B1705",
"<I.	c #6B1401",
"[I.	c #6A1402",
"}I.	c #631305",
"|I.	c #5D1207",
"1I.	c #5E150A",
"2I.	c #5C1206",
"3I.	c #5F1708",
"4I.	c #58180B",
"5I.	c #3E0905",
"6I.	c #2A0100",
"7I.	c #2D0302",
"8I.	c #260001",
"9I.	c #520400",
"0I.	c #620C01",
"aI.	c #5D0C01",
"bI.	c #5D0D02",
"cI.	c #5A0E04",
"dI.	c #590D03",
"eI.	c #5A0D02",
"fI.	c #580D02",
"gI.	c #530D04",
"hI.	c #3B0601",
"iI.	c #120001",
"jI.	c #130102",
"kI.	c #160100",
"lI.	c #220201",
"mI.	c #2E0704",
"nI.	c #310903",
"oI.	c #2C0502",
"pI.	c #2C0402",
"qI.	c #340201",
"rI.	c #300201",
"sI.	c #1C0101",
"tI.	c #0B0002",
"uI.	c #070306",
"vI.	c #675C52",
"wI.	c #4B4539",
"xI.	c #8C806C",
"yI.	c #A29682",
"zI.	c #A29684",
"AI.	c #8B8274",
"BI.	c #0C0806",
"CI.	c #464542",
"DI.	c #2D241A",
"EI.	c #2F241B",
"FI.	c #322923",
"GI.	c #58534F",
"HI.	c #5F5954",
"II.	c #5B544D",
"JI.	c #7B7265",
"KI.	c #898175",
"LI.	c #847D71",
"MI.	c #6E665D",
"NI.	c #625B56",
"OI.	c #4E4848",
"PI.	c #454040",
"QI.	c #2F2C31",
"RI.	c #2B272B",
"SI.	c #312F31",
"TI.	c #06070E",
"UI.	c #0A0D14",
"VI.	c #0A0D15",
"WI.	c #0B0F15",
"XI.	c #0C0F16",
"YI.	c #13161C",
"ZI.	c #202328",
"`I.	c #3C3D39",
" J.	c #04040A",
".J.	c #07070E",
"+J.	c #0A0910",
"@J.	c #090910",
"#J.	c #080910",
"$J.	c #12090B",
"%J.	c #160405",
"&J.	c #230203",
"*J.	c #580D05",
"=J.	c #5E0D02",
"-J.	c #5D0E02",
";J.	c #5B0F02",
">J.	c #621205",
",J.	c #651102",
"'J.	c #671101",
")J.	c #621102",
"!J.	c #4E0A01",
"~J.	c #3F0601",
"{J.	c #3C0805",
"]J.	c #3D0704",
"^J.	c #420B04",
"/J.	c #3D0B05",
"(J.	c #2B0403",
"_J.	c #1D0101",
":J.	c #4B0601",
"<J.	c #500400",
"[J.	c #560700",
"}J.	c #5A0800",
"|J.	c #590900",
"1J.	c #580800",
"2J.	c #560800",
"3J.	c #520800",
"4J.	c #4F0801",
"5J.	c #4D0701",
"6J.	c #550C02",
"7J.	c #3B0401",
"8J.	c #260202",
"9J.	c #320402",
"0J.	c #300301",
"aJ.	c #310503",
"bJ.	c #300502",
"cJ.	c #300401",
"dJ.	c #300501",
"eJ.	c #2E0401",
"fJ.	c #2C0301",
"gJ.	c #400905",
"hJ.	c #4A0704",
"iJ.	c #490504",
"jJ.	c #4B0503",
"kJ.	c #4C0603",
"lJ.	c #3C0403",
"mJ.	c #070407",
"nJ.	c #110D12",
"oJ.	c #0F0D09",
"pJ.	c #827561",
"qJ.	c #6D6152",
"rJ.	c #4B4435",
"sJ.	c #91856F",
"tJ.	c #A99D84",
"uJ.	c #A59A84",
"vJ.	c #0D0B09",
"wJ.	c #2F2E27",
"xJ.	c #616058",
"yJ.	c #706D64",
"zJ.	c #6E695E",
"AJ.	c #5F5C56",
"BJ.	c #2B231C",
"CJ.	c #392B1E",
"DJ.	c #463625",
"EJ.	c #4A3B2B",
"FJ.	c #544D4A",
"GJ.	c #5F5752",
"HJ.	c #7A7265",
"IJ.	c #837B6D",
"JJ.	c #7C7469",
"KJ.	c #484141",
"LJ.	c #2F2B2F",
"MJ.	c #03030A",
"NJ.	c #070911",
"OJ.	c #0A0B13",
"PJ.	c #0D0F15",
"QJ.	c #0E1016",
"RJ.	c #121319",
"SJ.	c #08050B",
"TJ.	c #09050B",
"UJ.	c #0A070C",
"VJ.	c #09060B",
"WJ.	c #0A070B",
"XJ.	c #0D070A",
"YJ.	c #170708",
"ZJ.	c #250304",
"`J.	c #3B0506",
" K.	c #4C0906",
".K.	c #5E0F06",
"+K.	c #5C0D01",
"@K.	c #601105",
"#K.	c #620F02",
"$K.	c #661202",
"%K.	c #5B0E02",
"&K.	c #3B0300",
"*K.	c #1B0001",
"=K.	c #230100",
"-K.	c #160001",
";K.	c #380604",
">K.	c #510C05",
",K.	c #510600",
"'K.	c #550800",
")K.	c #540700",
"!K.	c #540800",
"~K.	c #530800",
"{K.	c #4A0500",
"]K.	c #430300",
"^K.	c #410300",
"/K.	c #3F0200",
"(K.	c #470400",
"_K.	c #530B03",
":K.	c #530D05",
"<K.	c #3C0601",
"[K.	c #310504",
"}K.	c #480D09",
"|K.	c #4C0C06",
"1K.	c #4C0A03",
"2K.	c #4D0C05",
"3K.	c #4E0C05",
"4K.	c #500B03",
"5K.	c #510C03",
"6K.	c #4E0A02",
"7K.	c #4E0A03",
"8K.	c #5B0F07",
"9K.	c #651108",
"0K.	c #680F07",
"aK.	c #630A07",
"bK.	c #610907",
"cK.	c #5F0804",
"dK.	c #5E0B06",
"eK.	c #0F0C10",
"fK.	c #110C08",
"gK.	c #5A4D40",
"hK.	c #857361",
"iK.	c #897660",
"jK.	c #816F5A",
"kK.	c #6B5C4B",
"lK.	c #4A4034",
"mK.	c #493F32",
"nK.	c #8E826C",
"oK.	c #A2967D",
"pK.	c #9D917C",
"qK.	c #322F28",
"rK.	c #676359",
"sK.	c #777266",
"tK.	c #776F62",
"uK.	c #746C5F",
"vK.	c #746B60",
"wK.	c #32251C",
"xK.	c #422C1C",
"yK.	c #513924",
"zK.	c #533C29",
"AK.	c #544233",
"BK.	c #473C34",
"CK.	c #2F2624",
"DK.	c #635C54",
"EK.	c #80776B",
"FK.	c #746C63",
"GK.	c #615B56",
"HK.	c #484140",
"IK.	c #2F2B2E",
"JK.	c #2D292D",
"KK.	c #282528",
"LK.	c #04050B",
"MK.	c #090B11",
"NK.	c #0D0E14",
"OK.	c #090908",
"PK.	c #080307",
"QK.	c #080308",
"RK.	c #0B0409",
"SK.	c #0A0208",
"TK.	c #090306",
"UK.	c #090206",
"VK.	c #0B0407",
"WK.	c #0C0205",
"XK.	c #160304",
"YK.	c #240101",
"ZK.	c #4B0603",
"`K.	c #5B0C03",
" L.	c #580E01",
".L.	c #640F01",
"+L.	c #570D02",
"@L.	c #0D0001",
"#L.	c #080001",
"$L.	c #380606",
"%L.	c #4B0B04",
"&L.	c #4C0600",
"*L.	c #4C0500",
"=L.	c #4E0700",
"-L.	c #4D0600",
";L.	c #480500",
">L.	c #3E0200",
",L.	c #470501",
"'L.	c #530C04",
")L.	c #530C05",
"!L.	c #3D0401",
"~L.	c #330302",
"{L.	c #4D0C07",
"]L.	c #500A03",
"^L.	c #530B04",
"/L.	c #530A02",
"(L.	c #570B02",
"_L.	c #580A02",
":L.	c #590B02",
"<L.	c #5C0C04",
"[L.	c #620C04",
"}L.	c #640C04",
"|L.	c #640B06",
"1L.	c #630B07",
"2L.	c #5F0703",
"3L.	c #5B0A05",
"4L.	c #450805",
"5L.	c #0D090C",
"6L.	c #1B150F",
"7L.	c #6C5F4F",
"8L.	c #998570",
"9L.	c #9C886F",
"0L.	c #8C7963",
"aL.	c #71614F",
"bL.	c #4D4134",
"cL.	c #18130E",
"dL.	c #4A4133",
"eL.	c #938872",
"fL.	c #A49982",
"gL.	c #9E9380",
"hL.	c #928978",
"iL.	c #5B5649",
"jL.	c #0F0B09",
"kL.	c #36322B",
"lL.	c #6A665A",
"mL.	c #7A7566",
"nL.	c #7B7464",
"oL.	c #7B7465",
"pL.	c #797062",
"qL.	c #796F61",
"rL.	c #676156",
"sL.	c #231C15",
"tL.	c #2E251B",
"uL.	c #3A291B",
"vL.	c #492F1A",
"wL.	c #563A20",
"xL.	c #583E24",
"yL.	c #5A4632",
"zL.	c #5E5950",
"AL.	c #645E53",
"BL.	c #716A5C",
"CL.	c #7A7164",
"DL.	c #797267",
"EL.	c #65615A",
"FL.	c #0B0406",
"GL.	c #0D0306",
"HL.	c #100508",
"IL.	c #0E0206",
"JL.	c #0B0204",
"KL.	c #090203",
"LL.	c #0C0204",
"ML.	c #0F0204",
"NL.	c #160303",
"OL.	c #320202",
"PL.	c #410301",
"QL.	c #550A04",
"RL.	c #5B0C02",
"SL.	c #5A0F02",
"TL.	c #570D01",
"UL.	c #621002",
"VL.	c #620E00",
"WL.	c #560D01",
"XL.	c #2D0200",
"YL.	c #0D0103",
"ZL.	c #100100",
"`L.	c #0F0101",
" M.	c #0C0102",
".M.	c #310705",
"+M.	c #3D0803",
"@M.	c #3E0600",
"#M.	c #3D0500",
"$M.	c #3F0501",
"%M.	c #400500",
"&M.	c #400501",
"*M.	c #3F0400",
"=M.	c #3E0400",
"-M.	c #3B0200",
";M.	c #390200",
">M.	c #3E0301",
",M.	c #510C06",
"'M.	c #3E0502",
")M.	c #4A0A06",
"!M.	c #4A0702",
"~M.	c #480400",
"{M.	c #4B0702",
"]M.	c #4D0802",
"^M.	c #520801",
"/M.	c #540901",
"(M.	c #510801",
"_M.	c #510802",
":M.	c #500802",
"<M.	c #530A03",
"[M.	c #530902",
"}M.	c #550B04",
"|M.	c #530A05",
"1M.	c #530905",
"2M.	c #530A06",
"3M.	c #3F0906",
"4M.	c #1C0201",
"5M.	c #847667",
"6M.	c #AB9784",
"7M.	c #AB9781",
"8M.	c #9C8975",
"9M.	c #7D6E5C",
"0M.	c #120F0C",
"aM.	c #463E34",
"bM.	c #ACA292",
"cM.	c #A49B8E",
"dM.	c #938C82",
"eM.	c #5E5951",
"fM.	c #0E0A09",
"gM.	c #827B6D",
"hM.	c #847B6C",
"iM.	c #867D6D",
"jM.	c #84796A",
"kM.	c #72685B",
"lM.	c #3F352C",
"mM.	c #30261C",
"nM.	c #3C2E22",
"oM.	c #412A1A",
"pM.	c #442612",
"qM.	c #4C2B13",
"rM.	c #52321A",
"sM.	c #543A28",
"tM.	c #4B3B31",
"uM.	c #665E53",
"vM.	c #5A534F",
"wM.	c #57544F",
"xM.	c #040102",
"yM.	c #050002",
"zM.	c #0A0103",
"AM.	c #0D0003",
"BM.	c #100004",
"CM.	c #100003",
"DM.	c #0A0001",
"EM.	c #110001",
"FM.	c #460703",
"GM.	c #550C01",
"HM.	c #540B00",
"IM.	c #590D02",
"JM.	c #5E0D01",
"KM.	c #600C00",
"LM.	c #540B01",
"MM.	c #340102",
"NM.	c #390202",
"OM.	c #3A0202",
"PM.	c #3E0401",
"QM.	c #380201",
"RM.	c #380301",
"SM.	c #370200",
"TM.	c #360301",
"UM.	c #380202",
"VM.	c #390302",
"WM.	c #2E0403",
"XM.	c #9B9183",
"YM.	c #BFAF9C",
"ZM.	c #BCAD98",
"`M.	c #AE9F8B",
" N.	c #56534F",
".N.	c #5B5C56",
"+N.	c #555752",
"@N.	c #53524D",
"#N.	c #474743",
"$N.	c #0F0E0B",
"%N.	c #464139",
"&N.	c #A8A094",
"*N.	c #C1BAAE",
"=N.	c #B7B3AB",
"-N.	c #A4A099",
";N.	c #696860",
">N.	c #868277",
",N.	c #9C9383",
"'N.	c #9E9483",
")N.	c #9E9482",
"!N.	c #A19683",
"~N.	c #8D8371",
"{N.	c #534738",
"]N.	c #5F503D",
"^N.	c #553D29",
"/N.	c #3F1D0B",
"(N.	c #401B06",
"_N.	c #4B2E1C",
":N.	c #524035",
"<N.	c #65625C",
"[N.	c #595450",
"}N.	c #100D0B",
"|N.	c #000104",
"1N.	c #090002",
"2N.	c #100002",
"3N.	c #0E0001",
"4N.	c #0B0001",
"5N.	c #340301",
"6N.	c #4E0A00",
"7N.	c #4F0B00",
"8N.	c #560E02",
"9N.	c #5B0A00",
"0N.	c #540C02",
"aN.	c #2C0200",
"bN.	c #A1978B",
"cN.	c #C4B4A3",
"dN.	c #C0AE9C",
"eN.	c #B8A895",
"fN.	c #97887A",
"gN.	c #63615B",
"hN.	c #5F5D58",
"iN.	c #5F5B55",
"jN.	c #514D48",
"kN.	c #47403A",
"lN.	c #B0A8A0",
"mN.	c #D0CBC1",
"nN.	c #C9C5BF",
"oN.	c #B1ACAA",
"pN.	c #6F6D68",
"qN.	c #ADA697",
"rN.	c #AFA492",
"sN.	c #B0A491",
"tN.	c #AEA28E",
"uN.	c #AFA390",
"vN.	c #9C907E",
"wN.	c #6D6050",
"xN.	c #665847",
"yN.	c #71604B",
"zN.	c #624733",
"AN.	c #401C0C",
"BN.	c #3B1303",
"CN.	c #3E1A06",
"DN.	c #402314",
"EN.	c #564238",
"FN.	c #797069",
"GN.	c #868079",
"HN.	c #716964",
"IN.	c #3B0400",
"JN.	c #460800",
"KN.	c #4A0900",
"LN.	c #510B01",
"MN.	c #580C01",
"NN.	c #520B02",
"ON.	c #2B0200",
"PN.	c #090001",
"QN.	c #A2988D",
"RN.	c #C7B7A5",
"SN.	c #C6B4A0",
"TN.	c #BDAC99",
"UN.	c #9C8B7E",
"VN.	c #6A5E53",
"WN.	c #5D5851",
"XN.	c #66625B",
"YN.	c #645F59",
"ZN.	c #534F49",
"`N.	c #0E0907",
" O.	c #B4AAA3",
".O.	c #D6CFC7",
"+O.	c #CDC8C4",
"@O.	c #B5AFAE",
"#O.	c #716D6A",
"$O.	c #9D978D",
"%O.	c #B0A99A",
"&O.	c #B0A695",
"*O.	c #B2A693",
"=O.	c #B0A390",
"-O.	c #B1A692",
";O.	c #B4A795",
">O.	c #9F9383",
",O.	c #695C4C",
"'O.	c #73624F",
")O.	c #664C3A",
"!O.	c #442212",
"~O.	c #3C1706",
"{O.	c #3D1B07",
"]O.	c #402213",
"^O.	c #554135",
"/O.	c #7B7066",
"(O.	c #887E74",
"_O.	c #382F29",
":O.	c #130C0A",
"<O.	c #524D45",
"[O.	c #383738",
"}O.	c #39383A",
"|O.	c #050202",
"1O.	c #0B0604",
"2O.	c #0D0906",
"3O.	c #0C0805",
"4O.	c #0A0703",
"5O.	c #040200",
"6O.	c #050200",
"7O.	c #070401",
"8O.	c #040100",
"9O.	c #050100",
"0O.	c #390300",
"aO.	c #450700",
"bO.	c #490900",
"cO.	c #4F0B02",
"dO.	c #570C01",
"eO.	c #5D0D01",
"fO.	c #520C02",
"gO.	c #2C0300",
"hO.	c #170100",
"iO.	c #190100",
"jO.	c #0F0100",
"kO.	c #090201",
"lO.	c #080907",
"mO.	c #32312B",
"nO.	c #8F877D",
"oO.	c #BAAC9D",
"pO.	c #BCAE9A",
"qO.	c #B5A693",
"rO.	c #96897B",
"sO.	c #5A534C",
"tO.	c #21201D",
"uO.	c #0C0705",
"vO.	c #443B36",
"wO.	c #B0A6A0",
"xO.	c #D1CCC3",
"yO.	c #C6C2BC",
"zO.	c #ABA8A4",
"AO.	c #686561",
"BO.	c #A19B8D",
"CO.	c #A09585",
"DO.	c #A69B8B",
"EO.	c #918777",
"FO.	c #63574A",
"GO.	c #655546",
"HO.	c #5C4535",
"IO.	c #492A19",
"JO.	c #472612",
"KO.	c #452612",
"LO.	c #462918",
"MO.	c #523C2D",
"NO.	c #6E5E4D",
"OO.	c #776757",
"PO.	c #69594B",
"QO.	c #45372C",
"RO.	c #382E27",
"SO.	c #221F19",
"TO.	c #1C1812",
"UO.	c #241C18",
"VO.	c #2D241E",
"WO.	c #3B3227",
"XO.	c #392F25",
"YO.	c #342C22",
"ZO.	c #2C251B",
"`O.	c #272117",
" P.	c #221B13",
".P.	c #201A11",
"+P.	c #1C160E",
"@P.	c #0E0905",
"#P.	c #0F0905",
"$P.	c #140F09",
"%P.	c #18120B",
"&P.	c #231D13",
"*P.	c #2B2319",
"=P.	c #31291F",
"-P.	c #2F281F",
";P.	c #27221A",
">P.	c #14100D",
",P.	c #171310",
"'P.	c #17130F",
")P.	c #16130D",
"!P.	c #120F0A",
"~P.	c #070402",
"{P.	c #1E1A16",
"]P.	c #1E1915",
"^P.	c #1E1713",
"/P.	c #1D1712",
"(P.	c #1A1611",
"_P.	c #191510",
":P.	c #15110C",
"<P.	c #24201A",
"[P.	c #2C2620",
"}P.	c #1D1914",
"|P.	c #2A251F",
"1P.	c #191612",
"2P.	c #1B1813",
"3P.	c #1B1714",
"4P.	c #221C15",
"5P.	c #2F2A20",
"6P.	c #383227",
"7P.	c #373022",
"8P.	c #292115",
"9P.	c #1A1209",
"0P.	c #120A03",
"aP.	c #1C140B",
"bP.	c #2F251A",
"cP.	c #3B3124",
"dP.	c #3E3226",
"eP.	c #392F23",
"fP.	c #292118",
"gP.	c #1C160F",
"hP.	c #130F0B",
"iP.	c #0C0908",
"jP.	c #0C0A07",
"kP.	c #1F1815",
"lP.	c #281D16",
"mP.	c #2A1710",
"nP.	c #2B0905",
"oP.	c #390101",
"pP.	c #320101",
"qP.	c #290402",
"rP.	c #240602",
"sP.	c #250603",
"tP.	c #240501",
"uP.	c #240401",
"vP.	c #240300",
"wP.	c #260401",
"xP.	c #3E0602",
"yP.	c #4C0801",
"zP.	c #550D02",
"AP.	c #590E04",
"BP.	c #5B0D01",
"CP.	c #5F0D01",
"DP.	c #3A0802",
"EP.	c #230503",
"FP.	c #200908",
"GP.	c #230A08",
"HP.	c #2A0E09",
"IP.	c #2D0E09",
"JP.	c #320F0C",
"KP.	c #360F0B",
"LP.	c #3C100A",
"MP.	c #3C0D08",
"NP.	c #3A0B06",
"OP.	c #380804",
"PP.	c #390804",
"QP.	c #3C0905",
"RP.	c #360603",
"SP.	c #310402",
"TP.	c #270100",
"UP.	c #2C0101",
"VP.	c #310101",
"WP.	c #360201",
"XP.	c #370201",
"YP.	c #410501",
"ZP.	c #490902",
"`P.	c #4B0902",
" Q.	c #480701",
".Q.	c #4A0902",
"+Q.	c #4B0901",
"@Q.	c #4D0A01",
"#Q.	c #4D0900",
"$Q.	c #4E0900",
"%Q.	c #4B0800",
"&Q.	c #4A0600",
"*Q.	c #470500",
"=Q.	c #440601",
"-Q.	c #410703",
";Q.	c #3E0C08",
">Q.	c #3A100A",
",Q.	c #381610",
"'Q.	c #301812",
")Q.	c #281A14",
"!Q.	c #22211D",
"~Q.	c #171714",
"{Q.	c #93867A",
"]Q.	c #9B8D7D",
"^Q.	c #958979",
"/Q.	c #5F554E",
"(Q.	c #52473F",
"_Q.	c #1B1916",
":Q.	c #9A8F89",
"<Q.	c #B0A9A1",
"[Q.	c #A3A099",
"}Q.	c #888580",
"|Q.	c #68625A",
"1Q.	c #766F65",
"2Q.	c #837A6C",
"3Q.	c #44382E",
"4Q.	c #3E3127",
"5Q.	c #433529",
"6Q.	c #4F3626",
"7Q.	c #5B3F2B",
"8Q.	c #593D2B",
"9Q.	c #5A402C",
"0Q.	c #5A412E",
"aQ.	c #644D35",
"bQ.	c #654E36",
"cQ.	c #644E38",
"dQ.	c #604D3B",
"eQ.	c #6A5B4D",
"fQ.	c #43423F",
"gQ.	c #3B3229",
"hQ.	c #4D4137",
"iQ.	c #655847",
"jQ.	c #6D604D",
"kQ.	c #6B5E4C",
"lQ.	c #665A49",
"mQ.	c #5E5343",
"nQ.	c #594F3F",
"oQ.	c #54493A",
"pQ.	c #4A4033",
"qQ.	c #3D3328",
"rQ.	c #2D231A",
"sQ.	c #443A2C",
"tQ.	c #564C3B",
"uQ.	c #675D4E",
"vQ.	c #302A1F",
"wQ.	c #120E06",
"xQ.	c #25221C",
"yQ.	c #332F28",
"zQ.	c #2F2B23",
"AQ.	c #1F1B16",
"BQ.	c #211D17",
"CQ.	c #231E17",
"DQ.	c #2F2A22",
"EQ.	c #393128",
"FQ.	c #4C4338",
"GQ.	c #4D4136",
"HQ.	c #4B4034",
"IQ.	c #494033",
"JQ.	c #443B2F",
"KQ.	c #575043",
"LQ.	c #6B6254",
"MQ.	c #100C0A",
"NQ.	c #0D0904",
"OQ.	c #494439",
"PQ.	c #534D43",
"QQ.	c #665E4C",
"RQ.	c #756B58",
"SQ.	c #7A6D5A",
"TQ.	c #685943",
"UQ.	c #4D3E2B",
"VQ.	c #40301D",
"WQ.	c #584732",
"XQ.	c #82715A",
"YQ.	c #97866E",
"ZQ.	c #998771",
"`Q.	c #695D4B",
" R.	c #4C4335",
".R.	c #1B1815",
"+R.	c #4E4541",
"@R.	c #5D5049",
"#R.	c #635247",
"$R.	c #654739",
"%R.	c #5D2A1A",
"&R.	c #5E1105",
"*R.	c #660702",
"=R.	c #680804",
"-R.	c #5F0A06",
";R.	c #53130A",
">R.	c #4B170C",
",R.	c #4C190C",
"'R.	c #4C1609",
")R.	c #481104",
"!R.	c #460C02",
"~R.	c #4C0D03",
"{R.	c #500C03",
"]R.	c #5D0E05",
"^R.	c #651002",
"/R.	c #621004",
"(R.	c #620E01",
"_R.	c #5D1104",
":R.	c #4C1409",
"<R.	c #3D150D",
"[R.	c #3B1A12",
"}R.	c #411E15",
"|R.	c #4F261B",
"1R.	c #592A1D",
"2R.	c #632C1F",
"3R.	c #67281B",
"4R.	c #6E2617",
"5R.	c #6C1F11",
"6R.	c #69190C",
"7R.	c #681608",
"8R.	c #6D1609",
"9R.	c #70180A",
"0R.	c #731B0C",
"aR.	c #721C0D",
"bR.	c #741E0F",
"cR.	c #701E10",
"dR.	c #641A0D",
"eR.	c #460B03",
"fR.	c #2D0100",
"gR.	c #300000",
"hR.	c #340000",
"iR.	c #3E0201",
"jR.	c #4A0906",
"kR.	c #530E09",
"lR.	c #560E07",
"mR.	c #580F07",
"nR.	c #580E04",
"oR.	c #5A1106",
"pR.	c #5C1308",
"qR.	c #5E1206",
"rR.	c #641407",
"sR.	c #6A1807",
"tR.	c #6D1807",
"uR.	c #6E1705",
"vR.	c #701906",
"wR.	c #711805",
"xR.	c #741803",
"yR.	c #761701",
"zR.	c #781801",
"AR.	c #771701",
"BR.	c #771501",
"CR.	c #771201",
"DR.	c #780F02",
"ER.	c #721005",
"FR.	c #6E150C",
"GR.	c #6B2117",
"HR.	c #692E22",
"IR.	c #673A2D",
"JR.	c #5D4133",
"KR.	c #544336",
"LR.	c #4C463F",
"MR.	c #7C6F66",
"NR.	c #84786C",
"OR.	c #786F66",
"PR.	c #676059",
"QR.	c #6A605A",
"RR.	c #4C3B2D",
"SR.	c #483727",
"TR.	c #4C4439",
"UR.	c #897E77",
"VR.	c #9C948B",
"WR.	c #8F8782",
"XR.	c #766E6C",
"YR.	c #3A3535",
"ZR.	c #797068",
"`R.	c #61584F",
" S.	c #392E28",
".S.	c #342821",
"+S.	c #362B21",
"@S.	c #3C2E21",
"#S.	c #4D3629",
"$S.	c #5D4433",
"%S.	c #5F4432",
"&S.	c #634832",
"*S.	c #62452E",
"=S.	c #66492D",
"-S.	c #62462A",
";S.	c #654A2F",
">S.	c #674E39",
",S.	c #735F4D",
"'S.	c #706155",
")S.	c #59534B",
"!S.	c #3D3634",
"~S.	c #4B4238",
"{S.	c #54473D",
"]S.	c #605246",
"^S.	c #68594B",
"/S.	c #806F5B",
"(S.	c #7E6D59",
"_S.	c #766754",
":S.	c #6D5E4D",
"<S.	c #6A5C4C",
"[S.	c #615446",
"}S.	c #504338",
"|S.	c #403429",
"1S.	c #4F4234",
"2S.	c #6A5C4A",
"3S.	c #766855",
"4S.	c #786B5A",
"5S.	c #685C4F",
"6S.	c #3C3429",
"7S.	c #1C150B",
"8S.	c #1B150D",
"9S.	c #29241D",
"0S.	c #453D33",
"aS.	c #52463B",
"bS.	c #584C3D",
"cS.	c #5D4F41",
"dS.	c #645749",
"eS.	c #675A4B",
"fS.	c #675849",
"gS.	c #695A49",
"hS.	c #68594A",
"iS.	c #625747",
"jS.	c #85796A",
"kS.	c #877B6A",
"lS.	c #857868",
"mS.	c #867A6B",
"nS.	c #60574E",
"oS.	c #565045",
"pS.	c #5B544B",
"qS.	c #7F735E",
"rS.	c #8E8068",
"sS.	c #928167",
"tS.	c #938065",
"uS.	c #816B53",
"vS.	c #654E38",
"wS.	c #543F28",
"xS.	c #6E5840",
"yS.	c #9C866D",
"zS.	c #B09C81",
"AS.	c #B29D84",
"BS.	c #A18E78",
"CS.	c #7B6C5A",
"DS.	c #59514E",
"ES.	c #675E56",
"FS.	c #6F6056",
"GS.	c #735645",
"HS.	c #6E3623",
"IS.	c #6D1506",
"JS.	c #730901",
"KS.	c #760D05",
"LS.	c #6D1108",
"MS.	c #5F1A0F",
"NS.	c #572012",
"OS.	c #592415",
"PS.	c #5B1F11",
"QS.	c #561506",
"RS.	c #520B01",
"SS.	c #580B01",
"TS.	c #640C02",
"US.	c #660D01",
"VS.	c #640D01",
"WS.	c #620E03",
"XS.	c #5A0F03",
"YS.	c #4D1409",
"ZS.	c #3E140C",
"`S.	c #3C1A11",
" T.	c #422017",
".T.	c #532E22",
"+T.	c #5F3225",
"@T.	c #673225",
"#T.	c #6D2D1F",
"$T.	c #752819",
"%T.	c #762010",
"&T.	c #78190A",
"*T.	c #791405",
"=T.	c #7E1505",
"-T.	c #801605",
";T.	c #831A08",
">T.	c #831B08",
",T.	c #861F0B",
"'T.	c #83200D",
")T.	c #741C0C",
"!T.	c #350000",
"~T.	c #390000",
"{T.	c #590D07",
"]T.	c #601209",
"^T.	c #631205",
"/T.	c #681304",
"(T.	c #671302",
"_T.	c #691604",
":T.	c #681404",
"<T.	c #6A1605",
"[T.	c #721906",
"}T.	c #751804",
"|T.	c #781904",
"1T.	c #7A1903",
"2T.	c #7B1A04",
"3T.	c #7C1A04",
"4T.	c #7D1902",
"5T.	c #7F1601",
"6T.	c #801501",
"7T.	c #7F1300",
"8T.	c #801201",
"9T.	c #811001",
"0T.	c #850E02",
"aT.	c #840E02",
"bT.	c #831307",
"cT.	c #7D1A12",
"dT.	c #7A2D24",
"eT.	c #763C31",
"fT.	c #734B3C",
"gT.	c #685041",
"hT.	c #615344",
"iT.	c #5B574F",
"jT.	c #5D5951",
"kT.	c #615C52",
"lT.	c #0F100E",
"mT.	c #80756B",
"nT.	c #8F8678",
"oT.	c #8D8678",
"pT.	c #67635B",
"qT.	c #4D3623",
"rT.	c #4A331F",
"sT.	c #483926",
"tT.	c #4B4335",
"uT.	c #8B8179",
"vT.	c #A49D91",
"wT.	c #9B958D",
"xT.	c #7F7974",
"yT.	c #605B54",
"zT.	c #645D55",
"AT.	c #767066",
"BT.	c #3D3124",
"CT.	c #4A392A",
"DT.	c #5C4634",
"ET.	c #5F4733",
"FT.	c #614932",
"GT.	c #64482D",
"HT.	c #66492A",
"IT.	c #634728",
"JT.	c #63482B",
"KT.	c #644C34",
"LT.	c #6F5B47",
"MT.	c #6A5D4F",
"NT.	c #423E3D",
"OT.	c #52514A",
"PT.	c #504E47",
"QT.	c #554D45",
"RT.	c #605145",
"ST.	c #665647",
"TT.	c #746450",
"UT.	c #7E6D58",
"VT.	c #7F6F5A",
"WT.	c #71624F",
"XT.	c #6B5B4A",
"YT.	c #6A5C4B",
"ZT.	c #4F4336",
"`T.	c #41352A",
" U.	c #44372C",
".U.	c #4B3D31",
"+U.	c #514435",
"@U.	c #584A3A",
"#U.	c #665846",
"$U.	c #746652",
"%U.	c #7C6E59",
"&U.	c #6C604F",
"*U.	c #453A2D",
"=U.	c #292116",
"-U.	c #282217",
";U.	c #403A31",
">U.	c #3D362E",
",U.	c #2C261F",
"'U.	c #4A4137",
")U.	c #55493B",
"!U.	c #564839",
"~U.	c #5B4C3D",
"{U.	c #665748",
"]U.	c #685A4A",
"^U.	c #6B5C4A",
"/U.	c #6A5B4A",
"(U.	c #6B5C4C",
"_U.	c #655747",
":U.	c #6C5F4E",
"<U.	c #817666",
"[U.	c #827766",
"}U.	c #19120C",
"|U.	c #4F493F",
"1U.	c #645D52",
"2U.	c #685F54",
"3U.	c #595247",
"4U.	c #595146",
"5U.	c #695B4B",
"6U.	c #7F705B",
"7U.	c #8D7D64",
"8U.	c #8E7D62",
"9U.	c #8F7B5E",
"0U.	c #80694D",
"aU.	c #664F35",
"bU.	c #564026",
"cU.	c #6D563D",
"dU.	c #998368",
"eU.	c #AE997D",
"fU.	c #AE9B80",
"gU.	c #9D8B75",
"hU.	c #766856",
"iU.	c #564F4B",
"jU.	c #65554A",
"kU.	c #6D4E3B",
"lU.	c #6E311C",
"mU.	c #701606",
"nU.	c #740C02",
"oU.	c #731004",
"pU.	c #651207",
"qU.	c #5A1E13",
"rU.	c #522419",
"sU.	c #57291E",
"tU.	c #592115",
"uU.	c #571507",
"vU.	c #540A01",
"wU.	c #5C0A01",
"xU.	c #640D00",
"yU.	c #601002",
"zU.	c #581104",
"AU.	c #4A170B",
"BU.	c #39170D",
"CU.	c #361B12",
"DU.	c #391F15",
"EU.	c #482B1E",
"FU.	c #512D21",
"GU.	c #592F23",
"HU.	c #5C281B",
"IU.	c #652515",
"JU.	c #761A0A",
"KU.	c #7C1606",
"LU.	c #801504",
"MU.	c #7D1102",
"NU.	c #7E1504",
"OU.	c #7C1504",
"PU.	c #7F1A06",
"QU.	c #7D1906",
"RU.	c #751907",
"SU.	c #550B01",
"TU.	c #370100",
"UU.	c #570A04",
"VU.	c #601006",
"WU.	c #671002",
"XU.	c #6B1201",
"YU.	c #6E1503",
"ZU.	c #6C1403",
"`U.	c #731704",
" V.	c #741502",
".V.	c #761703",
"+V.	c #771704",
"@V.	c #771503",
"#V.	c #7A1502",
"$V.	c #7B1502",
"%V.	c #7C1501",
"&V.	c #7B1401",
"*V.	c #7C1301",
"=V.	c #7B0C01",
"-V.	c #7C0900",
";V.	c #7B0801",
">V.	c #781208",
",V.	c #6F1D16",
"'V.	c #6C2D26",
")V.	c #6A3B32",
"!V.	c #6A4A3D",
"~V.	c #634C41",
"{V.	c #5D4E44",
"]V.	c #493E38",
"^V.	c #5E574E",
"/V.	c #675F53",
"(V.	c #837D71",
"_V.	c #7C776B",
":V.	c #5C4D41",
"<V.	c #573E2E",
"[V.	c #4D2D1B",
"}V.	c #4D2D17",
"|V.	c #47301B",
"1V.	c #39322D",
"2V.	c #25221E",
"3V.	c #857A74",
"4V.	c #A59E92",
"5V.	c #9D988D",
"6V.	c #79746E",
"7V.	c #5A5650",
"8V.	c #40352F",
"9V.	c #3F352D",
"0V.	c #3F3026",
"aV.	c #453327",
"bV.	c #453123",
"cV.	c #4B3422",
"dV.	c #593E25",
"eV.	c #5C3F23",
"fV.	c #593D20",
"gV.	c #583F24",
"hV.	c #56402A",
"iV.	c #5C4A38",
"jV.	c #564B3E",
"kV.	c #4D443D",
"lV.	c #4A4038",
"mV.	c #51453B",
"nV.	c #5D4F43",
"oV.	c #5F4F41",
"pV.	c #756551",
"qV.	c #726350",
"rV.	c #6E604D",
"sV.	c #635545",
"tV.	c #5F5141",
"uV.	c #514437",
"vV.	c #44392E",
"wV.	c #3A3027",
"xV.	c #3D332A",
"yV.	c #3F332A",
"zV.	c #43382B",
"AV.	c #4D4032",
"BV.	c #6B5D4C",
"CV.	c #685949",
"DV.	c #5F5342",
"EV.	c #463A2D",
"FV.	c #362B20",
"GV.	c #362B22",
"HV.	c #392F28",
"IV.	c #39322B",
"JV.	c #3A322B",
"KV.	c #524537",
"LV.	c #635244",
"MV.	c #665547",
"NV.	c #685748",
"OV.	c #675546",
"PV.	c #675646",
"QV.	c #655544",
"RV.	c #645545",
"SV.	c #615242",
"TV.	c #695B4A",
"UV.	c #736655",
"VV.	c #7B6E5E",
"WV.	c #7E705F",
"XV.	c #7C6F5E",
"YV.	c #191816",
"ZV.	c #2D2720",
"`V.	c #60584E",
" W.	c #645B51",
".W.	c #5F564D",
"+W.	c #564C44",
"@W.	c #544A41",
"#W.	c #5A4F44",
"$W.	c #71624E",
"%W.	c #796750",
"&W.	c #7A664C",
"*W.	c #6F583E",
"=W.	c #5D452B",
"-W.	c #503821",
";W.	c #624B33",
">W.	c #877258",
",W.	c #9C876D",
"'W.	c #9D8A72",
")W.	c #635749",
"!W.	c #4A4543",
"~W.	c #534C4A",
"{W.	c #534845",
"]W.	c #56463E",
"^W.	c #594236",
"/W.	c #643C29",
"(W.	c #692613",
"_W.	c #6E1304",
":W.	c #6F0F03",
"<W.	c #6D170A",
"[W.	c #632316",
"}W.	c #5A3124",
"|W.	c #55362B",
"1W.	c #5A392E",
"2W.	c #592D1E",
"3W.	c #501607",
"4W.	c #4E0901",
"5W.	c #550A01",
"6W.	c #580901",
"7W.	c #610D00",
"8W.	c #610E01",
"9W.	c #610F03",
"0W.	c #5F0E02",
"aW.	c #5C0F01",
"bW.	c #581808",
"cW.	c #562A1C",
"dW.	c #4C3126",
"eW.	c #493529",
"fW.	c #483528",
"gW.	c #513A2C",
"hW.	c #553A2C",
"iW.	c #5A3A2D",
"jW.	c #583123",
"kW.	c #5F2E1C",
"lW.	c #642716",
"mW.	c #6E2110",
"nW.	c #731608",
"oW.	c #791204",
"pW.	c #7C1304",
"qW.	c #7B1505",
"rW.	c #781605",
"sW.	c #791704",
"tW.	c #791805",
"uW.	c #731907",
"vW.	c #3C0101",
"wW.	c #520602",
"xW.	c #5A0C04",
"yW.	c #650F02",
"zW.	c #6C1203",
"AW.	c #701705",
"BW.	c #6D1504",
"CW.	c #691102",
"DW.	c #6A1101",
"EW.	c #6C1101",
"FW.	c #6E1202",
"GW.	c #691001",
"HW.	c #6A1304",
"IW.	c #6A1506",
"JW.	c #6C1606",
"KW.	c #6B1404",
"LW.	c #691403",
"MW.	c #661002",
"NW.	c #690E02",
"OW.	c #731B0D",
"PW.	c #72291E",
"QW.	c #723A32",
"RW.	c #724A41",
"SW.	c #6F5248",
"TW.	c #725E53",
"UW.	c #716258",
"VW.	c #675D54",
"WW.	c #4C433E",
"XW.	c #302824",
"YW.	c #544A43",
"ZW.	c #6E6356",
"`W.	c #050709",
" X.	c #635953",
".X.	c #524A44",
"+X.	c #483F36",
"@X.	c #544234",
"#X.	c #593A29",
"$X.	c #542D18",
"%X.	c #563016",
"&X.	c #4C2D14",
"*X.	c #3F2C1C",
"=X.	c #2B241B",
"-X.	c #1E1C16",
";X.	c #16130E",
">X.	c #2E2520",
",X.	c #746661",
"'X.	c #92877E",
")X.	c #867E76",
"!X.	c #655E5A",
"~X.	c #57564F",
"{X.	c #6A675E",
"]X.	c #6D6960",
"^X.	c #5F594E",
"/X.	c #4C4239",
"(X.	c #4A4036",
"_X.	c #372B25",
":X.	c #332620",
"<X.	c #362418",
"[X.	c #503623",
"}X.	c #573A22",
"|X.	c #51381F",
"1X.	c #4F3A25",
"2X.	c #4B3A29",
"3X.	c #4D3E31",
"4X.	c #4A3F35",
"5X.	c #615141",
"6X.	c #5E5040",
"7X.	c #574B3B",
"8X.	c #4E4234",
"9X.	c #4B3F31",
"0X.	c #42362B",
"aX.	c #392F26",
"bX.	c #2F271D",
"cX.	c #393025",
"dX.	c #51463A",
"eX.	c #594C3E",
"fX.	c #584C3F",
"gX.	c #594D42",
"hX.	c #53483D",
"iX.	c #3D342D",
"jX.	c #3E362E",
"kX.	c #3C332C",
"lX.	c #3F372F",
"mX.	c #373026",
"nX.	c #594C3F",
"oX.	c #5C4C3D",
"pX.	c #615041",
"qX.	c #6C5C4C",
"rX.	c #6E5D4E",
"sX.	c #726050",
"tX.	c #705E4E",
"uX.	c #705F4E",
"vX.	c #6D5D4B",
"wX.	c #6D5E4C",
"xX.	c #6F604F",
"yX.	c #736451",
"zX.	c #766956",
"AX.	c #7B6D5C",
"BX.	c #7C6E5D",
"CX.	c #7A6C5B",
"DX.	c #756A5B",
"EX.	c #473F34",
"FX.	c #4D483D",
"GX.	c #574D44",
"HX.	c #55493F",
"IX.	c #544634",
"JX.	c #524330",
"KX.	c #4F3D2B",
"LX.	c #533F2A",
"MX.	c #57412A",
"NX.	c #594029",
"OX.	c #543A26",
"PX.	c #776148",
"QX.	c #867058",
"RX.	c #87735E",
"SX.	c #756554",
"TX.	c #574841",
"UX.	c #543E31",
"VX.	c #553323",
"WX.	c #602E1B",
"XX.	c #682210",
"YX.	c #661506",
"ZX.	c #682516",
"`X.	c #704536",
" Y.	c #6F584C",
".Y.	c #6B5C52",
"+Y.	c #6C594D",
"@Y.	c #614130",
"#Y.	c #4C1B0C",
"$Y.	c #490B02",
"%Y.	c #530B02",
"&Y.	c #560A01",
"*Y.	c #5B0C01",
"=Y.	c #611004",
"-Y.	c #5E0E02",
";Y.	c #580F01",
">Y.	c #59200F",
",Y.	c #6B4633",
"'Y.	c #695745",
")Y.	c #645745",
"!Y.	c #5E4F3E",
"~Y.	c #5D4B3A",
"{Y.	c #5A4737",
"]Y.	c #5B4738",
"^Y.	c #5A4232",
"/Y.	c #634533",
"(Y.	c #6B4332",
"_Y.	c #6F3725",
":Y.	c #6C2210",
"<Y.	c #711707",
"[Y.	c #771505",
"}Y.	c #7A1807",
"|Y.	c #791907",
"1Y.	c #7A1B08",
"2Y.	c #7A1D08",
"3Y.	c #751D0A",
"4Y.	c #591104",
"5Y.	c #3F0300",
"6Y.	c #3D0202",
"7Y.	c #490301",
"8Y.	c #500602",
"9Y.	c #570B03",
"0Y.	c #5B0B01",
"aY.	c #651003",
"bY.	c #6C1405",
"cY.	c #6F1605",
"dY.	c #6B1303",
"eY.	c #6A1001",
"fY.	c #6B0F01",
"gY.	c #670E01",
"hY.	c #601003",
"iY.	c #571106",
"jY.	c #4F0F07",
"kY.	c #4B1007",
"lY.	c #470E06",
"mY.	c #430E03",
"nY.	c #3E0F02",
"oY.	c #441105",
"pY.	c #52190C",
"qY.	c #6E3527",
"rY.	c #7C4C3A",
"sY.	c #7D5B4A",
"tY.	c #7F665A",
"uY.	c #857466",
"vY.	c #837569",
"wY.	c #877E72",
"xY.	c #7A7268",
"yY.	c #575048",
"zY.	c #58514B",
"AY.	c #615952",
"BY.	c #040609",
"CY.	c #111211",
"DY.	c #534C46",
"EY.	c #4B423C",
"FY.	c #50453B",
"GY.	c #5A4435",
"HY.	c #5F3B29",
"IY.	c #5A301B",
"JY.	c #562B14",
"KY.	c #522D15",
"LY.	c #442D1C",
"MY.	c #17150F",
"NY.	c #110E09",
"OY.	c #281E19",
"PY.	c #6A5B56",
"QY.	c #887B71",
"RY.	c #7D736A",
"SY.	c #605953",
"TY.	c #56524B",
"UY.	c #483D35",
"VY.	c #453B33",
"WY.	c #312926",
"XY.	c #392C24",
"YY.	c #583F2A",
"ZY.	c #513D26",
"`Y.	c #4D3D2B",
" Z.	c #493D2F",
".Z.	c #4A3E35",
"+Z.	c #3F362D",
"@Z.	c #41352C",
"#Z.	c #463A30",
"$Z.	c #524539",
"%Z.	c #57493D",
"&Z.	c #534639",
"*Z.	c #473D31",
"=Z.	c #352B23",
"-Z.	c #2E2620",
";Z.	c #54493B",
">Z.	c #675B4E",
",Z.	c #716658",
"'Z.	c #6F6356",
")Z.	c #40362E",
"!Z.	c #302923",
"~Z.	c #3C342A",
"{Z.	c #625547",
"]Z.	c #675747",
"^Z.	c #776755",
"/Z.	c #776655",
"(Z.	c #766655",
"_Z.	c #756353",
":Z.	c #766454",
"<Z.	c #746453",
"[Z.	c #7A6B5A",
"}Z.	c #7F6F5E",
"|Z.	c #7E705E",
"1Z.	c #81715E",
"2Z.	c #7E6F5C",
"3Z.	c #7A6E5C",
"4Z.	c #6D6254",
"5Z.	c #594F45",
"6Z.	c #5D5249",
"7Z.	c #5E5449",
"8Z.	c #564A42",
"9Z.	c #574A40",
"0Z.	c #56483B",
"aZ.	c #4D3D2E",
"bZ.	c #463423",
"cZ.	c #3F2D1A",
"dZ.	c #45311C",
"eZ.	c #563F29",
"fZ.	c #684D38",
"gZ.	c #6B4F3B",
"hZ.	c #725841",
"iZ.	c #7A6049",
"jZ.	c #836A53",
"kZ.	c #816B57",
"lZ.	c #6F5E4E",
"mZ.	c #42362D",
"nZ.	c #564E4B",
"oZ.	c #5C514A",
"pZ.	c #5B453B",
"qZ.	c #593626",
"rZ.	c #592816",
"sZ.	c #5F2511",
"tZ.	c #5D1C0B",
"uZ.	c #5C1707",
"vZ.	c #581807",
"wZ.	c #6D5042",
"xZ.	c #74655A",
"yZ.	c #716356",
"zZ.	c #624838",
"AZ.	c #491D0F",
"BZ.	c #460B02",
"CZ.	c #510B02",
"DZ.	c #540801",
"EZ.	c #5E0A00",
"FZ.	c #600F03",
"GZ.	c #520E01",
"HZ.	c #572311",
"IZ.	c #71503C",
"JZ.	c #756550",
"KZ.	c #70624F",
"LZ.	c #645344",
"MZ.	c #594838",
"NZ.	c #4F402F",
"OZ.	c #544637",
"PZ.	c #5D4E3F",
"QZ.	c #7A6253",
"RZ.	c #744F3E",
"SZ.	c #602918",
"TZ.	c #631707",
"UZ.	c #6E1506",
"VZ.	c #751606",
"WZ.	c #751706",
"XZ.	c #7A1C07",
"YZ.	c #781C07",
"ZZ.	c #711C08",
"`Z.	c #591002",
" `.	c #370000",
".`.	c #490401",
"+`.	c #4E0401",
"@`.	c #540701",
"#`.	c #560900",
"$`.	c #641004",
"%`.	c #711705",
"&`.	c #6C1202",
"*`.	c #680E00",
"=`.	c #6B0E01",
"-`.	c #680B00",
";`.	c #640C01",
">`.	c #560B02",
",`.	c #440B05",
"'`.	c #380C08",
")`.	c #320E0A",
"!`.	c #2C0B07",
"~`.	c #2B0E05",
"{`.	c #250D03",
"]`.	c #2A1006",
"^`.	c #3E1C10",
"/`.	c #654336",
"(`.	c #7C6452",
"_`.	c #827362",
":`.	c #857C70",
"<`.	c #867D71",
"[`.	c #7B7168",
"}`.	c #5C5249",
"|`.	c #5A4F49",
"1`.	c #70655A",
"2`.	c #726659",
"3`.	c #706456",
"4`.	c #928373",
"5`.	c #938472",
"6`.	c #05080A",
"7`.	c #564336",
"8`.	c #5D3E2E",
"9`.	c #5E3826",
"0`.	c #5B361F",
"a`.	c #53351E",
"b`.	c #463222",
"c`.	c #2E261D",
"d`.	c #1C1A14",
"e`.	c #62554F",
"f`.	c #7C7369",
"g`.	c #1F2120",
"h`.	c #4E4B43",
"i`.	c #65635B",
"j`.	c #69655D",
"k`.	c #493F37",
"l`.	c #423932",
"m`.	c #2F2A2B",
"n`.	c #4B3C30",
"o`.	c #503F2D",
"p`.	c #4B3D2A",
"q`.	c #493E33",
"r`.	c #504437",
"s`.	c #4D3F33",
"t`.	c #504236",
"u`.	c #4E4137",
"v`.	c #322A23",
"w`.	c #312A22",
"x`.	c #4C4237",
"y`.	c #53483B",
"z`.	c #776B5C",
"A`.	c #4E4237",
"B`.	c #3C322A",
"C`.	c #3E332C",
"D`.	c #372F27",
"E`.	c #332C26",
"F`.	c #574A3E",
"G`.	c #5F5042",
"H`.	c #6D5E4E",
"I`.	c #7A6A5A",
"J`.	c #776758",
"K`.	c #6F6051",
"L`.	c #685A4C",
"M`.	c #756858",
"N`.	c #7C6F60",
"O`.	c #807262",
"P`.	c #7D6F5F",
"Q`.	c #806F5C",
"R`.	c #81705C",
"S`.	c #7E6D5B",
"T`.	c #726657",
"U`.	c #584E45",
"V`.	c #423831",
"W`.	c #433A32",
"X`.	c #494039",
"Y`.	c #564F44",
"Z`.	c #62564C",
"``.	c #5D5247",
"  +	c #594D3F",
". +	c #473626",
"+ +	c #402E1C",
"@ +	c #46331E",
"# +	c #5D4632",
"$ +	c #735943",
"% +	c #775C46",
"& +	c #7B624A",
"* +	c #7A624C",
"= +	c #826C55",
"- +	c #806C59",
"; +	c #6E5F50",
"> +	c #40362D",
", +	c #4C4641",
"' +	c #584C44",
") +	c #634E42",
"! +	c #664232",
"~ +	c #66341F",
"{ +	c #632712",
"] +	c #5D240F",
"^ +	c #4F1F0D",
"/ +	c #4B200F",
"( +	c #4A2212",
"_ +	c #533323",
": +	c #654F42",
"< +	c #6F6156",
"[ +	c #6E6157",
"} +	c #6E6054",
"| +	c #614B3C",
"1 +	c #472112",
"2 +	c #420E03",
"3 +	c #4D0D02",
"4 +	c #510901",
"5 +	c #570A01",
"6 +	c #5F1004",
"7 +	c #4F1002",
"8 +	c #572512",
"9 +	c #75573E",
"0 +	c #7C6C53",
"a +	c #7A6B54",
"b +	c #6A5846",
"c +	c #5A4A37",
"d +	c #4E402E",
"e +	c #584B3B",
"f +	c #7F7665",
"g +	c #796251",
"h +	c #58301F",
"i +	c #571C0C",
"j +	c #65190A",
"k +	c #6F1908",
"l +	c #731906",
"m +	c #791D08",
"n +	c #791D07",
"o +	c #701B06",
"p +	c #5A0F01",
"q +	c #400200",
"r +	c #4F0402",
"s +	c #520601",
"t +	c #550700",
"u +	c #641003",
"v +	c #6E1403",
"w +	c #741905",
"x +	c #731806",
"y +	c #6D1302",
"z +	c #6C0F01",
"A +	c #6A0C01",
"B +	c #660E04",
"C +	c #530F06",
"D +	c #3C0E08",
"E +	c #290D09",
"F +	c #24100C",
"G +	c #211108",
"H +	c #1E0F05",
"I +	c #231309",
"J +	c #362116",
"K +	c #5E483B",
"L +	c #79685A",
"M +	c #5B5047",
"N +	c #6F655B",
"O +	c #746A60",
"P +	c #70645A",
"Q +	c #73675A",
"R +	c #726558",
"S +	c #7D6F60",
"T +	c #837565",
"U +	c #857666",
"V +	c #897A69",
"W +	c #8E7D6B",
"X +	c #544035",
"Y +	c #533A2E",
"Z +	c #523A29",
"` +	c #4B3726",
" .+	c #413428",
"..+	c #130E0C",
"+.+	c #241B19",
"@.+	c #4E4442",
"#.+	c #5C534F",
"$.+	c #474740",
"%.+	c #4E4C44",
"&.+	c #58554D",
"*.+	c #3E332B",
"=.+	c #352B24",
"-.+	c #382D27",
";.+	c #403327",
">.+	c #40352A",
",.+	c #1D191C",
"'.+	c #443A2F",
").+	c #615445",
"!.+	c #635445",
"~.+	c #594A41",
"{.+	c #3C3A31",
"].+	c #3F342A",
"^.+	c #372E26",
"/.+	c #372F26",
"(.+	c #362D25",
"_.+	c #453A2F",
":.+	c #383026",
"<.+	c #453A2E",
"[.+	c #66584A",
"}.+	c #79695B",
"|.+	c #756659",
"1.+	c #615548",
"2.+	c #50463A",
"3.+	c #4F463A",
"4.+	c #716558",
"5.+	c #6F6355",
"6.+	c #6E5E4C",
"7.+	c #73604C",
"8.+	c #72604B",
"9.+	c #6C5A47",
"0.+	c #6C5B48",
"a.+	c #675545",
"b.+	c #4A4037",
"c.+	c #4F4942",
"d.+	c #4E433D",
"e.+	c #443A34",
"f.+	c #534A43",
"g.+	c #584B43",
"h.+	c #584C43",
"i.+	c #52473E",
"j.+	c #4C4134",
"k.+	c #47392C",
"l.+	c #423223",
"m.+	c #3E2D1D",
"n.+	c #443220",
"o.+	c #533E2D",
"p.+	c #624B37",
"q.+	c #624B38",
"r.+	c #624D39",
"s.+	c #5E4936",
"t.+	c #63503D",
"u.+	c #655343",
"v.+	c #594B41",
"w.+	c #655C55",
"x.+	c #53392C",
"y.+	c #643928",
"z.+	c #723320",
"A.+	c #752C15",
"B.+	c #6E2711",
"C.+	c #612D17",
"D.+	c #553723",
"E.+	c #574132",
"F.+	c #5B463A",
"G.+	c #635044",
"H.+	c #695B4F",
"I.+	c #6C5D52",
"J.+	c #604C3E",
"K.+	c #442314",
"L.+	c #3F1105",
"M.+	c #481003",
"N.+	c #4D0B01",
"O.+	c #5F0E01",
"P.+	c #5F0F02",
"Q.+	c #5C1004",
"R.+	c #550E02",
"S.+	c #4B1003",
"T.+	c #4E2210",
"U.+	c #694F35",
"V.+	c #726049",
"W.+	c #72614B",
"X.+	c #66553F",
"Y.+	c #5E4F38",
"Z.+	c #5D4E3C",
"`.+	c #827A6B",
" ++	c #726356",
".++	c #523527",
"+++	c #4E1F11",
"@++	c #5C1E10",
"#++	c #6A200F",
"$++	c #701C09",
"%++	c #761B06",
"&++	c #751904",
"*++	c #741C06",
"=++	c #621201",
"-++	c #4E0600",
";++	c #440200",
">++	c #430200",
",++	c #4E0301",
"'++	c #741904",
")++	c #701403",
"!++	c #6A0C00",
"~++	c #680B01",
"{++	c #50120A",
"]++	c #36130D",
"^++	c #24110D",
"/++	c #221612",
"(++	c #291E17",
"_++	c #3A2F23",
":++	c #55473A",
"<++	c #6E5F51",
"[++	c #80756A",
"}++	c #74675A",
"|++	c #7B6E60",
"1++	c #746655",
"2++	c #7E6E5C",
"3++	c #03050A",
"4++	c #54493F",
"5++	c #54453C",
"6++	c #473F41",
"7++	c #4F4847",
"8++	c #423D3E",
"9++	c #191B1B",
"0++	c #3A2D28",
"a++	c #352922",
"b++	c #2F231D",
"c++	c #29211F",
"d++	c #1E1E24",
"e++	c #3F3733",
"f++	c #413A37",
"g++	c #363127",
"h++	c #4D4235",
"i++	c #8C7B66",
"j++	c #85745F",
"k++	c #2D2B24",
"l++	c #1E1D18",
"m++	c #131410",
"n++	c #161711",
"o++	c #24211B",
"p++	c #3D3329",
"q++	c #3B3128",
"r++	c #392F27",
"s++	c #362E24",
"t++	c #372F24",
"u++	c #3A3025",
"v++	c #554A3D",
"w++	c #342A22",
"x++	c #615A4E",
"y++	c #2B261F",
"z++	c #262018",
"A++	c #362E23",
"B++	c #615549",
"C++	c #7B6C5E",
"D++	c #76675A",
"E++	c #3F382D",
"F++	c #433C32",
"G++	c #4C4233",
"H++	c #5F4F3D",
"I++	c #695441",
"J++	c #65503C",
"K++	c #5B4733",
"L++	c #554331",
"M++	c #4D3C2D",
"N++	c #493C2D",
"O++	c #41362A",
"P++	c #48423D",
"Q++	c #68625B",
"R++	c #7B746A",
"S++	c #51473F",
"T++	c #433831",
"U++	c #362C21",
"V++	c #36291E",
"W++	c #392A1E",
"X++	c #39291C",
"Y++	c #433022",
"Z++	c #453221",
"`++	c #412E1F",
" @+	c #38271A",
".@+	c #37291D",
"+@+	c #382B24",
"@@+	c #201A17",
"#@+	c #5A574F",
"$@+	c #5E584B",
"%@+	c #766B5E",
"&@+	c #5E4A3C",
"*@+	c #4C2516",
"=@+	c #5D1D0B",
"-@+	c #73200C",
";@+	c #7D250D",
">@+	c #762710",
",@+	c #683722",
"'@+	c #685443",
")@+	c #756A5E",
"!@+	c #796E65",
"~@+	c #7C7064",
"{@+	c #6D6054",
"]@+	c #604F40",
"^@+	c #432819",
"/@+	c #3B1509",
"(@+	c #421408",
"_@+	c #481005",
":@+	c #4D0F03",
"<@+	c #530B01",
"[@+	c #5B1003",
"}@+	c #5C1103",
"|@+	c #4C0E03",
"1@+	c #3E1608",
"2@+	c #482F1A",
"3@+	c #4C3925",
"4@+	c #52402C",
"5@+	c #57442E",
"6@+	c #6D5C44",
"7@+	c #7F705A",
"8@+	c #8B7F6C",
"9@+	c #887E6C",
"0@+	c #89836F",
"a@+	c #857E6D",
"b@+	c #574335",
"c@+	c #4F3021",
"d@+	c #5D3021",
"e@+	c #6D3120",
"f@+	c #772A19",
"g@+	c #7F2712",
"h@+	c #7D200A",
"i@+	c #7D2209",
"j@+	c #721F06",
"k@+	c #661906",
"l@+	c #570E02",
"m@+	c #490500",
"n@+	c #4C0501",
"o@+	c #4B0200",
"p@+	c #650F01",
"q@+	c #6F1401",
"r@+	c #731804",
"s@+	c #6E1101",
"t@+	c #6C0E01",
"u@+	c #650B02",
"v@+	c #590D06",
"w@+	c #47130D",
"x@+	c #40231E",
"y@+	c #40312C",
"z@+	c #6D6253",
"A@+	c #7F7566",
"B@+	c #817567",
"C@+	c #857869",
"D@+	c #817767",
"E@+	c #817769",
"F@+	c #7A7064",
"G@+	c #867D72",
"H@+	c #61574C",
"I@+	c #675A49",
"J@+	c #010106",
"K@+	c #48493F",
"L@+	c #44453F",
"M@+	c #231D21",
"N@+	c #463F44",
"O@+	c #4F4B4D",
"P@+	c #444043",
"Q@+	c #382A26",
"R@+	c #342721",
"S@+	c #2D211C",
"T@+	c #3E3735",
"U@+	c #08060B",
"V@+	c #766757",
"W@+	c #8E7E6A",
"X@+	c #8B7B66",
"Y@+	c #796B5B",
"Z@+	c #362C27",
"`@+	c #392E27",
" #+	c #392E26",
".#+	c #3B3027",
"+#+	c #3B3026",
"@#+	c #4B3F33",
"##+	c #31281E",
"$#+	c #271F17",
"%#+	c #342B24",
"&#+	c #29251E",
"*#+	c #221D16",
"=#+	c #322A21",
"-#+	c #77685B",
";#+	c #736458",
">#+	c #352F27",
",#+	c #5A5149",
"'#+	c #52483C",
")#+	c #463C2E",
"!#+	c #4A3E2F",
"~#+	c #5F4F3E",
"{#+	c #54412F",
"]#+	c #4B392A",
"^#+	c #433427",
"/#+	c #3F3327",
"(#+	c #383028",
"_#+	c #837B72",
":#+	c #81776D",
"<#+	c #6B635A",
"[#+	c #54493D",
"}#+	c #56493E",
"|#+	c #5A4D46",
"1#+	c #564C47",
"2#+	c #5E534C",
"3#+	c #5B5049",
"4#+	c #393029",
"5#+	c #342B25",
"6#+	c #312823",
"7#+	c #36291F",
"8#+	c #382A1F",
"9#+	c #3E2F23",
"0#+	c #402F23",
"a#+	c #413124",
"b#+	c #3E2E22",
"c#+	c #3E2E23",
"d#+	c #392A20",
"e#+	c #36281E",
"f#+	c #31241C",
"g#+	c #2F2520",
"h#+	c #261E1B",
"i#+	c #645D50",
"j#+	c #6A5F53",
"k#+	c #776A5E",
"l#+	c #7D7065",
"m#+	c #7E6E62",
"n#+	c #64483B",
"o#+	c #4C1B0E",
"p#+	c #570C02",
"q#+	c #6A1204",
"r#+	c #761C06",
"s#+	c #70220D",
"t#+	c #643625",
"u#+	c #6A584C",
"v#+	c #7C746B",
"w#+	c #796D62",
"x#+	c #716559",
"y#+	c #6C5E51",
"z#+	c #605043",
"A#+	c #422A1E",
"B#+	c #37170D",
"C#+	c #3E180E",
"D#+	c #45150B",
"E#+	c #460E03",
"F#+	c #4A0800",
"G#+	c #540D01",
"H#+	c #570E01",
"I#+	c #540E02",
"J#+	c #470A01",
"K#+	c #3D0A01",
"L#+	c #361004",
"M#+	c #351A09",
"N#+	c #321D09",
"O#+	c #392613",
"P#+	c #523D2A",
"Q#+	c #7B6852",
"R#+	c #8F7E6A",
"S#+	c #938673",
"T#+	c #8C826F",
"U#+	c #827C69",
"V#+	c #7C7565",
"W#+	c #52463A",
"X#+	c #4B382C",
"Y#+	c #5B3D32",
"Z#+	c #6F4236",
"`#+	c #773527",
" $+	c #812B19",
".$+	c #842610",
"+$+	c #85270C",
"@$+	c #7C2308",
"#$+	c #711D07",
"$$+	c #5F1001",
"%$+	c #530A01",
"&$+	c #490400",
"*$+	c #4C0601",
"=$+	c #671102",
"-$+	c #6E1301",
";$+	c #721803",
">$+	c #731905",
",$+	c #731604",
"'$+	c #711203",
")$+	c #5C0701",
"!$+	c #340A07",
"~$+	c #492E2E",
"{$+	c #5F504C",
"]$+	c #605950",
"^$+	c #655E51",
"/$+	c #786F5E",
"($+	c #857C6C",
"_$+	c #847A6B",
":$+	c #817668",
"<$+	c #807667",
"[$+	c #7E7469",
"}$+	c #82786D",
"|$+	c #857C71",
"1$+	c #38302A",
"2$+	c #786C61",
"3$+	c #776B5E",
"4$+	c #706457",
"5$+	c #665A4D",
"6$+	c #6D5E4F",
"7$+	c #35342F",
"8$+	c #42443D",
"9$+	c #413D40",
"0$+	c #494748",
"a$+	c #1D1E1D",
"b$+	c #342822",
"c$+	c #2C211C",
"d$+	c #261E1E",
"e$+	c #1E1E21",
"f$+	c #2E2827",
"g$+	c #6D5F51",
"h$+	c #63574B",
"i$+	c #493F38",
"j$+	c #171511",
"k$+	c #372D24",
"l$+	c #372C24",
"m$+	c #3D3327",
"n$+	c #3B3226",
"o$+	c #3B3228",
"p$+	c #463D2E",
"q$+	c #3A3125",
"r$+	c #3C332A",
"s$+	c #554C44",
"t$+	c #3D372D",
"u$+	c #2D281F",
"v$+	c #282218",
"w$+	c #383024",
"x$+	c #5F5346",
"y$+	c #726357",
"z$+	c #3E362C",
"A$+	c #5B5347",
"B$+	c #4B4234",
"C$+	c #625243",
"D$+	c #685542",
"E$+	c #614F3B",
"F$+	c #534232",
"G$+	c #4A3B2C",
"H$+	c #3E3429",
"I$+	c #6C6760",
"J$+	c #7B756C",
"K$+	c #766F64",
"L$+	c #6A5C4E",
"M$+	c #695C4E",
"N$+	c #5A4E46",
"O$+	c #463D37",
"P$+	c #332B21",
"Q$+	c #352C22",
"R$+	c #3D3126",
"S$+	c #45392C",
"T$+	c #483B30",
"U$+	c #44372D",
"V$+	c #1C1914",
"W$+	c #5E5C54",
"X$+	c #686257",
"Y$+	c #70695A",
"Z$+	c #817465",
"`$+	c #7D6B5A",
" %+	c #6A4B39",
".%+	c #521F0E",
"+%+	c #641002",
"@%+	c #6A230D",
"#%+	c #603826",
"$%+	c #665649",
"%%+	c #7D7366",
"&%+	c #766A5E",
"*%+	c #6D5F52",
"=%+	c #432E21",
"-%+	c #371C11",
";%+	c #3D1D13",
">%+	c #431A10",
",%+	c #430E04",
"'%+	c #460700",
")%+	c #510C00",
"!%+	c #540D00",
"~%+	c #541102",
"{%+	c #470D01",
"]%+	c #3C0E02",
"^%+	c #391607",
"/%+	c #3A1F0C",
"(%+	c #36200C",
"_%+	c #412D18",
":%+	c #5E4A35",
"<%+	c #86755D",
"[%+	c #93866D",
"}%+	c #91866F",
"|%+	c #817865",
"1%+	c #776F5C",
"2%+	c #696154",
"3%+	c #605A4E",
"4%+	c #534A40",
"5%+	c #625349",
"6%+	c #70554A",
"7%+	c #713D30",
"8%+	c #742718",
"9%+	c #7C210E",
"0%+	c #82240B",
"a%+	c #7C1F06",
"b%+	c #751C06",
"c%+	c #621101",
"d%+	c #470601",
"e%+	c #500500",
"f%+	c #5D0B00",
"g%+	c #711904",
"h%+	c #701905",
"i%+	c #741907",
"j%+	c #741607",
"k%+	c #6E1307",
"l%+	c #3C0502",
"m%+	c #2F0D0A",
"n%+	c #594442",
"o%+	c #7F746C",
"p%+	c #675E4F",
"q%+	c #7C7160",
"r%+	c #827767",
"s%+	c #5D5347",
"t%+	c #6D6356",
"u%+	c #72675A",
"v%+	c #6B6253",
"w%+	c #6A5E4F",
"x%+	c #716354",
"y%+	c #343034",
"z%+	c #38353A",
"A%+	c #332925",
"B%+	c #312621",
"C%+	c #2A2221",
"D%+	c #232227",
"E%+	c #161318",
"F%+	c #161216",
"G%+	c #1E1719",
"H%+	c #332D2C",
"I%+	c #1C1915",
"J%+	c #2A241E",
"K%+	c #28201A",
"L%+	c #3A2E26",
"M%+	c #3D3226",
"N%+	c #44392C",
"O%+	c #493E31",
"P%+	c #2F2921",
"Q%+	c #2D271F",
"R%+	c #403833",
"S%+	c #6A5A4E",
"T%+	c #615346",
"U%+	c #534D42",
"V%+	c #544F42",
"W%+	c #5C4E3E",
"X%+	c #473C2F",
"Y%+	c #3F352B",
"Z%+	c #3D352B",
"`%+	c #534E4A",
" &+	c #63584F",
".&+	c #554A42",
"+&+	c #6C6158",
"@&+	c #7B6B5F",
"#&+	c #7C685C",
"$&+	c #78675B",
"%&+	c #5F524B",
"&&+	c #504743",
"*&+	c #61554F",
"=&+	c #62564E",
"-&+	c #5F554A",
";&+	c #4E453B",
">&+	c #312B22",
",&+	c #352D24",
"'&+	c #463A31",
")&+	c #483D32",
"!&+	c #625F58",
"~&+	c #6C5B4F",
"{&+	c #6A5647",
"]&+	c #6F5442",
"^&+	c #67402E",
"/&+	c #5C2511",
"(&+	c #5F1A06",
"_&+	c #68220D",
":&+	c #712F18",
"<&+	c #6B331F",
"[&+	c #5D3D2B",
"}&+	c #574A3B",
"|&+	c #6A5E51",
"1&+	c #665A4A",
"2&+	c #6B5D50",
"3&+	c #605245",
"4&+	c #423024",
"5&+	c #351E14",
"6&+	c #3B1F17",
"7&+	c #421D13",
"8&+	c #430F05",
"9&+	c #460900",
"0&+	c #500D00",
"a&+	c #551001",
"b&+	c #521002",
"c&+	c #470C01",
"d&+	c #3C0E01",
"e&+	c #44200F",
"f&+	c #523620",
"g&+	c #543D26",
"h&+	c #5B462F",
"i&+	c #6B5741",
"j&+	c #816E57",
"k&+	c #867861",
"l&+	c #827560",
"m&+	c #6F6454",
"n&+	c #5B5244",
"o&+	c #69635F",
"p&+	c #675752",
"q&+	c #5A332A",
"r&+	c #5D160D",
"s&+	c #681104",
"t&+	c #741805",
"u&+	c #751803",
"v&+	c #540D02",
"w&+	c #3B0301",
"x&+	c #3F0100",
"y&+	c #6D1101",
"z&+	c #6D1201",
"A&+	c #6A1603",
"B&+	c #651504",
"C&+	c #69190A",
"D&+	c #6C180D",
"E&+	c #661C10",
"F&+	c #52160E",
"G&+	c #411612",
"H&+	c #3B1F1E",
"I&+	c #5E4D4A",
"J&+	c #7F746D",
"K&+	c #716656",
"L&+	c #796F5D",
"M&+	c #7D7464",
"N&+	c #84796D",
"O&+	c #877D71",
"P&+	c #6D6258",
"Q&+	c #4E443B",
"R&+	c #62584B",
"S&+	c #605749",
"T&+	c #6F6152",
"U&+	c #312D31",
"V&+	c #271D1C",
"W&+	c #271E1A",
"X&+	c #271F1F",
"Y&+	c #241F23",
"Z&+	c #171215",
"`&+	c #1B1518",
" *+	c #221B1B",
".*+	c #2E2F2B",
"+*+	c #1D1813",
"@*+	c #1B1410",
"#*+	c #1E150F",
"$*+	c #271C14",
"%*+	c #413528",
"&*+	c #3F3427",
"**+	c #3E3427",
"=*+	c #3B3024",
"-*+	c #372D20",
";*+	c #3F3428",
">*+	c #4E4437",
",*+	c #53473D",
"'*+	c #1A1711",
")*+	c #2B241E",
"!*+	c #564C40",
"~*+	c #6B6051",
"{*+	c #6E6253",
"]*+	c #5B4E40",
"^*+	c #584A3B",
"/*+	c #5A4A3C",
"(*+	c #69594A",
"_*+	c #746456",
":*+	c #7B6D5F",
"<*+	c #4E483D",
"[*+	c #4D473D",
"}*+	c #463E33",
"|*+	c #453C32",
"1*+	c #3C352C",
"2*+	c #3B372E",
"3*+	c #3B342D",
"4*+	c #554B44",
"5*+	c #72675D",
"6*+	c #796C61",
"7*+	c #6F6557",
"8*+	c #766C5D",
"9*+	c #887567",
"0*+	c #8A7567",
"a*+	c #877667",
"b*+	c #685D53",
"c*+	c #776B61",
"d*+	c #72635A",
"e*+	c #2F2C26",
"f*+	c #302D26",
"g*+	c #2F2C24",
"h*+	c #463B32",
"i*+	c #493D33",
"j*+	c #0D0E0F",
"k*+	c #494844",
"l*+	c #6E6A62",
"m*+	c #7E766A",
"n*+	c #888070",
"o*+	c #887F6E",
"p*+	c #7A6C5F",
"q*+	c #5A4438",
"r*+	c #503223",
"s*+	c #5E3724",
"t*+	c #6B3D28",
"u*+	c #6F3C26",
"v*+	c #764029",
"w*+	c #7D4B35",
"x*+	c #835840",
"y*+	c #7F5C47",
"z*+	c #6C5442",
"A*+	c #4D4230",
"B*+	c #3F3526",
"C*+	c #3B2E22",
"D*+	c #423422",
"E*+	c #554633",
"F*+	c #433227",
"G*+	c #352118",
"H*+	c #3A241B",
"I*+	c #422015",
"J*+	c #441206",
"K*+	c #4A0C01",
"L*+	c #520F01",
"M*+	c #591503",
"N*+	c #561404",
"O*+	c #480E01",
"P*+	c #3F1102",
"Q*+	c #522D1A",
"R*+	c #73563C",
"S*+	c #7F674C",
"T*+	c #826B50",
"U*+	c #7F6B50",
"V*+	c #7A6950",
"W*+	c #72644E",
"X*+	c #6C5F4B",
"Y*+	c #584E3E",
"Z*+	c #463F31",
"`*+	c #37342C",
" =+	c #6C6A69",
".=+	c #73716E",
"+=+	c #4C2E27",
"@=+	c #4F1009",
"#=+	c #5E0B02",
"$=+	c #711405",
"%=+	c #781906",
"&=+	c #7D1E0A",
"*=+	c #6E1908",
"==+	c #531005",
"-=+	c #340300",
";=+	c #4A0601",
">=+	c #640F03",
",=+	c #701303",
"'=+	c #6B1001",
")=+	c #631102",
"!=+	c #560F02",
"~=+	c #541810",
"{=+	c #5C2C22",
"]=+	c #542F28",
"^=+	c #523731",
"/=+	c #4D3B35",
"(=+	c #645851",
"_=+	c #7D7469",
":=+	c #776D5A",
"<=+	c #7C735F",
"[=+	c #7E7464",
"}=+	c #766B60",
"|=+	c #5A5042",
"1=+	c #685E51",
"2=+	c #6C6153",
"3=+	c #2E2A2E",
"4=+	c #261C1C",
"5=+	c #271D1B",
"6=+	c #261D1E",
"7=+	c #241D21",
"8=+	c #221D22",
"9=+	c #221B15",
"0=+	c #19130E",
"a=+	c #120D0A",
"b=+	c #150D0A",
"c=+	c #160D09",
"d=+	c #221811",
"e=+	c #413427",
"f=+	c #403426",
"g=+	c #372E21",
"h=+	c #4B4136",
"i=+	c #120F09",
"j=+	c #292219",
"k=+	c #3C3328",
"l=+	c #64594C",
"m=+	c #7A6E5E",
"n=+	c #7C6D5D",
"o=+	c #584A3D",
"p=+	c #4A3C2C",
"q=+	c #514131",
"r=+	c #6C5B4A",
"s=+	c #826E5F",
"t=+	c #877565",
"u=+	c #7D6F61",
"v=+	c #37322A",
"w=+	c #39352B",
"x=+	c #39352D",
"y=+	c #756B61",
"z=+	c #8D806F",
"A=+	c #8E816E",
"B=+	c #8A7D6C",
"C=+	c #807162",
"D=+	c #7B6959",
"E=+	c #7D695A",
"F=+	c #817062",
"G=+	c #675C54",
"H=+	c #453E3B",
"I=+	c #776A60",
"J=+	c #77675D",
"K=+	c #2E2C25",
"L=+	c #413730",
"M=+	c #453A32",
"N=+	c #221B18",
"O=+	c #78736B",
"P=+	c #8C8272",
"Q=+	c #78685D",
"R=+	c #52392E",
"S=+	c #441E0E",
"T=+	c #592B18",
"U=+	c #764730",
"V=+	c #835841",
"W=+	c #88634C",
"X=+	c #8A6B57",
"Y=+	c #917861",
"Z=+	c #8D7962",
"`=+	c #7B6755",
" -+	c #504332",
".-+	c #2E2112",
"+-+	c #241407",
"@-+	c #271708",
"#-+	c #33210F",
"$-+	c #52402E",
"%-+	c #675345",
"&-+	c #6B5A4C",
"*-+	c #615143",
"=-+	c #423126",
"--+	c #352119",
";-+	c #3B241B",
">-+	c #412014",
",-+	c #461105",
"'-+	c #570F00",
")-+	c #5C1301",
"!-+	c #581202",
"~-+	c #4A0C00",
"{-+	c #420F01",
"]-+	c #5D331F",
"^-+	c #8C6A4F",
"/-+	c #9F8267",
"(-+	c #9E8369",
"_-+	c #8A7159",
":-+	c #6A573F",
"<-+	c #52412F",
"[-+	c #3F3325",
"}-+	c #646463",
"|-+	c #696866",
"1-+	c #432723",
"2-+	c #470C07",
"3-+	c #580601",
"4-+	c #7A1A08",
"5-+	c #7F1C0B",
"6-+	c #6F1708",
"7-+	c #520E05",
"8-+	c #2E0200",
"9-+	c #640F04",
"0-+	c #6E0E02",
"a-+	c #6A0E02",
"b-+	c #610F02",
"c-+	c #4D0B02",
"d-+	c #3F0D06",
"e-+	c #3D1511",
"f-+	c #50342E",
"g-+	c #543F3B",
"h-+	c #54433F",
"i-+	c #50423C",
"j-+	c #5F5249",
"k-+	c #6D6252",
"l-+	c #7E7361",
"m-+	c #7F7565",
"n-+	c #7C7163",
"o-+	c #76695C",
"p-+	c #796D60",
"q-+	c #7A6D5F",
"r-+	c #605648",
"s-+	c #594F41",
"t-+	c #685D50",
"u-+	c #242125",
"v-+	c #282529",
"w-+	c #241B1C",
"x-+	c #261D1C",
"y-+	c #241E20",
"z-+	c #141116",
"A-+	c #1A1417",
"B-+	c #17100C",
"C-+	c #19100B",
"D-+	c #261C15",
"E-+	c #3D3029",
"F-+	c #423628",
"G-+	c #403527",
"H-+	c #3F3527",
"I-+	c #403628",
"J-+	c #3E3426",
"K-+	c #3D3326",
"L-+	c #41372B",
"M-+	c #201E17",
"N-+	c #24211A",
"O-+	c #3D352A",
"P-+	c #796C5B",
"Q-+	c #776858",
"R-+	c #493B2B",
"S-+	c #554534",
"T-+	c #715E4E",
"U-+	c #86725F",
"V-+	c #8B7766",
"W-+	c #817262",
"X-+	c #3A372F",
"Y-+	c #3E3A2F",
"Z-+	c #444033",
"`-+	c #454036",
" ;+	c #938571",
".;+	c #91826F",
"+;+	c #8B7C6D",
"@;+	c #736456",
"#;+	c #5C4B3C",
"$;+	c #5B4A3A",
"%;+	c #6A5A4F",
"&;+	c #615651",
"*;+	c #74675C",
"=;+	c #71655A",
"-;+	c #2D2923",
";;+	c #312F28",
">;+	c #413631",
",;+	c #2A221C",
"';+	c #675D55",
");+	c #655D56",
"!;+	c #8A8071",
"~;+	c #908574",
"{;+	c #908473",
"];+	c #796B5F",
"^;+	c #50392D",
"/;+	c #411E0E",
"(;+	c #5C311D",
"_;+	c #7D533D",
":;+	c #8B6A53",
"<;+	c #907761",
"[;+	c #8C7463",
"};+	c #8D7865",
"|;+	c #8B7963",
"1;+	c #7C6A57",
"2;+	c #534634",
"3;+	c #2F2214",
"4;+	c #231407",
"5;+	c #281707",
"6;+	c #3A2513",
"7;+	c #5A4533",
"8;+	c #6A5645",
"9;+	c #36231B",
"0;+	c #3C271E",
"a;+	c #432215",
"b;+	c #481205",
"c;+	c #510B00",
"d;+	c #5B1100",
"e;+	c #5E1301",
"f;+	c #591302",
"g;+	c #4B0C00",
"h;+	c #431001",
"i;+	c #623722",
"j;+	c #99765A",
"k;+	c #B09475",
"l;+	c #AE9376",
"m;+	c #927961",
"n;+	c #5F4C37",
"o;+	c #3B2C1C",
"p;+	c #34261A",
"q;+	c #362D24",
"r;+	c #4F4E4C",
"s;+	c #3E231F",
"t;+	c #450C08",
"u;+	c #530702",
"v;+	c #640E04",
"w;+	c #711305",
"x;+	c #7C1B0B",
"y;+	c #711C0D",
"z;+	c #501208",
"A;+	c #2A0301",
"B;+	c #1D0100",
"C;+	c #420703",
"D;+	c #611007",
"E;+	c #6C1205",
"F;+	c #5E0F05",
"G;+	c #480B03",
"H;+	c #350C07",
"I;+	c #311411",
"J;+	c #4D3A36",
"K;+	c #594C45",
"L;+	c #534540",
"M;+	c #605449",
"N;+	c #6E6452",
"O;+	c #7A6E5D",
"P;+	c #807564",
"Q;+	c #807566",
"R;+	c #7D7164",
"S;+	c #776C5F",
"T;+	c #716457",
"U;+	c #786C5D",
"V;+	c #7B6E5F",
"W;+	c #635A4C",
"X;+	c #665E51",
"Y;+	c #685F52",
"Z;+	c #151216",
"`;+	c #191519",
" >+	c #18151A",
".>+	c #1A1418",
"+>+	c #1D1516",
"@>+	c #1C1619",
"#>+	c #1C171A",
"$>+	c #221C1E",
"%>+	c #241D1D",
"&>+	c #2D2F2D",
"*>+	c #312720",
"=>+	c #40332B",
"->+	c #43362A",
";>+	c #433628",
">>+	c #3E3328",
",>+	c #322920",
"'>+	c #433A30",
")>+	c #625649",
"!>+	c #6A5D4E",
"~>+	c #6B5E4E",
"{>+	c #544839",
"]>+	c #504333",
"^>+	c #5A4B3B",
"/>+	c #665344",
"(>+	c #786452",
"_>+	c #85705C",
":>+	c #877360",
"<>+	c #7E6E5E",
"[>+	c #63584A",
"}>+	c #444038",
"|>+	c #413F34",
"1>+	c #504C3C",
"2>+	c #5A5444",
"3>+	c #5E5949",
"4>+	c #4A4439",
"5>+	c #6E6256",
"6>+	c #867666",
"7>+	c #90816C",
"8>+	c #8E7D6A",
"9>+	c #887767",
"0>+	c #6C5B4E",
"a>+	c #4B392D",
"b>+	c #51463B",
"c>+	c #524944",
"d>+	c #413B39",
"e>+	c #645B54",
"f>+	c #6E6259",
"g>+	c #685B52",
"h>+	c #62574D",
"i>+	c #38362F",
"j>+	c #484038",
"k>+	c #50473D",
"l>+	c #53483F",
"m>+	c #4B4038",
"n>+	c #4A4136",
"o>+	c #867B6F",
"p>+	c #8C8175",
"q>+	c #7E7569",
"r>+	c #342D2A",
"s>+	c #7D7870",
"t>+	c #8A7D6E",
"u>+	c #75695B",
"v>+	c #4E3B30",
"w>+	c #422618",
"x>+	c #5A3728",
"y>+	c #785646",
"z>+	c #856A57",
"A>+	c #88715F",
"B>+	c #877262",
"C>+	c #85735F",
"D>+	c #7C6C57",
"E>+	c #4C3F2F",
"F>+	c #2D2114",
"G>+	c #231609",
"H>+	c #29190A",
"I>+	c #3B2716",
"J>+	c #5B422F",
"K>+	c #674E3D",
"L>+	c #675242",
"M>+	c #5A4637",
"N>+	c #412E22",
"O>+	c #36251D",
"P>+	c #3B2821",
"Q>+	c #412317",
"R>+	c #471204",
"S>+	c #510900",
"T>+	c #5A0F00",
"U>+	c #5C1401",
"V>+	c #571303",
"W>+	c #3D0F02",
"X>+	c #593220",
"Y>+	c #8D6F55",
"Z>+	c #A58C71",
"`>+	c #A58D73",
" ,+	c #89735E",
".,+	c #302418",
"+,+	c #361D1B",
"@,+	c #3C0705",
"#,+	c #4B0301",
"$,+	c #5B0601",
"%,+	c #630801",
"&,+	c #701407",
"*,+	c #67160A",
"=,+	c #460E06",
"-,+	c #200301",
";,+	c #140201",
">,+	c #1A0101",
",,+	c #550E08",
"',+	c #610F06",
"),+	c #5C0C03",
"!,+	c #570E06",
"~,+	c #2F0906",
"{,+	c #29100F",
"],+	c #493836",
"^,+	c #584C47",
"/,+	c #51453F",
"(,+	c #463A34",
"_,+	c #5E5147",
":,+	c #716657",
"<,+	c #736B5F",
"[,+	c #71695E",
"},+	c #706559",
"|,+	c #72675B",
"1,+	c #74695A",
"2,+	c #706658",
"3,+	c #5F584C",
"4,+	c #635D52",
"5,+	c #161317",
"6,+	c #16131A",
"7,+	c #181218",
"8,+	c #191317",
"9,+	c #1A1315",
"0,+	c #1B1316",
"a,+	c #1A1317",
"b,+	c #2D2E2A",
"c,+	c #2B2D2C",
"d,+	c #50483D",
"e,+	c #52483A",
"f,+	c #423526",
"g,+	c #433626",
"h,+	c #413627",
"i,+	c #423729",
"j,+	c #3D3225",
"k,+	c #3D3428",
"l,+	c #2C231E",
"m,+	c #393329",
"n,+	c #40372B",
"o,+	c #7B6D5D",
"p,+	c #584C3C",
"q,+	c #493E2F",
"r,+	c #5C4E40",
"s,+	c #736150",
"t,+	c #7D6856",
"u,+	c #846E59",
"v,+	c #856F59",
"w,+	c #86715C",
"x,+	c #7D6C5A",
"y,+	c #424139",
"z,+	c #4D4A3E",
"A,+	c #676250",
"B,+	c #746C57",
"C,+	c #746F5A",
"D,+	c #605B4D",
"E,+	c #8C7D68",
"F,+	c #6A5A4C",
"G,+	c #4A392F",
"H,+	c #403329",
"I,+	c #3D3B32",
"J,+	c #38362E",
"K,+	c #39362F",
"L,+	c #51473D",
"M,+	c #5A4E43",
"N,+	c #605549",
"O,+	c #8A7E6E",
"P,+	c #998E7D",
"Q,+	c #9D9281",
"R,+	c #908576",
"S,+	c #655A4F",
"T,+	c #504F4C",
"U,+	c #726A62",
"V,+	c #7B7367",
"W,+	c #7B6F64",
"X,+	c #594B42",
"Y,+	c #523F34",
"Z,+	c #60493E",
"`,+	c #72584A",
" '+	c #776150",
".'+	c #766252",
"+'+	c #6F5C4D",
"@'+	c #695A48",
"#'+	c #5F513F",
"$'+	c #524736",
"%'+	c #3C3325",
"&'+	c #282013",
"*'+	c #20170B",
"='+	c #22170B",
"-'+	c #2C1A0D",
";'+	c #402817",
">'+	c #4A2B1F",
",'+	c #4E3025",
"''+	c #482E22",
")'+	c #3E291D",
"!'+	c #3C2E25",
"~'+	c #402519",
"{'+	c #451305",
"]'+	c #4D0A00",
"^'+	c #530C00",
"/'+	c #500E00",
"('+	c #460E01",
"_'+	c #380901",
":'+	c #2E0C03",
"<'+	c #3E2216",
"['+	c #604A38",
"}'+	c #725E4D",
"|'+	c #786454",
"1'+	c #665546",
"2'+	c #42362A",
"3'+	c #2A2217",
"4'+	c #30271F",
"5'+	c #351F1B",
"6'+	c #3C0907",
"7'+	c #4A0402",
"8'+	c #580501",
"9'+	c #620901",
"0'+	c #6C1206",
"a'+	c #611308",
"b'+	c #3B0B04",
"c'+	c #120100",
"d'+	c #250201",
"e'+	c #420502",
"f'+	c #4E0501",
"g'+	c #4D0501",
"h'+	c #4C0804",
"i'+	c #2C0A09",
"j'+	c #25110F",
"k'+	c #473936",
"l'+	c #574B46",
"m'+	c #50443D",
"n'+	c #807565",
"o'+	c #786E5D",
"p'+	c #676051",
"q'+	c #645E51",
"r'+	c #595249",
"s'+	c #594F43",
"t'+	c #564E42",
"u'+	c #181419",
"v'+	c #1A1516",
"w'+	c #1A1517",
"x'+	c #151114",
"y'+	c #1B171A",
"z'+	c #2A2D28",
"A'+	c #514336",
"B'+	c #42382C",
"C'+	c #372E2A",
"D'+	c #3C322B",
"E'+	c #3E3329",
"F'+	c #3F3226",
"G'+	c #413424",
"H'+	c #423629",
"I'+	c #362D23",
"J'+	c #372E25",
"K'+	c #312822",
"L'+	c #2B231F",
"M'+	c #443A2D",
"N'+	c #675B4D",
"O'+	c #7B6F5F",
"P'+	c #6F6253",
"Q'+	c #554A3C",
"R'+	c #463C2F",
"S'+	c #5E5044",
"T'+	c #796758",
"U'+	c #836F5C",
"V'+	c #87715C",
"W'+	c #846E5A",
"X'+	c #826E5A",
"Y'+	c #5E5245",
"Z'+	c #504C40",
"`'+	c #6D6553",
" )+	c #7A705A",
".)+	c #776D58",
"+)+	c #62584E",
"@)+	c #3E372D",
"#)+	c #3D352C",
"$)+	c #564A3F",
"%)+	c #746556",
"&)+	c #8B7C6B",
"*)+	c #948776",
"=)+	c #998C7B",
"-)+	c #6B5F54",
";)+	c #151515",
">)+	c #60554E",
",)+	c #696057",
"')+	c #645952",
"))+	c #63564F",
"!)+	c #63544D",
"~)+	c #675449",
"{)+	c #604C40",
"])+	c #574336",
"^)+	c #49372B",
"/)+	c #372B1F",
"()+	c #31271C",
"_)+	c #272015",
":)+	c #201910",
"<)+	c #1B130B",
"[)+	c #1C1209",
"})+	c #1E1108",
"|)+	c #2A1609",
"1)+	c #33160F",
"2)+	c #3B1C15",
"3)+	c #3C1E17",
"4)+	c #3C241C",
"5)+	c #3A2B23",
"6)+	c #3C3029",
"7)+	c #3D261B",
"8)+	c #400F03",
"9)+	c #4B0700",
"0)+	c #440700",
"a)+	c #360500",
"b)+	c #240200",
"c)+	c #1A0302",
"d)+	c #210F0B",
"e)+	c #372B24",
"f)+	c #322521",
"g)+	c #251C17",
"h)+	c #1C140F",
"i)+	c #331E1A",
"j)+	c #390704",
"k)+	c #590702",
"l)+	c #610901",
"m)+	c #680F04",
"n)+	c #5B1006",
"o)+	c #1E0201",
"p)+	c #3B0503",
"q)+	c #480502",
"r)+	c #470704",
"s)+	c #290909",
"t)+	c #210D0E",
"u)+	c #413432",
"v)+	c #50453F",
"w)+	c #4A3E36",
"x)+	c #483B32",
"y)+	c #64564B",
"z)+	c #877C6C",
"A)+	c #756C5C",
"B)+	c #2E2B24",
"C)+	c #2B2923",
"D)+	c #312C2C",
"E)+	c #30322D",
"F)+	c #594737",
"G)+	c #544434",
"H)+	c #4F4133",
"I)+	c #423425",
"J)+	c #413526",
"K)+	c #544A3D",
"L)+	c #776B5A",
"M)+	c #786C5B",
"N)+	c #695E4E",
"O)+	c #423B2E",
"P)+	c #41392D",
"Q)+	c #544A3C",
"R)+	c #6E6151",
"S)+	c #7B6A59",
"T)+	c #82715E",
"U)+	c #81705D",
"V)+	c #726554",
"W)+	c #404038",
"X)+	c #4F4B3F",
"Y)+	c #6A6351",
"Z)+	c #756D57",
"`)+	c #726955",
" !+	c #615B4C",
".!+	c #696151",
"+!+	c #645B4E",
"@!+	c #363129",
"#!+	c #423E34",
"$!+	c #413D32",
"%!+	c #423E32",
"&!+	c #413C31",
"*!+	c #413B30",
"=!+	c #493D30",
"-!+	c #54493E",
";!+	c #6B5F51",
">!+	c #746756",
",!+	c #766755",
"'!+	c #7E705D",
")!+	c #908472",
"!!+	c #928675",
"~!+	c #8B8071",
"{!+	c #60544E",
"]!+	c #605146",
"^!+	c #544236",
"/!+	c #463125",
"(!+	c #321F15",
"_!+	c #261A10",
":!+	c #20160E",
"<!+	c #1F170F",
"[!+	c #1B140D",
"}!+	c #1B150C",
"|!+	c #1A130A",
"1!+	c #1E150B",
"2!+	c #21160B",
"3!+	c #2B1B10",
"4!+	c #321B16",
"5!+	c #381E19",
"6!+	c #381F19",
"7!+	c #39261F",
"8!+	c #3A2F28",
"9!+	c #3D281D",
"0!+	c #430600",
"a!+	c #330500",
"b!+	c #1F0200",
"c!+	c #150503",
"d!+	c #211A19",
"e!+	c #1F1617",
"f!+	c #1B1513",
"g!+	c #26211B",
"h!+	c #434541",
"i!+	c #4B4C4A",
"j!+	c #36221C",
"k!+	c #3A0904",
"l!+	c #5A0902",
"m!+	c #640D03",
"n!+	c #6B1206",
"o!+	c #5D1307",
"p!+	c #3A0C05",
"q!+	c #120201",
"r!+	c #1F0302",
"s!+	c #480804",
"t!+	c #470703",
"u!+	c #460A06",
"v!+	c #3C0B08",
"w!+	c #290A09",
"x!+	c #21100F",
"y!+	c #423633",
"z!+	c #4B3F35",
"A!+	c #8D8271",
"B!+	c #8B826E",
"C!+	c #7A7361",
"D!+	c #5D584B",
"E!+	c #4F4A42",
"F!+	c #282926",
"G!+	c #2A2B28",
"H!+	c #050308",
"I!+	c #080509",
"J!+	c #0A070A",
"K!+	c #4C4138",
"L!+	c #4F4136",
"M!+	c #4D3D31",
"N!+	c #524031",
"O!+	c #604C39",
"P!+	c #69543F",
"Q!+	c #68543F",
"R!+	c #645341",
"S!+	c #3A3127",
"T!+	c #352C26",
"U!+	c #3B3029",
"V!+	c #413425",
"W!+	c #302920",
"X!+	c #5E574A",
"Y!+	c #645648",
"Z!+	c #615545",
"`!+	c #53493C",
" ~+	c #443D32",
".~+	c #322D24",
"+~+	c #373127",
"@~+	c #453D31",
"#~+	c #5D5144",
"$~+	c #5F5345",
"%~+	c #5F5446",
"&~+	c #4E483B",
"*~+	c #444137",
"=~+	c #585242",
"-~+	c #5F5644",
";~+	c #5F5746",
">~+	c #554F42",
",~+	c #413D33",
"'~+	c #433A2E",
")~+	c #4A3C2E",
"!~+	c #554435",
"~~+	c #584636",
"{~+	c #574535",
"]~+	c #504033",
"^~+	c #4D4033",
"/~+	c #52453C",
"(~+	c #706251",
"_~+	c #746653",
":~+	c #7B705D",
"<~+	c #796D5D",
"[~+	c #332B28",
"}~+	c #5D544F",
"|~+	c #5A524D",
"1~+	c #564A45",
"2~+	c #58453D",
"3~+	c #553A30",
"4~+	c #4F2F23",
"5~+	c #3B1E15",
"6~+	c #21150F",
"7~+	c #201610",
"8~+	c #1D140D",
"9~+	c #1D150C",
"0~+	c #1D1309",
"a~+	c #22140A",
"b~+	c #26160C",
"c~+	c #2C1B13",
"d~+	c #2C1B17",
"e~+	c #32211D",
"f~+	c #332721",
"g~+	c #3D2921",
"h~+	c #3E1003",
"i~+	c #4F0800",
"j~+	c #370700",
"k~+	c #210400",
"l~+	c #120502",
"m~+	c #191111",
"n~+	c #2F2B24",
"o~+	c #4E4E4E",
"p~+	c #44403E",
"q~+	c #36211D",
"r~+	c #380704",
"s~+	c #580701",
"t~+	c #660F04",
"u~+	c #691005",
"v~+	c #601307",
"w~+	c #3D0C05",
"x~+	c #160201",
"y~+	c #210302",
"z~+	c #3D0705",
"A~+	c #480704",
"B~+	c #440705",
"C~+	c #3B0A07",
"D~+	c #280908",
"E~+	c #200E0F",
"F~+	c #453835",
"G~+	c #584B44",
"H~+	c #56493F",
"I~+	c #56473C",
"J~+	c #66594A",
"K~+	c #796F5F",
"L~+	c #857C6A",
"M~+	c #867D6A",
"N~+	c #76705D",
"O~+	c #565244",
"P~+	c #453E39",
"Q~+	c #242422",
"R~+	c #272624",
"S~+	c #282927",
"T~+	c #2D2D29",
"U~+	c #4A423C",
"V~+	c #4F4237",
"W~+	c #544439",
"X~+	c #574539",
"Y~+	c #564234",
"Z~+	c #594433",
"`~+	c #654E39",
" {+	c #6E563E",
".{+	c #6E5841",
"+{+	c #6B5944",
"@{+	c #564838",
"#{+	c #443A2E",
"${+	c #2C2821",
"%{+	c #6E6456",
"&{+	c #6F5F50",
"*{+	c #57483A",
"={+	c #332E25",
"-{+	c #2B2820",
";{+	c #45433B",
">{+	c #494335",
",{+	c #514839",
"'{+	c #18191A",
"){+	c #1F211F",
"!{+	c #433E33",
"~{+	c #453E33",
"{{+	c #4D3D2F",
"]{+	c #594636",
"^{+	c #5D4938",
"/{+	c #5A4736",
"({+	c #534334",
"_{+	c #3C3327",
":{+	c #6A5D4B",
"<{+	c #665745",
"[{+	c #645543",
"}{+	c #5F5240",
"|{+	c #5F5341",
"1{+	c #3E352E",
"2{+	c #4C3D36",
"3{+	c #52382E",
"4{+	c #593125",
"5{+	c #5B2C1E",
"6{+	c #492115",
"7{+	c #331D12",
"8{+	c #261A11",
"9{+	c #241A12",
"0{+	c #241A11",
"a{+	c #2A1B10",
"b{+	c #361910",
"c{+	c #341710",
"d{+	c #301C16",
"e{+	c #281E1B",
"f{+	c #292120",
"g{+	c #3D2C26",
"h{+	c #3D1205",
"i{+	c #4A0700",
"j{+	c #530B00",
"k{+	c #4F0C00",
"l{+	c #3C0901",
"m{+	c #230500",
"n{+	c #130804",
"o{+	c #171212",
"p{+	c #454443",
"q{+	c #535252",
"r{+	c #535351",
"s{+	c #484543",
"t{+	c #382320",
"u{+	c #370806",
"v{+	c #560601",
"w{+	c #660E03",
"x{+	c #6D1206",
"y{+	c #64150A",
"z{+	c #420E07",
"A{+	c #1B0402",
"B{+	c #0C0100",
"C{+	c #230402",
"D{+	c #3E0705",
"E{+	c #470603",
"F{+	c #440805",
"G{+	c #3A0906",
"H{+	c #290A08",
"I{+	c #22100F",
"J{+	c #4D413D",
"K{+	c #6A5D53",
"L{+	c #6B5B4F",
"M{+	c #605644",
"N{+	c #6A614F",
"O{+	c #6D6352",
"P{+	c #3B3530",
"Q{+	c #292528",
"R{+	c #4F4641",
"S{+	c #4B413B",
"T{+	c #43362D",
"U{+	c #46382E",
"V{+	c #4E3F33",
"W{+	c #574237",
"X{+	c #594235",
"Y{+	c #5D4535",
"Z{+	c #6C523B",
"`{+	c #6B523C",
" ]+	c #6A5641",
".]+	c #5B4B3B",
"+]+	c #423528",
"@]+	c #221D18",
"#]+	c #6C6254",
"$]+	c #6E6152",
"%]+	c #675848",
"&]+	c #524132",
"*]+	c #453628",
"=]+	c #4A4134",
"-]+	c #4D4538",
";]+	c #1C1E1F",
">]+	c #453E32",
",]+	c #45382A",
"']+	c #4B3B2C",
")]+	c #594536",
"!]+	c #5D4838",
"~]+	c #594435",
"{]+	c #554233",
"]]+	c #503F32",
"^]+	c #41362C",
"/]+	c #372F25",
"(]+	c #635546",
"_]+	c #625341",
":]+	c #60523F",
"<]+	c #5B4D3C",
"[]+	c #594C3D",
"}]+	c #53463A",
"|]+	c #4B3F36",
"1]+	c #534B43",
"2]+	c #442F29",
"3]+	c #4C231B",
"4]+	c #551911",
"5]+	c #57180E",
"6]+	c #451209",
"7]+	c #2D1209",
"8]+	c #1F120A",
"9]+	c #2B1E15",
"0]+	c #43261C",
"a]+	c #52251B",
"b]+	c #4F1F17",
"c]+	c #3F1610",
"d]+	c #2C1512",
"e]+	c #3A2C29",
"f]+	c #3A1107",
"g]+	c #470600",
"h]+	c #3D0800",
"i]+	c #110603",
"j]+	c #1D181C",
"k]+	c #211D21",
"l]+	c #4E4E4F",
"m]+	c #34201D",
"n]+	c #320604",
"o]+	c #530501",
"p]+	c #6F1307",
"q]+	c #661509",
"r]+	c #440E06",
"s]+	c #1D0302",
"t]+	c #240302",
"u]+	c #3B0504",
"v]+	c #450502",
"w]+	c #3A0806",
"x]+	c #280707",
"y]+	c #220F0F",
"z]+	c #4F423E",
"A]+	c #716255",
"B]+	c #6B5C4F",
"C]+	c #4F4434",
"D]+	c #514938",
"E]+	c #53493B",
"F]+	c #1F1A1C",
"G]+	c #4B423D",
"H]+	c #463B33",
"I]+	c #463930",
"J]+	c #45382E",
"K]+	c #4A3C30",
"L]+	c #503F33",
"M]+	c #533F32",
"N]+	c #5A4434",
"O]+	c #654E3A",
"P]+	c #6B533D",
"Q]+	c #6E5A44",
"R]+	c #483A2B",
"S]+	c #3D3125",
"T]+	c #403328",
"U]+	c #41372C",
"V]+	c #241F19",
"W]+	c #55483D",
"X]+	c #534536",
"Y]+	c #493A2B",
"Z]+	c #413B31",
"`]+	c #463F32",
" ^+	c #47382A",
".^+	c #4C3C2C",
"+^+	c #564333",
"@^+	c #5A4536",
"#^+	c #4F3E30",
"$^+	c #483A2E",
"%^+	c #625545",
"&^+	c #645442",
"*^+	c #5C4E3D",
"=^+	c #4E443D",
"-^+	c #4E4138",
";^+	c #4D2D25",
">^+	c #51150E",
",^+	c #530703",
"'^+	c #3A0401",
")^+	c #220802",
"!^+	c #120A04",
"~^+	c #2A1C15",
"{^+	c #4E271F",
"]^+	c #5F251D",
"^^+	c #582018",
"/^+	c #431710",
"(^+	c #2B1612",
"_^+	c #1B2020",
":^+	c #1D2223",
"<^+	c #292D2C",
"[^+	c #353938",
"}^+	c #392F2C",
"|^+	c #361208",
"1^+	c #450800",
"2^+	c #510A00",
"3^+	c #400901",
"4^+	c #250601",
"5^+	c #130906",
"6^+	c #1C181C",
"7^+	c #333430",
"8^+	c #2D1B18",
"9^+	c #2A0403",
"0^+	c #500402",
"a^+	c #670F05",
"b^+	c #711407",
"c^+	c #671509",
"d^+	c #250302",
"e^+	c #3C0504",
"f^+	c #450603",
"g^+	c #420402",
"h^+	c #400503",
"i^+	c #231011",
"j^+	c #4F433F",
"k^+	c #716456",
"l^+	c #453C2F",
"m^+	c #443E2F",
"n^+	c #453F31",
"o^+	c #252421",
"p^+	c #262224",
"q^+	c #2F2A2C",
"r^+	c #2F2729",
"s^+	c #261F20",
"t^+	c #473F3B",
"u^+	c #40352C",
"v^+	c #3E352A",
"w^+	c #433429",
"x^+	c #4C3C2E",
"y^+	c #664F3C",
"z^+	c #66513C",
"A^+	c #695640",
"B^+	c #61503D",
"C^+	c #483B2B",
"D^+	c #4A3D2E",
"E^+	c #483A2C",
"F^+	c #46382A",
"G^+	c #3D3325",
"H^+	c #28211A",
"I^+	c #2B2119",
"J^+	c #49392C",
"K^+	c #493A2C",
"L^+	c #423529",
"M^+	c #292621",
"N^+	c #2A2923",
"O^+	c #302F28",
"P^+	c #434037",
"Q^+	c #26221B",
"R^+	c #241E18",
"S^+	c #39362E",
"T^+	c #473E33",
"U^+	c #483F32",
"V^+	c #473B2E",
"W^+	c #4C3B2C",
"X^+	c #513E2F",
"Y^+	c #4F3C2E",
"Z^+	c #49382B",
"`^+	c #433428",
" /+	c #5E5241",
"./+	c #635543",
"+/+	c #615140",
"@/+	c #504233",
"#/+	c #43352E",
"$/+	c #4B3C33",
"%/+	c #543E32",
"&/+	c #55261F",
"*/+	c #550905",
"=/+	c #4F0100",
"-/+	c #400E08",
";/+	c #2F1C15",
">/+	c #291C17",
",/+	c #431D16",
"'/+	c #4E1912",
")/+	c #4A140E",
"!/+	c #3A120C",
"~/+	c #281512",
"{/+	c #1C2122",
"]/+	c #1E2324",
"^/+	c #2A2F2E",
"//+	c #363A3A",
"(/+	c #301008",
"_/+	c #510800",
":/+	c #530A00",
"</+	c #440901",
"[/+	c #270601",
"}/+	c #120806",
"|/+	c #272123",
"1/+	c #221210",
"2/+	c #4B0402",
"3/+	c #680F06",
"4/+	c #711306",
"5/+	c #671408",
"6/+	c #3C0303",
"7/+	c #420301",
"8/+	c #420705",
"9/+	c #390705",
"0/+	c #290908",
"a/+	c #210E0F",
"b/+	c #4C3E3C",
"c/+	c #363025",
"d/+	c #353025",
"e/+	c #4A443D",
"f/+	c #1F1F1C",
"g/+	c #383335",
"h/+	c #3D3737",
"i/+	c #3C3535",
"j/+	c #352F25",
"k/+	c #372C23",
"l/+	c #64513E",
"m/+	c #63513C",
"n/+	c #64533D",
"o/+	c #62523D",
"p/+	c #574835",
"q/+	c #534432",
"r/+	c #554734",
"s/+	c #514231",
"t/+	c #493C2B",
"u/+	c #16110E",
"v/+	c #19110B",
"w/+	c #30241B",
"x/+	c #4A3A2F",
"y/+	c #292721",
"z/+	c #120D09",
"A/+	c #0D0705",
"B/+	c #1D1F20",
"C/+	c #4C483D",
"D/+	c #3E3A31",
"E/+	c #3C3A32",
"F/+	c #36342C",
"G/+	c #4C3E31",
"H/+	c #4D3C2F",
"I/+	c #4E3D2F",
"J/+	c #4A392C",
"K/+	c #423226",
"L/+	c #3E3125",
"M/+	c #352E25",
"N/+	c #675C4B",
"O/+	c #6E6150",
"P/+	c #473B2C",
"Q/+	c #42372A",
"R/+	c #3B322A",
"S/+	c #202220",
"T/+	c #323431",
"U/+	c #463129",
"V/+	c #51382C",
"W/+	c #54382C",
"X/+	c #5E3C2D",
"Y/+	c #5E261C",
"Z/+	c #580905",
"`/+	c #4D0100",
" (+	c #470201",
".(+	c #4B1B14",
"+(+	c #493B36",
"@(+	c #33251F",
"#(+	c #39150D",
"$(+	c #400C08",
"%(+	c #291614",
"&(+	c #1F2424",
"*(+	c #252929",
"=(+	c #323634",
"-(+	c #3D403E",
";(+	c #434545",
">(+	c #3B3330",
",(+	c #32140B",
"'(+	c #430901",
")(+	c #580C00",
"!(+	c #480B01",
"~(+	c #2A0702",
"{(+	c #150A07",
"](+	c #241E22",
"^(+	c #2B2526",
"/(+	c #2A2325",
"((+	c #1E1F1C",
"_(+	c #1B0F0D",
":(+	c #460402",
"<(+	c #660E05",
"[(+	c #731407",
"}(+	c #450E06",
"|(+	c #230201",
"1(+	c #3B0405",
"2(+	c #470605",
"3(+	c #480705",
"4(+	c #470907",
"5(+	c #3C0A07",
"6(+	c #2B0C0A",
"7(+	c #22110F",
"8(+	c #493B38",
"9(+	c #51493F",
"0(+	c #453E35",
"a(+	c #2D2921",
"b(+	c #010200",
"c(+	c #000200",
"d(+	c #231E20",
"e(+	c #312A2C",
"f(+	c #352E2F",
"g(+	c #0A0608",
"h(+	c #463D36",
"i(+	c #5B4C3C",
"j(+	c #5E4E3B",
"k(+	c #5F503C",
"l(+	c #5C4C39",
"m(+	c #574834",
"n(+	c #554533",
"o(+	c #584734",
"p(+	c #554532",
"q(+	c #4A3C2A",
"r(+	c #3A3124",
"s(+	c #161311",
"t(+	c #1B1613",
"u(+	c #1A130C",
"v(+	c #48382E",
"w(+	c #47382D",
"x(+	c #3A352C",
"y(+	c #433D32",
"z(+	c #464136",
"A(+	c #0C0906",
"B(+	c #020003",
"C(+	c #49443A",
"D(+	c #3D3B33",
"E(+	c #3B3931",
"F(+	c #483F33",
"G(+	c #4E3E32",
"H(+	c #4E3C30",
"I(+	c #48372B",
"J(+	c #3F3125",
"K(+	c #372B22",
"L(+	c #332B24",
"M(+	c #5D5346",
"N(+	c #726756",
"O(+	c #7A6D5C",
"P(+	c #6F6151",
"Q(+	c #564A3A",
"R(+	c #492F26",
"S(+	c #502D20",
"T(+	c #4F271A",
"U(+	c #572B1C",
"V(+	c #581C13",
"W(+	c #4F0403",
"X(+	c #410000",
"Y(+	c #3D0000",
"Z(+	c #421710",
"`(+	c #3F4644",
" _+	c #382722",
"._+	c #3A130B",
"+_+	c #3F0805",
"@_+	c #410907",
"#_+	c #360E0C",
"$_+	c #291615",
"%_+	c #212425",
"&_+	c #434442",
"*_+	c #4A4B4B",
"=_+	c #433937",
"-_+	c #34160D",
";_+	c #5A0B00",
">_+	c #4A0901",
",_+	c #2C0702",
"'_+	c #140907",
")_+	c #261F23",
"!_+	c #2A2323",
"~_+	c #1A1713",
"{_+	c #171611",
"]_+	c #1B1C19",
"^_+	c #150B0A",
"/_+	c #3F0201",
"(_+	c #640D05",
"__+	c #641308",
":_+	c #410C05",
"<_+	c #200300",
"[_+	c #1F0101",
"}_+	c #360506",
"|_+	c #430708",
"1_+	c #460807",
"2_+	c #450A09",
"3_+	c #3B0C0B",
"4_+	c #2A0D0C",
"5_+	c #1E0E0D",
"6_+	c #3F3230",
"7_+	c #32312A",
"8_+	c #040900",
"9_+	c #080E00",
"0_+	c #0A0E00",
"a_+	c #0B1001",
"b_+	c #080B01",
"c_+	c #070903",
"d_+	c #030401",
"e_+	c #040402",
"f_+	c #050502",
"g_+	c #050601",
"h_+	c #030400",
"i_+	c #020500",
"j_+	c #030600",
"k_+	c #030700",
"l_+	c #050900",
"m_+	c #070A00",
"n_+	c #080D00",
"o_+	c #090C01",
"p_+	c #040500",
"q_+	c #161012",
"r_+	c #1D1617",
"s_+	c #1D1616",
"t_+	c #3B3328",
"u_+	c #3D3529",
"v_+	c #3C3529",
"w_+	c #3C372B",
"x_+	c #4F4537",
"y_+	c #594D3C",
"z_+	c #594B39",
"A_+	c #564735",
"B_+	c #534632",
"C_+	c #594A35",
"D_+	c #5C4C37",
"E_+	c #493B2A",
"F_+	c #3C3326",
"G_+	c #231E19",
"H_+	c #191511",
"I_+	c #27221B",
"J_+	c #3C382E",
"K_+	c #3C382F",
"L_+	c #544C3E",
"M_+	c #615748",
"N_+	c #1E2021",
"O_+	c #1F2121",
"P_+	c #222320",
"Q_+	c #47443A",
"R_+	c #474338",
"S_+	c #454135",
"T_+	c #433F34",
"U_+	c #403B31",
"V_+	c #42372C",
"W_+	c #46382C",
"X_+	c #42352A",
"Y_+	c #544C3F",
"Z_+	c #625748",
"`_+	c #493F30",
" :+	c #3D3427",
".:+	c #3C3428",
"+:+	c #1D1F1C",
"@:+	c #252823",
"#:+	c #2C2A23",
"$:+	c #3D3026",
"%:+	c #42261F",
"&:+	c #401A12",
"*:+	c #3A120A",
"=:+	c #3F1509",
"-:+	c #410B06",
";:+	c #410203",
">:+	c #3B0000",
",:+	c #39110C",
"':+	c #39413D",
"):+	c #392620",
"!:+	c #3C120A",
"~:+	c #420B06",
"{:+	c #450D0A",
"]:+	c #390F0D",
"^:+	c #2C1816",
"/:+	c #232627",
"(:+	c #353837",
"_:+	c #424441",
"::+	c #494946",
"<:+	c #51524F",
"[:+	c #483F3C",
"}:+	c #361A11",
"|:+	c #420A02",
"1:+	c #4A0A01",
"2:+	c #2C0701",
"3:+	c #160B07",
"4:+	c #2A2324",
"5:+	c #1F1C17",
"6:+	c #201F1B",
"7:+	c #120A0A",
"8:+	c #6C1207",
"9:+	c #5C1208",
"0:+	c #3A0B04",
"a:+	c #1F0300",
"b:+	c #130100",
"c:+	c #220203",
"d:+	c #250101",
"e:+	c #2B0504",
"f:+	c #210E0D",
"g:+	c #1A0F0E",
"h:+	c #362E2B",
"i:+	c #47463D",
"j:+	c #3B332D",
"k:+	c #010601",
"l:+	c #070F02",
"m:+	c #0E1601",
"n:+	c #111600",
"o:+	c #111701",
"p:+	c #0B0F01",
"q:+	c #070A03",
"r:+	c #060805",
"s:+	c #070806",
"t:+	c #040502",
"u:+	c #080B05",
"v:+	c #0B0E0A",
"w:+	c #0E100D",
"x:+	c #0D100B",
"y:+	c #0D100A",
"z:+	c #0A0D07",
"A:+	c #070B03",
"B:+	c #030900",
"C:+	c #030800",
"D:+	c #020800",
"E:+	c #050C00",
"F:+	c #0D1503",
"G:+	c #131B06",
"H:+	c #19220A",
"I:+	c #19200B",
"J:+	c #141909",
"K:+	c #080B02",
"L:+	c #181418",
"M:+	c #0E090C",
"N:+	c #0F0A0B",
"O:+	c #0E090A",
"P:+	c #0D0809",
"Q:+	c #0E0808",
"R:+	c #0B0606",
"S:+	c #231B18",
"T:+	c #282018",
"U:+	c #2E261A",
"V:+	c #3D382A",
"W:+	c #3A362A",
"X:+	c #393126",
"Y:+	c #4F3F2D",
"Z:+	c #4F412D",
"`:+	c #5A4935",
" <+	c #5F4D39",
".<+	c #534230",
"+<+	c #453626",
"@<+	c #352C20",
"#<+	c #474034",
"$<+	c #4A443B",
"%<+	c #6F6553",
"&<+	c #867663",
"*<+	c #817362",
"=<+	c #1F2223",
"-<+	c #403C32",
";<+	c #312D25",
"><+	c #382D22",
",<+	c #403127",
"'<+	c #493A2F",
")<+	c #4F4035",
"!<+	c #4B3E33",
"~<+	c #42382D",
"{<+	c #3B342A",
"]<+	c #3F3629",
"^<+	c #3B3327",
"/<+	c #222420",
"(<+	c #362A23",
"_<+	c #3C221B",
":<+	c #381611",
"<<+	c #2E0C09",
"[<+	c #300F08",
"}<+	c #370101",
"|<+	c #320D0B",
"1<+	c #363B36",
"2<+	c #3A221D",
"3<+	c #3D0E08",
"4<+	c #440804",
"5<+	c #470D0A",
"6<+	c #3B100E",
"7<+	c #2B1514",
"8<+	c #464744",
"9<+	c #4B4B47",
"0<+	c #51514E",
"a<+	c #49413F",
"b<+	c #361B14",
"c<+	c #410A03",
"d<+	c #580900",
"e<+	c #150B08",
"f<+	c #221B20",
"g<+	c #261F1C",
"h<+	c #1D1C18",
"i<+	c #222321",
"j<+	c #0F0808",
"k<+	c #570C06",
"l<+	c #620F07",
"m<+	c #320702",
"n<+	c #190302",
"o<+	c #140A0A",
"p<+	c #010701",
"q<+	c #071102",
"r<+	c #0F1702",
"s<+	c #161C01",
"t<+	c #151B02",
"u<+	c #0C1202",
"v<+	c #060A03",
"w<+	c #040604",
"x<+	c #040504",
"y<+	c #060704",
"z<+	c #0B0F08",
"A<+	c #0F130F",
"B<+	c #101310",
"C<+	c #111410",
"D<+	c #10130F",
"E<+	c #0F130D",
"F<+	c #0B1009",
"G<+	c #080E05",
"H<+	c #050B01",
"I<+	c #040B00",
"J<+	c #030A00",
"K<+	c #040C00",
"L<+	c #060F00",
"M<+	c #0F1805",
"N<+	c #141D06",
"O<+	c #1B250A",
"P<+	c #1A220B",
"Q<+	c #121706",
"R<+	c #060900",
"S<+	c #100B0C",
"T<+	c #0D090A",
"U<+	c #0C0708",
"V<+	c #090505",
"W<+	c #17120D",
"X<+	c #15100B",
"Y<+	c #17110C",
"Z<+	c #16100C",
"`<+	c #18110C",
" [+	c #1F160E",
".[+	c #281F13",
"+[+	c #382F22",
"@[+	c #3E372A",
"#[+	c #3E3A2C",
"$[+	c #342F25",
"%[+	c #393227",
"&[+	c #493F33",
"*[+	c #514537",
"=[+	c #4D4030",
"-[+	c #4A3C2B",
";[+	c #493927",
">[+	c #4F402C",
",[+	c #5C4A37",
"'[+	c #614E3B",
")[+	c #544431",
"![+	c #433525",
"~[+	c #3F3328",
"{[+	c #3E3529",
"][+	c #31261C",
"^[+	c #281F16",
"/[+	c #282017",
"([+	c #473D30",
"_[+	c #4A4237",
":[+	c #5B5247",
"<[+	c #796D5B",
"[[+	c #8A7B66",
"}[+	c #94836C",
"|[+	c #94826B",
"1[+	c #8D7E6A",
"2[+	c #1E1C17",
"3[+	c #16181A",
"4[+	c #222526",
"5[+	c #362C22",
"6[+	c #4A3C31",
"7[+	c #4E4135",
"8[+	c #383128",
"9[+	c #322C21",
"0[+	c #191B1A",
"a[+	c #262823",
"b[+	c #352B21",
"c[+	c #3C271D",
"d[+	c #361D19",
"e[+	c #2B1313",
"f[+	c #2C130E",
"g[+	c #2D0404",
"h[+	c #310E0D",
"i[+	c #363C36",
"j[+	c #3D221E",
"k[+	c #411009",
"l[+	c #450A06",
"m[+	c #460D0B",
"n[+	c #39100D",
"o[+	c #2A1614",
"p[+	c #3A3C3C",
"q[+	c #4A4B48",
"r[+	c #4D4D48",
"s[+	c #371E16",
"t[+	c #550901",
"u[+	c #570700",
"v[+	c #480801",
"w[+	c #2C0803",
"x[+	c #170D0A",
"y[+	c #201A1E",
"z[+	c #272219",
"A[+	c #201B14",
"B[+	c #1F1B14",
"C[+	c #20201C",
"D[+	c #0D0707",
"E[+	c #4C0E08",
"F[+	c #531009",
"G[+	c #3F0903",
"H[+	c #290400",
"I[+	c #200401",
"J[+	c #200604",
"K[+	c #0C0407",
"L[+	c #2F2725",
"M[+	c #42413A",
"N[+	c #494740",
"O[+	c #252420",
"P[+	c #272620",
"Q[+	c #000601",
"R[+	c #030C01",
"S[+	c #0E1603",
"T[+	c #151902",
"U[+	c #141A01",
"V[+	c #070B02",
"W[+	c #040703",
"X[+	c #050704",
"Y[+	c #030502",
"Z[+	c #030503",
"`[+	c #0A0D06",
" }+	c #0F110F",
".}+	c #0F120F",
"+}+	c #0E110D",
"@}+	c #090E05",
"#}+	c #060C01",
"$}+	c #050A00",
"%}+	c #040A00",
"&}+	c #050D00",
"*}+	c #060E00",
"=}+	c #0C1403",
"-}+	c #121B05",
";}+	c #172006",
">}+	c #171E07",
",}+	c #191518",
"'}+	c #171216",
")}+	c #151014",
"!}+	c #0F090A",
"~}+	c #100A0A",
"{}+	c #0E0909",
"]}+	c #0D0808",
"^}+	c #0D0708",
"/}+	c #241D18",
"(}+	c #1E160F",
"_}+	c #1D160F",
":}+	c #1B130D",
"<}+	c #1A120C",
"[}+	c #1F160F",
"}}+	c #271D12",
"|}+	c #2E2417",
"1}+	c #3B3427",
"2}+	c #3B372A",
"3}+	c #39352A",
"4}+	c #373229",
"5}+	c #4E4337",
"6}+	c #463B2A",
"7}+	c #463827",
"8}+	c #604E3C",
"9}+	c #604E3B",
"0}+	c #50402D",
"a}+	c #403223",
"b}+	c #392E21",
"c}+	c #3D332B",
"d}+	c #3E362D",
"e}+	c #2D261E",
"f}+	c #4B3F30",
"g}+	c #4F4131",
"h}+	c #4F453B",
"i}+	c #655B4D",
"j}+	c #8A7B67",
"k}+	c #918068",
"l}+	c #897B66",
"m}+	c #686051",
"n}+	c #211E18",
"o}+	c #383731",
"p}+	c #433F35",
"q}+	c #3E3B31",
"r}+	c #302E29",
"s}+	c #4D4035",
"t}+	c #43392D",
"u}+	c #342E25",
"v}+	c #332E23",
"w}+	c #3A3529",
"x}+	c #1B1E1C",
"y}+	c #341E19",
"z}+	c #251313",
"A}+	c #1D1010",
"B}+	c #200B0A",
"C}+	c #2A0404",
"D}+	c #350101",
"E}+	c #33100F",
"F}+	c #343933",
"G}+	c #41211E",
"H}+	c #450F08",
"I}+	c #470A04",
"J}+	c #440D0A",
"K}+	c #391511",
"L}+	c #2D1C18",
"M}+	c #4A413D",
"N}+	c #381D16",
"O}+	c #550701",
"P}+	c #560600",
"Q}+	c #2D0803",
"R}+	c #190D0D",
"S}+	c #2E2521",
"T}+	c #2C241A",
"U}+	c #251E15",
"V}+	c #231C13",
"W}+	c #27251E",
"X}+	c #282723",
"Y}+	c #100707",
"Z}+	c #230302",
"`}+	c #3A0C09",
" |+	c #3C0C08",
".|+	c #2D0703",
"+|+	c #220401",
"@|+	c #1E0302",
"#|+	c #230705",
"$|+	c #170101",
"%|+	c #483E39",
"&|+	c #2B2721",
"*|+	c #000901",
"=|+	c #020B01",
"-|+	c #101706",
";|+	c #191C06",
">|+	c #192006",
",|+	c #121905",
"'|+	c #12190A",
")|+	c #12180D",
"!|+	c #141A10",
"~|+	c #12170F",
"{|+	c #0F140D",
"]|+	c #080A06",
"^|+	c #060802",
"/|+	c #090B04",
"(|+	c #0E1008",
"_|+	c #0D1103",
":|+	c #0A1000",
"<|+	c #070C00",
"[|+	c #070D00",
"}|+	c #0B1203",
"||+	c #0E1503",
"1|+	c #151D08",
"2|+	c #171E0B",
"3|+	c #101507",
"4|+	c #040600",
"5|+	c #130E11",
"6|+	c #130E12",
"7|+	c #120D10",
"8|+	c #150F11",
"9|+	c #181011",
"0|+	c #171010",
"a|+	c #16100F",
"b|+	c #34291F",
"c|+	c #31261B",
"d|+	c #2C2016",
"e|+	c #2A1F14",
"f|+	c #281D12",
"g|+	c #2C2117",
"h|+	c #382C21",
"i|+	c #413326",
"j|+	c #3C3324",
"k|+	c #353023",
"l|+	c #333024",
"m|+	c #322F25",
"n|+	c #332F26",
"o|+	c #41362B",
"p|+	c #423829",
"q|+	c #5B4B39",
"r|+	c #5B4A38",
"s|+	c #493A2A",
"t|+	c #3A2C20",
"u|+	c #332B20",
"v|+	c #2E2A24",
"w|+	c #3B342E",
"x|+	c #463A2C",
"y|+	c #4B3E30",
"z|+	c #665643",
"A|+	c #6D5A44",
"B|+	c #6B5843",
"C|+	c #665442",
"D|+	c #615142",
"E|+	c #5E5345",
"F|+	c #6E614F",
"G|+	c #7A6A56",
"H|+	c #816F59",
"I|+	c #7C6E5A",
"J|+	c #61594B",
"K|+	c #15120E",
"L|+	c #1F2220",
"M|+	c #31302A",
"N|+	c #34302A",
"O|+	c #483B31",
"P|+	c #504237",
"Q|+	c #363227",
"R|+	c #393529",
"S|+	c #423C30",
"T|+	c #464135",
"U|+	c #1E201C",
"V|+	c #2A2821",
"W|+	c #372D21",
"X|+	c #432F22",
"Y|+	c #2E1612",
"Z|+	c #110406",
"`|+	c #080304",
" 1+	c #0E0202",
".1+	c #260203",
"+1+	c #340202",
"@1+	c #351512",
"#1+	c #363932",
"$1+	c #48231F",
"%1+	c #4B1109",
"&1+	c #4A0E05",
"*1+	c #481811",
"=1+	c #422721",
"-1+	c #3D322C",
";1+	c #3A1E15",
">1+	c #440904",
",1+	c #560802",
"'1+	c #490701",
")1+	c #2E0903",
"!1+	c #1C100F",
"~1+	c #231C1F",
"{1+	c #352B20",
"]1+	c #30271B",
"^1+	c #180A09",
"/1+	c #1D0202",
"(1+	c #230604",
"_1+	c #200704",
":1+	c #170301",
"<1+	c #170401",
"[1+	c #1D0705",
"}1+	c #260A09",
"|1+	c #1B0202",
"11+	c #070101",
"21+	c #332E28",
"31+	c #32322D",
"41+	c #2F2D28",
"51+	c #000B01",
"61+	c #030A02",
"71+	c #1A1B0B",
"81+	c #1B1E09",
"91+	c #19200A",
"01+	c #212B17",
"a1+	c #232E1D",
"b1+	c #273522",
"c1+	c #273223",
"d1+	c #232B1F",
"e1+	c #141A11",
"f1+	c #0F110D",
"g1+	c #0F110E",
"h1+	c #0E110B",
"i1+	c #12140C",
"j1+	c #1D2113",
"k1+	c #1E2412",
"l1+	c #1C230E",
"m1+	c #182009",
"n1+	c #101703",
"o1+	c #0A1101",
"p1+	c #050A01",
"q1+	c #050A02",
"r1+	c #080D03",
"s1+	c #101607",
"t1+	c #12170A",
"u1+	c #0C1106",
"v1+	c #110C0E",
"w1+	c #0F0A0D",
"x1+	c #110B0D",
"y1+	c #1A1214",
"z1+	c #221918",
"A1+	c #201817",
"B1+	c #3E3121",
"C1+	c #3A2C1E",
"D1+	c #352718",
"E1+	c #3E3021",
"F1+	c #574636",
"G1+	c #3D3324",
"H1+	c #2F2A1E",
"I1+	c #2B291E",
"J1+	c #2D2A22",
"K1+	c #372D25",
"L1+	c #392E22",
"M1+	c #3D3024",
"N1+	c #453729",
"O1+	c #4C3C2B",
"P1+	c #31261F",
"Q1+	c #2D241C",
"R1+	c #221B14",
"S1+	c #19150E",
"T1+	c #191611",
"U1+	c #4D3E2F",
"V1+	c #4E3F2F",
"W1+	c #4A3C2D",
"X1+	c #433527",
"Y1+	c #564534",
"Z1+	c #77624B",
"`1+	c #7E664A",
" 2+	c #7C634A",
".2+	c #7A634C",
"+2+	c #75614D",
"@2+	c #6B5B4B",
"#2+	c #4F4236",
"$2+	c #685745",
"%2+	c #6E5D49",
"&2+	c #6D5C47",
"*2+	c #6C5E4D",
"=2+	c #5A5146",
"-2+	c #463B31",
";2+	c #4A3E34",
">2+	c #383127",
",2+	c #373228",
"'2+	c #363126",
")2+	c #1E1E18",
"!2+	c #2F2C21",
"~2+	c #3B2A1D",
"{2+	c #45291F",
"]2+	c #29100E",
"^2+	c #080002",
"/2+	c #220103",
"(2+	c #380103",
"_2+	c #3A0101",
":2+	c #320201",
"<2+	c #331411",
"[2+	c #363831",
"}2+	c #40332E",
"|2+	c #4C211F",
"12+	c #4F130B",
"22+	c #4D1207",
"32+	c #4D241A",
"42+	c #4C3A33",
"52+	c #484843",
"62+	c #4F4A45",
"72+	c #391C15",
"82+	c #560702",
"92+	c #1B100F",
"02+	c #231E22",
"a2+	c #231D20",
"b2+	c #3B3129",
"c2+	c #483D34",
"d2+	c #3F3532",
"e2+	c #260F11",
"f2+	c #1F0204",
"g2+	c #1E0102",
"h2+	c #070100",
"i2+	c #180807",
"j2+	c #240909",
"k2+	c #200405",
"l2+	c #0E0404",
"m2+	c #100A0B",
"n2+	c #322825",
"o2+	c #463A35",
"p2+	c #35322A",
"q2+	c #010D03",
"r2+	c #12150C",
"s2+	c #1A190E",
"t2+	c #1B1D0C",
"u2+	c #232F18",
"v2+	c #26361F",
"w2+	c #273A22",
"x2+	c #263723",
"y2+	c #243220",
"z2+	c #151E12",
"A2+	c #0E140A",
"B2+	c #0F130B",
"C2+	c #0B0D0B",
"D2+	c #0A0D09",
"E2+	c #12140B",
"F2+	c #1E2213",
"G2+	c #212613",
"H2+	c #1E250E",
"I2+	c #161C09",
"J2+	c #0F1607",
"K2+	c #050A03",
"L2+	c #050802",
"M2+	c #060902",
"N2+	c #040602",
"O2+	c #120E11",
"P2+	c #100C0E",
"Q2+	c #0D080B",
"R2+	c #221A1A",
"S2+	c #231A18",
"T2+	c #1F1715",
"U2+	c #433727",
"V2+	c #403222",
"W2+	c #3B2D1E",
"X2+	c #3B2B1C",
"Y2+	c #433324",
"Z2+	c #544333",
"`2+	c #3C3526",
" 3+	c #2D291E",
".3+	c #2A281E",
"+3+	c #28261F",
"@3+	c #342920",
"#3+	c #3B2D22",
"$3+	c #423427",
"%3+	c #453527",
"&3+	c #463527",
"*3+	c #3F2F23",
"=3+	c #3A2C23",
"-3+	c #14110B",
";3+	c #13110D",
">3+	c #4F4030",
",3+	c #4F3F2E",
"'3+	c #483828",
")3+	c #594734",
"!3+	c #78624A",
"~3+	c #80674A",
"{3+	c #816649",
"]3+	c #7F6549",
"^3+	c #7E644A",
"/3+	c #7C6750",
"(3+	c #715F4E",
"_3+	c #584D3F",
":3+	c #5E5141",
"<3+	c #625240",
"[3+	c #685744",
"}3+	c #675A4A",
"|3+	c #2C2820",
"13+	c #1B1D1E",
"23+	c #1D1F1F",
"33+	c #3D392E",
"43+	c #48453A",
"53+	c #424136",
"63+	c #0E0F0C",
"73+	c #1E2016",
"83+	c #302C1D",
"93+	c #3C2C1B",
"03+	c #442A1D",
"a3+	c #280F0B",
"b3+	c #220002",
"c3+	c #390104",
"d3+	c #340402",
"e3+	c #321510",
"f3+	c #373830",
"g3+	c #41332E",
"h3+	c #4E211F",
"i3+	c #54150D",
"j3+	c #51150B",
"k3+	c #4E251D",
"l3+	c #4B3E37",
"m3+	c #4C4D45",
"n3+	c #4A4C46",
"o3+	c #4D4B46",
"p3+	c #453934",
"q3+	c #381B15",
"r3+	c #440A06",
"s3+	c #560703",
"t3+	c #570601",
"u3+	c #2F0B05",
"v3+	c #1B1212",
"w3+	c #4A3E32",
"x3+	c #5C4F42",
"y3+	c #331416",
"z3+	c #2D0408",
"A3+	c #2A0205",
"B3+	c #1A0102",
"C3+	c #130707",
"D3+	c #230C0C",
"E3+	c #240708",
"F3+	c #130101",
"G3+	c #160A09",
"H3+	c #352825",
"I3+	c #463833",
"J3+	c #3A3839",
"K3+	c #42423D",
"L3+	c #24241F",
"M3+	c #010D04",
"N3+	c #040A06",
"O3+	c #10100C",
"P3+	c #16150A",
"Q3+	c #171D0B",
"R3+	c #1E2813",
"S3+	c #22321A",
"T3+	c #253A1E",
"U3+	c #21331C",
"V3+	c #1F2D1A",
"W3+	c #141D10",
"X3+	c #0E1408",
"Y3+	c #0D1208",
"Z3+	c #0A0C09",
"`3+	c #0E0E08",
" 4+	c #15150C",
".4+	c #171A0B",
"+4+	c #151908",
"@4+	c #161A08",
"#4+	c #141708",
"$4+	c #0C1006",
"%4+	c #050206",
"&4+	c #140F13",
"*4+	c #140E11",
"=4+	c #130D11",
"-4+	c #100B0E",
";4+	c #110B0F",
">4+	c #0F090D",
",4+	c #0D070B",
"'4+	c #231818",
")4+	c #261C19",
"!4+	c #271C19",
"~4+	c #201614",
"{4+	c #40362B",
"]4+	c #3F3528",
"^4+	c #3B3022",
"/4+	c #392C1E",
"(4+	c #35281A",
"_4+	c #37291A",
":4+	c #36281B",
"<4+	c #3D2E21",
"[4+	c #473C2C",
"}4+	c #352D21",
"|4+	c #29251C",
"14+	c #28271F",
"24+	c #342922",
"34+	c #382C23",
"44+	c #3F3326",
"54+	c #30251E",
"64+	c #2A211E",
"74+	c #14100C",
"84+	c #40382D",
"94+	c #382D25",
"04+	c #514031",
"a4+	c #564633",
"b4+	c #524231",
"c4+	c #4B3A28",
"d4+	c #594632",
"e4+	c #776149",
"f4+	c #81674B",
"g4+	c #81664A",
"h4+	c #7E6449",
"i4+	c #7C644A",
"j4+	c #7B664F",
"k4+	c #705E4D",
"l4+	c #5B4C3F",
"m4+	c #514439",
"n4+	c #584C40",
"o4+	c #5E4E3F",
"p4+	c #645343",
"q4+	c #665545",
"r4+	c #65574A",
"s4+	c #2B2720",
"t4+	c #181919",
"u4+	c #37342A",
"v4+	c #39362D",
"w4+	c #403D33",
"x4+	c #0F0F0B",
"y4+	c #1E1D12",
"z4+	c #2D2816",
"A4+	c #382714",
"B4+	c #3B2012",
"C4+	c #240A06",
"D4+	c #0F0103",
"E4+	c #170102",
"F4+	c #290002",
"G4+	c #3C0102",
"H4+	c #3E0101",
"I4+	c #380302",
"J4+	c #31110E",
"K4+	c #36352E",
"L4+	c #42322D",
"M4+	c #4E1F1E",
"N4+	c #55120C",
"O4+	c #54130A",
"P4+	c #4E221C",
"Q4+	c #483A34",
"R4+	c #494942",
"S4+	c #4A4A44",
"T4+	c #361812",
"U4+	c #430806",
"V4+	c #550502",
"W4+	c #560401",
"X4+	c #4A0701",
"Y4+	c #300B06",
"Z4+	c #252023",
"`4+	c #645449",
" 5+	c #66574E",
".5+	c #5E534A",
"+5+	c #58504B",
"@5+	c #564D4A",
"#5+	c #4B3A37",
"$5+	c #381416",
"%5+	c #330307",
"&5+	c #2F0205",
"*5+	c #1D0102",
"=5+	c #100605",
"-5+	c #220A0B",
";5+	c #250507",
">5+	c #150002",
",5+	c #1C0C0B",
"'5+	c #362322",
")5+	c #452F2C",
"!5+	c #403430",
"~5+	c #030E05",
"{5+	c #070C08",
"]5+	c #0F0909",
"^5+	c #100B06",
"/5+	c #161909",
"(5+	c #1C2C11",
"_5+	c #1D3113",
":5+	c #1C2F13",
"<5+	c #1E2D13",
"[5+	c #19240E",
"}5+	c #16210B",
"|5+	c #17200C",
"15+	c #191F12",
"25+	c #181B14",
"35+	c #181A15",
"45+	c #171A14",
"55+	c #121008",
"65+	c #101106",
"75+	c #0E0F03",
"85+	c #0C0E03",
"95+	c #0B0E06",
"05+	c #080A07",
"a5+	c #070905",
"b5+	c #060903",
"c5+	c #060307",
"d5+	c #171114",
"e5+	c #150F12",
"f5+	c #140E12",
"g5+	c #130C10",
"h5+	c #160E10",
"i5+	c #211918",
"j5+	c #2A1E1C",
"k5+	c #352A25",
"l5+	c #3A2E28",
"m5+	c #332823",
"n5+	c #332A1E",
"o5+	c #2E2518",
"p5+	c #2D2417",
"q5+	c #2C2216",
"r5+	c #2F2317",
"s5+	c #2F2318",
"t5+	c #34291D",
"u5+	c #392D21",
"v5+	c #2E281E",
"w5+	c #221F18",
"x5+	c #1D1D16",
"y5+	c #1C1C18",
"z5+	c #302720",
"A5+	c #271F19",
"B5+	c #41382C",
"C5+	c #30271C",
"D5+	c #554634",
"E5+	c #5E4E3A",
"F5+	c #5A4938",
"G5+	c #544331",
"H5+	c #5D4C37",
"I5+	c #77614A",
"J5+	c #80684D",
"K5+	c #7A654B",
"L5+	c #78634B",
"M5+	c #74634F",
"N5+	c #605344",
"O5+	c #695A4B",
"P5+	c #2D2A23",
"Q5+	c #322F27",
"R5+	c #343228",
"S5+	c #322F26",
"T5+	c #323127",
"U5+	c #2E2D26",
"V5+	c #2E2D27",
"W5+	c #2E2D28",
"X5+	c #100F0A",
"Y5+	c #1F1D10",
"Z5+	c #2E2914",
"`5+	c #352711",
" 6+	c #382210",
".6+	c #290E05",
"+6+	c #260909",
"@6+	c #2D0D0E",
"#6+	c #370D0D",
"$6+	c #3E0607",
"%6+	c #460504",
"&6+	c #3C0704",
"*6+	c #331310",
"=6+	c #38372D",
"-6+	c #44322D",
";6+	c #4F201E",
">6+	c #56120B",
",6+	c #57140A",
"'6+	c #51241C",
")6+	c #483931",
"!6+	c #474841",
"~6+	c #3A2C26",
"{6+	c #361610",
"]6+	c #450906",
"^6+	c #580503",
"/6+	c #5A0501",
"(6+	c #4E0702",
"_6+	c #340C07",
":6+	c #342C23",
"<6+	c #493D32",
"[6+	c #514841",
"}6+	c #463632",
"|6+	c #3A1314",
"16+	c #370307",
"26+	c #330205",
"36+	c #210203",
"46+	c #0D0200",
"56+	c #140807",
"66+	c #230B0A",
"76+	c #270404",
"86+	c #220101",
"96+	c #220102",
"06+	c #290509",
"a6+	c #270708",
"b6+	c #2A1815",
"c6+	c #3A2321",
"d6+	c #452926",
"e6+	c #41312D",
"f6+	c #4C443D",
"g6+	c #282823",
"h6+	c #030B04",
"i6+	c #070907",
"j6+	c #0F0A0A",
"k6+	c #0C0305",
"l6+	c #0B0301",
"m6+	c #151408",
"n6+	c #1E250D",
"o6+	c #192709",
"p6+	c #172A08",
"q6+	c #1A2C0A",
"r6+	c #23310F",
"s6+	c #273311",
"t6+	c #283811",
"u6+	c #2E3A1B",
"v6+	c #2E361F",
"w6+	c #2F3624",
"x6+	c #323829",
"y6+	c #2A2E20",
"z6+	c #110F08",
"A6+	c #050300",
"B6+	c #080701",
"C6+	c #070600",
"D6+	c #070802",
"E6+	c #090A06",
"F6+	c #181B16",
"G6+	c #1B1E15",
"H6+	c #1A1F12",
"I6+	c #161B0E",
"J6+	c #0F1208",
"K6+	c #040401",
"L6+	c #050207",
"M6+	c #191418",
"N6+	c #201A1D",
"O6+	c #1D1618",
"P6+	c #1B1517",
"Q6+	c #1E181B",
"R6+	c #1C1519",
"S6+	c #1D1519",
"T6+	c #21181B",
"U6+	c #291F20",
"V6+	c #281F1D",
"W6+	c #251B18",
"X6+	c #302421",
"Y6+	c #433630",
"Z6+	c #342D2B",
"`6+	c #332B29",
" 7+	c #2A2219",
".7+	c #241C13",
"+7+	c #211B11",
"@7+	c #201810",
"#7+	c #251C14",
"$7+	c #2F261D",
"%7+	c #181510",
"&7+	c #0C0C09",
"*7+	c #0E0D0A",
"=7+	c #130F0D",
"-7+	c #18120E",
";7+	c #19120F",
">7+	c #4D4135",
",7+	c #2A2118",
"'7+	c #574838",
")7+	c #61523F",
"!7+	c #625241",
"~7+	c #615040",
"{7+	c #62513F",
"]7+	c #715E49",
"^7+	c #76624A",
"/7+	c #746149",
"(7+	c #6D5C48",
"_7+	c #6A5C49",
":7+	c #64584B",
"<7+	c #64584C",
"[7+	c #302C25",
"}7+	c #453C34",
"|7+	c #52453A",
"17+	c #41372D",
"27+	c #2E2C24",
"37+	c #2D2B23",
"47+	c #0D0B07",
"57+	c #1E1C0F",
"67+	c #2C2612",
"77+	c #30230E",
"87+	c #352310",
"97+	c #341D11",
"07+	c #381C15",
"a7+	c #3E1B16",
"b7+	c #491C16",
"c7+	c #4E1310",
"d7+	c #4E0C09",
"e7+	c #381612",
"f7+	c #44322C",
"g7+	c #50201D",
"h7+	c #551109",
"i7+	c #571208",
"j7+	c #4F1E18",
"k7+	c #46342C",
"l7+	c #42433D",
"m7+	c #3F352F",
"n7+	c #35241F",
"o7+	c #35110B",
"p7+	c #460604",
"q7+	c #5C0604",
"r7+	c #5F0602",
"s7+	c #540903",
"t7+	c #1F1413",
"u7+	c #51443A",
"v7+	c #56483F",
"w7+	c #483E3A",
"x7+	c #402D29",
"y7+	c #391010",
"z7+	c #380206",
"A7+	c #340103",
"B7+	c #240203",
"C7+	c #180909",
"D7+	c #2C0C0C",
"E7+	c #2E0201",
"F7+	c #3C070A",
"G7+	c #3A0B0E",
"H7+	c #361C19",
"I7+	c #2F2322",
"J7+	c #402121",
"K7+	c #482322",
"L7+	c #422C2A",
"M7+	c #3B3333",
"N7+	c #413D3A",
"O7+	c #060B05",
"P7+	c #100909",
"Q7+	c #0F0305",
"R7+	c #0E0403",
"S7+	c #181509",
"T7+	c #20250D",
"U7+	c #1B2707",
"V7+	c #192A05",
"W7+	c #1C2D07",
"X7+	c #28370F",
"Y7+	c #2F3D11",
"Z7+	c #324410",
"`7+	c #2E400E",
" 8+	c #324016",
".8+	c #313D1B",
"+8+	c #333E22",
"@8+	c #37422A",
"#8+	c #2D3221",
"$8+	c #060401",
"%8+	c #21251B",
"&8+	c #292E1E",
"*8+	c #2A311C",
"=8+	c #252C18",
"-8+	c #181C0E",
";8+	c #050501",
">8+	c #272021",
",8+	c #221B1C",
"'8+	c #221B1D",
")8+	c #241D1F",
"!8+	c #211A1D",
"~8+	c #1F181C",
"{8+	c #1F171C",
"]8+	c #20171C",
"^8+	c #241B1E",
"/8+	c #2D2223",
"(8+	c #2C211F",
"_8+	c #291E1A",
":8+	c #332621",
"<8+	c #453830",
"[8+	c #272119",
"}8+	c #211C13",
"|8+	c #1D180F",
"18+	c #1B160E",
"28+	c #2B241C",
"38+	c #16130F",
"48+	c #100B09",
"58+	c #150F0D",
"68+	c #54483A",
"78+	c #524638",
"88+	c #4D4034",
"98+	c #292117",
"08+	c #655744",
"a8+	c #685948",
"b8+	c #6E5D48",
"c8+	c #6C5C46",
"d8+	c #6A5B46",
"e8+	c #615343",
"f8+	c #5B5041",
"g8+	c #464444",
"h8+	c #4A4846",
"i8+	c #4E4034",
"j8+	c #504136",
"k8+	c #43372D",
"l8+	c #282A28",
"m8+	c #262724",
"n8+	c #272722",
"o8+	c #2C2B23",
"p8+	c #090A08",
"q8+	c #0E0D07",
"r8+	c #1B1A0D",
"s8+	c #2B2713",
"t8+	c #332B15",
"u8+	c #362C19",
"v8+	c #322618",
"w8+	c #34261B",
"x8+	c #36221A",
"y8+	c #432218",
"z8+	c #4D1711",
"A8+	c #55130D",
"B8+	c #511007",
"C8+	c #48120B",
"D8+	c #3F1D17",
"E8+	c #3D3228",
"F8+	c #3B382E",
"G8+	c #45322C",
"H8+	c #51201C",
"I8+	c #561007",
"J8+	c #560F05",
"K8+	c #4F1C15",
"L8+	c #453228",
"M8+	c #45463D",
"N8+	c #392B24",
"O8+	c #321D17",
"P8+	c #36110A",
"Q8+	c #480906",
"R8+	c #5F0906",
"S8+	c #650904",
"T8+	c #5D0B06",
"U8+	c #400E0A",
"V8+	c #261714",
"W8+	c #2C271F",
"X8+	c #453730",
"Y8+	c #3D332F",
"Z8+	c #3E2925",
"`8+	c #3B0F0F",
" 9+	c #3B0205",
".9+	c #360103",
"+9+	c #270203",
"@9+	c #100201",
"#9+	c #080402",
"$9+	c #1F0E0B",
"%9+	c #391411",
"&9+	c #430D0A",
"*9+	c #440703",
"=9+	c #4E0C0B",
"-9+	c #46100E",
";9+	c #3A2928",
">9+	c #492423",
",9+	c #4C2322",
"'9+	c #462C2A",
")9+	c #3F3634",
"!9+	c #49443D",
"~9+	c #080A04",
"{9+	c #0E0103",
"]9+	c #0F0102",
"^9+	c #191209",
"/9+	c #1F200C",
"(9+	c #192105",
"_9+	c #192604",
":9+	c #1A2605",
"<9+	c #28340D",
"[9+	c #313D10",
"}9+	c #34460F",
"|9+	c #31410D",
"19+	c #313E12",
"29+	c #303B17",
"39+	c #313C1D",
"49+	c #353E24",
"59+	c #2C301E",
"69+	c #0B0904",
"79+	c #11140A",
"89+	c #202516",
"99+	c #292F1A",
"09+	c #2C321A",
"a9+	c #2B311A",
"b9+	c #191D0D",
"c9+	c #292221",
"d9+	c #2B2323",
"e9+	c #29201E",
"f9+	c #1F1818",
"g9+	c #1F1719",
"h9+	c #1D1518",
"i9+	c #1D1417",
"j9+	c #211718",
"k9+	c #2B2020",
"l9+	c #302321",
"m9+	c #2F221D",
"n9+	c #362922",
"o9+	c #44372E",
"p9+	c #201A15",
"q9+	c #211B15",
"r9+	c #1D1811",
"s9+	c #1E1811",
"t9+	c #181613",
"u9+	c #1E1716",
"v9+	c #06080B",
"w9+	c #272124",
"x9+	c #504538",
"y9+	c #2A231A",
"z9+	c #292218",
"A9+	c #574A3C",
"B9+	c #6A5A47",
"C9+	c #685843",
"D9+	c #675844",
"E9+	c #453F36",
"F9+	c #4A4746",
"G9+	c #4F4C48",
"H9+	c #4C3C2F",
"I9+	c #111315",
"J9+	c #0B0A05",
"K9+	c #17170C",
"L9+	c #262615",
"M9+	c #2D2A18",
"N9+	c #302C1E",
"O9+	c #2C2A1F",
"P9+	c #2D2B21",
"Q9+	c #4A1912",
"R9+	c #57160F",
"S9+	c #551309",
"T9+	c #4F1911",
"U9+	c #45221C",
"V9+	c #3D3A2E",
"W9+	c #47332D",
"X9+	c #511E1B",
"Y9+	c #550C05",
"Z9+	c #540B03",
"`9+	c #4D1A12",
" 0+	c #473228",
".0+	c #46463E",
"+0+	c #32271D",
"@0+	c #2F1E17",
"#0+	c #2C130F",
"$0+	c #340C08",
"%0+	c #460704",
"&0+	c #5E0504",
"*0+	c #670703",
"=0+	c #620A05",
"-0+	c #49100C",
";0+	c #2A1714",
">0+	c #2D271E",
",0+	c #382C26",
"'0+	c #382E28",
")0+	c #3C2623",
"!0+	c #3B0E0E",
"~0+	c #3C0205",
"{0+	c #380104",
"]0+	c #270102",
"^0+	c #100101",
"/0+	c #21100C",
"(0+	c #421913",
"_0+	c #54140E",
":0+	c #560E08",
"<0+	c #550B09",
"[0+	c #490E0A",
"}0+	c #3B1F19",
"|0+	c #3F2B2A",
"10+	c #4E2223",
"20+	c #502021",
"30+	c #472928",
"40+	c #3D3331",
"50+	c #131210",
"60+	c #11150C",
"70+	c #13140F",
"80+	c #0C0104",
"90+	c #0C0202",
"00+	c #121403",
"a0+	c #141D04",
"b0+	c #28320D",
"c0+	c #2D390D",
"d0+	c #283308",
"e0+	c #262E0C",
"f0+	c #222A0E",
"g0+	c #262F15",
"h0+	c #2A321B",
"i0+	c #2B2E1C",
"j0+	c #100F06",
"k0+	c #0A0802",
"l0+	c #212618",
"m0+	c #202616",
"n0+	c #272E1A",
"o0+	c #2B341A",
"p0+	c #2F381B",
"q0+	c #2F371C",
"r0+	c #1C210E",
"s0+	c #0C0809",
"t0+	c #251E1C",
"u0+	c #2B2320",
"v0+	c #312723",
"w0+	c #332924",
"x0+	c #2F2521",
"y0+	c #2C221E",
"z0+	c #271E1B",
"A0+	c #261E1C",
"B0+	c #271F1D",
"C0+	c #28201F",
"D0+	c #281F1F",
"E0+	c #281E1F",
"F0+	c #2A201D",
"G0+	c #332723",
"H0+	c #3D2E28",
"I0+	c #42332A",
"J0+	c #473A2F",
"K0+	c #493F34",
"L0+	c #211912",
"M0+	c #29201F",
"N0+	c #030609",
"O0+	c #070A0C",
"P0+	c #352F2D",
"Q0+	c #383025",
"R0+	c #6B5A47",
"S0+	c #6A5945",
"T0+	c #6A5C47",
"U0+	c #625745",
"V0+	c #353029",
"W0+	c #4A3D33",
"X0+	c #544133",
"Y0+	c #473A30",
"Z0+	c #2C2922",
"`0+	c #101109",
" a+	c #1A1C11",
".a+	c #1E1E14",
"+a+	c #22231B",
"@a+	c #1E231D",
"#a+	c #222925",
"$a+	c #3D2A24",
"%a+	c #4E201A",
"&a+	c #5A1A12",
"*a+	c #5A190E",
"=a+	c #551F15",
"-a+	c #49271F",
";a+	c #43372C",
">a+	c #3F3B2F",
",a+	c #49342E",
"'a+	c #521F1C",
")a+	c #540B02",
"!a+	c #4F1D14",
"~a+	c #4B362C",
"{a+	c #494940",
"]a+	c #30251B",
"^a+	c #2C1A13",
"/a+	c #2A110C",
"(a+	c #330E08",
"_a+	c #5D0805",
":a+	c #670804",
"<a+	c #680D07",
"[a+	c #51130F",
"}a+	c #321814",
"|a+	c #241C1A",
"1a+	c #251E1E",
"2a+	c #3F2A26",
"3a+	c #3D0205",
"4a+	c #3A0104",
"5a+	c #1F100B",
"6a+	c #431B13",
"7a+	c #581910",
"8a+	c #5B1008",
"9a+	c #590A04",
"0a+	c #5A0C09",
"aa+	c #4B0E0A",
"ba+	c #381D17",
"ca+	c #3F2928",
"da+	c #4E2021",
"ea+	c #511F21",
"fa+	c #472827",
"ga+	c #1F281A",
"ha+	c #20241B",
"ia+	c #070103",
"ja+	c #0F1103",
"ka+	c #141404",
"la+	c #171903",
"ma+	c #131500",
"na+	c #0E0F01",
"oa+	c #060700",
"pa+	c #090C02",
"qa+	c #0A0D02",
"ra+	c #0E0E05",
"sa+	c #0B0A02",
"ta+	c #242917",
"ua+	c #2F3923",
"va+	c #2D3721",
"wa+	c #2E371F",
"xa+	c #2C361A",
"ya+	c #303A1B",
"za+	c #30381B",
"Aa+	c #1D220E",
"Ba+	c #030300",
"Ca+	c #42372F",
"Da+	c #2C231F",
"Ea+	c #2F2723",
"Fa+	c #332927",
"Ga+	c #332825",
"Ha+	c #362B26",
"Ia+	c #3C2F29",
"Ja+	c #483A32",
"Ka+	c #4C3D33",
"La+	c #493F35",
"Ma+	c #312C24",
"Na+	c #1B1A14",
"Oa+	c #16110D",
"Pa+	c #2A201B",
"Qa+	c #1C1512",
"Ra+	c #181714",
"Sa+	c #28211F",
"Ta+	c #2B2220",
"Ua+	c #2E2624",
"Va+	c #06080A",
"Wa+	c #1F1A1E",
"Xa+	c #292119",
"Ya+	c #2A211A",
"Za+	c #433A2D",
"`a+	c #4F4438",
" b+	c #594C3A",
".b+	c #5E4F3D",
"+b+	c #605140",
"@b+	c #615342",
"#b+	c #5F503F",
"$b+	c #6B5A45",
"%b+	c #6C5E49",
"&b+	c #625646",
"*b+	c #534A3C",
"=b+	c #3E332A",
"-b+	c #453B2E",
";b+	c #5D4B3D",
">b+	c #5F4A3B",
",b+	c #5C4838",
"'b+	c #554436",
")b+	c #524439",
"!b+	c #090906",
"~b+	c #10120D",
"{b+	c #12130F",
"]b+	c #121612",
"^b+	c #0E1716",
"/b+	c #1A2425",
"(b+	c #2D3031",
"_b+	c #412F2C",
":b+	c #51221E",
"<b+	c #5B1A13",
"[b+	c #5D1C11",
"}b+	c #551E15",
"|b+	c #4C2822",
"1b+	c #45372D",
"2b+	c #53211D",
"3b+	c #540C04",
"4b+	c #4F3830",
"5b+	c #4D483E",
"6b+	c #49483F",
"7b+	c #34241E",
"8b+	c #331C17",
"9b+	c #38160E",
"0b+	c #420A04",
"ab+	c #590603",
"bb+	c #640503",
"cb+	c #680F09",
"db+	c #571712",
"eb+	c #40211B",
"fb+	c #32241E",
"gb+	c #322622",
"hb+	c #2D211E",
"ib+	c #3C3431",
"jb+	c #3E2B27",
"kb+	c #380E0E",
"lb+	c #370003",
"mb+	c #1C0E0A",
"nb+	c #3E1B13",
"ob+	c #52180E",
"pb+	c #581007",
"qb+	c #570902",
"rb+	c #580906",
"sb+	c #4C0E0B",
"tb+	c #391F1A",
"ub+	c #2B2C28",
"vb+	c #2B2D2A",
"wb+	c #3B2523",
"xb+	c #4A1B1C",
"yb+	c #4C181B",
"zb+	c #402021",
"Ab+	c #332827",
"Bb+	c #362E29",
"Cb+	c #24311F",
"Db+	c #252D20",
"Eb+	c #0E0602",
"Fb+	c #120C02",
"Gb+	c #100A00",
"Hb+	c #0B0700",
"Ib+	c #030200",
"Jb+	c #0F1005",
"Kb+	c #262E19",
"Lb+	c #2F3A21",
"Mb+	c #2E3820",
"Nb+	c #323C20",
"Ob+	c #323D1E",
"Pb+	c #34411D",
"Qb+	c #323D1D",
"Rb+	c #302823",
"Sb+	c #322924",
"Tb+	c #342924",
"Ub+	c #3C3028",
"Vb+	c #45382F",
"Wb+	c #493B32",
"Xb+	c #4C3E33",
"Yb+	c #4B3E32",
"Zb+	c #302C24",
"`b+	c #15150F",
" c+	c #10100D",
".c+	c #302723",
"+c+	c #1A1311",
"@c+	c #0F0E0D",
"#c+	c #1D1611",
"$c+	c #201913",
"%c+	c #261F16",
"&c+	c #534A3D",
"*c+	c #655B4C",
"=c+	c #5A4E3D",
"-c+	c #584B39",
";c+	c #5C4F3A",
">c+	c #5C4D3B",
",c+	c #5D4F3E",
"'c+	c #675743",
")c+	c #6E5F48",
"!c+	c #72634D",
"~c+	c #685D4B",
"{c+	c #595142",
"]c+	c #2D2D28",
"^c+	c #36352F",
"/c+	c #363030",
"(c+	c #483C2E",
"_c+	c #473B2D",
":c+	c #43382A",
"<c+	c #3D342A",
"[c+	c #493E34",
"}c+	c #594A3C",
"|c+	c #614F3F",
"1c+	c #5F4B3B",
"2c+	c #5D4A39",
"3c+	c #101311",
"4c+	c #0F1312",
"5c+	c #0C1415",
"6c+	c #1A2426",
"7c+	c #49332F",
"8c+	c #582621",
"9c+	c #64231A",
"0c+	c #612014",
"ac+	c #59251A",
"bc+	c #4D2C24",
"cc+	c #483A2F",
"dc+	c #503833",
"ec+	c #552420",
"fc+	c #540E05",
"gc+	c #511F17",
"hc+	c #533C32",
"ic+	c #4D4B41",
"jc+	c #4B483F",
"kc+	c #3F2C26",
"lc+	c #45261E",
"mc+	c #4A170F",
"nc+	c #570A05",
"oc+	c #600804",
"pc+	c #63120A",
"qc+	c #5A1F17",
"rc+	c #4F2F26",
"sc+	c #433128",
"tc+	c #423027",
"uc+	c #3E2C24",
"vc+	c #3D2F23",
"wc+	c #453D30",
"xc+	c #433E32",
"yc+	c #3F3B30",
"zc+	c #43322D",
"Ac+	c #381111",
"Bc+	c #380105",
"Cc+	c #350004",
"Dc+	c #240102",
"Ec+	c #180F09",
"Fc+	c #391D13",
"Gc+	c #4C1B10",
"Hc+	c #571308",
"Ic+	c #570A02",
"Jc+	c #590905",
"Kc+	c #4F0F0B",
"Lc+	c #3D211B",
"Mc+	c #39201E",
"Nc+	c #4A1718",
"Oc+	c #4A1416",
"Pc+	c #3B1C1C",
"Qc+	c #2F2523",
"Rc+	c #202C1D",
"Sc+	c #21291E",
"Tc+	c #090303",
"Uc+	c #130806",
"Vc+	c #191006",
"Wc+	c #170F02",
"Xc+	c #181306",
"Yc+	c #131206",
"Zc+	c #101205",
"`c+	c #0D0F04",
" d+	c #0D0C02",
".d+	c #0D0E05",
"+d+	c #0C0D02",
"@d+	c #121406",
"#d+	c #272E19",
"$d+	c #323E23",
"%d+	c #313E22",
"&d+	c #354123",
"*d+	c #343F1E",
"=d+	c #35401C",
"-d+	c #36411F",
";d+	c #232A12",
">d+	c #1A1514",
",d+	c #39302C",
"'d+	c #40352D",
")d+	c #2F2721",
"!d+	c #493C31",
"~d+	c #4A3D32",
"{d+	c #090608",
"]d+	c #251C1C",
"^d+	c #201A14",
"/d+	c #282219",
"(d+	c #62594A",
"_d+	c #635949",
":d+	c #5D5141",
"<d+	c #584B3A",
"[d+	c #564635",
"}d+	c #594B37",
"|d+	c #574736",
"1d+	c #574737",
"2d+	c #685844",
"3d+	c #6D5E48",
"4d+	c #6F614C",
"5d+	c #3A3931",
"6d+	c #151617",
"7d+	c #3B312E",
"8d+	c #3A3024",
"9d+	c #58493D",
"0d+	c #604D3F",
"ad+	c #604C3D",
"bd+	c #5B483A",
"cd+	c #514339",
"dd+	c #151218",
"ed+	c #151016",
"fd+	c #161115",
"gd+	c #0D1315",
"hd+	c #1C2125",
"id+	c #353033",
"jd+	c #4C2F2E",
"kd+	c #602925",
"ld+	c #6D281E",
"md+	c #69271B",
"nd+	c #5D2B20",
"od+	c #4D2F27",
"pd+	c #523A36",
"qd+	c #592624",
"rd+	c #540E08",
"sd+	c #4D0B03",
"td+	c #4E1D15",
"ud+	c #523930",
"vd+	c #50352F",
"wd+	c #53231C",
"xd+	c #510B08",
"yd+	c #530402",
"zd+	c #510A04",
"Ad+	c #521E16",
"Bd+	c #4F332A",
"Cd+	c #47362C",
"Dd+	c #453127",
"Ed+	c #442E24",
"Fd+	c #423023",
"Gd+	c #3F3123",
"Hd+	c #423E31",
"Id+	c #40312F",
"Jd+	c #340F11",
"Kd+	c #360106",
"Ld+	c #330106",
"Md+	c #120C07",
"Nd+	c #2D1911",
"Od+	c #41180F",
"Pd+	c #550903",
"Qd+	c #5A0A07",
"Rd+	c #500D0B",
"Sd+	c #3D1D18",
"Td+	c #2E2723",
"Ud+	c #3A1C1A",
"Vd+	c #491314",
"Wd+	c #450E11",
"Xd+	c #351817",
"Yd+	c #373434",
"Zd+	c #373131",
"`d+	c #423C3B",
" e+	c #1C2819",
".e+	c #192217",
"+e+	c #181A13",
"@e+	c #0D0B08",
"#e+	c #060703",
"$e+	c #070303",
"%e+	c #130909",
"&e+	c #150807",
"*e+	c #1B0D07",
"=e+	c #1D1003",
"-e+	c #27220D",
";e+	c #2B2F13",
">e+	c #293212",
",e+	c #262D10",
"'e+	c #262B0F",
")e+	c #23250D",
"!e+	c #20230D",
"~e+	c #1A1E07",
"{e+	c #1D220B",
"]e+	c #2A3218",
"^e+	c #323D1F",
"/e+	c #354121",
"(e+	c #394423",
"_e+	c #38421F",
":e+	c #3B461F",
"<e+	c #3B4721",
"[e+	c #283015",
"}e+	c #1F1918",
"|e+	c #342B26",
"1e+	c #2F2722",
"2e+	c #26241D",
"3e+	c #1B1515",
"4e+	c #251F18",
"5e+	c #51483B",
"6e+	c #514534",
"7e+	c #554735",
"8e+	c #574935",
"9e+	c #534533",
"0e+	c #524432",
"ae+	c #645642",
"be+	c #695C47",
"ce+	c #655A47",
"de+	c #5B5141",
"ee+	c #4F483B",
"fe+	c #37362F",
"ge+	c #403E35",
"he+	c #342D2D",
"ie+	c #392E2B",
"je+	c #493A2D",
"ke+	c #493B2D",
"le+	c #54473B",
"me+	c #5F4E40",
"ne+	c #58483A",
"oe+	c #3F362C",
"pe+	c #1D191F",
"qe+	c #1F1B21",
"re+	c #1D181D",
"se+	c #1F191D",
"te+	c #0F1211",
"ue+	c #0F1214",
"ve+	c #36282A",
"we+	c #4E2627",
"xe+	c #602020",
"ye+	c #69211C",
"ze+	c #612119",
"Ae+	c #51241D",
"Be+	c #402822",
"Ce+	c #4E3734",
"De+	c #552626",
"Ee+	c #4E100C",
"Fe+	c #450D06",
"Ge+	c #451D16",
"He+	c #49352C",
"Ie+	c #48443A",
"Je+	c #424038",
"Ke+	c #424037",
"Le+	c #553F35",
"Me+	c #552B22",
"Ne+	c #4A0C08",
"Oe+	c #441912",
"Pe+	c #4C362E",
"Qe+	c #493A30",
"Re+	c #443229",
"Se+	c #402A21",
"Te+	c #3F2D21",
"Ue+	c #3A2C1F",
"Ve+	c #444136",
"We+	c #342929",
"Xe+	c #2A0E10",
"Ye+	c #2D0208",
"Ze+	c #2A0107",
"`e+	c #1B0204",
" f+	c #090100",
".f+	c #0B0906",
"+f+	c #1D130C",
"@f+	c #30130A",
"#f+	c #451208",
"$f+	c #520C05",
"%f+	c #5C0E0A",
"&f+	c #510F0C",
"*f+	c #3D1C15",
"=f+	c #2F241F",
"-f+	c #3C1917",
";f+	c #491112",
">f+	c #430E10",
",f+	c #301614",
"'f+	c #3E3C34",
")f+	c #37352D",
"!f+	c #131A0F",
"~f+	c #0F130C",
"{f+	c #1C1B14",
"]f+	c #181911",
"^f+	c #15160F",
"/f+	c #0F0E0A",
"(f+	c #080103",
"_f+	c #130508",
":f+	c #170508",
"<f+	c #170504",
"[f+	c #1B0901",
"}f+	c #2C240E",
"|f+	c #383C18",
"1f+	c #344116",
"2f+	c #313B15",
"3f+	c #333A16",
"4f+	c #2D3112",
"5f+	c #272B0F",
"6f+	c #1F2308",
"7f+	c #262C10",
"8f+	c #2D3616",
"9f+	c #303A19",
"0f+	c #36401D",
"af+	c #3A431E",
"bf+	c #3B451C",
"cf+	c #2D3417",
"df+	c #060800",
"ef+	c #28201D",
"ff+	c #332A25",
"gf+	c #3A2E27",
"hf+	c #3E322B",
"if+	c #3F332C",
"jf+	c #41352D",
"kf+	c #0E090B",
"lf+	c #0B070A",
"mf+	c #0B0609",
"nf+	c #191215",
"of+	c #231D1F",
"pf+	c #322B2A",
"qf+	c #393230",
"rf+	c #211C16",
"sf+	c #312A20",
"tf+	c #4D3F2F",
"uf+	c #4F4230",
"vf+	c #4A3D2C",
"wf+	c #534637",
"xf+	c #4F4637",
"yf+	c #433B30",
"zf+	c #0D0909",
"Af+	c #2E2626",
"Bf+	c #312624",
"Cf+	c #2F241E",
"Df+	c #48392D",
"Ef+	c #3F372C",
"Ff+	c #56483C",
"Gf+	c #544539",
"Hf+	c #383125",
"If+	c #423B30",
"Jf+	c #171318",
"Kf+	c #16121A",
"Lf+	c #19151C",
"Mf+	c #1A141A",
"Nf+	c #1D161B",
"Of+	c #1D171B",
"Pf+	c #0A0D0B",
"Qf+	c #170F10",
"Rf+	c #2F1316",
"Sf+	c #440C10",
"Tf+	c #4D0509",
"Uf+	c #4E0406",
"Vf+	c #420503",
"Wf+	c #310B07",
"Xf+	c #200D0C",
"Yf+	c #2F1B1A",
"Zf+	c #3B0F14",
"`f+	c #390707",
" g+	c #300403",
".g+	c #2F100D",
"+g+	c #4A403A",
"@g+	c #523F36",
"#g+	c #512821",
"$g+	c #440806",
"%g+	c #3C1612",
"&g+	c #49342F",
"*g+	c #463831",
"=g+	c #443128",
"-g+	c #3E2721",
";g+	c #3B271D",
">g+	c #423D32",
",g+	c #48453B",
"'g+	c #251F20",
")g+	c #150506",
"!g+	c #130001",
"~g+	c #1A0902",
"{g+	c #350C04",
"]g+	c #4B0A05",
"^g+	c #560907",
"/g+	c #4F0B09",
"(g+	c #3D1810",
"_g+	c #2B1D16",
":g+	c #2E1C17",
"<g+	c #3D1513",
"[g+	c #440C0D",
"}g+	c #3D0A0C",
"|g+	c #2B1111",
"1g+	c #251D1D",
"2g+	c #3B393A",
"3g+	c #413D3D",
"4g+	c #12110B",
"5g+	c #1D1D14",
"6g+	c #1B1C12",
"7g+	c #1A1B12",
"8g+	c #13110C",
"9g+	c #0B0605",
"0g+	c #0D0206",
"ag+	c #150409",
"bg+	c #170409",
"cg+	c #170405",
"dg+	c #190701",
"eg+	c #2E260F",
"fg+	c #3F481E",
"gg+	c #3A4B1A",
"hg+	c #364718",
"ig+	c #3A481B",
"jg+	c #353E18",
"kg+	c #303815",
"lg+	c #2B3211",
"mg+	c #2A300F",
"ng+	c #303A15",
"og+	c #333D17",
"pg+	c #39431B",
"qg+	c #333C1A",
"rg+	c #0B0E02",
"sg+	c #0D090B",
"tg+	c #362D29",
"ug+	c #3A2F29",
"vg+	c #181215",
"wg+	c #2B2426",
"xg+	c #31292B",
"yg+	c #413A38",
"zg+	c #140F0E",
"Ag+	c #2A231E",
"Bg+	c #241E17",
"Cg+	c #231D15",
"Dg+	c #261E14",
"Eg+	c #372C20",
"Fg+	c #3E3C33",
"Gg+	c #403E36",
"Hg+	c #2D2829",
"Ig+	c #2E2625",
"Jg+	c #2D2321",
"Kg+	c #362B23",
"Lg+	c #463A2E",
"Mg+	c #4C3F34",
"Ng+	c #322C22",
"Og+	c #4D4437",
"Pg+	c #4B4233",
"Qg+	c #372D26",
"Rg+	c #151118",
"Sg+	c #18141C",
"Tg+	c #1B151C",
"Ug+	c #201A1F",
"Vg+	c #19090A",
"Wg+	c #33090D",
"Xg+	c #430206",
"Yg+	c #420001",
"Zg+	c #3F0001",
"`g+	c #210503",
" h+	c #110605",
".h+	c #1B0709",
"+h+	c #280104",
"@h+	c #280001",
"#h+	c #190404",
"$h+	c #19110D",
"%h+	c #544138",
"&h+	c #522A22",
"*h+	c #430A07",
"=h+	c #3C1813",
"-h+	c #4A3631",
";h+	c #483932",
">h+	c #443129",
",h+	c #3D2820",
"'h+	c #3B281E",
")h+	c #38281D",
"!h+	c #382C20",
"~h+	c #3A3327",
"{h+	c #444035",
"]h+	c #4B493F",
"^h+	c #0B0405",
"/h+	c #0D0400",
"(h+	c #280A04",
"_h+	c #510805",
":h+	c #4A0705",
"<h+	c #40130D",
"[h+	c #331912",
"}h+	c #351914",
"|h+	c #3F1311",
"1h+	c #430B0C",
"2h+	c #37090A",
"3h+	c #281010",
"4h+	c #180C0D",
"5h+	c #150A0B",
"6h+	c #160C0C",
"7h+	c #191911",
"8h+	c #191A0F",
"9h+	c #191A10",
"0h+	c #100406",
"ah+	c #1A0A0D",
"bh+	c #1C090D",
"ch+	c #1C0B09",
"dh+	c #1A0C02",
"eh+	c #2C280E",
"fh+	c #3E481D",
"gh+	c #3A4D1A",
"hh+	c #364A18",
"ih+	c #384919",
"jh+	c #38461A",
"kh+	c #39411A",
"lh+	c #41491D",
"mh+	c #414C1A",
"nh+	c #424D1D",
"oh+	c #353E1A",
"ph+	c #0D1002",
"qh+	c #0C0709",
"rh+	c #332B27",
"sh+	c #3A302B",
"th+	c #3B302B",
"uh+	c #3B312C",
"vh+	c #030107",
"wh+	c #292225",
"xh+	c #322A2B",
"yh+	c #282121",
"zh+	c #352E2C",
"Ah+	c #27211B",
"Bh+	c #211A15",
"Ch+	c #1C1612",
"Dh+	c #3C3025",
"Eh+	c #40332A",
"Fh+	c #40342B",
"Gh+	c #2A2527",
"Hh+	c #373133",
"Ih+	c #372F31",
"Jh+	c #302828",
"Kh+	c #2A211D",
"Lh+	c #41362D",
"Mh+	c #3F362B",
"Nh+	c #514636",
"Oh+	c #504535",
"Ph+	c #4F4337",
"Qh+	c #18151B",
"Rh+	c #1C171D",
"Sh+	c #221C21",
"Th+	c #1A0808",
"Uh+	c #37090E",
"Vh+	c #460208",
"Wh+	c #410002",
"Xh+	c #3A0001",
"Yh+	c #1F0907",
"Zh+	c #120B09",
"`h+	c #0C0D09",
" i+	c #0F0B08",
".i+	c #1E070A",
"+i+	c #290106",
"@i+	c #220001",
"#i+	c #100505",
"$i+	c #191914",
"%i+	c #22221D",
"&i+	c #494941",
"*i+	c #58433A",
"=i+	c #532B21",
"-i+	c #420805",
";i+	c #47312C",
">i+	c #47362F",
",i+	c #432E27",
"'i+	c #3E2921",
")i+	c #3C281F",
"!i+	c #35251B",
"~i+	c #35281E",
"{i+	c #4A483F",
"]i+	c #2F2F32",
"^i+	c #040101",
"/i+	c #080301",
"(i+	c #1E0401",
"_i+	c #3A0301",
":i+	c #450201",
"<i+	c #41120E",
"[i+	c #371913",
"}i+	c #371A14",
"|i+	c #3A1110",
"1i+	c #3B0C0D",
"2i+	c #2E0809",
"3i+	c #220D0E",
"4i+	c #260E13",
"5i+	c #230D11",
"6i+	c #1F0D0F",
"7i+	c #190F0D",
"8i+	c #19170E",
"9i+	c #18180D",
"0i+	c #1C1D10",
"ai+	c #17120C",
"bi+	c #1C120F",
"ci+	c #2A1D1A",
"di+	c #30221D",
"ei+	c #32261A",
"fi+	c #2E2811",
"gi+	c #353714",
"hi+	c #3C491B",
"ii+	c #3C501B",
"ji+	c #394F19",
"ki+	c #3C4F1C",
"li+	c #3E4F1F",
"mi+	c #415121",
"ni+	c #424C20",
"oi+	c #444E21",
"pi+	c #404A1B",
"qi+	c #3F4916",
"ri+	c #414B1A",
"si+	c #37401B",
"ti+	c #101404",
"ui+	c #272020",
"vi+	c #372E2B",
"wi+	c #413935",
"xi+	c #332C29",
"yi+	c #3A322D",
"zi+	c #060409",
"Ai+	c #2C2628",
"Bi+	c #383130",
"Ci+	c #332C2A",
"Di+	c #2C2728",
"Ei+	c #3E332D",
"Fi+	c #3C3738",
"Gi+	c #3C3637",
"Hi+	c #353031",
"Ii+	c #302A21",
"Ji+	c #524838",
"Ki+	c #2A2424",
"Li+	c #19141A",
"Mi+	c #150908",
"Ni+	c #2B0A0C",
"Oi+	c #39050A",
"Pi+	c #3B0105",
"Qi+	c #350204",
"Ri+	c #260403",
"Si+	c #1A0B08",
"Ti+	c #250004",
"Ui+	c #0E0100",
"Vi+	c #0C0504",
"Wi+	c #1B1A15",
"Xi+	c #24231F",
"Yi+	c #4A3E39",
"Zi+	c #513933",
"`i+	c #50261E",
" j+	c #400A06",
".j+	c #35130E",
"+j+	c #402B24",
"@j+	c #3F2F29",
"#j+	c #3F2D28",
"$j+	c #3C2924",
"%j+	c #392820",
"&j+	c #33251D",
"*j+	c #222324",
"=j+	c #1A0401",
"-j+	c #370102",
";j+	c #310A0A",
">j+	c #241512",
",j+	c #240F0E",
"'j+	c #260C0C",
")j+	c #220C0C",
"!j+	c #1D1211",
"~j+	c #300F15",
"{j+	c #2D0F14",
"]j+	c #280E11",
"^j+	c #21100E",
"/j+	c #1F180D",
"(j+	c #1F1E0F",
"_j+	c #232413",
":j+	c #211F11",
"<j+	c #211F12",
"[j+	c #262014",
"}j+	c #352E20",
"|j+	c #3E3725",
"1j+	c #444127",
"2j+	c #414321",
"3j+	c #40481D",
"4j+	c #3B4B19",
"5j+	c #394E17",
"6j+	c #394E18",
"7j+	c #40511F",
"8j+	c #3F4F1F",
"9j+	c #425221",
"0j+	c #425222",
"aj+	c #425021",
"bj+	c #3A4618",
"cj+	c #3A4518",
"dj+	c #3C4619",
"ej+	c #3A4315",
"fj+	c #394312",
"gj+	c #3E4717",
"hj+	c #363E19",
"ij+	c #111505",
"jj+	c #302827",
"kj+	c #1D171A",
"lj+	c #282425",
"mj+	c #393328",
"nj+	c #3E372B",
"oj+	c #080403",
"pj+	c #190305",
"qj+	c #220303",
"rj+	c #1C0706",
"sj+	c #140B09",
"tj+	c #0B0C08",
"uj+	c #100907",
"vj+	c #1C0105",
"wj+	c #2C211E",
"xj+	c #35201A",
"yj+	c #3D1611",
"zj+	c #3B0705",
"Aj+	c #2B0100",
"Bj+	c #2C0C08",
"Cj+	c #2E1D17",
"Dj+	c #2B1F1B",
"Ej+	c #2E211F",
"Fj+	c #2C1E1C",
"Gj+	c #0D0605",
"Hj+	c #351317",
"Ij+	c #321316",
"Jj+	c #2F1415",
"Kj+	c #281511",
"Lj+	c #251E10",
"Mj+	c #24230F",
"Nj+	c #272813",
"Oj+	c #232511",
"Pj+	c #22210E",
"Qj+	c #262310",
"Rj+	c #33311B",
"Sj+	c #3B3A20",
"Tj+	c #414522",
"Uj+	c #41491F",
"Vj+	c #3F4C1C",
"Wj+	c #3A4D17",
"Xj+	c #3A5316",
"Yj+	c #3C5419",
"Zj+	c #41541F",
"`j+	c #455523",
" k+	c #495B27",
".k+	c #475926",
"+k+	c #455424",
"@k+	c #3C4A1B",
"#k+	c #3B4618",
"$k+	c #3E4819",
"%k+	c #3D4916",
"&k+	c #404C19",
"*k+	c #364019",
"=k+	c #131806",
"-k+	c #171112",
";k+	c #1C1515",
">k+	c #191214",
",k+	c #191314",
"'k+	c #181112",
")k+	c #0B0709",
"!k+	c #140606",
"~k+	c #160B0A",
"{k+	c #100706",
"]k+	c #1F0104",
"^k+	c #1E0001",
"/k+	c #231919",
"(k+	c #2B1915",
"_k+	c #36120F",
":k+	c #360505",
"<k+	c #260A08",
"[k+	c #231512",
"}k+	c #1F1614",
"|k+	c #201716",
"1k+	c #140100",
"2k+	c #2E0001",
"3k+	c #340001",
"4k+	c #010304",
"5k+	c #4E4C4A",
"6k+	c #2F1314",
"7k+	c #2F1313",
"8k+	c #2C1411",
"9k+	c #271710",
"0k+	c #262110",
"ak+	c #23240F",
"bk+	c #232610",
"ck+	c #22250E",
"dk+	c #22230C",
"ek+	c #24240D",
"fk+	c #303117",
"gk+	c #37391C",
"hk+	c #3D4D19",
"ik+	c #3C5417",
"jk+	c #394F14",
"kk+	c #3F531B",
"lk+	c #465626",
"mk+	c #4B5B2A",
"nk+	c #4A5A29",
"ok+	c #485628",
"pk+	c #414E21",
"qk+	c #3D471C",
"rk+	c #434C1D",
"sk+	c #43501B",
"tk+	c #3E4A19",
"uk+	c #313B16",
"vk+	c #121805",
"wk+	c #1B1415",
"xk+	c #1C1617",
"yk+	c #1B1416",
"zk+	c #171214",
"Ak+	c #0D0C0A",
"Bk+	c #230002",
"Ck+	c #2D1C1B",
"Dk+	c #361513",
"Ek+	c #310405",
"Fk+	c #250D0C",
"Gk+	c #251919",
"Hk+	c #360001",
"Ik+	c #290001",
"Jk+	c #140203",
"Kk+	c #000304",
"Lk+	c #383536",
"Mk+	c #494747",
"Nk+	c #291A10",
"Ok+	c #291C10",
"Pk+	c #271E0F",
"Qk+	c #282711",
"Rk+	c #272C11",
"Sk+	c #282E12",
"Tk+	c #2A2D10",
"Uk+	c #2E3013",
"Vk+	c #3A3C1D",
"Wk+	c #404321",
"Xk+	c #444A20",
"Yk+	c #424C1C",
"Zk+	c #43511B",
"`k+	c #40511A",
" l+	c #405419",
".l+	c #3F5419",
"+l+	c #3F531D",
"@l+	c #3E4D21",
"#l+	c #435129",
"$l+	c #424F29",
"%l+	c #3F4C26",
"&l+	c #394520",
"*l+	c #38451F",
"=l+	c #37421B",
"-l+	c #3A451A",
";l+	c #42501D",
">l+	c #3D4B1A",
",l+	c #2D3811",
"'l+	c #0F1602",
")l+	c #161114",
"!l+	c #010405",
"~l+	c #0B0B07",
"{l+	c #140603",
"]l+	c #260104",
"^l+	c #260003",
"/l+	c #271818",
"(l+	c #2E1112",
"_l+	c #2B0405",
":l+	c #1D0B09",
"<l+	c #2D0003",
"[l+	c #360003",
"}l+	c #2A2713",
"|l+	c #292512",
"1l+	c #2C2914",
"2l+	c #2F2D17",
"3l+	c #33361A",
"4l+	c #333B1B",
"5l+	c #353E1C",
"6l+	c #353D1B",
"7l+	c #3D421E",
"8l+	c #444823",
"9l+	c #50542D",
"0l+	c #51562D",
"al+	c #545A2A",
"bl+	c #4F5823",
"cl+	c #4D5820",
"dl+	c #48581D",
"el+	c #495A23",
"fl+	c #405021",
"gl+	c #242D0D",
"hl+	c #192108",
"il+	c #191F0C",
"jl+	c #191F0D",
"kl+	c #161C0A",
"ll+	c #161E0B",
"ml+	c #131B09",
"nl+	c #151C06",
"ol+	c #242D0E",
"pl+	c #374218",
"ql+	c #2B370C",
"rl+	c #151E02",
"sl+	c #0E1303",
"tl+	c #0C1004",
"ul+	c #060901",
"vl+	c #100301",
"wl+	c #200103",
"xl+	c #1F0002",
"yl+	c #110A0C",
"zl+	c #160A0B",
"Al+	c #1B0507",
"Bl+	c #0D0202",
"Cl+	c #240002",
"Dl+	c #270001",
"El+	c #0F0001",
"Fl+	c #2C3216",
"Gl+	c #2E3217",
"Hl+	c #323519",
"Il+	c #34371A",
"Jl+	c #3A411D",
"Kl+	c #38411D",
"Ll+	c #3D461F",
"Ml+	c #454A21",
"Nl+	c #4D5127",
"Ol+	c #585E31",
"Pl+	c #575E2F",
"Ql+	c #585E2B",
"Rl+	c #555D25",
"Sl+	c #4F5A20",
"Tl+	c #4B591D",
"Ul+	c #4E5E21",
"Vl+	c #51612A",
"Wl+	c #445128",
"Xl+	c #181F08",
"Yl+	c #030501",
"Zl+	c #1A210A",
"`l+	c #354019",
" m+	c #384615",
".m+	c #2F3E0D",
"+m+	c #253208",
"@m+	c #25300C",
"#m+	c #21290D",
"$m+	c #131907",
"%m+	c #060100",
"&m+	c #190001",
"*m+	c #2B3416",
"=m+	c #2F3519",
"-m+	c #33381B",
";m+	c #363A1B",
">m+	c #3A411E",
",m+	c #3A421E",
"'m+	c #3D4620",
")m+	c #3C431D",
"!m+	c #42471F",
"~m+	c #555A2F",
"{m+	c #555B2D",
"]m+	c #545A27",
"^m+	c #515823",
"/m+	c #4F5A21",
"(m+	c #4B581E",
"_m+	c #4D5C20",
":m+	c #515F29",
"<m+	c #434F28",
"[m+	c #191E0B",
"}m+	c #161B0A",
"|m+	c #2E3718",
"1m+	c #2F3D0F",
"2m+	c #2A370B",
"3m+	c #2C390F",
"4m+	c #273011",
"5m+	c #181E0A",
"6m+	c #010303",
"7m+	c #030605",
"8m+	c #030505",
"9m+	c #040606",
"0m+	c #020505",
"am+	c #020405",
"bm+	c #070807",
"cm+	c #2E3818",
"dm+	c #33381A",
"em+	c #3C4320",
"fm+	c #414823",
"gm+	c #424823",
"hm+	c #3F431E",
"im+	c #43461D",
"jm+	c #484B21",
"km+	c #51582D",
"lm+	c #51592B",
"mm+	c #535B28",
"nm+	c #4F5722",
"om+	c #4F5A22",
"pm+	c #4B5820",
"qm+	c #4C5A21",
"rm+	c #4E5D28",
"sm+	c #414E25",
"tm+	c #12170B",
"um+	c #262F17",
"vm+	c #283314",
"wm+	c #283411",
"xm+	c #25300E",
"ym+	c #273310",
"zm+	c #232B12",
"Am+	c #181E0D",
"Bm+	c #0B0F07",
"Cm+	c #0A0F06",
"Dm+	c #050902",
"Em+	c #020502",
"Fm+	c #020404",
"Gm+	c #303518",
"Hm+	c #313618",
"Im+	c #333719",
"Jm+	c #3E4322",
"Km+	c #444825",
"Lm+	c #464724",
"Mm+	c #45411E",
"Nm+	c #453F19",
"Om+	c #3F3D16",
"Pm+	c #41451E",
"Qm+	c #434B21",
"Rm+	c #495220",
"Sm+	c #474F1C",
"Tm+	c #48531C",
"Um+	c #45511C",
"Vm+	c #44511B",
"Wm+	c #45521F",
"Xm+	c #3A461F",
"Ym+	c #060701",
"Zm+	c #060604",
"`m+	c #0B0D08",
" n+	c #13160B",
".n+	c #14190A",
"+n+	c #171C0B",
"@n+	c #151809",
"#n+	c #0F1207",
"$n+	c #060702",
"%n+	c #0F1106",
"&n+	c #0E1105",
"*n+	c #040701",
"=n+	c #090E02",
"-n+	c #171E0C",
";n+	c #272E16",
">n+	c #32391D",
",n+	c #384021",
"'n+	c #384020",
")n+	c #353D1E",
"!n+	c #2A3215",
"~n+	c #222B11",
"{n+	c #1F2812",
"]n+	c #171E0D",
"^n+	c #0D1206",
"/n+	c #040800",
"(n+	c #101605",
"_n+	c #111806",
":n+	c #0F1506",
"<n+	c #0D1405",
"[n+	c #0B1103",
"}n+	c #0B1003",
"|n+	c #0C1103",
"1n+	c #0E1205",
"2n+	c #0E1305",
"3n+	c #111706",
"4n+	c #151A08",
"5n+	c #141A09",
"6n+	c #050702",
"7n+	c #070A02",
"8n+	c #0A0F04",
"9n+	c #090F03",
"0n+	c #080D02",
"an+	c #0B0905",
"bn+	c #060200",
"cn+	c #0D0402",
"dn+	c #110100",
"en+	c #31361A",
"fn+	c #323619",
"gn+	c #343819",
"hn+	c #3D4221",
"in+	c #444525",
"jn+	c #4F4A29",
"kn+	c #504523",
"ln+	c #4A3C18",
"mn+	c #3A310D",
"nn+	c #343610",
"on+	c #373F16",
"pn+	c #3D4717",
"qn+	c #3E4715",
"rn+	c #3E4914",
"sn+	c #3C4913",
"tn+	c #3D4913",
"un+	c #3F4A19",
"vn+	c #37421C",
"wn+	c #1A200B",
"xn+	c #090A03",
"yn+	c #080705",
"zn+	c #070805",
"An+	c #060603",
"Bn+	c #0A0B06",
"Cn+	c #090A05",
"Dn+	c #0B0C06",
"En+	c #0E0F07",
"Fn+	c #11120B",
"Gn+	c #1E1C18",
"Hn+	c #161409",
"In+	c #36381E",
"Jn+	c #575934",
"Kn+	c #5C5F35",
"Ln+	c #565B2E",
"Mn+	c #4C5225",
"Nn+	c #454B22",
"On+	c #3F4520",
"Pn+	c #3B411D",
"Qn+	c #363E1C",
"Rn+	c #343D1D",
"Sn+	c #323A1B",
"Tn+	c #2F3817",
"Un+	c #2B3513",
"Vn+	c #26300C",
"Wn+	c #3C481D",
"Xn+	c #606C38",
"Yn+	c #778246",
"Zn+	c #7C8548",
"`n+	c #7E8949",
" o+	c #798346",
".o+	c #758043",
"+o+	c #6F793E",
"@o+	c #697237",
"#o+	c #606B33",
"$o+	c #5E6935",
"%o+	c #566035",
"&o+	c #46502B",
"*o+	c #2B3514",
"=o+	c #1A2402",
"-o+	c #485624",
";o+	c #5D6D33",
">o+	c #5F6E33",
",o+	c #5B6731",
"'o+	c #54622B",
")o+	c #505C26",
"!o+	c #4D5925",
"~o+	c #4E5A27",
"{o+	c #4F5B27",
"]o+	c #5A652F",
"^o+	c #5F6934",
"/o+	c #586331",
"(o+	c #242B0A",
"_o+	c #282D11",
":o+	c #343B1B",
"<o+	c #3A421F",
"[o+	c #414A22",
"}o+	c #313D1A",
"|o+	c #141D0A",
"1o+	c #0A0906",
"2o+	c #3B362C",
"3o+	c #28241D",
"4o+	c #23211A",
"5o+	c #353128",
"6o+	c #403A30",
"7o+	c #464034",
"8o+	c #373327",
"9o+	c #2F2B21",
"0o+	c #2B261D",
"ao+	c #262219",
"bo+	c #211D16",
"co+	c #1F1A13",
"do+	c #1E1812",
"eo+	c #1F1811",
"fo+	c #211A14",
"go+	c #110E0A",
"ho+	c #0F0C09",
"io+	c #201812",
"jo+	c #1D150F",
"ko+	c #1E1710",
"lo+	c #36342B",
"mo+	c #342B27",
"no+	c #3A2A24",
"oo+	c #42241C",
"po+	c #45160E",
"qo+	c #360502",
"ro+	c #220100",
"so+	c #1F0C07",
"to+	c #2C2A21",
"uo+	c #2B2920",
"vo+	c #2B2821",
"wo+	c #2A281F",
"xo+	c #1F1D15",
"yo+	c #1A0F0B",
"zo+	c #180100",
"Ao+	c #1E0806",
"Bo+	c #190A06",
"Co+	c #140704",
"Do+	c #120402",
"Eo+	c #28231B",
"Fo+	c #2A261D",
"Go+	c #29261C",
"Ho+	c #28241B",
"Io+	c #27231C",
"Jo+	c #242017",
"Ko+	c #211D14",
"Lo+	c #1D1A12",
"Mo+	c #31381A",
"No+	c #31341A",
"Oo+	c #35381C",
"Po+	c #323517",
"Qo+	c #383C1C",
"Ro+	c #434224",
"So+	c #53482A",
"To+	c #544223",
"Uo+	c #4D3917",
"Vo+	c #382A08",
"Wo+	c #2D2E08",
"Xo+	c #323B10",
"Yo+	c #3C4615",
"Zo+	c #3D4915",
"`o+	c #3B4813",
" p+	c #3E491A",
".p+	c #36411D",
"+p+	c #3C3735",
"@p+	c #322F1D",
"#p+	c #64633D",
"$p+	c #898B52",
"%p+	c #898C49",
"&p+	c #80863F",
"*p+	c #787F39",
"=p+	c #727938",
"-p+	c #6B7336",
";p+	c #677034",
">p+	c #636D32",
",p+	c #616B32",
"'p+	c #5D6730",
")p+	c #5C672F",
"!p+	c #545F29",
"~p+	c #49571F",
"{p+	c #445117",
"]p+	c #626E2E",
"^p+	c #8E9851",
"/p+	c #9FA959",
"(p+	c #9EA856",
"_p+	c #9BA655",
":p+	c #98A255",
"<p+	c #959E53",
"[p+	c #8E984E",
"}p+	c #8D954B",
"|p+	c #88914B",
"1p+	c #86904F",
"2p+	c #78824A",
"3p+	c #5D6535",
"4p+	c #3C4316",
"5p+	c #293303",
"6p+	c #3C490F",
"7p+	c #6E7E38",
"8p+	c #899D4B",
"9p+	c #889D47",
"0p+	c #839445",
"ap+	c #7D8F40",
"bp+	c #78883B",
"cp+	c #76873B",
"dp+	c #75863B",
"ep+	c #77873D",
"fp+	c #77863C",
"gp+	c #79883C",
"hp+	c #7D8C3E",
"ip+	c #828F44",
"jp+	c #7C8944",
"kp+	c #606B2E",
"lp+	c #475019",
"mp+	c #4C5421",
"np+	c #5C662E",
"op+	c #636E2E",
"pp+	c #6A782E",
"qp+	c #6A7731",
"rp+	c #54602A",
"sp+	c #232C10",
"tp+	c #040801",
"up+	c #38342B",
"vp+	c #3A352D",
"wp+	c #36332B",
"xp+	c #070502",
"yp+	c #1F1812",
"zp+	c #645B4A",
"Ap+	c #847963",
"Bp+	c #7E745E",
"Cp+	c #7A6F5B",
"Dp+	c #665E4F",
"Ep+	c #595349",
"Fp+	c #7C705F",
"Gp+	c #807362",
"Hp+	c #60584B",
"Ip+	c #5C5548",
"Jp+	c #585045",
"Kp+	c #595347",
"Lp+	c #6D6459",
"Mp+	c #6F6961",
"Np+	c #6C665F",
"Op+	c #68615B",
"Pp+	c #46352A",
"Qp+	c #443428",
"Rp+	c #5A5653",
"Sp+	c #56524D",
"Tp+	c #57504B",
"Up+	c #50463D",
"Vp+	c #615953",
"Wp+	c #706B64",
"Xp+	c #76706A",
"Yp+	c #79736C",
"Zp+	c #7A746B",
"`p+	c #7C766B",
" q+	c #7A756A",
".q+	c #777167",
"+q+	c #736D62",
"@q+	c #706861",
"#q+	c #6E685E",
"$q+	c #6A645A",
"%q+	c #676058",
"&q+	c #65534B",
"*q+	c #704A3E",
"=q+	c #723226",
"-q+	c #59130A",
";q+	c #440A02",
">q+	c #522D25",
",q+	c #625147",
"'q+	c #665D54",
")q+	c #696257",
"!q+	c #6D655A",
"~q+	c #736B5E",
"{q+	c #6D655C",
"]q+	c #6B655B",
"^q+	c #686259",
"/q+	c #666156",
"(q+	c #656056",
"_q+	c #645F55",
":q+	c #46312C",
"<q+	c #2F0A08",
"[q+	c #4A1511",
"}q+	c #51221A",
"|q+	c #4B231A",
"1q+	c #3E1A13",
"2q+	c #350E0A",
"3q+	c #706857",
"4q+	c #6F6757",
"5q+	c #6E6556",
"6q+	c #696252",
"7q+	c #645C4D",
"8q+	c #615A4A",
"9q+	c #5E584A",
"0q+	c #313B1A",
"aq+	c #34391C",
"bq+	c #393D1F",
"cq+	c #323617",
"dq+	c #373D1A",
"eq+	c #424323",
"fq+	c #53482B",
"gq+	c #554424",
"hq+	c #4D3B16",
"iq+	c #392F07",
"jq+	c #303209",
"kq+	c #354113",
"lq+	c #404C1E",
"mq+	c #42511E",
"nq+	c #3E501B",
"oq+	c #3E4E1A",
"pq+	c #3F4C1F",
"qq+	c #37441F",
"rq+	c #1A210D",
"sq+	c #4D4642",
"tq+	c #443F3E",
"uq+	c #34312A",
"vq+	c #3B3925",
"wq+	c #6E6E45",
"xq+	c #8F9455",
"yq+	c #899045",
"zq+	c #818B3D",
"Aq+	c #7A8439",
"Bq+	c #778039",
"Cq+	c #717A38",
"Dq+	c #6D7837",
"Eq+	c #687435",
"Fq+	c #687336",
"Gq+	c #646E32",
"Hq+	c #63702F",
"Iq+	c #5B6829",
"Jq+	c #51601F",
"Kq+	c #4A5915",
"Lq+	c #67742B",
"Mq+	c #939D50",
"Nq+	c #A4B05A",
"Oq+	c #A4AE57",
"Pq+	c #A1AC57",
"Qq+	c #9CA757",
"Rq+	c #9CA758",
"Sq+	c #98A455",
"Tq+	c #96A152",
"Uq+	c #8E974D",
"Vq+	c #85914C",
"Wq+	c #6F7A3F",
"Xq+	c #3D4111",
"Yq+	c #333905",
"Zq+	c #475214",
"`q+	c #76843C",
" r+	c #8DA34E",
".r+	c #8CA249",
"+r+	c #869947",
"@r+	c #839542",
"#r+	c #7C8E3E",
"$r+	c #7B8E3E",
"%r+	c #7B8D3F",
"&r+	c #7C8F40",
"*r+	c #7C8D3F",
"=r+	c #7D8F3E",
"-r+	c #7D8D3D",
";r+	c #7F8F3E",
">r+	c #849142",
",r+	c #828F45",
"'r+	c #667330",
")r+	c #4D591A",
"!r+	c #515B1F",
"~r+	c #606D2A",
"{r+	c #657429",
"]r+	c #6A7B27",
"^r+	c #6C7A2C",
"/r+	c #5D6A2C",
"(r+	c #2F3715",
"_r+	c #0E1306",
":r+	c #151710",
"<r+	c #777267",
"[r+	c #797368",
"}r+	c #7C766A",
"|r+	c #787166",
"1r+	c #6D695E",
"2r+	c #69655B",
"3r+	c #605D54",
"4r+	c #5B584E",
"5r+	c #0D0C07",
"6r+	c #30281F",
"7r+	c #6A6053",
"8r+	c #776B57",
"9r+	c #766853",
"0r+	c #887962",
"ar+	c #91826B",
"br+	c #8F826A",
"cr+	c #8C7F67",
"dr+	c #887C67",
"er+	c #817866",
"fr+	c #716A5E",
"gr+	c #5A544D",
"hr+	c #5A5347",
"ir+	c #645A4C",
"jr+	c #847765",
"kr+	c #6D6557",
"lr+	c #686154",
"mr+	c #615B4F",
"nr+	c #645C52",
"or+	c #5E5448",
"pr+	c #7E776C",
"qr+	c #807A6E",
"rr+	c #7F7B6F",
"sr+	c #7E7B71",
"tr+	c #7E7971",
"ur+	c #7C7871",
"vr+	c #716A64",
"wr+	c #5D4636",
"xr+	c #634531",
"yr+	c #60432F",
"zr+	c #543F2E",
"Ar+	c #636360",
"Br+	c #6A6A66",
"Cr+	c #696865",
"Dr+	c #6A6763",
"Er+	c #666360",
"Fr+	c #686460",
"Gr+	c #6B655E",
"Hr+	c #726C64",
"Ir+	c #7F7A71",
"Jr+	c #847F77",
"Kr+	c #888278",
"Lr+	c #8C867A",
"Mr+	c #8C887C",
"Nr+	c #8D887D",
"Or+	c #8A857B",
"Pr+	c #8A8479",
"Qr+	c #857F74",
"Rr+	c #847E73",
"Sr+	c #837D72",
"Tr+	c #817A70",
"Ur+	c #685D56",
"Vr+	c #6E5C53",
"Wr+	c #7A5243",
"Xr+	c #7B3625",
"Yr+	c #510D02",
"Zr+	c #6A3E31",
"`r+	c #7A6759",
" s+	c #776F63",
".s+	c #7D7567",
"+s+	c #877C6E",
"@s+	c #877F70",
"#s+	c #867E70",
"$s+	c #847C6F",
"%s+	c #857D6F",
"&s+	c #827A6F",
"*s+	c #80796E",
"=s+	c #7A7469",
"-s+	c #777165",
";s+	c #746F64",
">s+	c #716D62",
",s+	c #716C60",
"'s+	c #726C61",
")s+	c #726B60",
"!s+	c #563E37",
"~s+	c #380C09",
"{s+	c #622217",
"]s+	c #683528",
"^s+	c #59241A",
"/s+	c #4D100B",
"(s+	c #460404",
"_s+	c #7E796D",
":s+	c #817A6A",
"<s+	c #847D6B",
"[s+	c #847C6B",
"}s+	c #81796A",
"|s+	c #7F7768",
"1s+	c #7E7667",
"2s+	c #7E7767",
"3s+	c #797162",
"4s+	c #797161",
"5s+	c #787161",
"6s+	c #2C3314",
"7s+	c #3C3F22",
"8s+	c #363A1C",
"9s+	c #383E1C",
"0s+	c #3C3D1E",
"as+	c #494024",
"bs+	c #4C3C1D",
"cs+	c #493711",
"ds+	c #392E06",
"es+	c #35360B",
"fs+	c #414E24",
"gs+	c #404D25",
"hs+	c #3F4E24",
"is+	c #3C4C20",
"js+	c #3E4D20",
"ks+	c #3A4720",
"ls+	c #181F0D",
"ms+	c #090A04",
"ns+	c #2C2729",
"os+	c #3B3737",
"ps+	c #403B3B",
"qs+	c #333022",
"rs+	c #5F613E",
"ss+	c #818752",
"ts+	c #7E8647",
"us+	c #77813F",
"vs+	c #707939",
"ws+	c #6E773A",
"xs+	c #6A733A",
"ys+	c #67723A",
"zs+	c #606C36",
"As+	c #5D6834",
"Bs+	c #5A662E",
"Cs+	c #5C692A",
"Ds+	c #5C6928",
"Es+	c #556222",
"Fs+	c #4B5815",
"Gs+	c #5D6B23",
"Hs+	c #819043",
"Is+	c #97A453",
"Js+	c #9AA655",
"Ks+	c #94A055",
"Ls+	c #929F56",
"Ms+	c #8C9852",
"Ns+	c #88944C",
"Os+	c #7C8642",
"Ps+	c #6E7B3B",
"Qs+	c #555E27",
"Rs+	c #494C1B",
"Ss+	c #3C370F",
"Ts+	c #373308",
"Us+	c #484B16",
"Vs+	c #6F7A3B",
"Ws+	c #83974C",
"Xs+	c #829747",
"Ys+	c #7D8F43",
"Zs+	c #798C40",
"`s+	c #74853C",
" t+	c #75863D",
".t+	c #76883E",
"+t+	c #74863D",
"@t+	c #76883C",
"#t+	c #77883D",
"$t+	c #7A8B3D",
"%t+	c #7C8B40",
"&t+	c #7B8B42",
"*t+	c #63712F",
"=t+	c #46521A",
"-t+	c #4E5C22",
";t+	c #536123",
">t+	c #596924",
",t+	c #5D6825",
"'t+	c #555F28",
")t+	c #353B1C",
"!t+	c #1D2012",
"~t+	c #25251D",
"{t+	c #7D766B",
"]t+	c #7F776C",
"^t+	c #80786D",
"/t+	c #787167",
"(t+	c #6E6961",
"_t+	c #67635C",
":t+	c #776955",
"<t+	c #867863",
"[t+	c #90826C",
"}t+	c #90836D",
"|t+	c #8D806B",
"1t+	c #8F836D",
"2t+	c #877A68",
"3t+	c #7E7565",
"4t+	c #5C5851",
"5t+	c #534E49",
"6t+	c #625B51",
"7t+	c #5E594F",
"8t+	c #5C574D",
"9t+	c #625B52",
"0t+	c #777269",
"at+	c #767169",
"bt+	c #74726B",
"ct+	c #74716B",
"dt+	c #726E69",
"et+	c #5E3E2D",
"ft+	c #643C26",
"gt+	c #613A23",
"ht+	c #533523",
"it+	c #48392B",
"jt+	c #51504D",
"kt+	c #5A5857",
"lt+	c #60605E",
"mt+	c #61605F",
"nt+	c #656260",
"ot+	c #65615F",
"pt+	c #67635F",
"qt+	c #5E5954",
"rt+	c #666059",
"st+	c #7A766D",
"tt+	c #7D7871",
"ut+	c #817C73",
"vt+	c #837D74",
"wt+	c #878277",
"xt+	c #888277",
"yt+	c #8A857A",
"zt+	c #878278",
"At+	c #847F74",
"Bt+	c #807A70",
"Ct+	c #7F7A70",
"Dt+	c #807B70",
"Et+	c #7E786E",
"Ft+	c #7E776E",
"Gt+	c #7D756D",
"Ht+	c #7C756C",
"It+	c #766F66",
"Jt+	c #726A63",
"Kt+	c #6E6660",
"Lt+	c #666058",
"Mt+	c #665E56",
"Nt+	c #665A53",
"Ot+	c #6A584F",
"Pt+	c #714A3D",
"Qt+	c #722F1E",
"Rt+	c #500901",
"St+	c #6A3A2E",
"Tt+	c #745F54",
"Ut+	c #85796D",
"Vt+	c #847B6E",
"Wt+	c #746D64",
"Xt+	c #6E685F",
"Yt+	c #6F695F",
"Zt+	c #6F6A60",
"`t+	c #523B31",
" u+	c #380000",
".u+	c #490503",
"+u+	c #642216",
"@u+	c #6D3325",
"#u+	c #673223",
"$u+	c #562013",
"%u+	c #500C05",
"&u+	c #777268",
"*u+	c #80796A",
"=u+	c #817A6C",
"-u+	c #80786B",
";u+	c #7F776B",
">u+	c #7E766B",
",u+	c #7E776B",
"'u+	c #7B7468",
")u+	c #756D60",
"!u+	c #766F60",
"~u+	c #2C3716",
"{u+	c #2F3818",
"]u+	c #3F4626",
"^u+	c #3F4324",
"/u+	c #3C4322",
"(u+	c #3B371C",
"_u+	c #3C2F12",
":u+	c #463610",
"<u+	c #44370D",
"[u+	c #464618",
"}u+	c #222A0D",
"|u+	c #141E08",
"1u+	c #182207",
"2u+	c #232D0E",
"3u+	c #212A12",
"4u+	c #101509",
"5u+	c #060804",
"6u+	c #110F14",
"7u+	c #130F15",
"8u+	c #211D23",
"9u+	c #2D282C",
"0u+	c #2C2829",
"au+	c #27261B",
"bu+	c #3C3F26",
"cu+	c #515534",
"du+	c #4F552F",
"eu+	c #4C542A",
"fu+	c #464D27",
"gu+	c #454C27",
"hu+	c #424A28",
"iu+	c #434B29",
"ju+	c #3D4524",
"ku+	c #526026",
"lu+	c #697636",
"mu+	c #677534",
"nu+	c #596826",
"ou+	c #566620",
"pu+	c #606F28",
"qu+	c #6D7C33",
"ru+	c #717D37",
"su+	c #6E7937",
"tu+	c #6B7738",
"uu+	c #616B30",
"vu+	c #5E6A2B",
"wu+	c #5B6426",
"xu+	c #525922",
"yu+	c #49491A",
"zu+	c #494018",
"Au+	c #463514",
"Bu+	c #433612",
"Cu+	c #4A4419",
"Du+	c #5F622E",
"Eu+	c #687536",
"Fu+	c #677834",
"Gu+	c #637331",
"Hu+	c #61712F",
"Iu+	c #5C6C2D",
"Ju+	c #5D6C2C",
"Ku+	c #5D6E2D",
"Lu+	c #5F702E",
"Mu+	c #5E6E2D",
"Nu+	c #5E6F2D",
"Ou+	c #62742E",
"Pu+	c #667530",
"Qu+	c #697935",
"Ru+	c #55642A",
"Su+	c #303910",
"Tu+	c #222A0C",
"Uu+	c #283011",
"Vu+	c #2A3112",
"Wu+	c #323A16",
"Xu+	c #495029",
"Yu+	c #44472D",
"Zu+	c #3C3C2C",
"`u+	c #3C3A30",
" v+	c #59514A",
".v+	c #766D62",
"+v+	c #787065",
"@v+	c #5D5A52",
"#v+	c #1B1510",
"$v+	c #706859",
"%v+	c #7B7363",
"&v+	c #5F5851",
"*v+	c #5E5B55",
"=v+	c #5B5A55",
"-v+	c #575451",
";v+	c #56524F",
">v+	c #4A3527",
",v+	c #593521",
"'v+	c #5E3118",
")v+	c #5D2F14",
"!v+	c #4D2915",
"~v+	c #3E2B1E",
"{v+	c #4D4B4B",
"]v+	c #53504F",
"^v+	c #555250",
"/v+	c #5C5955",
"(v+	c #706C62",
"_v+	c #716E65",
":v+	c #6E6A61",
"<v+	c #6B685D",
"[v+	c #68635A",
"}v+	c #706A60",
"|v+	c #6F6A61",
"1v+	c #6C665E",
"2v+	c #5A4842",
"3v+	c #613C31",
"4v+	c #652616",
"5v+	c #580A01",
"6v+	c #5E493F",
"7v+	c #74695F",
"8v+	c #625D54",
"9v+	c #615B54",
"0v+	c #5F5B51",
"av+	c #615D54",
"bv+	c #646058",
"cv+	c #5E5A52",
"dv+	c #4A3026",
"ev+	c #4A0404",
"fv+	c #59160D",
"gv+	c #591F13",
"hv+	c #532113",
"iv+	c #491408",
"jv+	c #4E0802",
"kv+	c #500100",
"lv+	c #490101",
"mv+	c #655F56",
"nv+	c #68635C",
"ov+	c #67605A",
"pv+	c #635E53",
"qv+	c #253113",
"rv+	c #252F13",
"sv+	c #3D4625",
"tv+	c #434928",
"uv+	c #404827",
"vv+	c #32361C",
"wv+	c #2D2C14",
"xv+	c #2E250C",
"yv+	c #403310",
"zv+	c #4A3C12",
"Av+	c #4E4B1A",
"Bv+	c #0E1302",
"Cv+	c #1B210C",
"Dv+	c #1B220D",
"Ev+	c #0B0F05",
"Fv+	c #393437",
"Gv+	c #3F3936",
"Hv+	c #1B1A0F",
"Iv+	c #1F2011",
"Jv+	c #1B1C0E",
"Kv+	c #1A1C0D",
"Lv+	c #17180D",
"Mv+	c #17190E",
"Nv+	c #16180F",
"Ov+	c #191B12",
"Pv+	c #171A10",
"Qv+	c #1B2009",
"Rv+	c #798742",
"Sv+	c #788741",
"Tv+	c #677531",
"Uv+	c #54621F",
"Vv+	c #4F5D1B",
"Wv+	c #53611F",
"Xv+	c #535C1F",
"Yv+	c #545E20",
"Zv+	c #4F561E",
"`v+	c #4B521D",
" w+	c #424916",
".w+	c #424812",
"+w+	c #4C511A",
"@w+	c #484718",
"#w+	c #433512",
"$w+	c #4E3418",
"%w+	c #512E16",
"&w+	c #4C2D12",
"*w+	c #493312",
"=w+	c #52491E",
"-w+	c #535823",
";w+	c #505C20",
">w+	c #4D571E",
",w+	c #4E5820",
"'w+	c #49531B",
")w+	c #4A541B",
"!w+	c #49551B",
"~w+	c #4B571D",
"{w+	c #4B561C",
"]w+	c #49561B",
"^w+	c #455217",
"/w+	c #485617",
"(w+	c #4E5B1B",
"_w+	c #556124",
":w+	c #444E1E",
"<w+	c #1C2209",
"[w+	c #080C03",
"}w+	c #0A0C07",
"|w+	c #11130A",
"1w+	c #1E2210",
"2w+	c #3D4029",
"3w+	c #504E3A",
"4w+	c #514D3F",
"5w+	c #514741",
"6w+	c #665B53",
"7w+	c #776D62",
"8w+	c #6D655B",
"9w+	c #211D18",
"0w+	c #100B08",
"aw+	c #4B433C",
"bw+	c #524B45",
"cw+	c #393534",
"dw+	c #40271A",
"ew+	c #4E2412",
"fw+	c #4F1C06",
"gw+	c #4F1B04",
"hw+	c #441B08",
"iw+	c #341E12",
"jw+	c #281F17",
"kw+	c #565250",
"lw+	c #342C2A",
"mw+	c #44241B",
"nw+	c #52170C",
"ow+	c #500601",
"pw+	c #45140C",
"qw+	c #38231D",
"rw+	c #433B36",
"sw+	c #3D2017",
"tw+	c #491105",
"uw+	c #471608",
"vw+	c #471007",
"ww+	c #530000",
"xw+	c #4D0000",
"yw+	c #1D1B16",
"zw+	c #3C3736",
"Aw+	c #413C3A",
"Bw+	c #4F4C47",
"Cw+	c #4C4845",
"Dw+	c #222F13",
"Ew+	c #222F12",
"Fw+	c #3C4925",
"Gw+	c #47502A",
"Hw+	c #434D29",
"Iw+	c #30361C",
"Jw+	c #272812",
"Kw+	c #27220C",
"Lw+	c #3A3010",
"Mw+	c #4B4214",
"Nw+	c #505119",
"Ow+	c #3C4617",
"Pw+	c #0F1404",
"Qw+	c #10150A",
"Rw+	c #1B2111",
"Sw+	c #1B210F",
"Tw+	c #171F0D",
"Uw+	c #433E3E",
"Vw+	c #14130E",
"Ww+	c #100F0B",
"Xw+	c #0F0F0A",
"Yw+	c #0A0C08",
"Zw+	c #545D2C",
"`w+	c #7C8A44",
" x+	c #7B8A42",
".x+	c #6B7A36",
"+x+	c #596827",
"@x+	c #4F5E1F",
"#x+	c #4E5D1F",
"$x+	c #4D581E",
"%x+	c #474E1A",
"&x+	c #404716",
"*x+	c #363C0D",
"=x+	c #3C410F",
"-x+	c #4F521E",
";x+	c #4A461B",
">x+	c #432F10",
",x+	c #4C2914",
"'x+	c #502513",
")x+	c #4C2410",
"!x+	c #49290E",
"~x+	c #4E3E1B",
"{x+	c #505122",
"]x+	c #505822",
"^x+	c #4E5720",
"/x+	c #4D5520",
"(x+	c #4D561F",
"_x+	c #4C551D",
":x+	c #505B1F",
"<x+	c #4F581E",
"[x+	c #49541A",
"}x+	c #404D13",
"|x+	c #414E13",
"1x+	c #4A571A",
"2x+	c #515D21",
"3x+	c #434D1D",
"4x+	c #1F240B",
"5x+	c #17190F",
"6x+	c #3D3E2E",
"7x+	c #545240",
"8x+	c #585545",
"9x+	c #565146",
"0x+	c #80766C",
"ax+	c #80766B",
"bx+	c #7B7268",
"cx+	c #6B645C",
"dx+	c #5B5751",
"ex+	c #615C57",
"fx+	c #363233",
"gx+	c #4F4845",
"hx+	c #3A2D26",
"ix+	c #4C3022",
"jx+	c #582A16",
"kx+	c #541E09",
"lx+	c #521B05",
"mx+	c #461B09",
"nx+	c #361F12",
"ox+	c #4B4948",
"px+	c #615D57",
"qx+	c #321711",
"rx+	c #450F07",
"sx+	c #4E0601",
"tx+	c #450300",
"ux+	c #380B04",
"vx+	c #291813",
"wx+	c #3B3735",
"xx+	c #3A1A16",
"yx+	c #48140A",
"zx+	c #4C1C11",
"Ax+	c #4B170E",
"Bx+	c #4F0904",
"Cx+	c #540100",
"Dx+	c #4F0000",
"Ex+	c #232F13",
"Fx+	c #3A4622",
"Gx+	c #49522A",
"Hx+	c #454F29",
"Ix+	c #2E331A",
"Jx+	c #212211",
"Kx+	c #1C1808",
"Lx+	c #2F280B",
"Mx+	c #454010",
"Nx+	c #4B4D13",
"Ox+	c #3D4514",
"Px+	c #131604",
"Qx+	c #0B0D09",
"Rx+	c #12160C",
"Sx+	c #0E1208",
"Tx+	c #413B38",
"Ux+	c #14130D",
"Vx+	c #15130E",
"Wx+	c #181710",
"Xx+	c #16160E",
"Yx+	c #13140B",
"Zx+	c #1A1E09",
"`x+	c #4F5928",
" y+	c #72803E",
".y+	c #73843E",
"+y+	c #556527",
"@y+	c #505F24",
"#y+	c #4D5A22",
"$y+	c #4C5821",
"%y+	c #47511E",
"&y+	c #3D4616",
"*y+	c #32390D",
"=y+	c #4F5123",
"-y+	c #45411A",
";y+	c #38250A",
">y+	c #3E1B09",
",y+	c #421709",
"'y+	c #421607",
")y+	c #421B08",
"!y+	c #493216",
"~y+	c #4E4A21",
"{y+	c #4C531F",
"]y+	c #4C5420",
"^y+	c #49511E",
"/y+	c #4A521F",
"(y+	c #4D5620",
"_y+	c #515C22",
":y+	c #4E591F",
"<y+	c #49571E",
"[y+	c #414F18",
"}y+	c #44511A",
"|y+	c #4D5B21",
"1y+	c #4A5524",
"2y+	c #2F3313",
"3y+	c #1C1D0B",
"4y+	c #1A190C",
"5y+	c #151209",
"6y+	c #15150B",
"7y+	c #1C1D11",
"8y+	c #363428",
"9y+	c #474438",
"0y+	c #4C4A3D",
"ay+	c #716962",
"by+	c #847C72",
"cy+	c #80796F",
"dy+	c #79736B",
"ey+	c #746E67",
"fy+	c #605B55",
"gy+	c #7B776F",
"hy+	c #3A3739",
"iy+	c #393535",
"jy+	c #423C3A",
"ky+	c #67615D",
"ly+	c #65605B",
"my+	c #42342C",
"ny+	c #503424",
"oy+	c #572B17",
"py+	c #54220D",
"qy+	c #482110",
"ry+	c #372115",
"sy+	c #292018",
"ty+	c #5F5C5A",
"uy+	c #605C52",
"vy+	c #534F45",
"wy+	c #3C3937",
"xy+	c #2A201F",
"yy+	c #341913",
"zy+	c #461108",
"Ay+	c #500B02",
"By+	c #480601",
"Cy+	c #3A1009",
"Dy+	c #332320",
"Ey+	c #444140",
"Fy+	c #443A38",
"Gy+	c #3A1F1B",
"Hy+	c #3A0603",
"Iy+	c #4B1D14",
"Jy+	c #4F251A",
"Ky+	c #471A10",
"Ly+	c #470803",
"My+	c #4B0000",
"Ny+	c #110C0A",
"Oy+	c #2A3919",
"Py+	c #293717",
"Qy+	c #414D27",
"Ry+	c #535E30",
"Sy+	c #4E5A2E",
"Ty+	c #32391B",
"Uy+	c #1E2010",
"Vy+	c #161407",
"Wy+	c #252307",
"Xy+	c #3D3B0A",
"Yy+	c #4B500F",
"Zy+	c #404A14",
"`y+	c #181C07",
" z+	c #030506",
".z+	c #282620",
"+z+	c #2F2D23",
"@z+	c #363427",
"#z+	c #3A3927",
"$z+	c #373723",
"%z+	c #393B23",
"&z+	c #33351E",
"*z+	c #2F331A",
"=z+	c #525D27",
"-z+	c #637030",
";z+	c #5C6B2B",
">z+	c #4D5A20",
",z+	c #3F4B19",
"'z+	c #424F1C",
")z+	c #404A1A",
"!z+	c #3C4417",
"~z+	c #363D13",
"{z+	c #2E330C",
"]z+	c #33360D",
"^z+	c #404117",
"/z+	c #3A3614",
"(z+	c #33210A",
"_z+	c #371708",
":z+	c #3C1306",
"<z+	c #3E1406",
"[z+	c #3F1808",
"}z+	c #442C13",
"|z+	c #443E19",
"1z+	c #404616",
"2z+	c #3C4513",
"3z+	c #3C4413",
"4z+	c #384111",
"5z+	c #384212",
"6z+	c #3C4714",
"7z+	c #3B4614",
"8z+	c #2F3B12",
"9z+	c #2F3B14",
"0z+	c #344119",
"az+	c #343812",
"bz+	c #393912",
"cz+	c #3E3F12",
"dz+	c #3A3B11",
"ez+	c #323513",
"fz+	c #2D2E17",
"gz+	c #2F2F22",
"hz+	c #323129",
"iz+	c #33322A",
"jz+	c #5A544F",
"kz+	c #66635B",
"lz+	c #64605A",
"mz+	c #615D58",
"nz+	c #595550",
"oz+	c #57534E",
"pz+	c #63605B",
"qz+	c #6D6A64",
"rz+	c #373638",
"sz+	c #615E5B",
"tz+	c #5D5A58",
"uz+	c #412417",
"vz+	c #3F1F11",
"wz+	c #3E1D10",
"xz+	c #351B10",
"yz+	c #2B1C13",
"zz+	c #504E46",
"Az+	c #261D1D",
"Bz+	c #311612",
"Cz+	c #400C05",
"Dz+	c #490A02",
"Ez+	c #3A100B",
"Fz+	c #322220",
"Gz+	c #3D3939",
"Hz+	c #332C2E",
"Iz+	c #271715",
"Jz+	c #361A13",
"Kz+	c #381E15",
"Lz+	c #31130B",
"Mz+	c #430000",
"Nz+	c #490000",
"Oz+	c #323133",
"Pz+	c #273316",
"Qz+	c #2D3B1A",
"Rz+	c #4C5A30",
"Sz+	c #5B6636",
"Tz+	c #535D31",
"Uz+	c #343A1C",
"Vz+	c #1A1A0D",
"Wz+	c #110F06",
"Xz+	c #1C1C04",
"Yz+	c #353707",
"Zz+	c #454B0A",
"`z+	c #3D4610",
" A+	c #191D08",
".A+	c #23201A",
"+A+	c #27251C",
"@A+	c #413F2F",
"#A+	c #58553C",
"$A+	c #5B5B38",
"%A+	c #4F5129",
"&A+	c #4A4F22",
"*A+	c #43491D",
"=A+	c #444C1F",
"-A+	c #484F1F",
";A+	c #5A6427",
">A+	c #5B6827",
",A+	c #4E5C1F",
"'A+	c #3A4710",
")A+	c #303B09",
"!A+	c #2C3608",
"~A+	c #2F3A0C",
"{A+	c #2E370B",
"]A+	c #2F360A",
"^A+	c #2F330B",
"/A+	c #2F320D",
"(A+	c #292B08",
"_A+	c #292A04",
":A+	c #2C2D05",
"<A+	c #2C2708",
"[A+	c #2E1D08",
"}A+	c #371B0A",
"|A+	c #3C1809",
"1A+	c #401A09",
"2A+	c #401D0B",
"3A+	c #432C13",
"4A+	c #3F3A16",
"5A+	c #393F12",
"6A+	c #394111",
"7A+	c #394112",
"8A+	c #333C0F",
"9A+	c #303A0C",
"0A+	c #2D380A",
"aA+	c #303A0D",
"bA+	c #313A0F",
"cA+	c #2D3613",
"dA+	c #20280F",
"eA+	c #171F0C",
"fA+	c #141B0B",
"gA+	c #17200B",
"hA+	c #192107",
"iA+	c #31360C",
"jA+	c #535512",
"kA+	c #5E620E",
"lA+	c #595C0E",
"mA+	c #4D4E14",
"nA+	c #333113",
"oA+	c #1C1B11",
"pA+	c #120D11",
"qA+	c #28282C",
"rA+	c #333234",
"sA+	c #312E30",
"tA+	c #2A2629",
"uA+	c #403B3E",
"vA+	c #454244",
"wA+	c #403C3F",
"xA+	c #1B1211",
"yA+	c #1A100C",
"zA+	c #170B08",
"AA+	c #120906",
"BA+	c #231F1A",
"CA+	c #46463F",
"DA+	c #2F292A",
"EA+	c #161010",
"FA+	c #340401",
"GA+	c #2A0806",
"HA+	c #1E1314",
"IA+	c #0F1113",
"JA+	c #080405",
"KA+	c #060001",
"LA+	c #0E0604",
"MA+	c #120A08",
"NA+	c #140805",
"OA+	c #470000",
"PA+	c #293617",
"QA+	c #31401B",
"RA+	c #505D2E",
"SA+	c #5D6933",
"TA+	c #515C2C",
"UA+	c #2E3517",
"VA+	c #17180B",
"WA+	c #111208",
"XA+	c #1A1C05",
"YA+	c #313608",
"ZA+	c #414909",
"`A+	c #3F480F",
" B+	c #21270C",
".B+	c #29291C",
"+B+	c #45462F",
"@B+	c #5A5B38",
"#B+	c #5E6432",
"$B+	c #4F5820",
"%B+	c #465016",
"&B+	c #3F4A10",
"*B+	c #455114",
"=B+	c #4C5719",
"-B+	c #5D6C28",
";B+	c #5D6D2A",
">B+	c #506023",
",B+	c #3B4915",
"'B+	c #2F3C0D",
")B+	c #2B350A",
"!B+	c #2D370C",
"~B+	c #2C340B",
"{B+	c #2D360B",
"]B+	c #2E330B",
"^B+	c #2C2E09",
"/B+	c #292A05",
"(B+	c #262702",
"_B+	c #282404",
":B+	c #2D2308",
"<B+	c #36210C",
"[B+	c #40230E",
"}B+	c #40260E",
"|B+	c #413114",
"1B+	c #3E3D16",
"2B+	c #384112",
"3B+	c #374211",
"4B+	c #323B0E",
"5B+	c #2E380C",
"6B+	c #2D380C",
"7B+	c #303B0E",
"8B+	c #323D12",
"9B+	c #2D3716",
"0B+	c #1E2512",
"aB+	c #12180C",
"bB+	c #0A0F08",
"cB+	c #091006",
"dB+	c #0F1703",
"eB+	c #353C0D",
"fB+	c #646913",
"gB+	c #6E770C",
"hB+	c #636B0A",
"iB+	c #56590F",
"jB+	c #353610",
"kB+	c #14170A",
"lB+	c #180604",
"mB+	c #120101",
"nB+	c #030207",
"oB+	c #180201",
"pB+	c #390103",
"qB+	c #4C0102",
"rB+	c #090504",
"sB+	c #110D0A",
"tB+	c #1C1A15",
"uB+	c #18191B",
"vB+	c #303C1A",
"wB+	c #323F16",
"xB+	c #45531D",
"yB+	c #4D5B1F",
"zB+	c #424D1A",
"AB+	c #20250A",
"BB+	c #0B0C04",
"CB+	c #0C0D06",
"DB+	c #171B06",
"EB+	c #2E360C",
"FB+	c #3D470C",
"GB+	c #3E4812",
"HB+	c #23290E",
"IB+	c #2B271D",
"JB+	c #312F22",
"KB+	c #343425",
"LB+	c #42432C",
"MB+	c #494E2A",
"NB+	c #4E5822",
"OB+	c #485715",
"PB+	c #465511",
"QB+	c #3F4E0C",
"RB+	c #42530F",
"SB+	c #425211",
"TB+	c #475B1B",
"UB+	c #4B5D23",
"VB+	c #465722",
"WB+	c #384717",
"XB+	c #2E3B10",
"YB+	c #27330A",
"ZB+	c #28300B",
"`B+	c #2A310C",
" C+	c #2A2E0C",
".C+	c #2C2E0D",
"+C+	c #2C2B0B",
"@C+	c #2A2907",
"#C+	c #242202",
"$C+	c #242002",
"%C+	c #241B03",
"&C+	c #2C1D09",
"*C+	c #2F1C09",
"=C+	c #321E0A",
"-C+	c #35220C",
";C+	c #392C11",
">C+	c #393713",
",C+	c #373E10",
"'C+	c #323C0D",
")C+	c #333D0D",
"!C+	c #323B0D",
"~C+	c #323C10",
"{C+	c #2E370E",
"]C+	c #2E380F",
"^C+	c #2E3711",
"/C+	c #1E2313",
"(C+	c #151A0E",
"_C+	c #0C1009",
":C+	c #121906",
"<C+	c #363C10",
"[C+	c #5C6414",
"}C+	c #5F690A",
"|C+	c #505606",
"1C+	c #424408",
"2C+	c #282909",
"3C+	c #0D0F05",
"4C+	c #191815",
"5C+	c #350003",
"6C+	c #490002",
"7C+	c #354410",
"8C+	c #3F500F",
"9C+	c #41510D",
"0C+	c #38440E",
"aC+	c #181D05",
"bC+	c #0D1404",
"cC+	c #1E2908",
"dC+	c #2C3809",
"eC+	c #2E390C",
"fC+	c #0A0C06",
"gC+	c #27211A",
"hC+	c #080501",
"iC+	c #130F05",
"jC+	c #252115",
"kC+	c #373525",
"lC+	c #373826",
"mC+	c #3D4128",
"nC+	c #3E4620",
"oC+	c #465419",
"pC+	c #475B0F",
"qC+	c #4D600E",
"rC+	c #4E6210",
"sC+	c #4A5F13",
"tC+	c #364A0C",
"uC+	c #243507",
"vC+	c #1E2D0B",
"wC+	c #1D2A0C",
"xC+	c #152006",
"yC+	c #101804",
"zC+	c #0B1101",
"AC+	c #0D0F01",
"BC+	c #0F1002",
"CC+	c #131304",
"DC+	c #161403",
"EC+	c #1A1604",
"FC+	c #1B1703",
"GC+	c #1D1903",
"HC+	c #1B1503",
"IC+	c #1B1304",
"JC+	c #1B0F03",
"KC+	c #1C1003",
"LC+	c #1E1203",
"MC+	c #281E08",
"NC+	c #333010",
"OC+	c #323B0B",
"PC+	c #313A0A",
"QC+	c #30390A",
"RC+	c #2F380E",
"SC+	c #2A320E",
"TC+	c #293211",
"UC+	c #262D16",
"VC+	c #1D2215",
"WC+	c #181C11",
"XC+	c #181D11",
"YC+	c #181E0C",
"ZC+	c #272C0E",
"`C+	c #34390B",
" D+	c #333A06",
".D+	c #2D3104",
"+D+	c #2B2D07",
"@D+	c #20200A",
"#D+	c #121409",
"$D+	c #120D0D",
"%D+	c #0E0805",
"&D+	c #0A0402",
"*D+	c #060202",
"=D+	c #450103",
"-D+	c #0A0604",
";D+	c #3A490F",
">D+	c #405209",
",D+	c #3E4E06",
"'D+	c #303907",
")D+	c #080F01",
"!D+	c #111A02",
"~D+	c #111A01",
"{D+	c #0D1302",
"]D+	c #181315",
"^D+	c #191416",
"/D+	c #52463D",
"(D+	c #55483C",
"_D+	c #56493D",
":D+	c #54483E",
"<D+	c #15120B",
"[D+	c #1E170D",
"}D+	c #221C0D",
"|D+	c #231D0C",
"1D+	c #282211",
"2D+	c #2B2516",
"3D+	c #2E2C1D",
"4D+	c #2F301E",
"5D+	c #333720",
"6D+	c #333B1A",
"7D+	c #3B4A11",
"8D+	c #43580A",
"9D+	c #51690C",
"0D+	c #546C0E",
"aD+	c #4F6415",
"bD+	c #354612",
"cD+	c #0E1C03",
"dD+	c #010703",
"eD+	c #070400",
"fD+	c #0F0A02",
"gD+	c #120D02",
"hD+	c #100A01",
"iD+	c #0F0801",
"jD+	c #0B0300",
"kD+	c #090200",
"lD+	c #0C0400",
"mD+	c #1C1403",
"nD+	c #2D2B0D",
"oD+	c #31350C",
"pD+	c #2F3609",
"qD+	c #31390A",
"rD+	c #2D3507",
"sD+	c #27300B",
"tD+	c #111609",
"uD+	c #16190E",
"vD+	c #1E1F16",
"wD+	c #26281E",
"xD+	c #27271F",
"yD+	c #28291F",
"zD+	c #24261A",
"AD+	c #232614",
"BD+	c #1F220B",
"CD+	c #1D2106",
"DD+	c #1C1F06",
"ED+	c #2C2F15",
"FD+	c #353520",
"GD+	c #353524",
"HD+	c #2F2F21",
"ID+	c #2E2E21",
"JD+	c #2D2C21",
"KD+	c #312F26",
"LD+	c #332F25",
"MD+	c #2F2621",
"ND+	c #4C433C",
"OD+	c #423934",
"PD+	c #4C423B",
"QD+	c #4F443B",
"RD+	c #65594A",
"SD+	c #2C292D",
"TD+	c #343336",
"UD+	c #3A3738",
"VD+	c #4D453B",
"WD+	c #26231D",
"XD+	c #514B3E",
"YD+	c #494546",
"ZD+	c #231C18",
"`D+	c #0C0704",
" E+	c #060201",
".E+	c #0D0903",
"+E+	c #140200",
"@E+	c #0B0402",
"#E+	c #120A06",
"$E+	c #0E0702",
"%E+	c #3A4718",
"&E+	c #36450E",
"*E+	c #3E5009",
"=E+	c #3E5008",
"-E+	c #2D3608",
";E+	c #070900",
">E+	c #060A00",
",E+	c #60554A",
"'E+	c #5E5246",
")E+	c #615448",
"!E+	c #675A4D",
"~E+	c #6A5C50",
"{E+	c #695A4D",
"]E+	c #695A4C",
"^E+	c #6B5C4D",
"/E+	c #6F5F4F",
"(E+	c #705F4D",
"_E+	c #72614F",
":E+	c #716251",
"<E+	c #605347",
"[E+	c #0E0B06",
"}E+	c #161108",
"|E+	c #3B3323",
"1E+	c #5B4E37",
"2E+	c #5F5135",
"3E+	c #4F4227",
"4E+	c #3B321B",
"5E+	c #2E2817",
"6E+	c #2D2A19",
"7E+	c #292918",
"8E+	c #2E331D",
"9E+	c #323B1A",
"0E+	c #3B4D14",
"aE+	c #41580B",
"bE+	c #506C0D",
"cE+	c #516C0C",
"dE+	c #516B19",
"eE+	c #364A19",
"fE+	c #0E1C08",
"gE+	c #000302",
"hE+	c #0C0701",
"iE+	c #0C0601",
"jE+	c #191103",
"kE+	c #2C280B",
"lE+	c #32360D",
"mE+	c #2F370A",
"nE+	c #2D3508",
"oE+	c #262E09",
"pE+	c #141A05",
"qE+	c #040702",
"rE+	c #010301",
"sE+	c #1F201A",
"tE+	c #323229",
"uE+	c #35342B",
"vE+	c #37372C",
"wE+	c #2F2F24",
"xE+	c #2D2D22",
"yE+	c #26261A",
"zE+	c #282A19",
"AE+	c #2D2D1C",
"BE+	c #42412E",
"CE+	c #57543F",
"DE+	c #5F5D45",
"EE+	c #595540",
"FE+	c #59543F",
"GE+	c #58523F",
"HE+	c #5E5745",
"IE+	c #665D4B",
"JE+	c #493C34",
"KE+	c #4B3D34",
"LE+	c #7A695A",
"ME+	c #8E7C66",
"NE+	c #8E7E65",
"OE+	c #887865",
"PE+	c #897A6B",
"QE+	c #83746A",
"RE+	c #655C56",
"SE+	c #6B6059",
"TE+	c #75695E",
"UE+	c #7E6F60",
"VE+	c #958672",
"WE+	c #A4947C",
"XE+	c #A5957E",
"YE+	c #9C8E7A",
"ZE+	c #625F57",
"`E+	c #3E3E40",
" F+	c #434346",
".F+	c #444346",
"+F+	c #474649",
"@F+	c #474647",
"#F+	c #3E3C3D",
"$F+	c #140E0B",
"%F+	c #231A14",
"&F+	c #261C16",
"*F+	c #62584D",
"=F+	c #8C8271",
"-F+	c #887D6E",
";F+	c #574E48",
">F+	c #5D554D",
",F+	c #6D6760",
"'F+	c #78716B",
")F+	c #736C65",
"!F+	c #110909",
"~F+	c #1C0203",
"{F+	c #53483E",
"]F+	c #5D5042",
"^F+	c #5D5040",
"/F+	c #524636",
"(F+	c #3E3223",
"_F+	c #382C1D",
":F+	c #3A2E1F",
"<F+	c #3D2E22",
"[F+	c #321511",
"}F+	c #20130D",
"|F+	c #342419",
"1F+	c #27190E",
"2F+	c #22170C",
"3F+	c #21160C",
"4F+	c #23180F",
"5F+	c #251B12",
"6F+	c #2A2117",
"7F+	c #2E241C",
"8F+	c #322921",
"9F+	c #1A2608",
"0F+	c #202D04",
"aF+	c #334308",
"bF+	c #394809",
"cF+	c #283108",
"dF+	c #020601",
"eF+	c #060A02",
"fF+	c #1B1619",
"gF+	c #1C161A",
"hF+	c #64584A",
"iF+	c #66574A",
"jF+	c #68594C",
"kF+	c #6C5C4E",
"lF+	c #6C5C4D",
"mF+	c #6D5D4D",
"nF+	c #6E5E4E",
"oF+	c #70604F",
"pF+	c #73614E",
"qF+	c #756350",
"rF+	c #766451",
"sF+	c #736251",
"tF+	c #100D08",
"uF+	c #1C170D",
"vF+	c #594E39",
"wF+	c #8C7A5C",
"xF+	c #8F7D5B",
"yF+	c #716143",
"zF+	c #4E4028",
"AF+	c #3B321F",
"BF+	c #383421",
"CF+	c #333220",
"DF+	c #333722",
"EF+	c #30361A",
"FF+	c #364614",
"GF+	c #3B520C",
"HF+	c #445D0A",
"IF+	c #48610C",
"JF+	c #475F17",
"KF+	c #2E3F15",
"LF+	c #0D1808",
"MF+	c #090300",
"NF+	c #0E0601",
"OF+	c #0F0400",
"PF+	c #120600",
"QF+	c #150800",
"RF+	c #221505",
"SF+	c #2E270A",
"TF+	c #323109",
"UF+	c #2F3507",
"VF+	c #323808",
"WF+	c #2B300B",
"XF+	c #181B07",
"YF+	c #39372F",
"ZF+	c #363529",
"`F+	c #444334",
" G+	c #565242",
".G+	c #645E4D",
"+G+	c #6A6550",
"@G+	c #635C48",
"#G+	c #625945",
"$G+	c #605743",
"%G+	c #665D48",
"&G+	c #685B48",
"*G+	c #6F644E",
"=G+	c #96816D",
"-G+	c #BBA387",
";G+	c #B29C7E",
">G+	c #9D8870",
",G+	c #8D7C69",
"'G+	c #857667",
")G+	c #756C61",
"!G+	c #6E655F",
"~G+	c #796D61",
"{G+	c #A3927E",
"]G+	c #B4A48A",
"^G+	c #B6A68A",
"/G+	c #AF9E85",
"(G+	c #655B51",
"_G+	c #666155",
":G+	c #655C4D",
"<G+	c #404042",
"[G+	c #464447",
"}G+	c #494547",
"|G+	c #494545",
"1G+	c #484443",
"2G+	c #4F4B4B",
"3G+	c #120E0A",
"4G+	c #160F09",
"5G+	c #5F4C3D",
"6G+	c #513F2E",
"7G+	c #645340",
"8G+	c #968875",
"9G+	c #8A7C6B",
"0G+	c #6D6156",
"aG+	c #655C52",
"bG+	c #4E4642",
"cG+	c #49403C",
"dG+	c #5D5246",
"eG+	c #837667",
"fG+	c #A19582",
"gG+	c #A59A87",
"hG+	c #9F9380",
"iG+	c #988B79",
"jG+	c #8C816F",
"kG+	c #5D5147",
"lG+	c #83786B",
"mG+	c #8C8174",
"nG+	c #241D1E",
"oG+	c #2B1819",
"pG+	c #3C0C0E",
"qG+	c #4E0204",
"rG+	c #2F0202",
"sG+	c #130303",
"tG+	c #030608",
"uG+	c #5B5145",
"vG+	c #716351",
"wG+	c #776754",
"xG+	c #8B7861",
"yG+	c #8D7A5F",
"zG+	c #907E60",
"AG+	c #8E7B5E",
"BG+	c #89775A",
"CG+	c #7E6B50",
"DG+	c #725F45",
"EG+	c #6A563D",
"FG+	c #6D5A42",
"GG+	c #745D48",
"HG+	c #7F6753",
"IG+	c #765D4D",
"JG+	c #4A2720",
"KG+	c #150704",
"LG+	c #674F38",
"MG+	c #6F5439",
"NG+	c #684C30",
"OG+	c #664C30",
"PG+	c #664E33",
"QG+	c #6B543B",
"RG+	c #6E5842",
"SG+	c #74604B",
"TG+	c #776554",
"UG+	c #7C6C5B",
"VG+	c #7A6B5C",
"WG+	c #77695E",
"XG+	c #130A04",
"YG+	c #211B13",
"ZG+	c #7F7464",
"`G+	c #695B4D",
" H+	c #010400",
".H+	c #0E1802",
"+H+	c #2D3C0C",
"@H+	c #394B10",
"#H+	c #040704",
"$H+	c #080C05",
"%H+	c #0D0F09",
"&H+	c #191316",
"*H+	c #5C5345",
"=H+	c #6D5F4D",
"-H+	c #6F614E",
";H+	c #6F604E",
">H+	c #13120F",
",H+	c #1F1C14",
"'H+	c #5B523F",
")H+	c #8D7E62",
"!H+	c #8E7F5F",
"~H+	c #76674A",
"{H+	c #64563E",
"]H+	c #5E533E",
"^H+	c #5F5844",
"/H+	c #5A5744",
"(H+	c #4A4C39",
"_H+	c #353D24",
":H+	c #2E3D15",
"<H+	c #2F450E",
"[H+	c #354C0C",
"}H+	c #354A0B",
"|H+	c #374B16",
"1H+	c #283617",
"2H+	c #0F190C",
"3H+	c #0B0501",
"4H+	c #170C04",
"5H+	c #1F0F04",
"6H+	c #261405",
"7H+	c #2A1605",
"8H+	c #32200A",
"9H+	c #352809",
"0H+	c #353207",
"aH+	c #303304",
"bH+	c #363A06",
"cH+	c #383D07",
"dH+	c #35380E",
"eH+	c #20230B",
"fH+	c #080A03",
"gH+	c #3D3C34",
"hH+	c #5A554B",
"iH+	c #605B4B",
"jH+	c #5A5443",
"kH+	c #595241",
"lH+	c #59503F",
"mH+	c #5D5442",
"nH+	c #645946",
"oH+	c #261A0F",
"pH+	c #9D8973",
"qH+	c #CBB191",
"rH+	c #BDA683",
"sH+	c #978468",
"tH+	c #6D604F",
"uH+	c #716759",
"vH+	c #6A625D",
"wH+	c #6B6760",
"xH+	c #71695C",
"yH+	c #9C8F7B",
"zH+	c #AFA289",
"AH+	c #B0A488",
"BH+	c #A4977F",
"CH+	c #948874",
"DH+	c #776D60",
"EH+	c #5D564A",
"FH+	c #4C4B44",
"GH+	c #5B564A",
"HH+	c #6F624E",
"IH+	c #5E4E3D",
"JH+	c #524633",
"KH+	c #483D31",
"LH+	c #535250",
"MH+	c #4F4B49",
"NH+	c #575250",
"OH+	c #504C49",
"PH+	c #3F3A39",
"QH+	c #5D4F3D",
"RH+	c #332716",
"SH+	c #150A02",
"TH+	c #3E2B19",
"UH+	c #886F55",
"VH+	c #867056",
"WH+	c #69563E",
"XH+	c #7D6952",
"YH+	c #A5967B",
"ZH+	c #B0A589",
"`H+	c #A1947D",
" I+	c #615644",
".I+	c #201D15",
"+I+	c #736B60",
"@I+	c #6F6459",
"#I+	c #605850",
"$I+	c #5A534B",
"%I+	c #827566",
"&I+	c #A09684",
"*I+	c #9C927F",
"=I+	c #918775",
"-I+	c #787062",
";I+	c #877C6D",
">I+	c #8B7F71",
",I+	c #575249",
"'I+	c #615B53",
")I+	c #371F20",
"!I+	c #4D1113",
"~I+	c #5C0203",
"{I+	c #560102",
"]I+	c #3A0204",
"^I+	c #1B0505",
"/I+	c #080A0A",
"(I+	c #050B0D",
"_I+	c #11090A",
":I+	c #181713",
"<I+	c #726654",
"[I+	c #7B6E5A",
"}I+	c #867761",
"|I+	c #9D8868",
"1I+	c #A18D6A",
"2I+	c #9D8866",
"3I+	c #978463",
"4I+	c #897656",
"5I+	c #7B694A",
"6I+	c #715E41",
"7I+	c #776347",
"8I+	c #7F694F",
"9I+	c #877057",
"0I+	c #7B654F",
"aI+	c #492C21",
"bI+	c #1C0D08",
"cI+	c #4D3927",
"dI+	c #7E6346",
"eI+	c #8F6E4C",
"fI+	c #8F6D48",
"gI+	c #92724B",
"hI+	c #90734F",
"iI+	c #957B58",
"jI+	c #967E5F",
"kI+	c #9A8568",
"lI+	c #97836D",
"mI+	c #998974",
"nI+	c #928272",
"oI+	c #8D8074",
"pI+	c #191008",
"qI+	c #897C6B",
"rI+	c #6E6252",
"sI+	c #0E1705",
"tI+	c #2D3B13",
"uI+	c #384913",
"vI+	c #27320F",
"wI+	c #0E100A",
"xI+	c #131310",
"yI+	c #161015",
"zI+	c #160F14",
"AI+	c #150E12",
"BI+	c #403830",
"CI+	c #444036",
"DI+	c #484136",
"EI+	c #50473A",
"FI+	c #544B3C",
"GI+	c #554C41",
"HI+	c #6E6652",
"II+	c #625843",
"JI+	c #6C5E4A",
"KI+	c #847965",
"LI+	c #7A7463",
"MI+	c #515345",
"NI+	c #2D3623",
"OI+	c #1E2B11",
"PI+	c #1B2A0B",
"QI+	c #1F2F0B",
"RI+	c #1C2909",
"SI+	c #1F2A10",
"TI+	c #1A2315",
"UI+	c #131914",
"VI+	c #0D1112",
"WI+	c #0E1314",
"XI+	c #0E1113",
"YI+	c #1F1106",
"ZI+	c #2A1406",
"`I+	c #311907",
" J+	c #351D09",
".J+	c #3B240C",
"+J+	c #372508",
"@J+	c #372E07",
"#J+	c #323004",
"$J+	c #3B3C06",
"%J+	c #3B3C04",
"&J+	c #3E3F11",
"*J+	c #26260E",
"=J+	c #403939",
"-J+	c #46403E",
";J+	c #4F4643",
">J+	c #473B30",
",J+	c #4B3E2F",
"'J+	c #271A0D",
")J+	c #A2907A",
"!J+	c #CCB295",
"~J+	c #BFA786",
"{J+	c #9B886A",
"]J+	c #77664F",
"^J+	c #605954",
"/J+	c #5A5753",
"(J+	c #605D57",
"_J+	c #655F55",
":J+	c #6D6659",
"<J+	c #877F6E",
"[J+	c #978E7B",
"}J+	c #978E7A",
"|J+	c #8C8370",
"1J+	c #84725A",
"2J+	c #8A755C",
"3J+	c #6B5740",
"4J+	c #574533",
"5J+	c #5E4C3D",
"6J+	c #43372F",
"7J+	c #3F3530",
"8J+	c #48423F",
"9J+	c #4A4444",
"0J+	c #836B4F",
"aJ+	c #5B4327",
"bJ+	c #39200A",
"cJ+	c #5F4325",
"dJ+	c #967958",
"eJ+	c #866F54",
"fJ+	c #66533C",
"gJ+	c #77644E",
"hJ+	c #9A8C73",
"iJ+	c #A49A7E",
"jJ+	c #968B72",
"kJ+	c #6A5E49",
"lJ+	c #564938",
"mJ+	c #574F4B",
"nJ+	c #595350",
"oJ+	c #484039",
"pJ+	c #928B7B",
"qJ+	c #969180",
"rJ+	c #918B7B",
"sJ+	c #8D8776",
"tJ+	c #847D6E",
"uJ+	c #82796B",
"vJ+	c #555249",
"wJ+	c #645E54",
"xJ+	c #6B655C",
"yJ+	c #331E1F",
"zJ+	c #470E12",
"AJ+	c #560204",
"BJ+	c #4E0001",
"CJ+	c #3A0304",
"DJ+	c #1C0608",
"EJ+	c #070B0E",
"FJ+	c #050E11",
"GJ+	c #13080B",
"HJ+	c #140904",
"IJ+	c #1B1915",
"JJ+	c #56544C",
"KJ+	c #726D66",
"LJ+	c #514E46",
"MJ+	c #6B6050",
"NJ+	c #776B59",
"OJ+	c #82755F",
"PJ+	c #938367",
"QJ+	c #9A8868",
"RJ+	c #9F8C69",
"SJ+	c #937F60",
"TJ+	c #806E51",
"UJ+	c #726245",
"VJ+	c #6A593E",
"WJ+	c #6F5D45",
"XJ+	c #7A674F",
"YJ+	c #7B6A52",
"ZJ+	c #705E48",
"`J+	c #44281F",
" K+	c #200F09",
".K+	c #503C2A",
"+K+	c #795E41",
"@K+	c #8B6A46",
"#K+	c #906B46",
"$K+	c #97744C",
"%K+	c #967651",
"&K+	c #987D5A",
"*K+	c #937B5D",
"=K+	c #938062",
"-K+	c #907E65",
";K+	c #93846F",
">K+	c #928474",
",K+	c #8C7F74",
"'K+	c #70655C",
")K+	c #241912",
"!K+	c #3F3730",
"~K+	c #7B6E5C",
"{K+	c #746656",
"]K+	c #736453",
"^K+	c #716253",
"/K+	c #121B08",
"(K+	c #314217",
"_K+	c #394B16",
":K+	c #2C3815",
"<K+	c #10110D",
"[K+	c #171115",
"}K+	c #130D10",
"|K+	c #333128",
"1K+	c #3F392D",
"2K+	c #423C2F",
"3K+	c #484134",
"4K+	c #8F806C",
"5K+	c #766F5E",
"6K+	c #3C3D33",
"7K+	c #151C12",
"8K+	c #0C1509",
"9K+	c #0F1809",
"0K+	c #121B09",
"aK+	c #11190D",
"bK+	c #101711",
"cK+	c #1F2420",
"dK+	c #2A2D2B",
"eK+	c #383A35",
"fK+	c #291C0D",
"gK+	c #34210D",
"hK+	c #331C08",
"iK+	c #301905",
"jK+	c #37220A",
"kK+	c #352208",
"lK+	c #382D0A",
"mK+	c #383209",
"nK+	c #44450D",
"oK+	c #444509",
"pK+	c #434513",
"qK+	c #2A2A10",
"rK+	c #0D0C06",
"sK+	c #443C3A",
"tK+	c #19130D",
"uK+	c #665742",
"vK+	c #B19F88",
"wK+	c #CAB499",
"xK+	c #C3AF91",
"yK+	c #B2A082",
"zK+	c #A39079",
"AK+	c #978876",
"BK+	c #585450",
"CK+	c #676256",
"DK+	c #706B5C",
"EK+	c #736C5E",
"FK+	c #666154",
"GK+	c #59564B",
"HK+	c #625C57",
"IK+	c #63605A",
"JK+	c #AD9878",
"KK+	c #917E5E",
"LK+	c #796648",
"MK+	c #89765B",
"NK+	c #907D65",
"OK+	c #95836D",
"PK+	c #907F6B",
"QK+	c #90806D",
"RK+	c #7E7663",
"SK+	c #685E56",
"TK+	c #544B47",
"UK+	c #3B3232",
"VK+	c #968570",
"WK+	c #B69B78",
"XK+	c #A3845B",
"YK+	c #8F6F44",
"ZK+	c #98794F",
"`K+	c #A08262",
" L+	c #7B644D",
".L+	c #51402E",
"+L+	c #574837",
"@L+	c #6B5F4C",
"#L+	c #6B614E",
"$L+	c #5A503D",
"%L+	c #5B4E3C",
"&L+	c #746956",
"*L+	c #776E5D",
"=L+	c #605A4D",
"-L+	c #4F4743",
";L+	c #4C4441",
">L+	c #686255",
",L+	c #686558",
"'L+	c #656155",
")L+	c #646154",
"!L+	c #5E5A4E",
"~L+	c #595047",
"{L+	c #1C1B17",
"]L+	c #2A1A19",
"^L+	c #400F12",
"/L+	c #530709",
"(L+	c #4A0203",
"_L+	c #1D0A0C",
":L+	c #0D1314",
"<L+	c #081316",
"[L+	c #190C0D",
"}L+	c #0F0804",
"|L+	c #23211C",
"1L+	c #726F66",
"2L+	c #938F85",
"3L+	c #8F8A7F",
"4L+	c #5C584D",
"5L+	c #605C50",
"6L+	c #534C3D",
"7L+	c #897960",
"8L+	c #968466",
"9L+	c #9E8C6A",
"0L+	c #938261",
"aL+	c #7B6B4C",
"bL+	c #68583D",
"cL+	c #605238",
"dL+	c #66563F",
"eL+	c #6E5D47",
"fL+	c #715E48",
"gL+	c #695843",
"hL+	c #412B1F",
"iL+	c #1E110B",
"jL+	c #402E20",
"kL+	c #563A22",
"lL+	c #644322",
"mL+	c #684421",
"nL+	c #6F4D28",
"oL+	c #705335",
"pL+	c #6A5137",
"qL+	c #6B583E",
"rL+	c #786952",
"sL+	c #897969",
"tL+	c #918376",
"uL+	c #92877A",
"vL+	c #332820",
"wL+	c #3D3837",
"xL+	c #675749",
"yL+	c #655849",
"zL+	c #625546",
"AL+	c #0E1606",
"BL+	c #2D3C17",
"CL+	c #39471C",
"DL+	c #2F371A",
"EL+	c #0A0C05",
"FL+	c #181217",
"GL+	c #150F14",
"HL+	c #10090E",
"IL+	c #110B0E",
"JL+	c #37332A",
"KL+	c #463F33",
"LL+	c #4E463B",
"ML+	c #6C5E53",
"NL+	c #8F7C6A",
"OL+	c #92816D",
"PL+	c #716959",
"QL+	c #2B2C23",
"RL+	c #040905",
"SL+	c #0E140B",
"TL+	c #11160C",
"UL+	c #060A05",
"VL+	c #070C0A",
"WL+	c #56524C",
"XL+	c #150E05",
"YL+	c #312412",
"ZL+	c #3D2B13",
"`L+	c #301E06",
" M+	c #281502",
".M+	c #2D1C06",
"+M+	c #2D1D06",
"@M+	c #332909",
"#M+	c #3A320C",
"$M+	c #484612",
"%M+	c #4A4B10",
"&M+	c #434514",
"*M+	c #292910",
"=M+	c #433B3B",
"-M+	c #463F3E",
";M+	c #433B3A",
">M+	c #91836F",
",M+	c #BBAB93",
"'M+	c #C6B49A",
")M+	c #C8B69B",
"!M+	c #C5B49A",
"~M+	c #C4B39B",
"{M+	c #B9AA99",
"]M+	c #4F4C4A",
"^M+	c #605A55",
"/M+	c #696458",
"(M+	c #AB9577",
"_M+	c #7D684B",
":M+	c #9A8768",
"<M+	c #B2A084",
"[M+	c #CCBBA0",
"}M+	c #DACDB1",
"|M+	c #E3D7BB",
"1M+	c #DED0B6",
"2M+	c #D4C6AE",
"3M+	c #978A7C",
"4M+	c #5B4D49",
"5M+	c #BBAD95",
"6M+	c #E2CDA8",
"7M+	c #E5CAA0",
"8M+	c #E0C198",
"9M+	c #D7BB93",
"0M+	c #B9A183",
"aM+	c #766354",
"bM+	c #4A3F34",
"cM+	c #675D4F",
"dM+	c #6C6455",
"eM+	c #48413E",
"fM+	c #473E3E",
"gM+	c #463E3E",
"hM+	c #3F3939",
"iM+	c #332E2F",
"jM+	c #4B453B",
"kM+	c #4C493D",
"lM+	c #4A493E",
"mM+	c #49473E",
"nM+	c #48463C",
"oM+	c #524D44",
"pM+	c #585249",
"qM+	c #676358",
"rM+	c #706B60",
"sM+	c #221614",
"tM+	c #371011",
"uM+	c #48070A",
"vM+	c #320909",
"wM+	c #1C0D0F",
"xM+	c #0F1416",
"yM+	c #0A1316",
"zM+	c #1D0D0E",
"AM+	c #25140B",
"BM+	c #130903",
"CM+	c #706D67",
"DM+	c #8C867E",
"EM+	c #8A867B",
"FM+	c #5B5349",
"GM+	c #52493C",
"HM+	c #897861",
"IM+	c #9A876B",
"JM+	c #9F8C6C",
"KM+	c #9B8769",
"LM+	c #8D7A5D",
"MM+	c #75644A",
"NM+	c #62513B",
"OM+	c #655640",
"PM+	c #6E5F4B",
"QM+	c #675846",
"RM+	c #3F2F25",
"SM+	c #140403",
"TM+	c #180E0A",
"UM+	c #34251A",
"VM+	c #402612",
"WM+	c #4D2C11",
"XM+	c #512C0E",
"YM+	c #563314",
"ZM+	c #523215",
"`M+	c #53351B",
" N+	c #4F361D",
".N+	c #544029",
"+N+	c #6E5E4B",
"@N+	c #8B7B6D",
"#N+	c #908278",
"$N+	c #8F8479",
"%N+	c #4E433B",
"&N+	c #5F5955",
"*N+	c #71665C",
"=N+	c #544739",
"-N+	c #554739",
";N+	c #010302",
">N+	c #0D1507",
",N+	c #293518",
"'N+	c #35411E",
")N+	c #2C331B",
"!N+	c #0E1108",
"~N+	c #171116",
"{N+	c #211B1D",
"]N+	c #2D2C25",
"^N+	c #302E26",
"/N+	c #4C4337",
"(N+	c #94816C",
"_N+	c #95846D",
":N+	c #292A20",
"<N+	c #070C09",
"[N+	c #141812",
"}N+	c #1A1C15",
"|N+	c #0C100B",
"1N+	c #0B0F0C",
"2N+	c #19150A",
"3N+	c #423922",
"4N+	c #4E4122",
"5N+	c #3A2D0E",
"6N+	c #281B03",
"7N+	c #2A1D07",
"8N+	c #291E06",
"9N+	c #2E2808",
"0N+	c #332F0A",
"aN+	c #474716",
"bN+	c #4C4E17",
"cN+	c #46491B",
"dN+	c #292C12",
"eN+	c #0B0B05",
"fN+	c #47413F",
"gN+	c #48413F",
"hN+	c #48413D",
"iN+	c #262119",
"jN+	c #756B5D",
"kN+	c #A99C87",
"lN+	c #C1B399",
"mN+	c #C6B79C",
"nN+	c #C9BB9F",
"oN+	c #C8B99F",
"pN+	c #C9BAA1",
"qN+	c #BCAF9C",
"rN+	c #857E71",
"sN+	c #323027",
"tN+	c #53514D",
"uN+	c #6C685C",
"vN+	c #5E5A4F",
"wN+	c #53504E",
"xN+	c #A39072",
"yN+	c #938362",
"zN+	c #837054",
"AN+	c #9C8B6E",
"BN+	c #AC9A80",
"CN+	c #C8B89C",
"DN+	c #DBCDB0",
"EN+	c #F0E2C2",
"FN+	c #F3E5C5",
"GN+	c #EADDC1",
"HN+	c #9F9483",
"IN+	c #5D514A",
"JN+	c #23201B",
"KN+	c #766E5E",
"LN+	c #CFC4AA",
"MN+	c #F5E9C2",
"NN+	c #F9EBC1",
"ON+	c #F7E2BA",
"PN+	c #EFDAB4",
"QN+	c #C5B196",
"RN+	c #4D4A40",
"SN+	c #4B4940",
"TN+	c #4E4B42",
"UN+	c #525046",
"VN+	c #534F46",
"WN+	c #292B28",
"XN+	c #58544A",
"YN+	c #575348",
"ZN+	c #625F53",
"`N+	c #6A665C",
" O+	c #6C6960",
".O+	c #656157",
"+O+	c #1D1711",
"@O+	c #21140E",
"#O+	c #31100D",
"$O+	c #410D0C",
"%O+	c #3E0A08",
"&O+	c #2F0D0D",
"*O+	c #1E1214",
"=O+	c #161B1C",
"-O+	c #10191B",
";O+	c #1F0B0D",
">O+	c #281108",
",O+	c #150600",
"'O+	c #65635A",
")O+	c #79746A",
"!O+	c #7B796B",
"~O+	c #7F7A6C",
"{O+	c #625C50",
"]O+	c #595143",
"^O+	c #766B57",
"/O+	c #94856E",
"(O+	c #A39276",
"_O+	c #A59576",
":O+	c #9E8D70",
"<O+	c #8C7C62",
"[O+	c #73644B",
"}O+	c #62533E",
"|O+	c #5E503C",
"1O+	c #6B5D4A",
"2O+	c #796A58",
"3O+	c #7C6E5C",
"4O+	c #140906",
"5O+	c #0B0102",
"6O+	c #120D0B",
"7O+	c #3A2413",
"8O+	c #4E2E17",
"9O+	c #543015",
"0O+	c #563215",
"aO+	c #502E13",
"bO+	c #4F3117",
"cO+	c #4B321A",
"dO+	c #54402A",
"eO+	c #70614F",
"fO+	c #8C8070",
"gO+	c #8F8679",
"hO+	c #8C8379",
"iO+	c #776E65",
"jO+	c #7C7065",
"kO+	c #786C60",
"lO+	c #685B50",
"mO+	c #253018",
"nO+	c #262C18",
"oO+	c #11120A",
"pO+	c #140E13",
"qO+	c #100A0E",
"rO+	c #2F2D25",
"sO+	c #343027",
"tO+	c #2B292C",
"uO+	c #212327",
"vO+	c #16181D",
"wO+	c #6C6055",
"xO+	c #94806B",
"yO+	c #28271E",
"zO+	c #0A0E0B",
"AO+	c #2B2C26",
"BO+	c #1C1B0E",
"CO+	c #4D492E",
"DO+	c #605935",
"EO+	c #4D4621",
"FO+	c #383110",
"GO+	c #3B3415",
"HO+	c #322E0E",
"IO+	c #272605",
"JO+	c #262503",
"KO+	c #3A3D11",
"LO+	c #444719",
"MO+	c #41431C",
"NO+	c #272A12",
"OO+	c #0C0D07",
"PO+	c #4A4342",
"QO+	c #4D4643",
"RO+	c #49423E",
"SO+	c #211C15",
"TO+	c #141009",
"UO+	c #322B1F",
"VO+	c #A39580",
"WO+	c #B6A88E",
"XO+	c #BAAA90",
"YO+	c #BEB095",
"ZO+	c #BDAF95",
"`O+	c #BEB097",
" P+	c #B4A791",
".P+	c #89816F",
"+P+	c #5B5647",
"@P+	c #5F5C53",
"#P+	c #5A5850",
"$P+	c #63615A",
"%P+	c #6E6A60",
"&P+	c #504E44",
"*P+	c #4D4844",
"=P+	c #4D4B4A",
"-P+	c #7C6A52",
";P+	c #A18D6E",
">P+	c #B8A68B",
",P+	c #B8A88E",
"'P+	c #BFB193",
")P+	c #BDAD93",
"!P+	c #CBBA9D",
"~P+	c #C7B499",
"{P+	c #B9AB92",
"]P+	c #3D322F",
"^P+	c #433B2F",
"/P+	c #514737",
"(P+	c #635844",
"_P+	c #90836B",
":P+	c #C6B799",
"<P+	c #DFD1AE",
"[P+	c #E5D5AF",
"}P+	c #E2D1AD",
"|P+	c #DAC9A7",
"1P+	c #B5A790",
"2P+	c #5A584E",
"3P+	c #5C5B50",
"4P+	c #565449",
"5P+	c #5E5B4F",
"6P+	c #665F55",
"7P+	c #5D594E",
"8P+	c #585449",
"9P+	c #5B594D",
"0P+	c #4F4E47",
"aP+	c #48473D",
"bP+	c #514C3F",
"cP+	c #625A4E",
"dP+	c #35261B",
"eP+	c #2F100C",
"fP+	c #390B09",
"gP+	c #390C08",
"hP+	c #301513",
"iP+	c #1C2121",
"jP+	c #181D1F",
"kP+	c #1E0608",
"lP+	c #2D0D03",
"mP+	c #372619",
"nP+	c #30241D",
"oP+	c #696356",
"pP+	c #585146",
"qP+	c #988974",
"rP+	c #A09078",
"sP+	c #9E9075",
"tP+	c #93856B",
"uP+	c #82755C",
"vP+	c #6C6049",
"wP+	c #635541",
"xP+	c #685A46",
"yP+	c #7E725D",
"zP+	c #8C7F6B",
"AP+	c #8F826E",
"BP+	c #493E36",
"CP+	c #130B08",
"DP+	c #241E16",
"EP+	c #342214",
"FP+	c #4D2F1A",
"GP+	c #543117",
"HP+	c #563316",
"IP+	c #503014",
"JP+	c #50341A",
"KP+	c #4A321D",
"LP+	c #503E2A",
"MP+	c #72695A",
"NP+	c #72655B",
"OP+	c #5C5147",
"PP+	c #070A0A",
"QP+	c #12170E",
"RP+	c #252F1A",
"SP+	c #2B341B",
"TP+	c #242A18",
"UP+	c #13140C",
"VP+	c #131015",
"WP+	c #130F16",
"XP+	c #120E12",
"YP+	c #120C10",
"ZP+	c #373126",
"`P+	c #111418",
" Q+	c #92806B",
".Q+	c #93836D",
"+Q+	c #6F6657",
"@Q+	c #090C09",
"#Q+	c #0D110F",
"$Q+	c #202420",
"%Q+	c #31332D",
"&Q+	c #73695C",
"*Q+	c #202215",
"=Q+	c #58583C",
"-Q+	c #6F6F45",
";Q+	c #5F5F32",
">Q+	c #504F24",
",Q+	c #54552A",
"'Q+	c #464820",
")Q+	c #32350E",
"!Q+	c #272C05",
"~Q+	c #2C3309",
"{Q+	c #31370E",
"]Q+	c #343816",
"^Q+	c #232410",
"/Q+	c #12120A",
"(Q+	c #1B150E",
"_Q+	c #786C57",
":Q+	c #908067",
"<Q+	c #938268",
"[Q+	c #9B8A70",
"}Q+	c #A3917A",
"|Q+	c #A2927C",
"1Q+	c #9E907B",
"2Q+	c #A19585",
"3Q+	c #9A8F7F",
"4Q+	c #5D594D",
"5Q+	c #4B4947",
"6Q+	c #1D1F22",
"7Q+	c #212224",
"8Q+	c #201912",
"9Q+	c #362819",
"0Q+	c #79654A",
"aQ+	c #CAB793",
"bQ+	c #E2D3B0",
"cQ+	c #D4C6A7",
"dQ+	c #C1B295",
"eQ+	c #AB9B83",
"fQ+	c #A6947A",
"gQ+	c #917E68",
"hQ+	c #786956",
"iQ+	c #4D4138",
"jQ+	c #3B2D2D",
"kQ+	c #3C2F2C",
"lQ+	c #18110F",
"mQ+	c #625342",
"nQ+	c #9D896D",
"oQ+	c #A18D6B",
"pQ+	c #9D8967",
"qQ+	c #A38F6E",
"rQ+	c #AC9979",
"sQ+	c #B39F7F",
"tQ+	c #AF9D7F",
"uQ+	c #AA9A80",
"vQ+	c #958877",
"wQ+	c #393536",
"xQ+	c #626256",
"yQ+	c #5A574D",
"zQ+	c #555147",
"AQ+	c #524F43",
"BQ+	c #565247",
"CQ+	c #5B564B",
"DQ+	c #4A473D",
"EQ+	c #1B1C17",
"FQ+	c #1B1A13",
"GQ+	c #544D40",
"HQ+	c #958A77",
"IQ+	c #A79B87",
"JQ+	c #8C7D6C",
"KQ+	c #544131",
"LQ+	c #33130B",
"MQ+	c #350B07",
"NQ+	c #37100B",
"OQ+	c #2F1917",
"PQ+	c #202324",
"QQ+	c #1D2122",
"RQ+	c #1A1316",
"SQ+	c #1D0303",
"TQ+	c #350C02",
"UQ+	c #684026",
"VQ+	c #88684E",
"WQ+	c #806B58",
"XQ+	c #2A231B",
"YQ+	c #6C6457",
"ZQ+	c #5E5041",
"`Q+	c #6A5B49",
" R+	c #675845",
".R+	c #685A45",
"+R+	c #625541",
"@R+	c #5C503C",
"#R+	c #554937",
"$R+	c #574A3A",
"%R+	c #655846",
"&R+	c #90826F",
"*R+	c #070203",
"=R+	c #302114",
"-R+	c #452C17",
";R+	c #492A11",
">R+	c #4B2C10",
",R+	c #482C12",
"'R+	c #492E17",
")R+	c #412B18",
"!R+	c #3E2D1C",
"~R+	c #3F3324",
"{R+	c #433B2D",
"]R+	c #736A60",
"^R+	c #766A5F",
"/R+	c #75695D",
"(R+	c #151912",
"_R+	c #293020",
":R+	c #2B321E",
"<R+	c #24291A",
"[R+	c #13130D",
"}R+	c #141117",
"|R+	c #161218",
"1R+	c #161118",
"2R+	c #140F14",
"3R+	c #3A3029",
"4R+	c #2B292E",
"5R+	c #917E6B",
"6R+	c #8F7E6B",
"7R+	c #0E1110",
"8R+	c #202321",
"9R+	c #30312D",
"0R+	c #232518",
"aR+	c #57573D",
"bR+	c #6B6D44",
"cR+	c #5E6434",
"dR+	c #505525",
"eR+	c #565A2A",
"fR+	c #585C2F",
"gR+	c #50562B",
"hR+	c #394119",
"iR+	c #27300C",
"jR+	c #252C0E",
"kR+	c #1C1D0D",
"lR+	c #17170F",
"mR+	c #1A1813",
"nR+	c #1F1810",
"oR+	c #857764",
"pR+	c #7C6D58",
"qR+	c #786751",
"rR+	c #7F6D56",
"sR+	c #8B7863",
"tR+	c #9A8774",
"uR+	c #A5947F",
"vR+	c #AA9B86",
"wR+	c #B1A28E",
"xR+	c #A79988",
"yR+	c #17140C",
"zR+	c #17181C",
"AR+	c #0C0502",
"BR+	c #655441",
"CR+	c #CCBA9A",
"DR+	c #E2D5B2",
"ER+	c #DBCEAD",
"FR+	c #CABBA0",
"GR+	c #AFA087",
"HR+	c #A39278",
"IR+	c #86745F",
"JR+	c #695C4A",
"KR+	c #372B29",
"LR+	c #382B29",
"MR+	c #B59D7C",
"NR+	c #B09772",
"OR+	c #A08864",
"PR+	c #998362",
"QR+	c #A08D71",
"RR+	c #9C8971",
"SR+	c #978973",
"TR+	c #6C635F",
"UR+	c #252225",
"VR+	c #91877A",
"WR+	c #030308",
"XR+	c #575551",
"YR+	c #5F5C54",
"ZR+	c #4F4B40",
"`R+	c #534F44",
" S+	c #A5977E",
".S+	c #A3927B",
"+S+	c #624B3A",
"@S+	c #331209",
"#S+	c #310804",
"$S+	c #340F0C",
"%S+	c #2E1A1A",
"&S+	c #1E2022",
"*S+	c #1D2123",
"=S+	c #1A1216",
"-S+	c #380C02",
";S+	c #754427",
">S+	c #946D4E",
",S+	c #8C7258",
"'S+	c #7A6855",
")S+	c #484135",
"!S+	c #43382E",
"~S+	c #4C3F32",
"{S+	c #604F42",
"]S+	c #625041",
"^S+	c #4F3F2F",
"/S+	c #433424",
"(S+	c #625446",
"_S+	c #867766",
":S+	c #958574",
"<S+	c #877A6A",
"[S+	c #0B0504",
"}S+	c #201C17",
"|S+	c #2C1F13",
"1S+	c #3F2713",
"2S+	c #43260F",
"3S+	c #44260F",
"4S+	c #462B13",
"5S+	c #422915",
"6S+	c #3B2615",
"7S+	c #332414",
"8S+	c #2D2215",
"9S+	c #2D2418",
"0S+	c #2B231A",
"aS+	c #7D7165",
"bS+	c #0A0C0C",
"cS+	c #181C15",
"dS+	c #2C3423",
"eS+	c #2F3722",
"fS+	c #272D1D",
"gS+	c #151117",
"hS+	c #0C080A",
"iS+	c #323033",
"jS+	c #6C6053",
"kS+	c #292820",
"lS+	c #101312",
"mS+	c #232624",
"nS+	c #26281B",
"oS+	c #595A3F",
"pS+	c #676A41",
"qS+	c #575C2F",
"rS+	c #484C21",
"sS+	c #4E5426",
"tS+	c #515A2B",
"uS+	c #4F5A2F",
"vS+	c #3E4825",
"wS+	c #323F1C",
"xS+	c #242F11",
"yS+	c #222D11",
"zS+	c #1C200F",
"AS+	c #1C1F13",
"BS+	c #12130C",
"CS+	c #0B0B06",
"DS+	c #070702",
"ES+	c #141209",
"FS+	c #424034",
"GS+	c #595549",
"HS+	c #2D2A21",
"IS+	c #18150E",
"JS+	c #29241A",
"KS+	c #8B806D",
"LS+	c #786954",
"MS+	c #81725B",
"NS+	c #8A7A63",
"OS+	c #8F8169",
"PS+	c #958471",
"QS+	c #A0927C",
"RS+	c #A69781",
"SS+	c #AFA08B",
"TS+	c #A69785",
"US+	c #291F16",
"VS+	c #1E170F",
"WS+	c #131619",
"XS+	c #090402",
"YS+	c #594B38",
"ZS+	c #C6B694",
"`S+	c #E1D6B1",
" T+	c #D1C8A8",
".T+	c #BAB097",
"+T+	c #9E927D",
"@T+	c #90826B",
"#T+	c #372C29",
"$T+	c #0F0B07",
"%T+	c #655944",
"&T+	c #AF9E7D",
"*T+	c #A79671",
"=T+	c #988663",
"-T+	c #938163",
";T+	c #99896D",
">T+	c #A19377",
",T+	c #9C8F78",
"'T+	c #968D78",
")T+	c #756F69",
"!T+	c #4C4847",
"~T+	c #110A04",
"{T+	c #69604F",
"]T+	c #9B8E7A",
"^T+	c #746B5C",
"/T+	c #4C4C48",
"(T+	c #56554F",
"_T+	c #504D42",
":T+	c #4B4B46",
"<T+	c #43433E",
"[T+	c #383832",
"}T+	c #534F43",
"|T+	c #4A4437",
"1T+	c #A4977B",
"2T+	c #B8AA88",
"3T+	c #A69679",
"4T+	c #65503B",
"5T+	c #311109",
"6T+	c #33110E",
"7T+	c #2E1C1C",
"8T+	c #1D2022",
"9T+	c #1E2223",
"0T+	c #1F0203",
"aT+	c #3A0B02",
"bT+	c #744222",
"cT+	c #8F6846",
"dT+	c #876F52",
"eT+	c #7E6D57",
"fT+	c #4A4235",
"gT+	c #493E32",
"hT+	c #483D30",
"iT+	c #4F4233",
"jT+	c #675748",
"kT+	c #695748",
"lT+	c #44382A",
"mT+	c #4B4031",
"nT+	c #554A3A",
"oT+	c #867768",
"pT+	c #432B17",
"qT+	c #462912",
"rT+	c #482A13",
"sT+	c #4A3019",
"tT+	c #3D2A19",
"uT+	c #382919",
"vT+	c #33281A",
"wT+	c #342B1E",
"xT+	c #32281F",
"yT+	c #2F251B",
"zT+	c #786B5F",
"AT+	c #65594F",
"BT+	c #4D453C",
"CT+	c #060809",
"DT+	c #171B13",
"ET+	c #2B3221",
"FT+	c #2F3721",
"GT+	c #120F14",
"HT+	c #140F16",
"IT+	c #3B2F28",
"JT+	c #6A5C4F",
"KT+	c #8B7867",
"LT+	c #867665",
"MT+	c #645C50",
"NT+	c #0C0E0B",
"OT+	c #251B14",
"PT+	c #18110D",
"QT+	c #0C0C06",
"RT+	c #4E4D37",
"ST+	c #5F623E",
"TT+	c #595C34",
"UT+	c #50512C",
"VT+	c #484C27",
"WT+	c #343C1A",
"XT+	c #283316",
"YT+	c #1F2A13",
"ZT+	c #1E2B13",
"`T+	c #1C2511",
" U+	c #1B2112",
".U+	c #1D2114",
"+U+	c #1E1F15",
"@U+	c #1E1F14",
"#U+	c #15170B",
"$U+	c #0C0B02",
"%U+	c #151507",
"&U+	c #4D4A3A",
"*U+	c #4C493A",
"=U+	c #3F3D31",
"-U+	c #2E2B23",
";U+	c #17150C",
">U+	c #1F1B11",
",U+	c #2E2922",
"'U+	c #675A4E",
")U+	c #6D6051",
"!U+	c #605242",
"~U+	c #655645",
"{U+	c #7F715C",
"]U+	c #968774",
"^U+	c #A2907E",
"/U+	c #A08F7B",
"(U+	c #4D4C44",
"_U+	c #312519",
":U+	c #4E422B",
"<U+	c #958768",
"[U+	c #9A8F78",
"}U+	c #312825",
"|U+	c #0F0A09",
"1U+	c #6D614C",
"2U+	c #6C614A",
"3U+	c #635843",
"4U+	c #5F5443",
"5U+	c #7C786B",
"6U+	c #736F67",
"7U+	c #6B6661",
"8U+	c #534D4C",
"9U+	c #19130A",
"0U+	c #403629",
"aU+	c #6E614C",
"bU+	c #968771",
"cU+	c #998972",
"dU+	c #786B58",
"eU+	c #413A2B",
"fU+	c #453F33",
"gU+	c #A29479",
"hU+	c #B5A685",
"iU+	c #A29475",
"jU+	c #634F3A",
"kU+	c #2D0E08",
"lU+	c #2A0503",
"mU+	c #2E100D",
"nU+	c #281919",
"oU+	c #1C1E21",
"pU+	c #1C1F21",
"qU+	c #1B1013",
"rU+	c #390901",
"sU+	c #703C1E",
"tU+	c #845C3D",
"uU+	c #7D6248",
"vU+	c #7E6B54",
"wU+	c #736553",
"xU+	c #50473B",
"yU+	c #45392D",
"zU+	c #5E4F41",
"AU+	c #5C4C3E",
"BU+	c #3D3429",
"CU+	c #3E3029",
"DU+	c #36251A",
"EU+	c #4B311F",
"FU+	c #482A15",
"GU+	c #482B14",
"HU+	c #4A321B",
"IU+	c #4B3520",
"JU+	c #483623",
"KU+	c #473926",
"LU+	c #443A29",
"MU+	c #62564A",
"NU+	c #5E5247",
"OU+	c #161C12",
"PU+	c #2A341F",
"QU+	c #2F3920",
"RU+	c #282F1D",
"SU+	c #161811",
"TU+	c #141015",
"UU+	c #130E15",
"VU+	c #312620",
"WU+	c #312520",
"XU+	c #2F2420",
"YU+	c #19140C",
"ZU+	c #847360",
"`U+	c #2A2922",
" V+	c #121514",
".V+	c #16110A",
"+V+	c #130C06",
"@V+	c #2E2920",
"#V+	c #1D1B0E",
"$V+	c #242113",
"%V+	c #46442F",
"&V+	c #5B5D3C",
"*V+	c #60633B",
"=V+	c #595B37",
"-V+	c #4A4E2E",
";V+	c #282F16",
">V+	c #141C0A",
",V+	c #081105",
"'V+	c #0C1608",
")V+	c #0F190A",
"!V+	c #1B2314",
"~V+	c #252E1C",
"{V+	c #29301E",
"]V+	c #2A301E",
"^V+	c #2D321F",
"/V+	c #272A17",
"(V+	c #242913",
"_V+	c #1D220D",
":V+	c #1B1F0A",
"<V+	c #1F230D",
"[V+	c #33341F",
"}V+	c #3E3E29",
"|V+	c #3C3D2A",
"1V+	c #2D2D20",
"2V+	c #1E1D14",
"3V+	c #0A0A04",
"4V+	c #0F0D04",
"5V+	c #373326",
"6V+	c #6C6152",
"7V+	c #695E4D",
"8V+	c #6B5F4E",
"9V+	c #5B4F42",
"0V+	c #271E14",
"aV+	c #6F6252",
"bV+	c #7C6D5E",
"cV+	c #827361",
"dV+	c #968672",
"eV+	c #9B8A74",
"fV+	c #9E8D75",
"gV+	c #9F8D78",
"hV+	c #A99883",
"iV+	c #0F1013",
"jV+	c #271F16",
"kV+	c #81745B",
"lV+	c #5B5036",
"mV+	c #594D38",
"nV+	c #0B0907",
"oV+	c #201B13",
"pV+	c #1A1610",
"qV+	c #5A5251",
"rV+	c #544E4B",
"sV+	c #352E22",
"tV+	c #A39683",
"uV+	c #B2A382",
"vV+	c #A39477",
"wV+	c #95886F",
"xV+	c #827961",
"yV+	c #78705B",
"zV+	c #685F50",
"AV+	c #080908",
"BV+	c #423D30",
"CV+	c #A1957A",
"DV+	c #B5A786",
"EV+	c #A29676",
"FV+	c #64513A",
"GV+	c #2C0E08",
"HV+	c #260503",
"IV+	c #29100B",
"JV+	c #1D1F21",
"KV+	c #1B0F11",
"LV+	c #390902",
"MV+	c #6F3B1C",
"NV+	c #815A39",
"OV+	c #7C6146",
"PV+	c #816D52",
"QV+	c #837258",
"RV+	c #8A7A60",
"SV+	c #3D362A",
"TV+	c #564F41",
"UV+	c #4D4438",
"VV+	c #463D30",
"WV+	c #332822",
"XV+	c #180F0D",
"YV+	c #3D2C20",
"ZV+	c #523825",
"`V+	c #4C2F1A",
" W+	c #482E17",
".W+	c #4C351E",
"+W+	c #4F3B25",
"@W+	c #4D3E29",
"#W+	c #4D412D",
"$W+	c #4E4433",
"%W+	c #6B6151",
"&W+	c #6D6453",
"*W+	c #30251C",
"=W+	c #352920",
"-W+	c #35291F",
";W+	c #2E241B",
">W+	c #151C0E",
",W+	c #28341B",
"'W+	c #2D371C",
")W+	c #272E1B",
"!W+	c #15170F",
"~W+	c #130E16",
"{W+	c #161013",
"]W+	c #2E231F",
"^W+	c #2E221F",
"/W+	c #2C2120",
"(W+	c #7A6957",
"_W+	c #786A5B",
":W+	c #111415",
"<W+	c #090502",
"[W+	c #5E4F47",
"}W+	c #584A40",
"|W+	c #3E3527",
"1W+	c #241B0F",
"2W+	c #3C3725",
"3W+	c #53513A",
"4W+	c #5A5B3E",
"5W+	c #515036",
"6W+	c #45462D",
"7W+	c #2A2E1A",
"8W+	c #171D10",
"9W+	c #0B120A",
"0W+	c #0C160B",
"aW+	c #0E170C",
"bW+	c #1D2318",
"cW+	c #2F3825",
"dW+	c #343D28",
"eW+	c #313622",
"fW+	c #2F331F",
"gW+	c #2C301A",
"hW+	c #282C15",
"iW+	c #242811",
"jW+	c #242610",
"kW+	c #2C2D18",
"lW+	c #2F2F1B",
"mW+	c #2E2E1D",
"nW+	c #1F1E13",
"oW+	c #100F07",
"pW+	c #131007",
"qW+	c #817366",
"rW+	c #655549",
"sW+	c #615245",
"tW+	c #594B3F",
"uW+	c #483C33",
"vW+	c #241B16",
"wW+	c #150F09",
"xW+	c #6E6156",
"yW+	c #7F7063",
"zW+	c #8E7E69",
"AW+	c #94816D",
"BW+	c #9F8D75",
"CW+	c #AA947D",
"DW+	c #B49F87",
"EW+	c #978673",
"FW+	c #2E2317",
"GW+	c #94826C",
"HW+	c #A39175",
"IW+	c #685C45",
"JW+	c #100E0A",
"KW+	c #5C5553",
"LW+	c #625A56",
"MW+	c #0A0603",
"NW+	c #B8A88A",
"OW+	c #AFA07F",
"PW+	c #A49577",
"QW+	c #9C8E73",
"RW+	c #988C6F",
"SW+	c #7D6D58",
"TW+	c #665845",
"UW+	c #1E1714",
"VW+	c #0C0608",
"WW+	c #303130",
"XW+	c #A19379",
"YW+	c #B3A383",
"ZW+	c #63513D",
"`W+	c #290B08",
" X+	c #230D0A",
".X+	c #1A0C11",
"+X+	c #6D391D",
"@X+	c #7A5335",
"#X+	c #775A42",
"$X+	c #846F53",
"%X+	c #826D53",
"&X+	c #8A755D",
"*X+	c #736051",
"=X+	c #150809",
"-X+	c #422E23",
";X+	c #4E2F1B",
">X+	c #472C18",
",X+	c #4D3621",
"'X+	c #513E2A",
")X+	c #4C4130",
"!X+	c #504737",
"~X+	c #706757",
"{X+	c #716857",
"]X+	c #554638",
"^X+	c #4A3A2D",
"/X+	c #3D3027",
"(X+	c #271B13",
"_X+	c #2A1E15",
":X+	c #2B1F16",
"<X+	c #221A14",
"[X+	c #070A04",
"}X+	c #161E0A",
"|X+	c #293515",
"1X+	c #2F3B18",
"2X+	c #283018",
"3X+	c #181A0F",
"4X+	c #151018",
"5X+	c #695E51",
"6X+	c #655845",
"7X+	c #6D5E49",
"8X+	c #736758",
"9X+	c #121516",
"0X+	c #0C0905",
"aX+	c #0A0502",
"bX+	c #0D0602",
"cX+	c #1C120B",
"dX+	c #6F5C52",
"eX+	c #847162",
"fX+	c #6A584A",
"gX+	c #3F3927",
"hX+	c #454132",
"iX+	c #494936",
"jX+	c #3E3D2C",
"kX+	c #343624",
"lX+	c #272A1C",
"mX+	c #22261C",
"nX+	c #1C221A",
"oX+	c #182117",
"pX+	c #141F13",
"qX+	c #20281C",
"rX+	c #313A29",
"sX+	c #38402E",
"tX+	c #343A28",
"uX+	c #2C3120",
"vX+	c #262A17",
"wX+	c #252A14",
"xX+	c #232612",
"yX+	c #272B15",
"zX+	c #272914",
"AX+	c #2A2C17",
"BX+	c #292916",
"CX+	c #292B18",
"DX+	c #1C1C10",
"EX+	c #131309",
"FX+	c #0F0E05",
"GX+	c #242114",
"HX+	c #575041",
"IX+	c #75685A",
"JX+	c #786B5D",
"KX+	c #94826D",
"LX+	c #AC977C",
"MX+	c #B5A086",
"NX+	c #9B8873",
"OX+	c #524637",
"PX+	c #302513",
"QX+	c #88775E",
"RX+	c #A18F73",
"SX+	c #2A241B",
"TX+	c #5B5651",
"UX+	c #59524E",
"VX+	c #514C47",
"WX+	c #242016",
"XX+	c #1F1910",
"YX+	c #2A2119",
"ZX+	c #2E2419",
"`X+	c #3C311F",
" Y+	c #70644B",
".Y+	c #928165",
"+Y+	c #9A8A6C",
"@Y+	c #968569",
"#Y+	c #9C8D71",
"$Y+	c #948568",
"%Y+	c #918163",
"&Y+	c #7F6D54",
"*Y+	c #6E5B45",
"=Y+	c #604F3C",
"-Y+	c #5F4E3E",
";Y+	c #57483C",
">Y+	c #130B0A",
",Y+	c #2E302F",
"'Y+	c #A2957B",
")Y+	c #B3A484",
"!Y+	c #A39677",
"~Y+	c #65543F",
"{Y+	c #280D08",
"]Y+	c #1F0402",
"^Y+	c #230F0D",
"/Y+	c #231A1A",
"(Y+	c #1C0C11",
"_Y+	c #3D0C03",
":Y+	c #703D21",
"<Y+	c #7B5637",
"[Y+	c #72583E",
"}Y+	c #7C684B",
"|Y+	c #7E6A4E",
"1Y+	c #877256",
"2Y+	c #75614E",
"3Y+	c #2D271D",
"4Y+	c #2B261C",
"5Y+	c #352A24",
"6Y+	c #190607",
"7Y+	c #0D0102",
"8Y+	c #0E0506",
"9Y+	c #2A1D18",
"0Y+	c #483225",
"aY+	c #563725",
"bY+	c #4E2E1B",
"cY+	c #4F3924",
"dY+	c #54412D",
"eY+	c #4F4130",
"fY+	c #4E4432",
"gY+	c #5C5446",
"hY+	c #665F51",
"iY+	c #4A3E31",
"jY+	c #292017",
"kY+	c #2B2017",
"lY+	c #34281E",
"mY+	c #33271E",
"nY+	c #1F270B",
"oY+	c #2E3B11",
"pY+	c #323E11",
"qY+	c #2C3414",
"rY+	c #1B1D0F",
"sY+	c #171219",
"tY+	c #171119",
"uY+	c #17151A",
"vY+	c #756553",
"wY+	c #6C5C49",
"xY+	c #564E48",
"yY+	c #413C3C",
"zY+	c #443E3E",
"AY+	c #433D3D",
"BY+	c #433E3D",
"CY+	c #5B4A3C",
"DY+	c #887462",
"EY+	c #A18A76",
"FY+	c #9D8577",
"GY+	c #7F6E5D",
"HY+	c #463B2E",
"IY+	c #1C1D15",
"JY+	c #191913",
"KY+	c #1B1B15",
"LY+	c #22241E",
"MY+	c #21251F",
"NY+	c #1E251D",
"OY+	c #171F17",
"PY+	c #1E261D",
"QY+	c #293226",
"RY+	c #2E362A",
"SY+	c #2B3125",
"TY+	c #252A1E",
"UY+	c #232818",
"VY+	c #232516",
"WY+	c #242717",
"XY+	c #202314",
"YY+	c #1E2212",
"ZY+	c #16190D",
"`Y+	c #313124",
" Z+	c #3E3B2D",
".Z+	c #4C4737",
"+Z+	c #655C4C",
"@Z+	c #796F5E",
"#Z+	c #8D7E6D",
"$Z+	c #8C7A67",
"%Z+	c #917E67",
"&Z+	c #A59177",
"*Z+	c #B39E84",
"=Z+	c #A9967F",
"-Z+	c #7A7162",
";Z+	c #736B61",
">Z+	c #4F4536",
",Z+	c #584C36",
"'Z+	c #7F7054",
")Z+	c #8A7961",
"!Z+	c #1E1E1B",
"~Z+	c #25282A",
"{Z+	c #58534E",
"]Z+	c #4C4644",
"^Z+	c #4B4643",
"/Z+	c #29251B",
"(Z+	c #221C10",
"_Z+	c #918370",
":Z+	c #82745C",
"<Z+	c #7F7256",
"[Z+	c #857458",
"}Z+	c #908063",
"|Z+	c #917F67",
"1Z+	c #99886E",
"2Z+	c #9D8D70",
"3Z+	c #9F8E6F",
"4Z+	c #9A876A",
"5Z+	c #998469",
"6Z+	c #917D64",
"7Z+	c #968168",
"8Z+	c #93806C",
"9Z+	c #A29277",
"0Z+	c #B2A181",
"aZ+	c #A39375",
"bZ+	c #67523E",
"cZ+	c #280B06",
"dZ+	c #1E0402",
"eZ+	c #24100F",
"fZ+	c #281F21",
"gZ+	c #1E2025",
"hZ+	c #1D090E",
"iZ+	c #420C03",
"jZ+	c #753F24",
"kZ+	c #785336",
"lZ+	c #684F35",
"mZ+	c #6B553C",
"nZ+	c #6F593F",
"oZ+	c #7A6347",
"pZ+	c #755E47",
"qZ+	c #6F604A",
"rZ+	c #685E48",
"sZ+	c #716752",
"tZ+	c #554E3F",
"uZ+	c #29271F",
"vZ+	c #362824",
"wZ+	c #1F0305",
"xZ+	c #150102",
"yZ+	c #483023",
"zZ+	c #543322",
"AZ+	c #4D2A1A",
"BZ+	c #482D1A",
"CZ+	c #4E3926",
"DZ+	c #52402F",
"EZ+	c #4D4133",
"FZ+	c #463E31",
"GZ+	c #4D483C",
"HZ+	c #322720",
"IZ+	c #3B2F25",
"JZ+	c #32261E",
"KZ+	c #261D16",
"LZ+	c #131707",
"MZ+	c #374411",
"NZ+	c #35430D",
"OZ+	c #333C14",
"PZ+	c #212311",
"QZ+	c #181219",
"RZ+	c #151015",
"SZ+	c #796A54",
"TZ+	c #796953",
"UZ+	c #6D5C49",
"VZ+	c #675543",
"WZ+	c #665947",
"XZ+	c #665B4D",
"YZ+	c #8C7864",
"ZZ+	c #A38E76",
"`Z+	c #B49C83",
" `+	c #C1A994",
".`+	c #A99684",
"+`+	c #4F4238",
"@`+	c #110907",
"#`+	c #131411",
"$`+	c #20231E",
"%`+	c #1F221E",
"&`+	c #1D221D",
"*`+	c #1A201B",
"=`+	c #1E231E",
"-`+	c #212721",
";`+	c #232923",
">`+	c #232721",
",`+	c #23261F",
"'`+	c #23251D",
")`+	c #282A1F",
"!`+	c #292B20",
"~`+	c #23251B",
"{`+	c #15160E",
"]`+	c #0C0E07",
"^`+	c #040601",
"/`+	c #676458",
"(`+	c #888171",
"_`+	c #7E7662",
":`+	c #6F6552",
"<`+	c #8F8173",
"[`+	c #897A66",
"}`+	c #A49278",
"|`+	c #B9A68B",
"1`+	c #B9A58D",
"2`+	c #B2A08A",
"3`+	c #A69983",
"4`+	c #867D6C",
"5`+	c #47453A",
"6`+	c #20211B",
"7`+	c #998C73",
"8`+	c #8B7C5F",
"9`+	c #847355",
"0`+	c #7C6D55",
"a`+	c #484234",
"b`+	c #04060B",
"c`+	c #27292A",
"d`+	c #181B1E",
"e`+	c #514E4A",
"f`+	c #3F403C",
"g`+	c #1D170D",
"h`+	c #1F160A",
"i`+	c #5E5140",
"j`+	c #A89A86",
"k`+	c #BAAA92",
"l`+	c #AC9C82",
"m`+	c #9C8E72",
"n`+	c #928267",
"o`+	c #9B8C6F",
"p`+	c #9D8D75",
"q`+	c #A4957C",
"r`+	c #A89A7D",
"s`+	c #AF9F82",
"t`+	c #AA977C",
"u`+	c #AD9B7F",
"v`+	c #A8967A",
"w`+	c #AD9B7E",
"x`+	c #AF9D84",
"y`+	c #100908",
"z`+	c #0F0802",
"A`+	c #534530",
"B`+	c #A49272",
"C`+	c #B4A17D",
"D`+	c #A79574",
"E`+	c #6C543C",
"F`+	c #2A0C05",
"G`+	c #251210",
"H`+	c #21080D",
"I`+	c #410B03",
"J`+	c #6F3A20",
"K`+	c #6F4930",
"L`+	c #5E452D",
"M`+	c #655036",
"N`+	c #654F36",
"O`+	c #735B41",
"P`+	c #765D43",
"Q`+	c #84704E",
"R`+	c #897755",
"S`+	c #917F61",
"T`+	c #6C614D",
"U`+	c #232018",
"V`+	c #0F0F0E",
"W`+	c #35322B",
"X`+	c #260507",
"Y`+	c #2D1310",
"Z`+	c #482D20",
"``+	c #513020",
"  @	c #4B2918",
". @	c #4A2E1C",
"+ @	c #513C29",
"@ @	c #554332",
"# @	c #4F4435",
"$ @	c #423B2F",
"% @	c #0F1305",
"& @	c #242C0A",
"* @	c #34410E",
"= @	c #36440D",
"- @	c #333B13",
"; @	c #202210",
"> @	c #171118",
", @	c #161017",
"' @	c #130E0F",
") @	c #130D12",
"! @	c #756751",
"~ @	c #766750",
"{ @	c #73634D",
"] @	c #695846",
"^ @	c #645443",
"/ @	c #8F7F6E",
"( @	c #A48F79",
"_ @	c #A58D77",
": @	c #B0987F",
"< @	c #B49B82",
"[ @	c #C3AC93",
"} @	c #AB9586",
"| @	c #473931",
"1 @	c #161715",
"2 @	c #191B19",
"3 @	c #181C19",
"4 @	c #1F221F",
"5 @	c #1E2220",
"6 @	c #202521",
"7 @	c #252723",
"8 @	c #262621",
"9 @	c #23231C",
"0 @	c #0F100A",
"a @	c #7A7368",
"b @	c #A59886",
"c @	c #8E826D",
"d @	c #6D604E",
"e @	c #5E4E41",
"f @	c #54453A",
"g @	c #3E302A",
"h @	c #291D1A",
"i @	c #0D0D0B",
"j @	c #9C8B71",
"k @	c #B4A288",
"l @	c #B5A189",
"m @	c #B1A086",
"n @	c #A8967C",
"o @	c #A5957B",
"p @	c #867B65",
"q @	c #433D2F",
"r @	c #1E1A13",
"s @	c #9A8C76",
"t @	c #A79577",
"u @	c #978466",
"v @	c #826E54",
"w @	c #73644F",
"x @	c #463F3D",
"y @	c #585551",
"z @	c #1C1810",
"A @	c #40372A",
"B @	c #473D2D",
"C @	c #6F624F",
"D @	c #9C8D76",
"E @	c #A8987F",
"F @	c #9D8D74",
"G @	c #95856D",
"H @	c #9A8A71",
"I @	c #A3947C",
"J @	c #AC9F84",
"K @	c #A5967E",
"L @	c #94866E",
"M @	c #91836B",
"N @	c #90816B",
"O @	c #978873",
"P @	c #9A8B77",
"Q @	c #807063",
"R @	c #110C07",
"S @	c #251E17",
"T @	c #6F5F46",
"U @	c #A08E6C",
"V @	c #AB9775",
"W @	c #A18F71",
"X @	c #69513B",
"Y @	c #280A05",
"Z @	c #1A0301",
"` @	c #2D2427",
" .@	c #28252A",
"..@	c #211A1E",
"+.@	c #22070B",
"@.@	c #582512",
"#.@	c #53301E",
"$.@	c #4B3121",
"%.@	c #634E35",
"&.@	c #685238",
"*.@	c #70573D",
"=.@	c #73583F",
"-.@	c #856E4A",
";.@	c #88704C",
">.@	c #8C7455",
",.@	c #705F48",
"'.@	c #2F271A",
").@	c #393832",
"!.@	c #2C0809",
"~.@	c #43231A",
"{.@	c #4D291B",
"].@	c #492313",
"^.@	c #4C2B1B",
"/.@	c #553C2C",
"(.@	c #5A4636",
"_.@	c #564636",
":.@	c #3B2D24",
"<.@	c #3A2A20",
"[.@	c #372920",
"}.@	c #29231C",
"|.@	c #0E1406",
"1.@	c #1A2207",
"2.@	c #2D380E",
"3.@	c #354111",
"4.@	c #1E2110",
"5.@	c #171117",
"6.@	c #150F17",
"7.@	c #110C10",
"8.@	c #746C59",
"9.@	c #786A52",
"0.@	c #73644D",
"a.@	c #6C604A",
"b.@	c #615542",
"c.@	c #5D5241",
"d.@	c #232320",
"e.@	c #0F1010",
"f.@	c #8B7A68",
"g.@	c #A8927C",
"h.@	c #AB937B",
"i.@	c #B29980",
"j.@	c #B69E83",
"k.@	c #C1AA91",
"l.@	c #A18D7C",
"m.@	c #151715",
"n.@	c #191C19",
"o.@	c #191C1A",
"p.@	c #242725",
"q.@	c #2A2A26",
"r.@	c #302F2A",
"s.@	c #0E0F06",
"t.@	c #0E0D06",
"u.@	c #17140E",
"v.@	c #18150C",
"w.@	c #332F21",
"x.@	c #7F7967",
"y.@	c #A29680",
"z.@	c #8B806A",
"A.@	c #6B5E4D",
"B.@	c #504238",
"C.@	c #362B25",
"D.@	c #1E1513",
"E.@	c #675A44",
"F.@	c #92836A",
"G.@	c #9F8E77",
"H.@	c #9C8C72",
"I.@	c #9C8A6E",
"J.@	c #A29074",
"K.@	c #91816A",
"L.@	c #645847",
"M.@	c #343430",
"N.@	c #96886F",
"O.@	c #A49271",
"P.@	c #978465",
"Q.@	c #806D54",
"R.@	c #71644F",
"S.@	c #443F31",
"T.@	c #302F32",
"U.@	c #4D4639",
"V.@	c #352F24",
"W.@	c #1A160F",
"X.@	c #5B5956",
"Y.@	c #4F4F4C",
"Z.@	c #484645",
"`.@	c #17140F",
" +@	c #1F1A11",
".+@	c #8E8572",
"++@	c #988B73",
"@+@	c #9C8F75",
"#+@	c #A2947A",
"$+@	c #998B73",
"%+@	c #958670",
"&+@	c #AA9E85",
"*+@	c #9B8F77",
"=+@	c #837962",
"-+@	c #665A47",
";+@	c #70675B",
">+@	c #2E2621",
",+@	c #0C0602",
"'+@	c #837763",
")+@	c #908165",
"!+@	c #A2916F",
"~+@	c #AA9879",
"{+@	c #A59479",
"]+@	c #270C07",
"^+@	c #221313",
"/+@	c #30282B",
"(+@	c #302E33",
"_+@	c #261C1F",
":+@	c #27090B",
"<+@	c #2E0101",
"[+@	c #3F0F05",
"}+@	c #35180E",
"|+@	c #392419",
"1+@	c #604F38",
"2+@	c #69563C",
"3+@	c #70593E",
"4+@	c #765D41",
"5+@	c #836B49",
"6+@	c #846D47",
"7+@	c #8B734F",
"8+@	c #7B684B",
"9+@	c #564A36",
"0+@	c #363223",
"a+@	c #302B21",
"b+@	c #2B2A22",
"c+@	c #2D2B25",
"d+@	c #38372E",
"e+@	c #36352D",
"f+@	c #46443C",
"g+@	c #3F332B",
"h+@	c #30110C",
"i+@	c #360104",
"j+@	c #440002",
"k+@	c #250909",
"l+@	c #3F1E17",
"m+@	c #4F271B",
"n+@	c #502416",
"o+@	c #532C1D",
"p+@	c #5C3C2D",
"q+@	c #624738",
"r+@	c #5B4436",
"s+@	c #534234",
"t+@	c #372B23",
"u+@	c #372921",
"v+@	c #33251C",
"w+@	c #33271F",
"x+@	c #30261F",
"y+@	c #0C1008",
"z+@	c #0F1505",
"A+@	c #1E270C",
"B+@	c #282F12",
"C+@	c #272D15",
"D+@	c #191B0F",
"E+@	c #120D12",
"F+@	c #130D15",
"G+@	c #140E15",
"H+@	c #130E0A",
"I+@	c #251E18",
"J+@	c #766C58",
"K+@	c #776952",
"L+@	c #72654D",
"M+@	c #655943",
"N+@	c #5E543F",
"O+@	c #474033",
"P+@	c #3C3534",
"Q+@	c #978573",
"R+@	c #AB957F",
"S+@	c #AB937C",
"T+@	c #AE957C",
"U+@	c #B49A80",
"V+@	c #BA9F89",
"W+@	c #9A8672",
"X+@	c #382B1D",
"Y+@	c #16140F",
"Z+@	c #0B0902",
"`+@	c #2D291F",
" @@	c #554C3C",
".@@	c #746A56",
"+@@	c #67594B",
"@@@	c #605346",
"#@@	c #1A1913",
"$@@	c #2B221A",
"%@@	c #93826B",
"&@@	c #87755D",
"*@@	c #917E62",
"=@@	c #A59174",
"-@@	c #AB987D",
";@@	c #9E8E78",
">@@	c #94836B",
",@@	c #A18D6C",
"'@@	c #948162",
")@@	c #7E6C54",
"!@@	c #090503",
"~@@	c #18161B",
"{@@	c #393231",
"]@@	c #2F2D30",
"^@@	c #241B12",
"/@@	c #3D3222",
"(@@	c #82735B",
"_@@	c #7A6A52",
":@@	c #61513D",
"<@@	c #382C1B",
"[@@	c #1D1307",
"}@@	c #150C03",
"|@@	c #191007",
"1@@	c #1D140C",
"2@@	c #231A17",
"3@@	c #545252",
"4@@	c #565455",
"5@@	c #4D4E4C",
"6@@	c #3D3D3E",
"7@@	c #1D1812",
"8@@	c #5A5348",
"9@@	c #918876",
"0@@	c #9F927D",
"a@@	c #9E917A",
"b@@	c #948671",
"c@@	c #958671",
"d@@	c #90826D",
"e@@	c #968A75",
"f@@	c #9A8C79",
"g@@	c #8E836B",
"h@@	c #706550",
"i@@	c #1E1510",
"j@@	c #130A03",
"k@@	c #352B1F",
"l@@	c #7C7360",
"m@@	c #9A8F75",
"n@@	c #9F8F72",
"o@@	c #AB9A7A",
"p@@	c #BAAB8B",
"q@@	c #B0A088",
"r@@	c #6D5A4A",
"s@@	c #240E09",
"t@@	c #130202",
"u@@	c #211214",
"v@@	c #322930",
"w@@	c #333137",
"x@@	c #2F2E32",
"y@@	c #2C1F20",
"z@@	c #2D0A0B",
"A@@	c #400302",
"B@@	c #140202",
"C@@	c #1F110E",
"D@@	c #62503B",
"E@@	c #715B41",
"F@@	c #7A5E42",
"G@@	c #7B613D",
"H@@	c #866C45",
"I@@	c #89704F",
"J@@	c #877557",
"K@@	c #83735B",
"L@@	c #6A5F47",
"M@@	c #2C2317",
"N@@	c #0F0D08",
"O@@	c #3A231D",
"P@@	c #411918",
"Q@@	c #491116",
"R@@	c #350105",
"S@@	c #1A0304",
"T@@	c #381A14",
"U@@	c #50261C",
"V@@	c #552117",
"W@@	c #5A251A",
"X@@	c #58281E",
"Y@@	c #572D23",
"Z@@	c #4E2921",
"`@@	c #482E23",
" #@	c #423229",
".#@	c #30231C",
"+#@	c #30221A",
"@#@	c #2A1D16",
"##@	c #271C16",
"$#@	c #261D17",
"%#@	c #0F100D",
"&#@	c #0F120A",
"*#@	c #12180A",
"=#@	c #15190B",
"-#@	c #181B0F",
";#@	c #13140D",
">#@	c #140E14",
",#@	c #110B13",
"'#@	c #130E14",
")#@	c #0E0A0F",
"!#@	c #0E0A0E",
"~#@	c #0F0A0E",
"{#@	c #171817",
"]#@	c #41392B",
"^#@	c #7F735A",
"/#@	c #75684E",
"(#@	c #63563E",
"_#@	c #534833",
":#@	c #4D4331",
"<#@	c #40382C",
"[#@	c #6E685C",
"}#@	c #A99982",
"|#@	c #B09B83",
"1#@	c #AF9880",
"2#@	c #AF987F",
"3#@	c #B1997F",
"4#@	c #B59E86",
"5#@	c #675B4B",
"6#@	c #0C0904",
"7#@	c #3D392D",
"8#@	c #847966",
"9#@	c #756857",
"0#@	c #0E0E0A",
"a#@	c #5F5241",
"b#@	c #7F7158",
"c#@	c #7F6E57",
"d#@	c #817057",
"e#@	c #918063",
"f#@	c #AF9C7D",
"g#@	c #BEAB8C",
"h#@	c #BBAA8F",
"i#@	c #91836D",
"j#@	c #534C3C",
"k#@	c #92826A",
"l#@	c #958363",
"m#@	c #7E6D56",
"n#@	c #221A11",
"o#@	c #71624B",
"p#@	c #87765C",
"q#@	c #847156",
"r#@	c #7C694F",
"s#@	c #6F5D44",
"t#@	c #6C5B42",
"u#@	c #6F5F45",
"v#@	c #71634D",
"w#@	c #4B4A4B",
"x#@	c #454747",
"y#@	c #61594A",
"z#@	c #796E5C",
"A#@	c #827863",
"B#@	c #887C65",
"C#@	c #837760",
"D#@	c #887D68",
"E#@	c #8D826B",
"F#@	c #80755E",
"G#@	c #494135",
"H#@	c #32322F",
"I#@	c #8A7E65",
"J#@	c #89795F",
"K#@	c #9E8F72",
"L#@	c #93846E",
"M#@	c #5D4C3D",
"N#@	c #200D09",
"O#@	c #120403",
"P#@	c #201516",
"Q#@	c #342C31",
"R#@	c #363438",
"S#@	c #322322",
"T#@	c #360E0F",
"U#@	c #430509",
"V#@	c #440807",
"W#@	c #0F0705",
"X#@	c #615440",
"Y#@	c #6E5D45",
"Z#@	c #6F5840",
"`#@	c #735A3C",
" $@	c #735A36",
".$@	c #836942",
"+$@	c #8D744F",
"@$@	c #96825E",
"#$@	c #968262",
"$$@	c #816E53",
"%$@	c #3F3421",
"&$@	c #131006",
"*$@	c #111006",
"=$@	c #232017",
"-$@	c #47453B",
";$@	c #4F3B34",
">$@	c #513532",
",$@	c #311515",
"'$@	c #0E0102",
")$@	c #070102",
"!$@	c #2B1510",
"~$@	c #451E17",
"{$@	c #4F1913",
"]$@	c #551811",
"^$@	c #4B0F0A",
"/$@	c #400B07",
"($@	c #37140F",
"_$@	c #3F2A23",
":$@	c #2C2019",
"<$@	c #261B14",
"[$@	c #0D110C",
"}$@	c #0B0E09",
"|$@	c #0D0F0A",
"1$@	c #130D13",
"2$@	c #0E0810",
"3$@	c #100C11",
"4$@	c #100F0C",
"5$@	c #070308",
"6$@	c #0A0609",
"7$@	c #0C060A",
"8$@	c #0A0508",
"9$@	c #71644E",
"0$@	c #766951",
"a$@	c #7C6C52",
"b$@	c #72634A",
"c$@	c #5C5039",
"d$@	c #4A3F2C",
"e$@	c #847F75",
"f$@	c #9C9385",
"g$@	c #A19586",
"h$@	c #A99B88",
"i$@	c #A99580",
"j$@	c #AA947E",
"k$@	c #AC957E",
"l$@	c #A89179",
"m$@	c #AC997F",
"n$@	c #AD9C86",
"o$@	c #A89889",
"p$@	c #8C7F77",
"q$@	c #2B2525",
"r$@	c #35302F",
"s$@	c #342E2E",
"t$@	c #322D2E",
"u$@	c #302B2C",
"v$@	c #8E806E",
"w$@	c #8D7D6C",
"x$@	c #8F7D6C",
"y$@	c #776657",
"z$@	c #55514E",
"A$@	c #534E4C",
"B$@	c #514C49",
"C$@	c #372E20",
"D$@	c #5F513D",
"E$@	c #715F4A",
"F$@	c #7E6D55",
"G$@	c #8C785F",
"H$@	c #AF9B7D",
"I$@	c #BCA88A",
"J$@	c #B7A48A",
"K$@	c #8F7F6B",
"L$@	c #908069",
"M$@	c #9D8B6D",
"N$@	c #938265",
"O$@	c #383739",
"P$@	c #32281C",
"Q$@	c #87755B",
"R$@	c #998567",
"S$@	c #A99577",
"T$@	c #B9A687",
"U$@	c #BDAB8D",
"V$@	c #B6A58C",
"W$@	c #716553",
"X$@	c #756955",
"Y$@	c #746754",
"Z$@	c #786E57",
"`$@	c #776C56",
" %@	c #6E614D",
".%@	c #6B614F",
"+%@	c #51493E",
"@%@	c #64543C",
"#%@	c #574630",
"$%@	c #574731",
"%%@	c #493A29",
"&%@	c #2E1F15",
"*%@	c #110403",
"=%@	c #0D0303",
"-%@	c #191011",
";%@	c #2D272A",
">%@	c #332322",
",%@	c #3B1314",
"'%@	c #44050B",
")%@	c #3B0303",
"!%@	c #625141",
"~%@	c #624D3A",
"{%@	c #6A5234",
"]%@	c #6E5230",
"^%@	c #816440",
"/%@	c #8E724F",
"(%@	c #947B59",
"_%@	c #957E5C",
":%@	c #8F795A",
"<%@	c #705F46",
"[%@	c #584F39",
"}%@	c #474233",
"|%@	c #1A0C08",
"1%@	c #33120E",
"2%@	c #44120E",
"3%@	c #52130F",
"4%@	c #4B0A08",
"5%@	c #3F0505",
"6%@	c #320302",
"7%@	c #320E0C",
"8%@	c #3E2623",
"9%@	c #433832",
"0%@	c #251B17",
"a%@	c #221814",
"b%@	c #0C0F0D",
"c%@	c #0C0D0B",
"d%@	c #1C171B",
"e%@	c #0E090E",
"f%@	c #0C080B",
"g%@	c #130D0E",
"h%@	c #120C0D",
"i%@	c #15110B",
"j%@	c #7D6F56",
"k%@	c #7A6C53",
"l%@	c #807257",
"m%@	c #75674D",
"n%@	c #60553D",
"o%@	c #4D4532",
"p%@	c #989182",
"q%@	c #9A8F80",
"r%@	c #A29583",
"s%@	c #A39380",
"t%@	c #A5937E",
"u%@	c #A28F78",
"v%@	c #A28E75",
"w%@	c #9F8C74",
"x%@	c #A4937B",
"y%@	c #AA9B85",
"z%@	c #B2A391",
"A%@	c #958A7E",
"B%@	c #322C2C",
"C%@	c #0D0905",
"D%@	c #79705F",
"E%@	c #958B76",
"F%@	c #988C76",
"G%@	c #988775",
"H%@	c #2D261B",
"I%@	c #57524D",
"J%@	c #1C1307",
"K%@	c #483B2A",
"L%@	c #6B5947",
"M%@	c #8C7A5F",
"N%@	c #A79376",
"O%@	c #B3A283",
"P%@	c #B0A286",
"Q%@	c #8C7F6A",
"R%@	c #8D7F69",
"S%@	c #9C8B6D",
"T%@	c #928266",
"U%@	c #7B6C59",
"V%@	c #3B3C3F",
"W%@	c #464344",
"X%@	c #332D23",
"Y%@	c #7E7059",
"Z%@	c #95856A",
"`%@	c #AE9C7F",
" &@	c #C5B595",
".&@	c #C5B495",
"+&@	c #B5A68C",
"@&@	c #776C5B",
"#&@	c #353638",
"$&@	c #37383B",
"%&@	c #3E3629",
"&&@	c #5C5143",
"*&@	c #685C4C",
"=&@	c #695D4D",
"-&@	c #6D624E",
";&@	c #6C5F4C",
">&@	c #6C614C",
",&@	c #68604D",
"'&@	c #494948",
")&@	c #484846",
"!&@	c #282118",
"~&@	c #988D7A",
"{&@	c #948872",
"]&@	c #897C67",
"^&@	c #877963",
"/&@	c #73654E",
"(&@	c #403220",
"_&@	c #2E2014",
":&@	c #1C100A",
"<&@	c #0A0202",
"[&@	c #2D292C",
"}&@	c #372827",
"|&@	c #401B1A",
"1&@	c #460C0D",
"2&@	c #360402",
"3&@	c #160B09",
"4&@	c #4B382B",
"5&@	c #624A30",
"6&@	c #715633",
"7&@	c #846742",
"8&@	c #8F734F",
"9&@	c #947B57",
"0&@	c #927C57",
"a&@	c #97805A",
"b&@	c #927E5C",
"c&@	c #8F8061",
"d&@	c #756C55",
"e&@	c #403A2C",
"f&@	c #120F06",
"g&@	c #221F15",
"h&@	c #3C3930",
"i&@	c #4E4B41",
"j&@	c #100805",
"k&@	c #3E120D",
"l&@	c #521611",
"m&@	c #4E0F0B",
"n&@	c #410607",
"o&@	c #350303",
"p&@	c #330F0C",
"q&@	c #3D2722",
"r&@	c #171217",
"s&@	c #0E080E",
"t&@	c #110D11",
"u&@	c #16120C",
"v&@	c #1E1B17",
"w&@	c #16110C",
"x&@	c #6F6352",
"y&@	c #776951",
"z&@	c #7C7055",
"A&@	c #625943",
"B&@	c #4A4435",
"C&@	c #8B8473",
"D&@	c #8F8472",
"E&@	c #90806F",
"F&@	c #92836E",
"G&@	c #88775F",
"H&@	c #85745D",
"I&@	c #8C7D66",
"J&@	c #948570",
"K&@	c #9E907E",
"L&@	c #3F3735",
"M&@	c #373031",
"N&@	c #817765",
"O&@	c #6A5D4C",
"P&@	c #3A3123",
"Q&@	c #0B0602",
"R&@	c #8D7E68",
"S&@	c #8D836C",
"T&@	c #716859",
"U&@	c #8D7D69",
"V&@	c #99886B",
"W&@	c #918065",
"X&@	c #3B393E",
"Y&@	c #484341",
"Z&@	c #403D3E",
"`&@	c #5C5141",
" *@	c #776A54",
".*@	c #95856B",
"+*@	c #AF9E7F",
"@*@	c #B2A081",
"#*@	c #9F9076",
"$*@	c #19130F",
"%*@	c #1A160D",
"&*@	c #2E281D",
"**@	c #494134",
"=*@	c #4E4539",
"-*@	c #584C41",
";*@	c #726753",
">*@	c #665949",
",*@	c #6A5E4B",
"'*@	c #3C3C3B",
")*@	c #32291E",
"!*@	c #7A6E5A",
"~*@	c #756954",
"{*@	c #685C48",
"]*@	c #483B2D",
"^*@	c #2E231B",
"/*@	c #3A2C2C",
"(*@	c #3F1F1F",
"_*@	c #401310",
":*@	c #3B0E07",
"<*@	c #2B0C06",
"[*@	c #261411",
"}*@	c #33241C",
"|*@	c #5B4431",
"1*@	c #735738",
"2*@	c #846543",
"3*@	c #876A49",
"4*@	c #8B724F",
"5*@	c #8B7350",
"6*@	c #957C56",
"7*@	c #967C5A",
"8*@	c #927F5F",
"9*@	c #776A4F",
"0*@	c #433B2A",
"a*@	c #1B150A",
"b*@	c #181208",
"c*@	c #20190D",
"d*@	c #605B51",
"e*@	c #5C5951",
"f*@	c #0E0705",
"g*@	c #27120D",
"h*@	c #3C140F",
"i*@	c #4F1610",
"j*@	c #4D0F0B",
"k*@	c #400506",
"l*@	c #310B0A",
"m*@	c #39221E",
"n*@	c #3F342E",
"o*@	c #241D1B",
"p*@	c #151116",
"q*@	c #4B473C",
"r*@	c #565347",
"s*@	c #1E1C14",
"t*@	c #64594B",
"u*@	c #736754",
"v*@	c #70614E",
"w*@	c #635743",
"x*@	c #554C3D",
"y*@	c #988D7D",
"z*@	c #746959",
"A*@	c #716755",
"B*@	c #6E5F4D",
"C*@	c #6C5B45",
"D*@	c #675742",
"E*@	c #6D5F4A",
"F*@	c #887D70",
"G*@	c #867E75",
"H*@	c #332A2A",
"I*@	c #403737",
"J*@	c #3F3837",
"K*@	c #423B3A",
"L*@	c #3F3838",
"M*@	c #726352",
"N*@	c #1E180F",
"O*@	c #2A2218",
"P*@	c #564B3C",
"Q*@	c #766959",
"R*@	c #7C705C",
"S*@	c #766A57",
"T*@	c #685B49",
"U*@	c #8E7E68",
"V*@	c #9A886A",
"W*@	c #796A56",
"X*@	c #695F50",
"Y*@	c #3F3B3C",
"Z*@	c #252019",
"`*@	c #2F261B",
" =@	c #544736",
".=@	c #9B896C",
"+=@	c #A28F71",
"@=@	c #95846B",
"#=@	c #17100B",
"$=@	c #534B3A",
"%=@	c #5A503E",
"&=@	c #675D49",
"*=@	c #675C48",
"==@	c #5A4F3E",
"-=@	c #473F30",
";=@	c #716754",
">=@	c #7D715B",
",=@	c #736852",
"'=@	c #6D614E",
")=@	c #726A53",
"!=@	c #736A55",
"~=@	c #5C5444",
"{=@	c #38332A",
"]=@	c #3A3A39",
"^=@	c #424140",
"/=@	c #827464",
"(=@	c #7A6D5B",
"_=@	c #706451",
":=@	c #695D4A",
"<=@	c #685C49",
"[=@	c #5C5140",
"}=@	c #4A4032",
"|=@	c #413735",
"1=@	c #452C29",
"2=@	c #44201A",
"3=@	c #411B13",
"4=@	c #3A1C14",
"5=@	c #35231D",
"6=@	c #5B4839",
"7=@	c #775D41",
"8=@	c #836746",
"9=@	c #7E6342",
"0=@	c #7B6442",
"a=@	c #7F6747",
"b=@	c #907753",
"c=@	c #927D5B",
"d=@	c #7B6D4E",
"e=@	c #5F533B",
"f=@	c #524734",
"g=@	c #584E3A",
"h=@	c #4A402E",
"i=@	c #383223",
"j=@	c #716B5D",
"k=@	c #100A07",
"l=@	c #281510",
"m=@	c #3C1812",
"n=@	c #4E1913",
"o=@	c #4C100C",
"p=@	c #400606",
"q=@	c #340203",
"r=@	c #31090A",
"s=@	c #341B19",
"t=@	c #3D312C",
"u=@	c #2A2018",
"v=@	c #161217",
"w=@	c #4A4639",
"x=@	c #575241",
"y=@	c #65614E",
"z=@	c #5D5A4B",
"A=@	c #201E14",
"B=@	c #23221C",
"C=@	c #24221C",
"D=@	c #24231C",
"E=@	c #75695F",
"F=@	c #7A6A5B",
"G=@	c #7A6958",
"H=@	c #6C5C4B",
"I=@	c #605142",
"J=@	c #2D282A",
"K=@	c #AE9F8A",
"L=@	c #A3937F",
"M=@	c #706250",
"N=@	c #6B5D4E",
"O=@	c #4B4130",
"P=@	c #423726",
"Q=@	c #6F5F4C",
"R=@	c #5A4D3C",
"S=@	c #5B4F3D",
"T=@	c #9C9182",
"U=@	c #AEA296",
"V=@	c #A2978D",
"W=@	c #120C0A",
"X=@	c #3F3737",
"Y=@	c #453D3D",
"Z=@	c #453E3D",
"`=@	c #1B1610",
" -@	c #A2927B",
".-@	c #A7957E",
"+-@	c #887763",
"@-@	c #1F150F",
"#-@	c #4F4946",
"$-@	c #413936",
"%-@	c #12100B",
"&-@	c #1A130B",
"*-@	c #493D2D",
"=-@	c #877968",
"--@	c #958467",
";-@	c #8D7C61",
">-@	c #130F09",
",-@	c #766954",
"'-@	c #958468",
")-@	c #9B886C",
"!-@	c #928269",
"~-@	c #5D5140",
"{-@	c #17181A",
"]-@	c #766C5B",
"^-@	c #85745C",
"/-@	c #7F6D55",
"(-@	c #827257",
"_-@	c #6D5C45",
":-@	c #544730",
"<-@	c #3A2F1D",
"[-@	c #453928",
"}-@	c #786A53",
"|-@	c #72644C",
"1-@	c #776B51",
"2-@	c #776B55",
"3-@	c #796D5A",
"4-@	c #171613",
"5-@	c #978C7E",
"6-@	c #918473",
"7-@	c #685A48",
"8-@	c #3D3B3D",
"9-@	c #423A38",
"0-@	c #46271F",
"a-@	c #462419",
"b-@	c #3D1F16",
"c-@	c #53443A",
"d-@	c #69543E",
"e-@	c #765D3F",
"f-@	c #705737",
"g-@	c #6B5435",
"h-@	c #725B3E",
"i-@	c #876E4F",
"j-@	c #8F7455",
"k-@	c #8F7956",
"l-@	c #867551",
"m-@	c #887756",
"n-@	c #8F7E5E",
"o-@	c #948364",
"p-@	c #372D1D",
"q-@	c #524B3F",
"r-@	c #5D5548",
"s-@	c #686052",
"t-@	c #6C6658",
"u-@	c #5A564E",
"v-@	c #110B08",
"w-@	c #271812",
"x-@	c #361813",
"y-@	c #451913",
"z-@	c #45110D",
"A-@	c #3D0707",
"B-@	c #310103",
"C-@	c #2D0407",
"D-@	c #301313",
"E-@	c #382925",
"F-@	c #211A18",
"G-@	c #2E2116",
"H-@	c #403D32",
"I-@	c #474234",
"J-@	c #544F3D",
"K-@	c #5B5641",
"L-@	c #635E4A",
"M-@	c #5E5A49",
"N-@	c #242317",
"O-@	c #1C1B15",
"P-@	c #1C1B13",
"Q-@	c #1E1E12",
"R-@	c #202114",
"S-@	c #1A190F",
"T-@	c #100F09",
"U-@	c #6E6257",
"V-@	c #776456",
"W-@	c #6B5A4B",
"X-@	c #635446",
"Y-@	c #988B77",
"Z-@	c #B0A18A",
"`-@	c #A6967E",
" ;@	c #716350",
".;@	c #675C4D",
"+;@	c #4B4333",
"@;@	c #3D3525",
"#;@	c #594F3D",
"$;@	c #72654F",
"%;@	c #6D604C",
"&;@	c #6B5E4B",
"*;@	c #574C3A",
"=;@	c #584E39",
"-;@	c #716655",
";;@	c #9D9482",
">;@	c #A79C8C",
",;@	c #999080",
"';@	c #695F4F",
");@	c #3B3023",
"!;@	c #271D14",
"~;@	c #1C150F",
"{;@	c #120B08",
"];@	c #A3977C",
"^;@	c #A9987C",
"/;@	c #99866E",
"(;@	c #5E4D3D",
"_;@	c #32231A",
":;@	c #2D221C",
"<;@	c #19140D",
"[;@	c #291D13",
"};@	c #544633",
"|;@	c #8D7F6B",
"1;@	c #867769",
"2;@	c #786E5F",
"3;@	c #574F44",
"4;@	c #33312A",
"5;@	c #918164",
"6;@	c #897A5E",
"7;@	c #4F4D47",
"8;@	c #494846",
"9;@	c #766B56",
"0;@	c #96876B",
"a;@	c #9C8B6F",
"b;@	c #92846B",
"c;@	c #5C5341",
"d;@	c #756B59",
"e;@	c #7F6F58",
"f;@	c #857357",
"g;@	c #7E694E",
"h;@	c #614E34",
"i;@	c #4B3B22",
"j;@	c #3D2C19",
"k;@	c #483824",
"l;@	c #5A4A32",
"m;@	c #69593F",
"n;@	c #776A4E",
"o;@	c #444442",
"p;@	c #110F09",
"q;@	c #302D23",
"r;@	c #8B806C",
"s;@	c #7E735C",
"t;@	c #6F624D",
"u;@	c #605243",
"v;@	c #625749",
"w;@	c #544B41",
"x;@	c #272A2C",
"y;@	c #353738",
"z;@	c #474643",
"A;@	c #493931",
"B;@	c #472C22",
"C;@	c #48291C",
"D;@	c #412518",
"E;@	c #38251C",
"F;@	c #1C1C19",
"G;@	c #413325",
"H;@	c #59452F",
"I;@	c #695136",
"J;@	c #715A40",
"K;@	c #836E51",
"L;@	c #887353",
"M;@	c #887452",
"N;@	c #877552",
"O;@	c #917E5A",
"P;@	c #8D7A58",
"Q;@	c #615239",
"R;@	c #2D2212",
"S;@	c #3C3228",
"T;@	c #494337",
"U;@	c #4D493C",
"V;@	c #5A5549",
"W;@	c #2A1E18",
"X;@	c #341F19",
"Y;@	c #3F211A",
"Z;@	c #3E1510",
"`;@	c #340808",
" >@	c #2C0203",
".>@	c #2B0406",
"+>@	c #2D0F0E",
"@>@	c #37251F",
"#>@	c #382F24",
"$>@	c #463D31",
"%>@	c #37281C",
"&>@	c #504F42",
"*>@	c #585745",
"=>@	c #5D5A46",
"->@	c #66634A",
";>@	c #66644A",
">>@	c #6A674F",
",>@	c #62614C",
"'>@	c #272419",
")>@	c #23241C",
"!>@	c #24251B",
"~>@	c #212216",
"{>@	c #222317",
"]>@	c #262719",
"^>@	c #2A2C19",
"/>@	c #292B14",
"(>@	c #2A2D14",
"_>@	c #292D13",
":>@	c #2C3114",
"<>@	c #292C14",
"[>@	c #252714",
"}>@	c #1F2113",
"|>@	c #333127",
"1>@	c #534F42",
"2>@	c #67584D",
"3>@	c #6D5A4F",
"4>@	c #6C5A4D",
"5>@	c #635246",
"6>@	c #615247",
"7>@	c #9E8E7B",
"8>@	c #AF9E88",
"9>@	c #A6947D",
"0>@	c #8D7B65",
"a>@	c #71614D",
"b>@	c #554E41",
"c>@	c #373023",
"d>@	c #362D1F",
"e>@	c #413828",
"f>@	c #463D2F",
"g>@	c #574B3A",
"h>@	c #706153",
"i>@	c #938A72",
"j>@	c #837761",
"k>@	c #81725F",
"l>@	c #1E1610",
"m>@	c #1C1513",
"n>@	c #3D3636",
"o>@	c #433D3B",
"p>@	c #393434",
"q>@	c #887B63",
"r>@	c #9F8E70",
"s>@	c #9C866B",
"t>@	c #7E6752",
"u>@	c #66513F",
"v>@	c #655445",
"w>@	c #6D6153",
"x>@	c #645B52",
"y>@	c #4F4338",
"z>@	c #5B4C3E",
"A>@	c #70604C",
"B>@	c #776653",
"C>@	c #786D59",
"D>@	c #86755B",
"E>@	c #807056",
"F>@	c #4F4439",
"G>@	c #211911",
"H>@	c #1A140D",
"I>@	c #928268",
"J>@	c #99876D",
"K>@	c #8F8069",
"L>@	c #594E3E",
"M>@	c #68604F",
"N>@	c #6D5E4A",
"O>@	c #75634A",
"P>@	c #745F44",
"Q>@	c #786444",
"R>@	c #725C3E",
"S>@	c #715E3F",
"T>@	c #6E583E",
"U>@	c #746043",
"V>@	c #6F5B3E",
"W>@	c #705E3E",
"X>@	c #726145",
"Y>@	c #6D5D47",
"Z>@	c #534638",
"`>@	c #2B261A",
" ,@	c #130E08",
".,@	c #5A5349",
"+,@	c #7D7360",
"@,@	c #776D57",
"#,@	c #584B3F",
"$,@	c #2B2F30",
"%,@	c #393C3D",
"&,@	c #4C4D4A",
"*,@	c #4E4945",
"=,@	c #4A3D35",
"-,@	c #442D22",
";,@	c #45291B",
">,@	c #402718",
",,@	c #37261A",
"',@	c #2D221A",
"),@	c #2A2627",
"!,@	c #413123",
"~,@	c #614B37",
"{,@	c #68513B",
"],@	c #6C5640",
"^,@	c #7D684E",
"/,@	c #7F6C4E",
"(,@	c #7E6A4C",
"_,@	c #887354",
":,@	c #8D7756",
"<,@	c #7C6949",
"[,@	c #58472C",
"},@	c #3D311E",
"|,@	c #3A2E21",
"1,@	c #32281D",
"2,@	c #3E312B",
"3,@	c #432F28",
"4,@	c #3B1F1A",
"5,@	c #2C0A08",
"6,@	c #280302",
"7,@	c #2E0708",
"8,@	c #300E0E",
"9,@	c #403029",
"0,@	c #453931",
"a,@	c #342A1E",
"b,@	c #33291D",
"c,@	c #32251B",
"d,@	c #2B1E14",
"e,@	c #261810",
"f,@	c #251912",
"g,@	c #231813",
"h,@	c #3A291E",
"i,@	c #110C0F",
"j,@	c #130D0D",
"k,@	c #5B5C4C",
"l,@	c #65654F",
"m,@	c #66664D",
"n,@	c #6B6A4F",
"o,@	c #6C6B4F",
"p,@	c #6E6C53",
"q,@	c #65644F",
"r,@	c #2A2A1C",
"s,@	c #333921",
"t,@	c #363F1E",
"u,@	c #36401C",
"v,@	c #424B25",
"w,@	c #495228",
"x,@	c #49561E",
"y,@	c #48571E",
"z,@	c #4A571E",
"A,@	c #49581F",
"B,@	c #4A5624",
"C,@	c #4A5328",
"D,@	c #474F2C",
"E,@	c #4D5036",
"F,@	c #595741",
"G,@	c #5E5642",
"H,@	c #6D5B4D",
"I,@	c #605144",
"J,@	c #312C2D",
"K,@	c #B4A58B",
"L,@	c #A9997F",
"M,@	c #8F7F67",
"N,@	c #746650",
"O,@	c #6D614D",
"P,@	c #6E6756",
"Q,@	c #5C5749",
"R,@	c #1E1810",
"S,@	c #150D05",
"T,@	c #1A150B",
"U,@	c #897B63",
"V,@	c #9C8E74",
"W,@	c #B2A288",
"X,@	c #C2B095",
"Y,@	c #BAA990",
"Z,@	c #383030",
"`,@	c #A58D6D",
" '@	c #A18969",
".'@	c #9F8669",
"+'@	c #A08A70",
"@'@	c #A59580",
"#'@	c #8D8476",
"$'@	c #6B6153",
"%'@	c #A08F77",
"&'@	c #9B8A72",
"*'@	c #6A604D",
"='@	c #7B6D53",
"-'@	c #75664D",
";'@	c #72654E",
">'@	c #4C4638",
",'@	c #786C56",
"''@	c #95876A",
")'@	c #98896C",
"!'@	c #594F3E",
"~'@	c #140E08",
"{'@	c #6B573F",
"]'@	c #A79170",
"^'@	c #B6A27E",
"/'@	c #B59F7B",
"('@	c #B39E77",
"_'@	c #A18C68",
":'@	c #9C8965",
"<'@	c #988868",
"['@	c #6D604B",
"}'@	c #282016",
"|'@	c #100D07",
"1'@	c #4E4C48",
"2'@	c #55524E",
"3'@	c #56514E",
"4'@	c #454542",
"5'@	c #444441",
"6'@	c #171410",
"7'@	c #827865",
"8'@	c #726852",
"9'@	c #6E624D",
"0'@	c #564C3C",
"a'@	c #28292B",
"b'@	c #333838",
"c'@	c #3F4343",
"d'@	c #4B4D4B",
"e'@	c #595A56",
"f'@	c #453324",
"g'@	c #452F1D",
"h'@	c #412C1A",
"i'@	c #3A2A1C",
"j'@	c #604B39",
"k'@	c #67543E",
"l'@	c #6B5940",
"m'@	c #76664B",
"n'@	c #746148",
"o'@	c #756447",
"p'@	c #766648",
"q'@	c #7E6C4E",
"r'@	c #84714F",
"s'@	c #756443",
"t'@	c #635536",
"u'@	c #665A41",
"v'@	c #655949",
"w'@	c #151310",
"x'@	c #554A43",
"y'@	c #44342D",
"z'@	c #2F1915",
"A'@	c #2C100D",
"B'@	c #371413",
"C'@	c #3B1515",
"D'@	c #3D1F1A",
"E'@	c #3B261F",
"F'@	c #3D2E26",
"G'@	c #3B3123",
"H'@	c #392C21",
"I'@	c #403123",
"J'@	c #423322",
"K'@	c #433423",
"L'@	c #3B2C1E",
"M'@	c #322316",
"N'@	c #2D1D11",
"O'@	c #28190D",
"P'@	c #27190F",
"Q'@	c #241811",
"R'@	c #251C16",
"S'@	c #2E2219",
"T'@	c #33251A",
"U'@	c #5C5C4E",
"V'@	c #66644D",
"W'@	c #68674E",
"X'@	c #67654C",
"Y'@	c #696750",
"Z'@	c #5E5D48",
"`'@	c #27271A",
" )@	c #1E210D",
".)@	c #373E17",
"+)@	c #3A4611",
"@)@	c #414C14",
"#)@	c #566028",
"$)@	c #5F6B2B",
"%)@	c #5F6E23",
"&)@	c #5C6D1D",
"*)@	c #5B6D1E",
"=)@	c #57691C",
"-)@	c #596B1E",
";)@	c #5A6A1E",
">)@	c #596B1F",
",)@	c #566723",
"')@	c #586629",
"))@	c #58642F",
"!)@	c #5A6334",
"~)@	c #5B5F39",
"{)@	c #605F40",
"])@	c #615841",
"^)@	c #645744",
"/)@	c #6C5A4B",
"()@	c #685749",
"_)@	c #5B4A40",
":)@	c #54463D",
"<)@	c #090404",
"[)@	c #A79782",
"})@	c #B5A48C",
"|)@	c #A99880",
"1)@	c #918069",
"2)@	c #6A5D4A",
"3)@	c #554F45",
"4)@	c #19120E",
"5)@	c #8C7E6C",
"6)@	c #8D7E69",
"7)@	c #907E67",
"8)@	c #AB977E",
"9)@	c #C5B094",
"0)@	c #CCB799",
"a)@	c #C0AD92",
"b)@	c #766654",
"c)@	c #150E0D",
"d)@	c #383031",
"e)@	c #403A38",
"f)@	c #816E56",
"g)@	c #A38A6C",
"h)@	c #A78B6C",
"i)@	c #AE9272",
"j)@	c #AC9176",
"k)@	c #AE9A82",
"l)@	c #8E8373",
"m)@	c #140F0A",
"n)@	c #A4947E",
"o)@	c #AE9C82",
"p)@	c #A28F77",
"q)@	c #877562",
"r)@	c #635549",
"s)@	c #685D4D",
"t)@	c #766850",
"u)@	c #6C5F4A",
"v)@	c #120B05",
"w)@	c #484544",
"x)@	c #776A58",
"y)@	c #918269",
"z)@	c #94846A",
"A)@	c #8A7D66",
"B)@	c #120B06",
"C)@	c #594C40",
"D)@	c #645441",
"E)@	c #8B785F",
"F)@	c #BBA686",
"G)@	c #CDB996",
"H)@	c #CAB58F",
"I)@	c #C5AD87",
"J)@	c #BAA37F",
"K)@	c #B8A482",
"L)@	c #A9987D",
"M)@	c #4C4746",
"N)@	c #5D5854",
"O)@	c #5C5754",
"P)@	c #585350",
"Q)@	c #524D4C",
"R)@	c #464745",
"S)@	c #484845",
"T)@	c #464543",
"U)@	c #484744",
"V)@	c #120D06",
"W)@	c #373024",
"X)@	c #968B7B",
"Y)@	c #665B4B",
"Z)@	c #3B3D3C",
"`)@	c #454947",
" !@	c #515350",
".!@	c #61615C",
"+!@	c #453525",
"@!@	c #432E1B",
"#!@	c #3D2C1E",
"$!@	c #35271E",
"%!@	c #534233",
"&!@	c #5A4936",
"*!@	c #66553E",
"=!@	c #726048",
"-!@	c #705C46",
";!@	c #6D5B43",
">!@	c #6E5D43",
",!@	c #776546",
"'!@	c #705E3F",
")!@	c #67573C",
"!!@	c #665C4B",
"~!@	c #352E24",
"{!@	c #18120C",
"]!@	c #544F4B",
"^!@	c #5F5A55",
"/!@	c #362623",
"(!@	c #321917",
"_!@	c #3E1A18",
":!@	c #3D1415",
"<!@	c #381211",
"[!@	c #2F110D",
"}!@	c #2D1E16",
"|!@	c #362A1E",
"1!@	c #413327",
"2!@	c #433327",
"3!@	c #463223",
"4!@	c #422D1B",
"5!@	c #3D2817",
"6!@	c #382513",
"7!@	c #342311",
"8!@	c #301D0E",
"9!@	c #2E1A0C",
"0!@	c #2A170B",
"a!@	c #24170F",
"b!@	c #241C14",
"c!@	c #261C13",
"d!@	c #0E0809",
"e!@	c #545446",
"f!@	c #5A5A47",
"g!@	c #5A5A43",
"h!@	c #5C5D45",
"i!@	c #595A42",
"j!@	c #595842",
"k!@	c #4C4D38",
"l!@	c #212215",
"m!@	c #21250B",
"n!@	c #38420E",
"o!@	c #3B4A05",
"p!@	c #42500A",
"q!@	c #55611F",
"r!@	c #5C6924",
"s!@	c #5B6C1E",
"t!@	c #576917",
"u!@	c #596B1A",
"v!@	c #576A1A",
"w!@	c #56691A",
"x!@	c #56691C",
"y!@	c #556A1C",
"z!@	c #536620",
"A!@	c #556625",
"B!@	c #536327",
"C!@	c #55632D",
"D!@	c #575F33",
"E!@	c #5A5D3A",
"F!@	c #5C563B",
"G!@	c #61563D",
"H!@	c #6A5948",
"I!@	c #5C4B3F",
"J!@	c #56473D",
"K!@	c #0A0505",
"L!@	c #3B3738",
"M!@	c #3C3839",
"N!@	c #564B3F",
"O!@	c #B9A990",
"P!@	c #93826A",
"Q!@	c #756651",
"R!@	c #6B5F4D",
"S!@	c #6B6556",
"T!@	c #8F8370",
"U!@	c #93856F",
"V!@	c #95846C",
"W!@	c #B19E83",
"X!@	c #CCB896",
"Y!@	c #CFBD98",
"Z!@	c #BEAB8E",
"`!@	c #71604C",
" ~@	c #1F1308",
".~@	c #1B120E",
"+~@	c #2D251A",
"@~@	c #A38D70",
"#~@	c #A9906F",
"$~@	c #B09674",
"%~@	c #AD9275",
"&~@	c #AA967D",
"*~@	c #837868",
"=~@	c #8C7C67",
"-~@	c #9C8A72",
";~@	c #95836A",
">~@	c #635845",
",~@	c #60513E",
"'~@	c #5C513E",
")~@	c #564B38",
"!~@	c #665945",
"~~@	c #7D705C",
"{~@	c #726655",
"]~@	c #383022",
"^~@	c #241F17",
"/~@	c #4E4A47",
"(~@	c #484741",
"_~@	c #423F40",
":~@	c #92826C",
"<~@	c #877B67",
"[~@	c #544B3B",
"}~@	c #7B6D5A",
"|~@	c #A89A7E",
"1~@	c #BAAA8A",
"2~@	c #B7A582",
"3~@	c #B7A27F",
"4~@	c #B09D7B",
"5~@	c #AF9E80",
"6~@	c #A2937A",
"7~@	c #635B47",
"8~@	c #120D07",
"9~@	c #474644",
"0~@	c #434543",
"a~@	c #464845",
"b~@	c #474745",
"c~@	c #474845",
"d~@	c #20190F",
"e~@	c #231A10",
"f~@	c #78715F",
"g~@	c #8B8570",
"h~@	c #7D7560",
"i~@	c #6E6350",
"j~@	c #434641",
"k~@	c #494B48",
"l~@	c #4F504C",
"m~@	c #5B5B56",
"n~@	c #443524",
"o~@	c #45321E",
"p~@	c #45311D",
"q~@	c #423120",
"r~@	c #564733",
"s~@	c #706049",
"t~@	c #706048",
"u~@	c #6B5C43",
"v~@	c #746447",
"w~@	c #6C5D41",
"x~@	c #61523D",
"y~@	c #4F483A",
"z~@	c #5A5751",
"A~@	c #5F5D55",
"B~@	c #3A2B28",
"C~@	c #351D1C",
"D~@	c #3E1B1A",
"E~@	c #3C1314",
"F~@	c #340D0C",
"G~@	c #290805",
"H~@	c #270E0B",
"I~@	c #2A1912",
"J~@	c #382A20",
"K~@	c #473426",
"L~@	c #4A3423",
"M~@	c #442B17",
"N~@	c #3D2410",
"O~@	c #361F0C",
"P~@	c #331E0B",
"Q~@	c #2F1909",
"R~@	c #311A0B",
"S~@	c #27180E",
"T~@	c #201916",
"U~@	c #1B1311",
"V~@	c #19100F",
"W~@	c #1A1211",
"X~@	c #343225",
"Y~@	c #373527",
"Z~@	c #383727",
"`~@	c #3D3E2B",
" {@	c #3D3D2A",
".{@	c #3E3D2B",
"+{@	c #373726",
"@{@	c #16180D",
"#{@	c #222907",
"${@	c #3B470A",
"%{@	c #3A4A02",
"&{@	c #394802",
"*{@	c #425011",
"={@	c #45541A",
"-{@	c #46581A",
";{@	c #445716",
">{@	c #455718",
",{@	c #435618",
"'{@	c #44581A",
"){@	c #415418",
"!{@	c #415519",
"~{@	c #41531C",
"{{@	c #41521E",
"]{@	c #3F501F",
"^{@	c #415023",
"/{@	c #424C25",
"({@	c #494F2D",
"_{@	c #4C4A2D",
":{@	c #544B31",
"<{@	c #675441",
"[{@	c #685543",
"}{@	c #5D4A3B",
"|{@	c #665447",
"1{@	c #635548",
"2{@	c #4D4337",
"3{@	c #A89B85",
"4{@	c #B8A98F",
"5{@	c #AB9A80",
"6{@	c #908066",
"7{@	c #9F8D74",
"8{@	c #C3AF8F",
"9{@	c #C8B491",
"0{@	c #B7A183",
"a{@	c #6F5E43",
"b{@	c #352817",
"c{@	c #685C56",
"d{@	c #3A3433",
"e{@	c #8E7959",
"f{@	c #A48B6A",
"g{@	c #AC9173",
"h{@	c #A38E77",
"i{@	c #75685B",
"j{@	c #31271A",
"k{@	c #6B5C47",
"l{@	c #88755E",
"m{@	c #393023",
"n{@	c #4B3F2F",
"o{@	c #716550",
"p{@	c #4C4230",
"q{@	c #2C2416",
"r{@	c #332D22",
"s{@	c #6F6250",
"t{@	c #7E715B",
"u{@	c #100A06",
"v{@	c #212323",
"w{@	c #827562",
"x{@	c #96876F",
"y{@	c #97856B",
"z{@	c #97856A",
"A{@	c #85765E",
"B{@	c #706450",
"C{@	c #5B5240",
"D{@	c #4A4545",
"E{@	c #4C4645",
"F{@	c #4E4847",
"G{@	c #4F4A49",
"H{@	c #454645",
"I{@	c #454644",
"J{@	c #534739",
"K{@	c #665E4D",
"L{@	c #736F5B",
"M{@	c #6B6452",
"N{@	c #696253",
"O{@	c #454540",
"P{@	c #4A4B45",
"Q{@	c #4E4F47",
"R{@	c #463421",
"S{@	c #463320",
"T{@	c #433222",
"U{@	c #120E07",
"V{@	c #191109",
"W{@	c #61543F",
"X{@	c #6E614A",
"Y{@	c #6D6048",
"Z{@	c #5F533E",
"`{@	c #4D4233",
" ]@	c #413B2F",
".]@	c #21201B",
"+]@	c #301B1A",
"@]@	c #381919",
"#]@	c #391615",
"$]@	c #371513",
"%]@	c #311410",
"&]@	c #2F1814",
"*]@	c #311F19",
"=]@	c #3A2C22",
"-]@	c #453627",
";]@	c #463224",
">]@	c #472E1D",
",]@	c #442813",
"']@	c #3E210C",
")]@	c #371C0A",
"!]@	c #341D0B",
"~]@	c #301909",
"{]@	c #301708",
"]]@	c #2D1507",
"^]@	c #2A1407",
"/]@	c #29170C",
"(]@	c #251813",
"_]@	c #221A17",
":]@	c #302621",
"<]@	c #2F2422",
"[]@	c #2B211F",
"}]@	c #231F16",
"|]@	c #252218",
"1]@	c #2C2B1F",
"2]@	c #2F2D20",
"3]@	c #332F22",
"4]@	c #2F2E21",
"5]@	c #14150C",
"6]@	c #273108",
"7]@	c #42510A",
"8]@	c #415304",
"9]@	c #334302",
"0]@	c #253004",
"a]@	c #1D2707",
"b]@	c #1B280B",
"c]@	c #1A270A",
"d]@	c #1B280C",
"e]@	c #1A260B",
"f]@	c #172309",
"g]@	c #16230A",
"h]@	c #122009",
"i]@	c #13200A",
"j]@	c #19230B",
"k]@	c #282E13",
"l]@	c #353419",
"m]@	c #4B412A",
"n]@	c #675341",
"o]@	c #6B5643",
"p]@	c #685340",
"q]@	c #897260",
"r]@	c #A18D7A",
"s]@	c #9C8F7A",
"t]@	c #AD9E86",
"u]@	c #9F8E74",
"v]@	c #85755A",
"w]@	c #695E4C",
"x]@	c #46392B",
"y]@	c #7F6D5A",
"z]@	c #B39E83",
"A]@	c #BFA887",
"B]@	c #B19A78",
"C]@	c #8B7758",
"D]@	c #978775",
"E]@	c #A39483",
"F]@	c #261B0F",
"G]@	c #4F3E26",
"H]@	c #8F765B",
"I]@	c #AA9073",
"J]@	c #9E8C73",
"K]@	c #6B6252",
"L]@	c #615340",
"M]@	c #85715B",
"N]@	c #7D6752",
"O]@	c #584735",
"P]@	c #1F1913",
"Q]@	c #564B3A",
"R]@	c #6A5F4B",
"S]@	c #5A5243",
"T]@	c #352F26",
"U]@	c #544A3A",
"V]@	c #6B5E53",
"W]@	c #3F3425",
"X]@	c #6A6050",
"Y]@	c #434443",
"Z]@	c #414443",
"`]@	c #434544",
" ^@	c #444643",
".^@	c #584F40",
"+^@	c #686152",
"@^@	c #5F594B",
"#^@	c #4B4538",
"$^@	c #0A060A",
"%^@	c #525148",
"&^@	c #54544A",
"*^@	c #534C3E",
"=^@	c #544532",
"-^@	c #52432F",
";^@	c #4B3C2C",
">^@	c #171009",
",^@	c #6E6251",
"'^@	c #564B37",
")^@	c #594E3B",
"!^@	c #4F4738",
"~^@	c #373226",
"{^@	c #1A1914",
"]^@	c #2F211E",
"^^@	c #372421",
"/^@	c #3D2624",
"(^@	c #432E29",
"_^@	c #3E2D27",
":^@	c #382921",
"<^@	c #392B20",
"[^@	c #3C2D20",
"}^@	c #403022",
"|^@	c #432D1E",
"1^@	c #452918",
"2^@	c #42230E",
"3^@	c #40210C",
"4^@	c #3B1F0D",
"5^@	c #382010",
"6^@	c #321C0D",
"7^@	c #2F1809",
"8^@	c #2C1406",
"9^@	c #2B1607",
"0^@	c #261409",
"a^@	c #261911",
"b^@	c #342923",
"c^@	c #29261F",
"d^@	c #2D2B22",
"e^@	c #353127",
"f^@	c #2F2D22",
"g^@	c #14140C",
"h^@	c #080A00",
"i^@	c #2B3409",
"j^@	c #445308",
"k^@	c #415003",
"l^@	c #2F3A02",
"m^@	c #131901",
"n^@	c #020702",
"o^@	c #010501",
"p^@	c #010502",
"q^@	c #000400",
"r^@	c #040A01",
"s^@	c #1C210C",
"t^@	c #35341A",
"u^@	c #4D432D",
"v^@	c #6B5742",
"w^@	c #6B543F",
"x^@	c #9A816A",
"y^@	c #C1AA8E",
"z^@	c #C4AF90",
"A^@	c #B49D83",
"B^@	c #93826E",
"C^@	c #8F806D",
"D^@	c #96846B",
"E^@	c #7F6E53",
"F^@	c #695A44",
"G^@	c #AB977D",
"H^@	c #B59E7E",
"I^@	c #B09876",
"J^@	c #A68E6C",
"K^@	c #9F896C",
"L^@	c #A49176",
"M^@	c #9C8B74",
"N^@	c #2C1F11",
"O^@	c #7F6953",
"P^@	c #9F866D",
"Q^@	c #241C12",
"R^@	c #665948",
"S^@	c #8C7962",
"T^@	c #806C55",
"U^@	c #50402F",
"V^@	c #5F5544",
"W^@	c #786D5A",
"X^@	c #8C7F6C",
"Y^@	c #918272",
"Z^@	c #776A5C",
"`^@	c #504B48",
" /@	c #5F554D",
"./@	c #726556",
"+/@	c #746759",
"@/@	c #594D41",
"#/@	c #382E23",
"$/@	c #8F8375",
"%/@	c #908477",
"&/@	c #5C564B",
"*/@	c #464140",
"=/@	c #434242",
"-/@	c #424443",
";/@	c #444644",
">/@	c #444543",
",/@	c #434243",
"'/@	c #5B4F41",
")/@	c #5B5243",
"!/@	c #0A0507",
"~/@	c #615E55",
"{/@	c #646257",
"]/@	c #645F53",
"^/@	c #645D4E",
"//@	c #5F5444",
"(/@	c #5C503D",
"_/@	c #524332",
":/@	c #30261B",
"</@	c #55493D",
"[/@	c #4D4435",
"}/@	c #171510",
"|/@	c #352B27",
"1/@	c #382C29",
"2/@	c #413731",
"3/@	c #2F1F13",
"4/@	c #352214",
"5/@	c #392012",
"6/@	c #3E2010",
"7/@	c #3F1F0C",
"8/@	c #3E1E0C",
"9/@	c #3A1F0E",
"0/@	c #372011",
"a/@	c #331E0F",
"b/@	c #2F190A",
"c/@	c #2B1405",
"d/@	c #2A1506",
"e/@	c #271608",
"f/@	c #26180F",
"g/@	c #231B17",
"h/@	c #2C221F",
"i/@	c #2E2C22",
"j/@	c #2B340B",
"k/@	c #3F4E0A",
"l/@	c #3B4B05",
"m/@	c #2A3604",
"n/@	c #131A03",
"o/@	c #202311",
"p/@	c #3E3D22",
"q/@	c #585137",
"r/@	c #71634A",
"s/@	c #6E5D46",
"t/@	c #6D5843",
"u/@	c #988069",
"v/@	c #C0A98A",
"w/@	c #C7AF8C",
"x/@	c #BCA484",
"y/@	c #9D8A71",
"z/@	c #5A5041",
"A/@	c #8B7E6A",
"B/@	c #A09178",
"C/@	c #958469",
"D/@	c #827156",
"E/@	c #635B4F",
"F/@	c #AB9C7F",
"G/@	c #AE9B7B",
"H/@	c #A58E70",
"I/@	c #9F8968",
"J/@	c #937E60",
"K/@	c #8B795E",
"L/@	c #30261A",
"M/@	c #99846A",
"N/@	c #8E8069",
"O/@	c #241F14",
"P/@	c #897962",
"Q/@	c #7E6B53",
"R/@	c #4D3F2D",
"S/@	c #7A715E",
"T/@	c #9A8D79",
"U/@	c #7E7261",
"V/@	c #3C3528",
"W/@	c #0E0904",
"X/@	c #0E0A06",
"Y/@	c #867C6B",
"Z/@	c #8A806E",
"`/@	c #817766",
" (@	c #635B4D",
".(@	c #4D4949",
"+(@	c #404342",
"@(@	c #424444",
"#(@	c #444645",
"$(@	c #605544",
"%(@	c #625948",
"&(@	c #736D5D",
"*(@	c #666355",
"=(@	c #444034",
"-(@	c #0C0808",
";(@	c #5D5A50",
">(@	c #5E5C51",
",(@	c #636155",
"'(@	c #646158",
")(@	c #696558",
"!(@	c #696456",
"~(@	c #5E5341",
"{(@	c #574B38",
"](@	c #544735",
"^(@	c #29251D",
"/(@	c #695A43",
"((@	c #776953",
"_(@	c #8C806B",
":(@	c #4B4436",
"<(@	c #19150F",
"[(@	c #0D0A06",
"}(@	c #34332C",
"|(@	c #362C25",
"1(@	c #2D2016",
"2(@	c #2C1A0F",
"3(@	c #311B0F",
"4(@	c #361A0D",
"5(@	c #3D1D0D",
"6(@	c #3F1E0D",
"7(@	c #3F200F",
"8(@	c #3A2010",
"9(@	c #372213",
"0(@	c #342112",
"a(@	c #331E0E",
"b(@	c #321B0B",
"c(@	c #311C0B",
"d(@	c #2F1C0D",
"e(@	c #2C1D10",
"f(@	c #271E17",
"g(@	c #251D17",
"h(@	c #261D1A",
"i(@	c #231B1B",
"j(@	c #0D0E0A",
"k(@	c #181E07",
"l(@	c #273009",
"m(@	c #263005",
"n(@	c #1C2404",
"o(@	c #010404",
"p(@	c #010305",
"q(@	c #090C04",
"r(@	c #242615",
"s(@	c #3E3C25",
"t(@	c #544E35",
"u(@	c #695D46",
"v(@	c #665340",
"w(@	c #917B65",
"x(@	c #B6A082",
"y(@	c #BAA382",
"z(@	c #AF9778",
"A(@	c #5B4E3E",
"B(@	c #261E16",
"C(@	c #110B09",
"D(@	c #847862",
"E(@	c #85755D",
"F(@	c #6C5F49",
"G(@	c #514B3F",
"H(@	c #968871",
"I(@	c #9D8D6F",
"J(@	c #8F7A5F",
"K(@	c #867154",
"L(@	c #7C664D",
"M(@	c #74614B",
"N(@	c #372B21",
"O(@	c #6F5C48",
"P(@	c #8B7760",
"Q(@	c #847661",
"R(@	c #51473A",
"S(@	c #6D5B45",
"T(@	c #453522",
"U(@	c #1F1508",
"V(@	c #857C69",
"W(@	c #827763",
"X(@	c #453C2D",
"Y(@	c #231E16",
"Z(@	c #4F4640",
"`(@	c #31271F",
" _@	c #6D6052",
"._@	c #786A5A",
"+_@	c #5B4E42",
"@_@	c #2D281E",
"#_@	c #2A231D",
"$_@	c #3F4243",
"%_@	c #404243",
"&_@	c #404343",
"*_@	c #3B3B3A",
"=_@	c #635847",
"-_@	c #756D5E",
";_@	c #6B6657",
">_@	c #4E493B",
",_@	c #2A241D",
"'_@	c #231A16",
")_@	c #251D16",
"!_@	c #342A25",
"~_@	c #505048",
"{_@	c #5B5B52",
"]_@	c #646459",
"^_@	c #636259",
"/_@	c #68675E",
"(_@	c #5D5444",
"__@	c #261D15",
":_@	c #8C745E",
"<_@	c #8C775A",
"[_@	c #837158",
"}_@	c #8B7F68",
"|_@	c #090506",
"1_@	c #1A150E",
"2_@	c #080704",
"3_@	c #37291F",
"4_@	c #392215",
"5_@	c #3C1F11",
"6_@	c #3F1E0F",
"7_@	c #3E1F0E",
"8_@	c #3A2011",
"9_@	c #372212",
"0_@	c #352413",
"a_@	c #3C2815",
"b_@	c #402916",
"c_@	c #432C19",
"d_@	c #412B19",
"e_@	c #392717",
"f_@	c #2D1F13",
"g_@	c #291E15",
"h_@	c #0A0C01",
"i_@	c #0C0F02",
"j_@	c #0B0D07",
"k_@	c #0B0C0B",
"l_@	c #0D0F0E",
"m_@	c #070906",
"n_@	c #252414",
"o_@	c #34301E",
"p_@	c #3D3425",
"q_@	c #3D3224",
"r_@	c #3F3022",
"s_@	c #6D5C4A",
"t_@	c #8E795F",
"u_@	c #8C775D",
"v_@	c #85745B",
"w_@	c #6C5C4A",
"x_@	c #131618",
"y_@	c #1E1711",
"z_@	c #292016",
"A_@	c #3C3222",
"B_@	c #5A4E39",
"C_@	c #6B5D47",
"D_@	c #554B3D",
"E_@	c #6E6051",
"F_@	c #7F7057",
"G_@	c #756349",
"H_@	c #706043",
"I_@	c #66543C",
"J_@	c #675640",
"K_@	c #695C4B",
"L_@	c #776F60",
"M_@	c #191A17",
"N_@	c #4B4232",
"O_@	c #675741",
"P_@	c #82755E",
"Q_@	c #5B4B36",
"R_@	c #5A4A34",
"S_@	c #574A37",
"T_@	c #564E44",
"U_@	c #584E3D",
"V_@	c #584F3B",
"W_@	c #141007",
"X_@	c #746B64",
"Y_@	c #433D34",
"Z_@	c #6F6755",
"`_@	c #82735D",
" :@	c #9E8D76",
".:@	c #91816C",
"+:@	c #776852",
"@:@	c #5B4E3B",
"#:@	c #424544",
"$:@	c #3E4343",
"%:@	c #3D4041",
"&:@	c #3A3D3D",
"*:@	c #70644E",
"=:@	c #726653",
"-:@	c #736D59",
";:@	c #625B48",
">:@	c #605745",
",:@	c #655946",
"':@	c #625542",
"):@	c #60513F",
"!:@	c #5F503E",
"~:@	c #574B39",
"{:@	c #544939",
"]:@	c #4E4F48",
"^:@	c #52514B",
"/:@	c #473E38",
"(:@	c #302719",
"_:@	c #766652",
"::@	c #A0896F",
"<:@	c #907961",
"[:@	c #766450",
"}:@	c #60564C",
"|:@	c #27241D",
"1:@	c #2A251D",
"2:@	c #46392D",
"3:@	c #463325",
"4:@	c #473021",
"5:@	c #462A1B",
"6:@	c #442414",
"7:@	c #3E1E0D",
"8:@	c #3D1F0E",
"9:@	c #3B2110",
"0:@	c #3A2614",
"a:@	c #402C17",
"b:@	c #473019",
"c:@	c #4B331B",
"d:@	c #48321B",
"e:@	c #402D19",
"f:@	c #332313",
"g:@	c #2F2112",
"h:@	c #302417",
"i:@	c #1C1614",
"j:@	c #0E1009",
"k:@	c #0E0E07",
"l:@	c #1A120D",
"m:@	c #756253",
"n:@	c #76624E",
"o:@	c #77614D",
"p:@	c #846F57",
"q:@	c #86725C",
"r:@	c #877762",
"s:@	c #160C03",
"t:@	c #443828",
"u:@	c #685A47",
"v:@	c #4F4639",
"w:@	c #3E3B3E",
"x:@	c #1D1614",
"y:@	c #5D4D3A",
"z:@	c #4B3C2A",
"A:@	c #544534",
"B:@	c #5E4F3F",
"C:@	c #7E6C57",
"D:@	c #7D6F5C",
"E:@	c #0C0703",
"F:@	c #1D1106",
"G:@	c #4D3E2A",
"H:@	c #877259",
"I:@	c #9E8B72",
"J:@	c #9C8D77",
"K:@	c #8E8270",
"L:@	c #4E4334",
"M:@	c #877964",
"N:@	c #857662",
"O:@	c #0F0904",
"P:@	c #685E54",
"Q:@	c #0D0C08",
"R:@	c #3C3430",
"S:@	c #746451",
"T:@	c #A08C6F",
"U:@	c #B09C7F",
"V:@	c #AD987B",
"W:@	c #958165",
"X:@	c #806E54",
"Y:@	c #8E816F",
"Z:@	c #897D70",
"`:@	c #3C3C3F",
" <@	c #3F4142",
".<@	c #3C3F41",
"+<@	c #3B3D3F",
"@<@	c #3A3C3D",
"#<@	c #393B3C",
"$<@	c #7A6F58",
"%<@	c #7A6C54",
"&<@	c #766852",
"*<@	c #786D56",
"=<@	c #746851",
"-<@	c #79694F",
";<@	c #7E6B51",
"><@	c #857154",
",<@	c #857054",
"'<@	c #867156",
")<@	c #836E55",
"!<@	c #423728",
"~<@	c #7D6C58",
"{<@	c #A78F77",
"]<@	c #9C8570",
"^<@	c #655C4F",
"/<@	c #4B3A2E",
"(<@	c #4C382B",
"_<@	c #482F23",
":<@	c #402416",
"<<@	c #361809",
"[<@	c #341706",
"}<@	c #391F0E",
"|<@	c #3A2414",
"1<@	c #422C17",
"2<@	c #442D15",
"3<@	c #483016",
"4<@	c #473017",
"5<@	c #412B16",
"6<@	c #362412",
"7<@	c #342413",
"8<@	c #352717",
"9<@	c #0D0E0B",
"0<@	c #0B0B09",
"a<@	c #716357",
"b<@	c #75624E",
"c<@	c #847057",
"d<@	c #8B755C",
"e<@	c #8B7864",
"f<@	c #7A6D5E",
"g<@	c #160E08",
"h<@	c #423F42",
"i<@	c #3D383B",
"j<@	c #5A4F41",
"k<@	c #403525",
"l<@	c #372D1F",
"m<@	c #545042",
"n<@	c #625746",
"o<@	c #72634F",
"p<@	c #84755F",
"q<@	c #7D7260",
"r<@	c #484745",
"s<@	c #0F0702",
"t<@	c #483826",
"u<@	c #8E795D",
"v<@	c #A89374",
"w<@	c #A29174",
"x<@	c #92846E",
"y<@	c #564D3D",
"z<@	c #7B705C",
"A<@	c #827760",
"B<@	c #80725C",
"C<@	c #2B2215",
"D<@	c #1A1106",
"E<@	c #816F57",
"F<@	c #988468",
"G<@	c #AB9778",
"H<@	c #978164",
"I<@	c #877459",
"J<@	c #887860",
"K<@	c #908371",
"L<@	c #8B8273",
"M<@	c #736853",
"N<@	c #6F644D",
"O<@	c #6E624C",
"P<@	c #6F644F",
"Q<@	c #6F634E",
"R<@	c #70634C",
"S<@	c #716049",
"T<@	c #75654C",
"U<@	c #77644C",
"V<@	c #7C684D",
"W<@	c #816C51",
"X<@	c #806C53",
"Y<@	c #817056",
"Z<@	c #76664D",
"`<@	c #675842",
" [@	c #4A3F30",
".[@	c #39352C",
"+[@	c #3D3937",
"@[@	c #60533F",
"#[@	c #8D7B62",
"$[@	c #A99476",
"%[@	c #A18E77",
"&[@	c #181913",
"*[@	c #4F4239",
"=[@	c #4A382D",
"-[@	c #3C261A",
";[@	c #2C1306",
">[@	c #2D1203",
",[@	c #381E0E",
"'[@	c #3D2716",
")[@	c #3F2917",
"![@	c #452E18",
"~[@	c #452E15",
"{[@	c #472F15",
"][@	c #462F15",
"^[@	c #422E16",
"/[@	c #3C2A16",
"([@	c #3B2C19",
"_[@	c #3C2E1D",
":[@	c #1C1417",
"<[@	c #5D4E3D",
"[[@	c #77654D",
"}[@	c #8A755B",
"|[@	c #84705A",
"1[@	c #736354",
"2[@	c #363335",
"3[@	c #3F3C3E",
"4[@	c #3C383B",
"5[@	c #332C1F",
"6[@	c #1E1B15",
"7[@	c #4D4739",
"8[@	c #423222",
"9[@	c #866F55",
"0[@	c #9E8768",
"a[@	c #605548",
"b[@	c #5B5344",
"c[@	c #665D4A",
"d[@	c #645943",
"e[@	c #5E513C",
"f[@	c #463B2B",
"g[@	c #392F22",
"h[@	c #463F35",
"i[@	c #5A4E3F",
"j[@	c #6C5C45",
"k[@	c #927F62",
"l[@	c #978366",
"m[@	c #8E7B5F",
"n[@	c #37383A",
"o[@	c #373A3C",
"p[@	c #373A3B",
"q[@	c #323636",
"r[@	c #483F31",
"s[@	c #3F382A",
"t[@	c #473D2F",
"u[@	c #4E4130",
"v[@	c #504130",
"w[@	c #63523D",
"x[@	c #6A5941",
"y[@	c #62513A",
"z[@	c #574832",
"A[@	c #554935",
"B[@	c #514735",
"C[@	c #59503C",
"D[@	c #5C523D",
"E[@	c #655B44",
"F[@	c #645A45",
"G[@	c #574E3D",
"H[@	c #50463B",
"I[@	c #4C4137",
"J[@	c #695948",
"K[@	c #927A60",
"L[@	c #947E62",
"M[@	c #7D6B55",
"N[@	c #4F463F",
"O[@	c #483C35",
"P[@	c #37281F",
"Q[@	c #271509",
"R[@	c #2B1508",
"S[@	c #3A2215",
"T[@	c #412B1B",
"U[@	c #412B1A",
"V[@	c #432C17",
"W[@	c #452D16",
"X[@	c #462E16",
"Y[@	c #442F16",
"Z[@	c #44311B",
"`[@	c #42321F",
" }@	c #423323",
".}@	c #3F3223",
"+}@	c #191312",
"@}@	c #191313",
"#}@	c #1F1618",
"$}@	c #1A1815",
"%}@	c #221B16",
"&}@	c #62503F",
"*}@	c #76614C",
"=}@	c #7E6954",
"-}@	c #3B3839",
";}@	c #22221E",
">}@	c #6A6152",
",}@	c #473F31",
"'}@	c #413221",
")}@	c #978060",
"!}@	c #927D61",
"~}@	c #80715B",
"{}@	c #4A4031",
"]}@	c #594D3B",
"^}@	c #5D5243",
"/}@	c #25231E",
"(}@	c #4B3D2C",
"_}@	c #63513B",
":}@	c #7B6850",
"<}@	c #836E56",
"[}@	c #7D6A54",
"}}@	c #2B2E30",
"|}@	c #282B2C",
"1}@	c #18110B",
"2}@	c #0B0703",
"3}@	c #1E120B",
"4}@	c #443527",
"5}@	c #6C5A41",
"6}@	c #705F43",
"7}@	c #837455",
"8}@	c #8A7B59",
"9}@	c #91835D",
"0}@	c #92845B",
"a}@	c #9A8B63",
"b}@	c #988A66",
"c}@	c #796D53",
"d}@	c #463B34",
"e}@	c #8E7860",
"f}@	c #977D63",
"g}@	c #887057",
"h}@	c #5F4D3B",
"i}@	c #060501",
"j}@	c #14120D",
"k}@	c #514B47",
"l}@	c #4A433E",
"m}@	c #3C322D",
"n}@	c #2F231A",
"o}@	c #322218",
"p}@	c #3E2A21",
"q}@	c #453020",
"r}@	c #46311D",
"s}@	c #47301A",
"t}@	c #48311A",
"u}@	c #45311B",
"v}@	c #473523",
"w}@	c #1C1415",
"x}@	c #57473C",
"y}@	c #7F6A53",
"z}@	c #7C6954",
"A}@	c #3D3A3C",
"B}@	c #3D393A",
"C}@	c #413D3E",
"D}@	c #433F41",
"E}@	c #080703",
"F}@	c #928571",
"G}@	c #897A64",
"H}@	c #362B24",
"I}@	c #090301",
"J}@	c #3C2D1F",
"K}@	c #7A644B",
"L}@	c #8B7357",
"M}@	c #867157",
"N}@	c #594E43",
"O}@	c #605445",
"P}@	c #75634F",
"Q}@	c #786652",
"R}@	c #2C241B",
"S}@	c #382C25",
"T}@	c #6E5E46",
"U}@	c #766548",
"V}@	c #92815F",
"W}@	c #9D8B65",
"X}@	c #A49367",
"Y}@	c #A39164",
"Z}@	c #A89769",
"`}@	c #A6966F",
" |@	c #82745A",
".|@	c #423832",
"+|@	c #8E7962",
"@|@	c #957D64",
"#|@	c #856E5A",
"$|@	c #574639",
"%|@	c #433F40",
"&|@	c #4E4A49",
"*|@	c #3D2F25",
"=|@	c #453328",
"-|@	c #483324",
";|@	c #483321",
">|@	c #472F1C",
",|@	c #45311E",
"'|@	c #473729",
")|@	c #1E1618",
"!|@	c #776652",
"~|@	c #66594C",
"{|@	c #403D3F",
"]|@	c #413E40",
"^|@	c #423E3E",
"/|@	c #0B0A07",
"(|@	c #695C50",
"_|@	c #84745D",
":|@	c #6D5E4B",
"<|@	c #4E4335",
"[|@	c #0C0604",
"}|@	c #403226",
"||@	c #77644D",
"1|@	c #867358",
"2|@	c #806F58",
"3|@	c #766957",
"4|@	c #564D3F",
"5|@	c #5D5343",
"6|@	c #5E5544",
"7|@	c #6F6351",
"8|@	c #695F4E",
"9|@	c #5A5143",
"0|@	c #605441",
"a|@	c #6A5B43",
"b|@	c #897B5B",
"c|@	c #978863",
"d|@	c #998A64",
"e|@	c #96865F",
"f|@	c #9B8C69",
"g|@	c #7D7259",
"h|@	c #010206",
"i|@	c #907C64",
"j|@	c #7E6A56",
"k|@	c #141310",
"l|@	c #4B4847",
"m|@	c #4A4946",
"n|@	c #3F2E25",
"o|@	c #483122",
"p|@	c #47301E",
"q|@	c #47311E",
"r|@	c #443120",
"s|@	c #47372B",
"t|@	c #4D4139",
"u|@	c #4E4238",
"v|@	c #484546",
"w|@	c #443F40",
"x|@	c #484441",
"y|@	c #6D5F4E",
"z|@	c #3D3430",
"A|@	c #090407",
"B|@	c #6A5D47",
"C|@	c #786B51",
"D|@	c #706349",
"E|@	c #695C43",
"F|@	c #6C5E47",
"G|@	c #6D614B",
"H|@	c #665C4D",
"I|@	c #7A6C58",
"J|@	c #766552",
"K|@	c #635342",
"L|@	c #2A1F18",
"M|@	c #33231C",
"N|@	c #3F2C23",
"O|@	c #422D21",
"P|@	c #432D1F",
"Q|@	c #432E1E",
"R|@	c #42342A",
"S|@	c #483F39",
"T|@	c #3A3438",
"U|@	c #383436",
"V|@	c #312D2F",
"W|@	c #464345",
"X|@	c #4D494A",
"Y|@	c #19110E",
"Z|@	c #160D0A",
"`|@	c #56473B",
" 1@	c #2D2119",
".1@	c #372820",
"+1@	c #3E2D22",
"@1@	c #3E2B20",
"#1@	c #3E2C1F",
"$1@	c #3C2D22",
"%1@	c #201A1C",
"&1@	c #241C1D",
"*1@	c #342C2B",
"=1@	c #373235",
"-1@	c #3D373B",
";1@	c #383435",
">1@	c #342F32",
",1@	c #342E31",
"'1@	c #312C2E",
")1@	c #454144",
"!1@	c #484446",
"~1@	c #474746",
"{1@	c #504A47",
"]1@	c #474140",
"^1@	c #605D59",
"/1@	c #5E5955",
"(1@	c #373438",
"_1@	c #3B3739",
":1@	c #413B3B",
"<1@	c #403A3A",
"[1@	c #111314",
"}1@	c #4D433A",
"|1@	c #4D4743",
"11@	c #2D2A2E",
"21@	c #261B16",
"31@	c #372822",
"41@	c #3B2B23",
"51@	c #3D2E25",
"61@	c #3B2E28",
"71@	c #362F2E",
"81@	c #2D2627",
"91@	c #342F33",
"01@	c #352F32",
"a1@	c #363234",
"b1@	c #332D30",
"c1@	c #3B393B",
"d1@	c #3F3D3F",
"e1@	c #3F3F41",
"f1@	c #434244",
"g1@	c #444445",
"h1@	c #454344",
"i1@	c #454243",
"j1@	c #605E59",
"k1@	c #06060B",
"l1@	c #3D3839",
"m1@	c #060808",
"n1@	c #241B18",
"o1@	c #382D28",
"p1@	c #372D2A",
"q1@	c #372F2D",
"r1@	c #231B1A",
"s1@	c #332E32",
"t1@	c #352F33",
"u1@	c #302A2D",
"v1@	c #2C2C2F",
"w1@	c #504F4B",
"x1@	c #52504C",
"y1@	c #100F16",
"z1@	c #141218",
"A1@	c #322D30",
"B1@	c #332E30",
"C1@	c #272427",
"D1@	c #211A1C",
"E1@	c #322D31",
"F1@	c #2F2A2D",
"G1@	c #18181D",
"H1@	c #302B2E",
"I1@	c #191212",
"J1@	c #150F10",
"K1@	c #2B2628",
"L1@	c #201F23",
"M1@	c #2C282C",
"N1@	c #221F22",
"O1@	c #1E1D22",
"P1@	c #030404",
"Q1@	c #010403",
"R1@	c #0C0B07",
"S1@	c #0B0A06",
"T1@	c #0C0C08",
"U1@	c #0A0B09",
"V1@	c #0C0D0A",
"W1@	c #0F1007",
"X1@	c #0F1107",
"Y1@	c #080903",
"Z1@	c #050604",
"`1@	c #18190F",
" 2@	c #0C0F06",
".2@	c #010300",
"+2@	c #050700",
"@2@	c #070901",
"#2@	c #090B01",
"$2@	c #0A0D01",
"%2@	c #090D01",
"&2@	c #0A0E01",
"*2@	c #090E01",
"=2@	c #090F02",
"-2@	c #0A0F02",
";2@	c #0B1002",
">2@	c #0D1204",
",2@	c #0E1204",
"'2@	c #0D1205",
")2@	c #0B0F04",
"!2@	c #050602",
"~2@	c #0B0C03",
"{2@	c #191B0B",
"]2@	c #272C15",
"^2@	c #353B1E",
"/2@	c #383D1E",
"(2@	c #343A1A",
"_2@	c #23280F",
":2@	c #131705",
"<2@	c #070801",
"[2@	c #030402",
"}2@	c #060803",
"|2@	c #0B0D04",
"12@	c #1D1F0F",
"22@	c #393D25",
"32@	c #4A4E33",
"42@	c #4C5034",
"52@	c #343A20",
"62@	c #050803",
"72@	c #070C02",
"82@	c #070D02",
"92@	c #080E02",
"02@	c #091002",
"a2@	c #0A1103",
"b2@	c #0B1204",
"c2@	c #0C1305",
"d2@	c #101606",
"e2@	c #121708",
"f2@	c #141A0B",
"g2@	c #151A09",
"h2@	c #181D0B",
"i2@	c #191D0F",
"j2@	c #090A01",
"k2@	c #161B08",
"l2@	c #1B2109",
"m2@	c #1F280E",
"n2@	c #242B10",
"o2@	c #252C11",
"p2@	c #252C12",
"q2@	c #232A13",
"r2@	c #222712",
"s2@	c #1C2110",
"t2@	c #1A1F0F",
"u2@	c #181D0E",
"v2@	c #17190C",
"w2@	c #18180A",
"x2@	c #181406",
"y2@	c #170E02",
"z2@	c #120601",
"A2@	c #313917",
"B2@	c #373F19",
"C2@	c #3A411C",
"D2@	c #3B431A",
"E2@	c #3B451A",
"F2@	c #3B4519",
"G2@	c #3B461C",
"H2@	c #3C461C",
"I2@	c #3D471D",
"J2@	c #414D21",
"K2@	c #455025",
"L2@	c #495429",
"M2@	c #4A562B",
"N2@	c #4B572B",
"O2@	c #4A562C",
"P2@	c #49552D",
"Q2@	c #47512C",
"R2@	c #444E2A",
"S2@	c #394221",
"T2@	c #2B3215",
"U2@	c #232911",
"V2@	c #282D17",
"W2@	c #292C18",
"X2@	c #262714",
"Y2@	c #262A12",
"Z2@	c #272B11",
"`2@	c #333718",
" 3@	c #40431F",
".3@	c #5A6130",
"+3@	c #788245",
"@3@	c #8B9752",
"#3@	c #8E9850",
"$3@	c #88924A",
"%3@	c #6E7739",
"&3@	c #4F5723",
"*3@	c #343B14",
"=3@	c #2B3112",
"-3@	c #353B1D",
";3@	c #373C1E",
">3@	c #363E1E",
",3@	c #333A1C",
"'3@	c #3A401D",
")3@	c #51582E",
"!3@	c #737C4A",
"~3@	c #8A945C",
"{3@	c #909961",
"]3@	c #78814C",
"^3@	c #4F5729",
"/3@	c #3B4122",
"(3@	c #3A4222",
"_3@	c #3B4421",
":3@	c #3C441E",
"<3@	c #3D4B1E",
"[3@	c #455223",
"}3@	c #475626",
"|3@	c #485626",
"13@	c #4A5827",
"23@	c #4C5A29",
"33@	c #515E2C",
"43@	c #545F30",
"53@	c #576133",
"63@	c #5A6333",
"73@	c #606838",
"83@	c #626741",
"93@	c #373B25",
"03@	c #060601",
"a3@	c #1D210C",
"b3@	c #465227",
"c3@	c #546129",
"d3@	c #546226",
"e3@	c #556629",
"f3@	c #57662A",
"g3@	c #5B692C",
"h3@	c #5E6B2E",
"i3@	c #606E2F",
"j3@	c #626E32",
"k3@	c #636C34",
"l3@	c #616934",
"m3@	c #5E6634",
"n3@	c #5B6333",
"o3@	c #585F33",
"p3@	c #53582E",
"q3@	c #545329",
"r3@	c #53461D",
"s3@	c #4D3413",
"t3@	c #3A1C09",
"u3@	c #220903",
"v3@	c #110708",
"w3@	c #687539",
"x3@	c #69763B",
"y3@	c #6D793D",
"z3@	c #707B3E",
"A3@	c #727D3F",
"B3@	c #727E3D",
"C3@	c #737F3C",
"D3@	c #727E3B",
"E3@	c #727F3B",
"F3@	c #727E3A",
"G3@	c #707E3A",
"H3@	c #717E3B",
"I3@	c #727E3C",
"J3@	c #717F3C",
"K3@	c #71803C",
"L3@	c #758440",
"M3@	c #788745",
"N3@	c #7C8B49",
"O3@	c #7E8C4A",
"P3@	c #7F8E4B",
"Q3@	c #7E8D4C",
"R3@	c #7E8D4E",
"S3@	c #7D8A4F",
"T3@	c #7B894F",
"U3@	c #6A7640",
"V3@	c #4D5926",
"W3@	c #4B5527",
"X3@	c #4B5328",
"Y3@	c #4D5429",
"Z3@	c #484E23",
"`3@	c #4D5524",
" 4@	c #575F29",
".4@	c #687134",
"+4@	c #78813C",
"@4@	c #8D9647",
"#4@	c #A4B057",
"$4@	c #B0BD60",
"%4@	c #AFBB5C",
"&4@	c #AEBB59",
"*4@	c #9CA74F",
"=4@	c #859041",
"-4@	c #6C772F",
";4@	c #636F2C",
">4@	c #6A7636",
",4@	c #758040",
"'4@	c #757F40",
")4@	c #707E3E",
"!4@	c #657337",
"~4@	c #617033",
"{4@	c #657334",
"]4@	c #778441",
"^4@	c #929F55",
"/4@	c #A0B060",
"(4@	c #A4B163",
"_4@	c #99A45A",
":4@	c #818D46",
"<4@	c #75803B",
"[4@	c #737E3D",
"}4@	c #757F42",
"|4@	c #748041",
"14@	c #758240",
"24@	c #76823D",
"34@	c #76863C",
"44@	c #7A8A40",
"54@	c #7B8A41",
"64@	c #7C8C42",
"74@	c #7C8B42",
"84@	c #7D8B41",
"94@	c #7A883F",
"04@	c #7B893F",
"a4@	c #7C8942",
"b4@	c #808C45",
"c4@	c #808B44",
"d4@	c #87914A",
"e4@	c #8B9159",
"f4@	c #5A5D3B",
"g4@	c #283012",
"h4@	c #5B6C31",
"i4@	c #677B30",
"j4@	c #647A2C",
"k4@	c #657C2D",
"l4@	c #667B2E",
"m4@	c #697C2E",
"n4@	c #6B7C2F",
"o4@	c #6D7F30",
"p4@	c #6F7F34",
"q4@	c #727F37",
"r4@	c #727D37",
"s4@	c #727D38",
"t4@	c #707B37",
"u4@	c #6E7939",
"v4@	c #6D7439",
"w4@	c #717237",
"x4@	c #725F27",
"y4@	c #664315",
"z4@	c #4E270B",
"A4@	c #280902",
"B4@	c #130708",
"C4@	c #77853E",
"D4@	c #798741",
"E4@	c #7E8B44",
"F4@	c #818D45",
"G4@	c #828D45",
"H4@	c #838E45",
"I4@	c #828E43",
"J4@	c #828F42",
"K4@	c #829041",
"L4@	c #818F40",
"M4@	c #808F40",
"N4@	c #818F41",
"O4@	c #808E41",
"P4@	c #808F42",
"Q4@	c #7F8E41",
"R4@	c #819144",
"S4@	c #839247",
"T4@	c #87974B",
"U4@	c #87964B",
"V4@	c #88974C",
"W4@	c #86964B",
"X4@	c #86964D",
"Y4@	c #86954E",
"Z4@	c #869550",
"`4@	c #707D3E",
" 5@	c #515E21",
".5@	c #48551C",
"+5@	c #4F5B24",
"@5@	c #4E5824",
"#5@	c #4E5724",
"$5@	c #535C23",
"%5@	c #656D2D",
"&5@	c #747E34",
"*5@	c #7C8837",
"=5@	c #8C973F",
"-5@	c #A0AD4F",
";5@	c #AAB659",
">5@	c #A6B053",
",5@	c #A5B350",
"'5@	c #98A346",
")5@	c #869239",
"!5@	c #717E2B",
"~5@	c #6C792B",
"{5@	c #78843A",
"]5@	c #808C41",
"^5@	c #7D8A3E",
"/5@	c #79893C",
"(5@	c #708037",
"_5@	c #6D7D33",
":5@	c #6D7D32",
"<5@	c #7B893C",
"[5@	c #93A34F",
"}5@	c #9EAE59",
"|5@	c #A1AF5B",
"15@	c #99A751",
"25@	c #879542",
"35@	c #83913E",
"45@	c #839040",
"55@	c #839042",
"65@	c #82903F",
"75@	c #818E3B",
"85@	c #80903A",
"95@	c #7E8F3A",
"05@	c #81903C",
"a5@	c #81913D",
"b5@	c #7D8D3A",
"c5@	c #808F3D",
"d5@	c #7F8B3D",
"e5@	c #7D8A3C",
"f5@	c #7B873C",
"g5@	c #7E8A40",
"h5@	c #7C863D",
"i5@	c #818940",
"j5@	c #878B50",
"k5@	c #5E5D3B",
"l5@	c #171407",
"m5@	c #0A0503",
"n5@	c #130C05",
"o5@	c #2A2E0E",
"p5@	c #65782A",
"q5@	c #637826",
"r5@	c #647B27",
"s5@	c #647A27",
"t5@	c #687C29",
"u5@	c #6A7C2B",
"v5@	c #6B7E2B",
"w5@	c #6B7B2D",
"x5@	c #6D7B2F",
"y5@	c #6D7A30",
"z5@	c #6B782F",
"A5@	c #6C7833",
"B5@	c #6E7637",
"C5@	c #717434",
"D5@	c #746325",
"E5@	c #643F0C",
"F5@	c #502605",
"G5@	c #2D0D01",
"H5@	c #160300",
"I5@	c #140604",
"J5@	c #130F0A",
"K5@	c #020400",
"L5@	c #000300",
"M5@	c #060300",
"N5@	c #718137",
"O5@	c #73843B",
"P5@	c #77883F",
"Q5@	c #7A8942",
"R5@	c #7C8C43",
"S5@	c #7D8C42",
"T5@	c #7F8D42",
"U5@	c #7E8C41",
"V5@	c #7F8E40",
"W5@	c #808E40",
"X5@	c #808F3F",
"Y5@	c #7F8E3E",
"Z5@	c #7F8E3F",
"`5@	c #7E8D3E",
" 6@	c #7E8E3F",
".6@	c #7D8C3F",
"+6@	c #7C8C3D",
"@6@	c #7A8B3C",
"#6@	c #7F9043",
"$6@	c #839448",
"%6@	c #839348",
"&6@	c #849447",
"*6@	c #829347",
"=6@	c #849649",
"-6@	c #84954C",
";6@	c #83954C",
">6@	c #6F7F3B",
",6@	c #526220",
"'6@	c #4A591C",
")6@	c #4F5D23",
"!6@	c #48541E",
"~6@	c #535E23",
"{6@	c #68732F",
"]6@	c #768536",
"^6@	c #798834",
"/6@	c #84923D",
"(6@	c #9AA950",
"_6@	c #A6B55C",
":6@	c #A3B45A",
"<6@	c #99AC4F",
"[6@	c #87993F",
"}6@	c #7D8E36",
"|6@	c #6B7A29",
"16@	c #69772B",
"26@	c #748338",
"36@	c #7B8B3F",
"46@	c #748539",
"56@	c #738537",
"66@	c #6D7E33",
"76@	c #6E7E33",
"86@	c #6F8034",
"96@	c #7A8A3B",
"06@	c #8C9D4B",
"a6@	c #98A956",
"b6@	c #97A854",
"c6@	c #8EA04B",
"d6@	c #80913E",
"e6@	c #7F8E3B",
"f6@	c #81903D",
"g6@	c #7C8D3B",
"h6@	c #7E8E3A",
"i6@	c #7D8C38",
"j6@	c #7C8E37",
"k6@	c #7A8C38",
"l6@	c #7D8E3A",
"m6@	c #7C8C3A",
"n6@	c #7C8E3B",
"o6@	c #7C8C3B",
"p6@	c #7C8D3E",
"q6@	c #78853C",
"r6@	c #76833B",
"s6@	c #6F7A38",
"t6@	c #6F7B3A",
"u6@	c #6D7737",
"v6@	c #707839",
"w6@	c #747743",
"x6@	c #595837",
"y6@	c #252212",
"z6@	c #574C3B",
"A6@	c #2C281E",
"B6@	c #13100A",
"C6@	c #161512",
"D6@	c #1F1D17",
"E6@	c #181610",
"F6@	c #161303",
"G6@	c #313310",
"H6@	c #546026",
"I6@	c #596A26",
"J6@	c #576923",
"K6@	c #576B23",
"L6@	c #576A23",
"M6@	c #596B25",
"N6@	c #5A6B28",
"O6@	c #5A6D29",
"P6@	c #5B6B2B",
"Q6@	c #5C6B2C",
"R6@	c #5B6A2B",
"S6@	c #5A692B",
"T6@	c #59672B",
"U6@	c #5A682F",
"V6@	c #5B6531",
"W6@	c #636831",
"X6@	c #6D6125",
"Y6@	c #684C15",
"Z6@	c #57350B",
"`6@	c #44280B",
" 7@	c #34210B",
".7@	c #322511",
"+7@	c #2E2614",
"@7@	c #2E2B14",
"#7@	c #2A2711",
"$7@	c #2B2811",
"%7@	c #2A2712",
"&7@	c #272A14",
"*7@	c #2A2C14",
"=7@	c #2A2E15",
"-7@	c #2B3119",
";7@	c #2A3118",
">7@	c #273114",
",7@	c #1F2B0B",
"'7@	c #192304",
")7@	c #101C01",
"!7@	c #111E01",
"~7@	c #111B01",
"{7@	c #121C01",
"]7@	c #121701",
"^7@	c #111000",
"/7@	c #110B00",
"(7@	c #140A02",
"_7@	c #140B02",
":7@	c #160F03",
"<7@	c #141005",
"[7@	c #151407",
"}7@	c #161708",
"|7@	c #1D1E10",
"17@	c #252318",
"27@	c #2A291E",
"37@	c #302F25",
"47@	c #24231B",
"57@	c #212019",
"67@	c #1F1F19",
"77@	c #26241C",
"87@	c #25231C",
"97@	c #23221D",
"07@	c #231D16",
"a7@	c #1B160F",
"b7@	c #6A7B34",
"c7@	c #6A7B36",
"d7@	c #6B7C39",
"e7@	c #6C7A3B",
"f7@	c #6D7C3C",
"g7@	c #6D7B3B",
"h7@	c #6F7C3C",
"i7@	c #717F3B",
"j7@	c #717E3A",
"k7@	c #72813B",
"l7@	c #717F3A",
"m7@	c #6F7E39",
"n7@	c #6D7D37",
"o7@	c #6D7D38",
"p7@	c #6C7A36",
"q7@	c #6B7A34",
"r7@	c #687831",
"s7@	c #6A7A33",
"t7@	c #6D7D36",
"u7@	c #70813A",
"v7@	c #72823A",
"w7@	c #7B8C42",
"x7@	c #7E8D46",
"y7@	c #7B8C45",
"z7@	c #697933",
"A7@	c #50601D",
"B7@	c #4C591C",
"C7@	c #4E5B21",
"D7@	c #4B5722",
"E7@	c #495622",
"F7@	c #515E24",
"G7@	c #657330",
"H7@	c #708034",
"I7@	c #768737",
"J7@	c #819240",
"K7@	c #8C9F4E",
"L7@	c #96AA58",
"M7@	c #8FA252",
"N7@	c #849847",
"O7@	c #6C7D32",
"P7@	c #617028",
"Q7@	c #586321",
"R7@	c #586223",
"S7@	c #5D692B",
"T7@	c #647230",
"U7@	c #667831",
"V7@	c #6A7D32",
"W7@	c #697B32",
"X7@	c #6B7D33",
"Y7@	c #6C7D33",
"Z7@	c #728438",
"`7@	c #798B3E",
" 8@	c #7C8F41",
".8@	c #7B8C3F",
"+8@	c #77893C",
"@8@	c #708134",
"#8@	c #748536",
"$8@	c #738435",
"%8@	c #738436",
"&8@	c #718335",
"*8@	c #728334",
"=8@	c #708031",
"-8@	c #708231",
";8@	c #6F8032",
">8@	c #697A30",
",8@	c #6C7E35",
"'8@	c #6D7C37",
")8@	c #697738",
"!8@	c #5B652F",
"~8@	c #535E2A",
"{8@	c #4B5327",
"]8@	c #484F26",
"^8@	c #464A24",
"/8@	c #4A4C27",
"(8@	c #4C4C2B",
"_8@	c #403C25",
":8@	c #2E291B",
"<8@	c #4D443E",
"[8@	c #4A3F36",
"}8@	c #695B4C",
"|8@	c #867661",
"18@	c #93846B",
"28@	c #91836C",
"38@	c #140E0A",
"48@	c #706A63",
"58@	c #767068",
"68@	c #14120F",
"78@	c #423D31",
"88@	c #2C2717",
"98@	c #25240C",
"08@	c #2D3312",
"a8@	c #2C3411",
"b8@	c #29310E",
"c8@	c #26310D",
"d8@	c #232E0C",
"e8@	c #222C0C",
"f8@	c #212B0C",
"g8@	c #202B0D",
"h8@	c #202A0E",
"i8@	c #212A0F",
"j8@	c #21290E",
"k8@	c #222B0F",
"l8@	c #222A0F",
"m8@	c #202810",
"n8@	c #574B1D",
"o8@	c #5E4E18",
"p8@	c #5C4B17",
"q8@	c #5B4E1F",
"r8@	c #544D22",
"s8@	c #535126",
"t8@	c #4E4E27",
"u8@	c #4F5125",
"v8@	c #4E5023",
"w8@	c #545425",
"x8@	c #58572A",
"y8@	c #5E6130",
"z8@	c #606432",
"A8@	c #686935",
"B8@	c #696D38",
"C8@	c #6D733E",
"D8@	c #6D7241",
"E8@	c #636F3B",
"F8@	c #4F5F27",
"G8@	c #3E4F16",
"H8@	c #31460A",
"I8@	c #384C11",
"J8@	c #404E17",
"K8@	c #4B561A",
"L8@	c #4B4C15",
"M8@	c #42340A",
"N8@	c #3F2407",
"O8@	c #47240D",
"P8@	c #4A2B13",
"Q8@	c #473215",
"R8@	c #403517",
"S8@	c #3B3C19",
"T8@	c #404626",
"U8@	c #48492F",
"V8@	c #505139",
"W8@	c #605B49",
"X8@	c #625D4C",
"Y8@	c #615D4C",
"Z8@	c #5E5849",
"`8@	c #595345",
" 9@	c #544E41",
".9@	c #524E42",
"+9@	c #534E43",
"@9@	c #4F4B41",
"#9@	c #56534A",
"$9@	c #54514A",
"%9@	c #0F0E09",
"&9@	c #080803",
"*9@	c #4B4439",
"=9@	c #6B7935",
"-9@	c #677635",
";9@	c #5E6C2F",
">9@	c #56632A",
",9@	c #57632C",
"'9@	c #59642E",
")9@	c #5D692E",
"!9@	c #616D31",
"~9@	c #647134",
"{9@	c #606D30",
"]9@	c #5D6B2E",
"^9@	c #5B6A2D",
"/9@	c #5A6729",
"(9@	c #596627",
"_9@	c #5A6727",
":9@	c #5A6928",
"<9@	c #5D6C2B",
"[9@	c #75853E",
"}9@	c #7B8843",
"|9@	c #788840",
"19@	c #6B7B33",
"29@	c #5E6D28",
"39@	c #5E6B2A",
"49@	c #596629",
"59@	c #4D5A23",
"69@	c #495723",
"79@	c #485621",
"89@	c #536125",
"99@	c #677632",
"09@	c #718136",
"a9@	c #728235",
"b9@	c #768639",
"c9@	c #74863C",
"d9@	c #778A41",
"e9@	c #70813D",
"f9@	c #657732",
"g9@	c #566424",
"h9@	c #535F22",
"i9@	c #515921",
"j9@	c #4D551F",
"k9@	c #4F5920",
"l9@	c #576425",
"m9@	c #61712C",
"n9@	c #63732D",
"o9@	c #65762F",
"p9@	c #65762E",
"q9@	c #67782F",
"r9@	c #67792F",
"s9@	c #687B2F",
"t9@	c #67782E",
"u9@	c #687930",
"v9@	c #67772E",
"w9@	c #6C7D30",
"x9@	c #6A7A2F",
"y9@	c #6B7A2E",
"z9@	c #6A782C",
"A9@	c #6A7A2E",
"B9@	c #64752B",
"C9@	c #50601E",
"D9@	c #556525",
"E9@	c #546128",
"F9@	c #485321",
"G9@	c #303711",
"H9@	c #262B0E",
"I9@	c #242611",
"J9@	c #222310",
"K9@	c #1E1D0D",
"L9@	c #21200E",
"M9@	c #262413",
"N9@	c #2C281A",
"O9@	c #5A4B3E",
"P9@	c #625144",
"Q9@	c #726251",
"R9@	c #756654",
"S9@	c #887A63",
"T9@	c #918369",
"U9@	c #847864",
"V9@	c #736D61",
"W9@	c #615C51",
"X9@	c #54514B",
"Y9@	c #4C4943",
"Z9@	c #59574F",
"`9@	c #5E5A55",
" 0@	c #474542",
".0@	c #27221C",
"+0@	c #0D0B05",
"@0@	c #0A0B03",
"#0@	c #090B03",
"$0@	c #050801",
"%0@	c #1F1F0B",
"&0@	c #555023",
"*0@	c #605B21",
"=0@	c #5A571C",
"-0@	c #5A591F",
";0@	c #5B5E25",
">0@	c #5A6229",
",0@	c #555C27",
"'0@	c #525C25",
")0@	c #525B22",
"!0@	c #575D22",
"~0@	c #606328",
"{0@	c #6D7235",
"]0@	c #74763B",
"^0@	c #7F8142",
"/0@	c #818444",
"(0@	c #898F4E",
"_0@	c #858B4F",
":0@	c #748144",
"<0@	c #586C29",
"[0@	c #3F570F",
"}0@	c #4A6119",
"|0@	c #596724",
"10@	c #6A742F",
"20@	c #6B6328",
"30@	c #5D4416",
"40@	c #542C0B",
"50@	c #5B2B10",
"60@	c #5D3416",
"70@	c #563B17",
"80@	c #4A4017",
"90@	c #424819",
"00@	c #3D4C1E",
"a0@	c #425025",
"b0@	c #48522D",
"c0@	c #515838",
"d0@	c #5D5D44",
"e0@	c #686250",
"f0@	c #6A6353",
"g0@	c #6B6854",
"h0@	c #696352",
"i0@	c #66604F",
"j0@	c #5E594B",
"k0@	c #6D6555",
"l0@	c #716858",
"m0@	c #6E6757",
"n0@	c #5F5A4E",
"o0@	c #575449",
"p0@	c #5A564B",
"q0@	c #5D584F",
"r0@	c #646258",
"s0@	c #1B1913",
"t0@	c #2B271F",
"u0@	c #6A7839",
"v0@	c #5D6A2F",
"w0@	c #535E29",
"x0@	c #565F2D",
"y0@	c #58612F",
"z0@	c #56622D",
"A0@	c #5A662F",
"B0@	c #647136",
"C0@	c #5F6D32",
"D0@	c #5D6A31",
"E0@	c #5C6A30",
"F0@	c #5C6B32",
"G0@	c #5B692F",
"H0@	c #5B692E",
"I0@	c #5A672B",
"J0@	c #5A672A",
"K0@	c #586729",
"L0@	c #5B692B",
"M0@	c #5D6B2C",
"N0@	c #667533",
"O0@	c #788742",
"P0@	c #7E8D44",
"Q0@	c #7A8A3F",
"R0@	c #738238",
"S0@	c #728138",
"T0@	c #74823A",
"U0@	c #687734",
"V0@	c #516026",
"W0@	c #465321",
"X0@	c #515F26",
"Y0@	c #657432",
"Z0@	c #6D7D35",
"`0@	c #6C7B32",
" a@	c #657530",
".a@	c #647531",
"+a@	c #5C6A2C",
"@a@	c #556426",
"#a@	c #47501A",
"$a@	c #494B1D",
"%a@	c #47491D",
"&a@	c #44471A",
"*a@	c #4B501E",
"=a@	c #575F28",
"-a@	c #626E30",
";a@	c #62702F",
">a@	c #637230",
",a@	c #64732F",
"'a@	c #63742E",
")a@	c #64772F",
"!a@	c #65742F",
"~a@	c #6D7C34",
"{a@	c #6A792E",
"]a@	c #6B7A2F",
"^a@	c #63732B",
"/a@	c #536120",
"(a@	c #4B5A1D",
"_a@	c #53602B",
":a@	c #454F23",
"<a@	c #2C3313",
"[a@	c #242814",
"}a@	c #26271C",
"|a@	c #1E1E17",
"1a@	c #0F0F09",
"2a@	c #110E08",
"3a@	c #201C15",
"4a@	c #443935",
"5a@	c #45372E",
"6a@	c #4F3C30",
"7a@	c #61503F",
"8a@	c #675847",
"9a@	c #70624E",
"0a@	c #1C1310",
"aa@	c #231812",
"ba@	c #797264",
"ca@	c #8D8171",
"da@	c #8D806E",
"ea@	c #514740",
"fa@	c #5D554A",
"ga@	c #53493D",
"ha@	c #020403",
"ia@	c #201E0E",
"ja@	c #514E25",
"ka@	c #585722",
"la@	c #56581F",
"ma@	c #575C24",
"na@	c #535B24",
"oa@	c #545F26",
"pa@	c #525D26",
"qa@	c #515D24",
"ra@	c #4A561D",
"sa@	c #4D571C",
"ta@	c #596023",
"ua@	c #686F33",
"va@	c #73783F",
"wa@	c #7D8044",
"xa@	c #808447",
"ya@	c #858B4E",
"za@	c #7F864C",
"Aa@	c #6A7B3B",
"Ba@	c #4E661F",
"Ca@	c #435B14",
"Da@	c #405712",
"Ea@	c #49621B",
"Fa@	c #546420",
"Ga@	c #646D29",
"Ha@	c #686025",
"Ia@	c #5E4316",
"Ja@	c #562C0D",
"Ka@	c #592911",
"La@	c #593114",
"Ma@	c #523813",
"Na@	c #474015",
"Oa@	c #3E4818",
"Pa@	c #394C1C",
"Qa@	c #3F5124",
"Ra@	c #4E5636",
"Sa@	c #5D5F45",
"Ta@	c #686451",
"Ua@	c #6B6554",
"Va@	c #6B6855",
"Wa@	c #615B4A",
"Xa@	c #5B5447",
"Ya@	c #716757",
"Za@	c #6F8039",
"`a@	c #6B7B39",
" b@	c #5F6E31",
".b@	c #535F28",
"+b@	c #545F2A",
"@b@	c #58622E",
"#b@	c #5A6430",
"$b@	c #58642D",
"%b@	c #5C682F",
"&b@	c #626D34",
"*b@	c #657137",
"=b@	c #616F33",
"-b@	c #616E36",
";b@	c #627039",
">b@	c #606F37",
",b@	c #606F35",
"'b@	c #5E6D32",
")b@	c #5E6D30",
"!b@	c #5C6B2F",
"~b@	c #5D6B30",
"{b@	c #5F6D30",
"]b@	c #687735",
"^b@	c #788841",
"/b@	c #7D8D43",
"(b@	c #78893D",
"_b@	c #738337",
":b@	c #768539",
"<b@	c #79883D",
"[b@	c #536427",
"}b@	c #475822",
"|b@	c #465721",
"1b@	c #516126",
"2b@	c #657634",
"3b@	c #6F8038",
"4b@	c #6E8036",
"5b@	c #6D8036",
"6b@	c #687A34",
"7b@	c #687C36",
"8b@	c #657535",
"9b@	c #5D6D2F",
"0b@	c #4F5922",
"ab@	c #4D5221",
"bb@	c #4E4E22",
"cb@	c #4E4C23",
"db@	c #4B4B21",
"eb@	c #525427",
"fb@	c #677137",
"gb@	c #667435",
"hb@	c #697A35",
"ib@	c #687934",
"jb@	c #6B7E37",
"kb@	c #6A7B35",
"lb@	c #677631",
"mb@	c #707F38",
"nb@	c #75853B",
"ob@	c #738339",
"pb@	c #6E7E36",
"qb@	c #6E7E35",
"rb@	c #6D7B32",
"sb@	c #6F8033",
"tb@	c #66772E",
"ub@	c #576624",
"vb@	c #516023",
"wb@	c #59682E",
"xb@	c #5B6A34",
"yb@	c #4D592C",
"zb@	c #2F3421",
"Ab@	c #303128",
"Bb@	c #22241F",
"Cb@	c #0B0D0A",
"Db@	c #423733",
"Eb@	c #423326",
"Fb@	c #473628",
"Gb@	c #594937",
"Hb@	c #5A4A39",
"Ib@	c #5A4C3C",
"Jb@	c #615543",
"Kb@	c #6E624E",
"Lb@	c #716552",
"Mb@	c #6C6452",
"Nb@	c #201A16",
"Ob@	c #7A6B5B",
"Pb@	c #5E5143",
"Qb@	c #564C3E",
"Rb@	c #131516",
"Sb@	c #262513",
"Tb@	c #515229",
"Ub@	c #575D28",
"Vb@	c #535924",
"Wb@	c #545C26",
"Xb@	c #505C23",
"Yb@	c #506123",
"Zb@	c #515F23",
"`b@	c #4B581C",
" c@	c #4C571B",
".c@	c #535D1F",
"+c@	c #5C6629",
"@c@	c #626932",
"#c@	c #72773F",
"$c@	c #7E8348",
"%c@	c #7B7F46",
"&c@	c #6C743C",
"*c@	c #5B6C2C",
"=c@	c #4C621E",
"-c@	c #4C5F1F",
";c@	c #495C1E",
">c@	c #495E1D",
",c@	c #4B581A",
"'c@	c #565D20",
")c@	c #5D521E",
"!c@	c #5A3E16",
"~c@	c #562C11",
"{c@	c #582A13",
"]c@	c #4E3A14",
"^c@	c #434115",
"/c@	c #3D4C19",
"(c@	c #394F1D",
"_c@	c #3D5122",
":c@	c #44532A",
"<c@	c #4F5935",
"[c@	c #5A5C3F",
"}c@	c #636049",
"|c@	c #645E4C",
"1c@	c #605B4A",
"2c@	c #5D5947",
"3c@	c #565043",
"4c@	c #7C7060",
"5c@	c #5B5550",
"6c@	c #5D5853",
"7c@	c #6B7C35",
"8c@	c #6B7A37",
"9c@	c #5C692C",
"0c@	c #545F28",
"ac@	c #535E26",
"bc@	c #556026",
"cc@	c #586429",
"dc@	c #5D6A2E",
"ec@	c #59662C",
"fc@	c #536028",
"gc@	c #525F2A",
"hc@	c #54622F",
"ic@	c #525F2E",
"jc@	c #525F2D",
"kc@	c #505D2A",
"lc@	c #4E5B27",
"mc@	c #4F5B26",
"nc@	c #505B25",
"oc@	c #5E6C2D",
"pc@	c #6F7E3A",
"qc@	c #73823B",
"rc@	c #65752B",
"sc@	c #64732A",
"tc@	c #66762D",
"uc@	c #5F702B",
"vc@	c #506125",
"wc@	c #455620",
"xc@	c #4D5E23",
"yc@	c #5E6F2F",
"zc@	c #677933",
"Ac@	c #65772F",
"Bc@	c #64762E",
"Cc@	c #61722D",
"Dc@	c #60712E",
"Ec@	c #616F30",
"Fc@	c #5A672C",
"Gc@	c #4C521F",
"Hc@	c #47471A",
"Ic@	c #433C17",
"Jc@	c #413918",
"Kc@	c #403718",
"Lc@	c #443D1C",
"Mc@	c #4A4823",
"Nc@	c #515427",
"Oc@	c #535A28",
"Pc@	c #5B662C",
"Qc@	c #616E30",
"Rc@	c #667434",
"Sc@	c #697937",
"Tc@	c #6A7A37",
"Uc@	c #5D6B2A",
"Vc@	c #657431",
"Wc@	c #6A7937",
"Xc@	c #65732C",
"Yc@	c #68782D",
"Zc@	c #627229",
"`c@	c #52601F",
" d@	c #49581C",
".d@	c #4F5E26",
"+d@	c #515F2C",
"@d@	c #445027",
"#d@	c #2F361B",
"$d@	c #262B1B",
"%d@	c #242720",
"&d@	c #161916",
"*d@	c #43352A",
"=d@	c #3F3020",
"-d@	c #4D3D2C",
";d@	c #564837",
">d@	c #655543",
",d@	c #6A5642",
"'d@	c #6A5644",
")d@	c #655140",
"!d@	c #63523E",
"~d@	c #666054",
"{d@	c #645948",
"]d@	c #6F6453",
"^d@	c #7B705F",
"/d@	c #2D2B1D",
"(d@	c #434325",
"_d@	c #424921",
":d@	c #495820",
"<d@	c #516123",
"[d@	c #525F22",
"}d@	c #4D5A1E",
"|d@	c #485318",
"1d@	c #4A5017",
"2d@	c #53571C",
"3d@	c #53581E",
"4d@	c #535A24",
"5d@	c #676C36",
"6d@	c #787943",
"7d@	c #72723C",
"8d@	c #5C622A",
"9d@	c #515E1F",
"0d@	c #556425",
"ad@	c #5B692D",
"bd@	c #4F5B21",
"cd@	c #494E19",
"dd@	c #4E4D1A",
"ed@	c #554518",
"fd@	c #583815",
"gd@	c #562A10",
"hd@	c #543114",
"id@	c #4D3D14",
"jd@	c #424314",
"kd@	c #3C4D18",
"ld@	c #39511A",
"md@	c #3F5421",
"nd@	c #445326",
"od@	c #4D542D",
"pd@	c #535134",
"qd@	c #564F3A",
"rd@	c #524738",
"sd@	c #504839",
"td@	c #4E4637",
"ud@	c #504A3A",
"vd@	c #504A3E",
"wd@	c #7D7362",
"xd@	c #635C4F",
"yd@	c #625A51",
"zd@	c #6C7D35",
"Ad@	c #4C5822",
"Bd@	c #535E28",
"Cd@	c #566029",
"Dd@	c #545F24",
"Ed@	c #586328",
"Fd@	c #566229",
"Gd@	c #4B5721",
"Hd@	c #3A441C",
"Id@	c #38411A",
"Jd@	c #414B1D",
"Kd@	c #46501D",
"Ld@	c #576429",
"Md@	c #6D7C3A",
"Nd@	c #72813D",
"Od@	c #6C7C37",
"Pd@	c #5E6E28",
"Qd@	c #51611E",
"Rd@	c #516221",
"Sd@	c #4C5C23",
"Td@	c #4A5A24",
"Ud@	c #475722",
"Vd@	c #48591F",
"Wd@	c #4D5E20",
"Xd@	c #556724",
"Yd@	c #556621",
"Zd@	c #566622",
"`d@	c #556424",
" e@	c #556227",
".e@	c #556029",
"+e@	c #4E5324",
"@e@	c #49471F",
"#e@	c #3F3617",
"$e@	c #3A2F15",
"%e@	c #342912",
"&e@	c #342B14",
"*e@	c #332D14",
"=e@	c #373517",
"-e@	c #3A3A1A",
";e@	c #41451D",
">e@	c #464E1F",
",e@	c #55602A",
"'e@	c #667537",
")e@	c #68783A",
"!e@	c #515F24",
"~e@	c #526125",
"{e@	c #546027",
"]e@	c #4E5A22",
"^e@	c #576522",
"/e@	c #5C6B27",
"(e@	c #4B591C",
"_e@	c #3F4E15",
":e@	c #3F4E19",
"<e@	c #343F1D",
"[e@	c #10140B",
"}e@	c #050807",
"|e@	c #40342E",
"1e@	c #443425",
"2e@	c #443423",
"3e@	c #4F402E",
"4e@	c #534635",
"5e@	c #433A36",
"6e@	c #585145",
"7e@	c #6E5944",
"8e@	c #6D5741",
"9e@	c #745E47",
"0e@	c #756047",
"ae@	c #736047",
"be@	c #64523E",
"ce@	c #544536",
"de@	c #7F7868",
"ee@	c #8A8270",
"fe@	c #8B816F",
"ge@	c #3E3532",
"he@	c #3D3534",
"ie@	c #383032",
"je@	c #2E2529",
"ke@	c #282124",
"le@	c #2F2C22",
"me@	c #2D2A1B",
"ne@	c #292A15",
"oe@	c #262A0F",
"pe@	c #333A13",
"qe@	c #576423",
"re@	c #4C5919",
"se@	c #444E10",
"te@	c #4A4E13",
"ue@	c #55551C",
"ve@	c #595722",
"we@	c #585B28",
"xe@	c #676C39",
"ye@	c #70733F",
"ze@	c #696F35",
"Ae@	c #505C1E",
"Be@	c #5F6C2D",
"Ce@	c #6E7A3A",
"De@	c #667436",
"Ee@	c #494B1A",
"Fe@	c #4D481B",
"Ge@	c #54421A",
"He@	c #573716",
"Ie@	c #562B10",
"Je@	c #582B13",
"Ke@	c #543215",
"Le@	c #4D4014",
"Me@	c #424714",
"Ne@	c #3B5016",
"Oe@	c #385216",
"Pe@	c #3F551D",
"Qe@	c #455222",
"Re@	c #4D5428",
"Se@	c #514E2C",
"Te@	c #4B402A",
"Ue@	c #392D20",
"Ve@	c #988C79",
"We@	c #696254",
"Xe@	c #554D47",
"Ye@	c #6E675E",
"Ze@	c #6E665F",
"`e@	c #6B7B34",
" f@	c #677634",
".f@	c #556428",
"+f@	c #48551E",
"@f@	c #56612C",
"#f@	c #58642B",
"$f@	c #586529",
"%f@	c #5C692B",
"&f@	c #5C692F",
"*f@	c #4F5A28",
"=f@	c #3D481F",
"-f@	c #333B18",
";f@	c #313918",
">f@	c #303817",
",f@	c #373F1D",
"'f@	c #3E4623",
")f@	c #424A25",
"!f@	c #424C23",
"~f@	c #58662E",
"{f@	c #708140",
"]f@	c #768643",
"^f@	c #70823E",
"/f@	c #5F702F",
"(f@	c #516222",
"_f@	c #4E6020",
":f@	c #516325",
"<f@	c #516329",
"[f@	c #50632A",
"}f@	c #4B5D26",
"|f@	c #46581F",
"1f@	c #495A1E",
"2f@	c #516322",
"3f@	c #576824",
"4f@	c #596A27",
"5f@	c #596929",
"6f@	c #58662B",
"7f@	c #58672C",
"8f@	c #525A27",
"9f@	c #4C4D22",
"0f@	c #3F3919",
"af@	c #393017",
"bf@	c #322A14",
"cf@	c #322C16",
"df@	c #302D17",
"ef@	c #36351E",
"ff@	c #393921",
"gf@	c #404324",
"hf@	c #454D25",
"if@	c #566230",
"jf@	c #67763B",
"kf@	c #6C7E40",
"lf@	c #6C7E41",
"mf@	c #66753D",
"nf@	c #55632E",
"of@	c #4E5A28",
"pf@	c #4E5928",
"qf@	c #4A581F",
"rf@	c #596728",
"sf@	c #627330",
"tf@	c #516025",
"uf@	c #40501A",
"vf@	c #3B4820",
"wf@	c #323B1F",
"xf@	c #141B0D",
"yf@	c #020503",
"zf@	c #554433",
"Af@	c #5B4D3D",
"Bf@	c #635851",
"Cf@	c #5A504A",
"Df@	c #413837",
"Ef@	c #3B3231",
"Ff@	c #725D47",
"Gf@	c #6F5940",
"Hf@	c #775F44",
"If@	c #7B6347",
"Jf@	c #796249",
"Kf@	c #65533E",
"Lf@	c #413629",
"Mf@	c #4E4744",
"Nf@	c #494443",
"Of@	c #837C6A",
"Pf@	c #827867",
"Qf@	c #726856",
"Rf@	c #675C4A",
"Sf@	c #473B34",
"Tf@	c #443631",
"Uf@	c #3F3132",
"Vf@	c #3A2F31",
"Wf@	c #2C2126",
"Xf@	c #251C20",
"Yf@	c #181D06",
"Zf@	c #313613",
"`f@	c #525C26",
" g@	c #596325",
".g@	c #525B1C",
"+g@	c #4B5414",
"@g@	c #414508",
"#g@	c #49450C",
"$g@	c #574C19",
"%g@	c #665E2E",
"&g@	c #68663A",
"*g@	c #707443",
"=g@	c #676F39",
"-g@	c #4E581E",
";g@	c #5D6B2D",
">g@	c #6B7838",
",g@	c #667236",
"'g@	c #48491B",
")g@	c #4B451A",
"!g@	c #53411B",
"~g@	c #563716",
"{g@	c #532B0F",
"]g@	c #562D12",
"^g@	c #523315",
"/g@	c #404912",
"(g@	c #394F13",
"_g@	c #355012",
":g@	c #3D5219",
"<g@	c #434D1E",
"[g@	c #4D4E24",
"}g@	c #504727",
"|g@	c #443521",
"1g@	c #291A11",
"2g@	c #2A1B11",
"3g@	c #5A5248",
"4g@	c #908471",
"5g@	c #7D7563",
"6g@	c #6C655C",
"7g@	c #706B61",
"8g@	c #615A55",
"9g@	c #4E4743",
"0g@	c #667634",
"ag@	c #536326",
"bg@	c #45531B",
"cg@	c #54602B",
"dg@	c #57632D",
"eg@	c #576428",
"fg@	c #617031",
"gg@	c #4D5928",
"hg@	c #414C22",
"ig@	c #3D4820",
"jg@	c #333B19",
"kg@	c #2F3616",
"lg@	c #363E1D",
"mg@	c #3E4625",
"ng@	c #434B27",
"og@	c #455024",
"pg@	c #56632E",
"qg@	c #6C7E3F",
"rg@	c #738442",
"sg@	c #6D803D",
"tg@	c #5D6F2E",
"ug@	c #4F6321",
"vg@	c #4E6221",
"wg@	c #526526",
"xg@	c #526529",
"yg@	c #52662B",
"zg@	c #4D6128",
"Ag@	c #475C21",
"Bg@	c #495D1E",
"Cg@	c #546725",
"Dg@	c #596B26",
"Eg@	c #5B6D28",
"Fg@	c #586A28",
"Gg@	c #5B6D2D",
"Hg@	c #55652A",
"Ig@	c #4C5422",
"Jg@	c #46481D",
"Kg@	c #383413",
"Lg@	c #322C11",
"Mg@	c #2E2A10",
"Ng@	c #2F2C13",
"Og@	c #2F2E19",
"Pg@	c #333820",
"Qg@	c #3B4322",
"Rg@	c #535F31",
"Sg@	c #68773F",
"Tg@	c #6C7F41",
"Ug@	c #6D8044",
"Vg@	c #687941",
"Wg@	c #566231",
"Xg@	c #4D5929",
"Yg@	c #4B5727",
"Zg@	c #4B5827",
"`g@	c #485623",
" h@	c #4E5C24",
".h@	c #5E6D2E",
"+h@	c #667A35",
"@h@	c #57692B",
"#h@	c #41521C",
"$h@	c #3A491A",
"%h@	c #3D4A23",
"&h@	c #151B0F",
"*h@	c #010504",
"=h@	c #6E5C47",
"-h@	c #76654F",
";h@	c #6E5F4E",
">h@	c #6E635A",
",h@	c #5F544D",
"'h@	c #443C3C",
")h@	c #4E4543",
"!h@	c #453C39",
"~h@	c #2D2624",
"{h@	c #68533E",
"]h@	c #675137",
"^h@	c #6F583C",
"/h@	c #755D42",
"(h@	c #725C45",
"_h@	c #604E3A",
":h@	c #3D372C",
"<h@	c #524E41",
"[h@	c #70685A",
"}h@	c #625849",
"|h@	c #5E5646",
"1h@	c #6A6254",
"2h@	c #7A7468",
"3h@	c #160F0A",
"4h@	c #1C1510",
"5h@	c #554C43",
"6h@	c #4E3F35",
"7h@	c #4D3C35",
"8h@	c #4E403A",
"9h@	c #443635",
"0h@	c #3C3032",
"ah@	c #2D2326",
"bh@	c #241C20",
"ch@	c #121307",
"dh@	c #444723",
"eh@	c #595F29",
"fh@	c #596423",
"gh@	c #4C5217",
"hh@	c #46480F",
"ih@	c #463F0C",
"jh@	c #503F11",
"kh@	c #5B4519",
"lh@	c #69592D",
"mh@	c #68613A",
"nh@	c #6C7142",
"oh@	c #5F6B33",
"ph@	c #4F5D21",
"qh@	c #4C581F",
"rh@	c #57682A",
"sh@	c #616F32",
"th@	c #515C26",
"uh@	c #494C1D",
"vh@	c #4E491D",
"wh@	c #55461E",
"xh@	c #563D19",
"yh@	c #533212",
"zh@	c #533114",
"Ah@	c #4D3514",
"Bh@	c #484413",
"Ch@	c #3D4A12",
"Dh@	c #395214",
"Eh@	c #375414",
"Fh@	c #3A4F17",
"Gh@	c #3C4318",
"Hh@	c #46411F",
"Ih@	c #4A3D23",
"Jh@	c #3F2E1E",
"Kh@	c #2B1A10",
"Lh@	c #27160E",
"Mh@	c #322519",
"Nh@	c #665D4D",
"Oh@	c #625C4F",
"Ph@	c #6D645B",
"Qh@	c #667531",
"Rh@	c #627132",
"Sh@	c #4F5D24",
"Th@	c #3F4B18",
"Uh@	c #445022",
"Vh@	c #455022",
"Wh@	c #434F1F",
"Xh@	c #48541D",
"Yh@	c #566429",
"Zh@	c #4D5A24",
"`h@	c #36411A",
" i@	c #37411D",
".i@	c #343B1A",
"+i@	c #333A19",
"@i@	c #313819",
"#i@	c #394023",
"$i@	c #3C4425",
"%i@	c #3C4523",
"&i@	c #3E4821",
"*i@	c #4E5B2A",
"=i@	c #67783C",
"-i@	c #6E8040",
";i@	c #687B3A",
">i@	c #586C2A",
",i@	c #4D611F",
"'i@	c #4B601E",
")i@	c #4F6324",
"!i@	c #51652B",
"~i@	c #51662E",
"{i@	c #4A6028",
"]i@	c #43591E",
"^i@	c #485B1D",
"/i@	c #5B6D29",
"(i@	c #596B27",
"_i@	c #546228",
":i@	c #505D26",
"<i@	c #474F1E",
"[i@	c #363510",
"}i@	c #322F0F",
"|i@	c #302F10",
"1i@	c #343418",
"2i@	c #31311E",
"3i@	c #222418",
"4i@	c #14170E",
"5i@	c #1C230D",
"6i@	c #444D28",
"7i@	c #64703E",
"8i@	c #687A40",
"9i@	c #67763F",
"0i@	c #5B6A37",
"ai@	c #455124",
"bi@	c #5A682C",
"ci@	c #667733",
"di@	c #647734",
"ei@	c #54662B",
"fi@	c #404F1E",
"gi@	c #39481C",
"hi@	c #3A4722",
"ii@	c #323D22",
"ji@	c #141B0F",
"ki@	c #030508",
"li@	c #7D6A55",
"mi@	c #63584B",
"ni@	c #4D423C",
"oi@	c #372E28",
"pi@	c #1B130E",
"qi@	c #413839",
"ri@	c #483F3F",
"si@	c #5A4A3A",
"ti@	c #614D39",
"ui@	c #644E37",
"vi@	c #69543B",
"wi@	c #64503B",
"xi@	c #65584B",
"yi@	c #5E5753",
"zi@	c #534C48",
"Ai@	c #4E4A3D",
"Bi@	c #675F52",
"Ci@	c #766E61",
"Di@	c #53453C",
"Ei@	c #4D4037",
"Fi@	c #544841",
"Gi@	c #18100B",
"Hi@	c #463731",
"Ii@	c #433531",
"Ji@	c #3A2F2E",
"Ki@	c #33292B",
"Li@	c #281F22",
"Mi@	c #1F1E18",
"Ni@	c #1C1C0F",
"Oi@	c #31321C",
"Pi@	c #4F4F2E",
"Qi@	c #505424",
"Ri@	c #495019",
"Si@	c #424411",
"Ti@	c #403A0D",
"Ui@	c #47360F",
"Vi@	c #573B17",
"Wi@	c #573A17",
"Xi@	c #59421F",
"Yi@	c #524725",
"Zi@	c #54582D",
"`i@	c #4D591F",
" j@	c #46501A",
".j@	c #4F6124",
"+j@	c #596A2B",
"@j@	c #5A692C",
"#j@	c #4F5A24",
"$j@	c #4A4F1F",
"%j@	c #4D4D20",
"&j@	c #554C23",
"*j@	c #55461F",
"=j@	c #4E3915",
"-j@	c #4B3512",
";j@	c #463A14",
">j@	c #414614",
",j@	c #3B4C13",
"'j@	c #3D5318",
")j@	c #3C5519",
"!j@	c #344314",
"~j@	c #27250A",
"{j@	c #2A1E0D",
"]j@	c #301F12",
"^j@	c #2E1A12",
"/j@	c #28140F",
"(j@	c #28170F",
"_j@	c #29170E",
":j@	c #2E1F14",
"<j@	c #31241D",
"[j@	c #64594F",
"}j@	c #766C62",
"|j@	c #786F68",
"1j@	c #635C56",
"2j@	c #292019",
"3j@	c #2C221A",
"4j@	c #667633",
"5j@	c #606F31",
"6j@	c #4F5D25",
"7j@	c #3D4819",
"8j@	c #3A4519",
"9j@	c #39441B",
"0j@	c #37411A",
"aj@	c #364117",
"bj@	c #525F26",
"cj@	c #313D13",
"dj@	c #2A3512",
"ej@	c #2F3918",
"fj@	c #323818",
"gj@	c #34391A",
"hj@	c #303417",
"ij@	c #2F341B",
"jj@	c #2F351C",
"kj@	c #2E3319",
"lj@	c #2F3615",
"mj@	c #5B6C32",
"nj@	c #637434",
"oj@	c #5E712E",
"pj@	c #546723",
"qj@	c #4F621F",
"rj@	c #506320",
"sj@	c #4F6223",
"tj@	c #475A23",
"uj@	c #425624",
"vj@	c #3C501F",
"wj@	c #3D511A",
"xj@	c #4E6123",
"yj@	c #5D702C",
"zj@	c #61752E",
"Aj@	c #5C6F2B",
"Bj@	c #505F25",
"Cj@	c #495620",
"Dj@	c #4A5720",
"Ej@	c #4A5420",
"Fj@	c #474D1D",
"Gj@	c #3E4115",
"Hj@	c #3C3E14",
"Ij@	c #3A3D16",
"Jj@	c #3E421E",
"Kj@	c #353822",
"Lj@	c #1E2117",
"Mj@	c #0C1104",
"Nj@	c #626F3D",
"Oj@	c #66793E",
"Pj@	c #62733B",
"Qj@	c #515F2E",
"Rj@	c #313C15",
"Sj@	c #3B461D",
"Tj@	c #475227",
"Uj@	c #4B5828",
"Vj@	c #516027",
"Wj@	c #566527",
"Xj@	c #5F722C",
"Yj@	c #5D712E",
"Zj@	c #53652A",
"`j@	c #41511F",
" k@	c #394621",
".k@	c #343F23",
"+k@	c #181E11",
"@k@	c #080B0D",
"#k@	c #181815",
"$k@	c #746551",
"%k@	c #6C6253",
"&k@	c #4C413C",
"*k@	c #413732",
"=k@	c #382D24",
"-k@	c #2E2728",
";k@	c #312929",
">k@	c #64513B",
",k@	c #68543D",
"'k@	c #6B5941",
")k@	c #5B4D3B",
"!k@	c #807364",
"~k@	c #706A61",
"{k@	c #787265",
"]k@	c #545044",
"^k@	c #585347",
"/k@	c #6F695A",
"(k@	c #6F695B",
"_k@	c #6E675A",
":k@	c #81796C",
"<k@	c #8D8577",
"[k@	c #796B5E",
"}k@	c #736357",
"|k@	c #6E5D50",
"1k@	c #6D5C50",
"2k@	c #77685C",
"3k@	c #312725",
"4k@	c #2A2222",
"5k@	c #221A1E",
"6k@	c #221B1F",
"7k@	c #29281B",
"8k@	c #32321F",
"9k@	c #3C3D21",
"0k@	c #383D18",
"ak@	c #30360F",
"bk@	c #2F2F0B",
"ck@	c #3B340F",
"dk@	c #473514",
"ek@	c #583B1A",
"fk@	c #563718",
"gk@	c #4F3718",
"hk@	c #453B1A",
"ik@	c #474920",
"jk@	c #4D5723",
"kk@	c #515C21",
"lk@	c #4C581C",
"mk@	c #4F5F20",
"nk@	c #4F6122",
"ok@	c #556728",
"pk@	c #566629",
"qk@	c #556229",
"rk@	c #595C2B",
"sk@	c #575726",
"tk@	c #4C4A1A",
"uk@	c #464617",
"vk@	c #434818",
"wk@	c #3F541A",
"xk@	c #445E21",
"yk@	c #475D23",
"zk@	c #37421A",
"Ak@	c #1A1606",
"Bk@	c #1D0F08",
"Ck@	c #24120D",
"Dk@	c #2D1A12",
"Ek@	c #2E1B13",
"Fk@	c #2C2119",
"Gk@	c #473A32",
"Hk@	c #625851",
"Ik@	c #6E655E",
"Jk@	c #847C73",
"Kk@	c #5E6C31",
"Lk@	c #3B4619",
"Mk@	c #36411C",
"Nk@	c #343E1A",
"Ok@	c #333E17",
"Pk@	c #4C5723",
"Qk@	c #424E1C",
"Rk@	c #2E3812",
"Sk@	c #283111",
"Tk@	c #2F3717",
"Uk@	c #353A19",
"Vk@	c #363A1A",
"Wk@	c #34361A",
"Xk@	c #33371C",
"Yk@	c #30321C",
"Zk@	c #2F321D",
"`k@	c #2A3013",
" l@	c #3C471B",
".l@	c #59672F",
"+l@	c #607030",
"@l@	c #5B6D2A",
"#l@	c #576A24",
"$l@	c #5B6D27",
"%l@	c #5E6F2A",
"&l@	c #546426",
"*l@	c #3A4A18",
"=l@	c #2D3D13",
"-l@	c #2C3C13",
";l@	c #374617",
">l@	c #516127",
",l@	c #60722F",
"'l@	c #60722D",
")l@	c #5C6D2B",
"!l@	c #47531D",
"~l@	c #424E19",
"{l@	c #546029",
"]l@	c #4C5521",
"^l@	c #474F1D",
"/l@	c #41471A",
"(l@	c #3E441C",
"_l@	c #353922",
":l@	c #1E2017",
"<l@	c #0B0E05",
"[l@	c #3C4324",
"}l@	c #5E6A39",
"|l@	c #5F7136",
"1l@	c #5D6D36",
"2l@	c #3D4821",
"3l@	c #4E5A2F",
"4l@	c #505C2D",
"5l@	c #526028",
"6l@	c #4F5E22",
"7l@	c #556723",
"8l@	c #556727",
"9l@	c #4F5F28",
"0l@	c #3D4B1B",
"al@	c #334016",
"bl@	c #37431F",
"cl@	c #343E23",
"dl@	c #191F11",
"el@	c #514539",
"fl@	c #776756",
"gl@	c #6B5F53",
"hl@	c #312824",
"il@	c #6C6154",
"jl@	c #544738",
"kl@	c #64523F",
"ll@	c #84776B",
"ml@	c #827768",
"nl@	c #7B7064",
"ol@	c #71665D",
"pl@	c #6B645D",
"ql@	c #766D64",
"rl@	c #70675D",
"sl@	c #585049",
"tl@	c #797164",
"ul@	c #898072",
"vl@	c #7A7266",
"wl@	c #6E675B",
"xl@	c #786A5F",
"yl@	c #756559",
"zl@	c #79675B",
"Al@	c #78685C",
"Bl@	c #7E6F63",
"Cl@	c #7F7269",
"Dl@	c #5D524C",
"El@	c #1E181D",
"Fl@	c #2C2D1E",
"Gl@	c #282A17",
"Hl@	c #1E230B",
"Il@	c #1E240A",
"Jl@	c #1E1D08",
"Kl@	c #312A11",
"Ll@	c #433117",
"Ml@	c #53361A",
"Nl@	c #55371B",
"Ol@	c #4F371C",
"Pl@	c #453A1B",
"Ql@	c #45461F",
"Rl@	c #4E5825",
"Sl@	c #525D23",
"Tl@	c #4F5B1F",
"Ul@	c #4F5D20",
"Vl@	c #536425",
"Wl@	c #58692A",
"Xl@	c #59682C",
"Yl@	c #5C6A2F",
"Zl@	c #5A672E",
"`l@	c #5E6A31",
" m@	c #555F2A",
".m@	c #48531D",
"+m@	c #424D18",
"@m@	c #43511D",
"#m@	c #465B22",
"$m@	c #425A1F",
"%m@	c #475E21",
"&m@	c #4B5E25",
"*m@	c #1C1A07",
"=m@	c #140C03",
"-m@	c #1A1006",
";m@	c #22120B",
">m@	c #27130F",
",m@	c #2C1812",
"'m@	c #2D1D13",
")m@	c #554A44",
"!m@	c #493F39",
"~m@	c #423C32",
"{m@	c #635A50",
"]m@	c #554C46",
"^m@	c #887F76",
"/m@	c #726A66",
"(m@	c #2D221B",
"_m@	c #5C6B31",
":m@	c #4B5823",
"<m@	c #3B4718",
"[m@	c #39441E",
"}m@	c #39441F",
"|m@	c #404D1E",
"1m@	c #424F1D",
"2m@	c #303A14",
"3m@	c #2B3413",
"4m@	c #313916",
"5m@	c #373C19",
"6m@	c #393D1D",
"7m@	c #383B1E",
"8m@	c #373B21",
"9m@	c #343621",
"0m@	c #333621",
"am@	c #2E321C",
"bm@	c #2C3315",
"cm@	c #5B6B31",
"dm@	c #627530",
"em@	c #5C7029",
"fm@	c #5A6E26",
"gm@	c #61742A",
"hm@	c #66782E",
"im@	c #586B2A",
"jm@	c #384817",
"km@	c #2B3B14",
"lm@	c #384619",
"mm@	c #526228",
"nm@	c #627431",
"om@	c #62732E",
"pm@	c #5D6E2B",
"qm@	c #414F19",
"rm@	c #47541D",
"sm@	c #55622A",
"tm@	c #4D5922",
"um@	c #414A1A",
"vm@	c #3E471E",
"wm@	c #0D0F06",
"xm@	c #5C6A37",
"ym@	c #5D7034",
"zm@	c #5B6B33",
"Am@	c #4C5728",
"Bm@	c #424D25",
"Cm@	c #505C2F",
"Dm@	c #55632C",
"Em@	c #536027",
"Fm@	c #5B6C2A",
"Gm@	c #596B2B",
"Hm@	c #506029",
"Im@	c #3C4B1B",
"Jm@	c #36411E",
"Km@	c #353E23",
"Lm@	c #1D2213",
"Mm@	c #5A4D3E",
"Nm@	c #5F5344",
"Om@	c #7F7366",
"Pm@	c #57514B",
"Qm@	c #3F3630",
"Rm@	c #6F6359",
"Sm@	c #6F645A",
"Tm@	c #726962",
"Um@	c #3A3536",
"Vm@	c #2B2D22",
"Wm@	c #212317",
"Xm@	c #13170A",
"Ym@	c #181B0C",
"Zm@	c #282613",
"`m@	c #3C2D18",
" n@	c #51371E",
".n@	c #553A1F",
"+n@	c #553F23",
"@n@	c #4B4021",
"#n@	c #4C4E24",
"$n@	c #516020",
"%n@	c #536424",
"&n@	c #576828",
"*n@	c #58692B",
"=n@	c #5B6C2D",
"-n@	c #58662C",
";n@	c #56632B",
">n@	c #505E25",
",n@	c #424F19",
"'n@	c #44541D",
")n@	c #475D22",
"!n@	c #445B1F",
"~n@	c #475E20",
"{n@	c #495C21",
"]n@	c #3D4818",
"^n@	c #2A2B09",
"/n@	c #2A250B",
"(n@	c #2F2610",
"_n@	c #2B1F0F",
":n@	c #25170D",
"<n@	c #281911",
"[n@	c #2A1911",
"}n@	c #2D1E14",
"|n@	c #504843",
"1n@	c #443F34",
"2n@	c #625A53",
"3n@	c #776C64",
"4n@	c #796F63",
"5n@	c #887D73",
"6n@	c #867D76",
"7n@	c #69625F",
"8n@	c #241B14",
"9n@	c #5A692F",
"0n@	c #374215",
"an@	c #343E15",
"bn@	c #37421D",
"cn@	c #374220",
"dn@	c #37421E",
"en@	c #4A5722",
"fn@	c #4B5A21",
"gn@	c #414E1D",
"hn@	c #313B17",
"in@	c #2F3716",
"jn@	c #2E3117",
"kn@	c #2B2C18",
"ln@	c #2B2C1C",
"mn@	c #2C2E1E",
"nn@	c #2F3221",
"on@	c #2D321E",
"pn@	c #2B3217",
"qn@	c #3B471E",
"rn@	c #5A6931",
"sn@	c #617331",
"tn@	c #5A6E29",
"un@	c #586C27",
"vn@	c #60732C",
"wn@	c #63772E",
"xn@	c #546829",
"yn@	c #364617",
"zn@	c #293814",
"An@	c #2B3A17",
"Bn@	c #36451A",
"Cn@	c #4C5D25",
"Dn@	c #5C6E2E",
"En@	c #5F6F2D",
"Fn@	c #576827",
"Gn@	c #4D5B22",
"Hn@	c #4A5621",
"In@	c #434E1B",
"Jn@	c #46531D",
"Kn@	c #495522",
"Ln@	c #4A5723",
"Mn@	c #43501E",
"Nn@	c #3B4419",
"On@	c #2F351F",
"Pn@	c #1C1F17",
"Qn@	c #3A4323",
"Rn@	c #586633",
"Sn@	c #586A2F",
"Tn@	c #55642E",
"Un@	c #485325",
"Vn@	c #39421A",
"Wn@	c #373F1B",
"Xn@	c #404723",
"Yn@	c #465028",
"Zn@	c #465322",
"`n@	c #59692D",
" o@	c #4E5E29",
".o@	c #3A471B",
"+o@	c #2F3B15",
"@o@	c #333C1D",
"#o@	c #1F2316",
"$o@	c #10110F",
"%o@	c #766C5E",
"&o@	c #272122",
"*o@	c #6B6357",
"=o@	c #635D55",
"-o@	c #4E4338",
";o@	c #716454",
">o@	c #504944",
",o@	c #302B2D",
"'o@	c #292427",
")o@	c #40393B",
"!o@	c #24241C",
"~o@	c #16170F",
"{o@	c #1F1D0E",
"]o@	c #372A18",
"^o@	c #563C22",
"/o@	c #564225",
"(o@	c #524726",
"_o@	c #525327",
":o@	c #586227",
"<o@	c #5B6624",
"[o@	c #56621E",
"}o@	c #53601F",
"|o@	c #4D5B1E",
"1o@	c #506122",
"2o@	c #4E5D21",
"3o@	c #4B561D",
"4o@	c #4A571B",
"5o@	c #424F16",
"6o@	c #414D16",
"7o@	c #445219",
"8o@	c #45581C",
"9o@	c #415316",
"0o@	c #455417",
"ao@	c #465114",
"bo@	c #474B11",
"co@	c #504F18",
"do@	c #4E481C",
"eo@	c #352E12",
"fo@	c #1D1508",
"go@	c #1D120B",
"ho@	c #21150E",
"io@	c #281D15",
"jo@	c #6A5F57",
"ko@	c #776B62",
"lo@	c #7A6F63",
"mo@	c #7F7469",
"no@	c #7C716A",
"oo@	c #6C625E",
"po@	c #1B120D",
"qo@	c #58672F",
"ro@	c #53632E",
"so@	c #323D14",
"to@	c #313D18",
"uo@	c #323C1C",
"vo@	c #3E4A1E",
"wo@	c #4A5921",
"xo@	c #42501E",
"yo@	c #353F1B",
"zo@	c #2E3515",
"Ao@	c #25290E",
"Bo@	c #131305",
"Co@	c #12120B",
"Do@	c #25271B",
"Eo@	c #282C1C",
"Fo@	c #272E14",
"Go@	c #3A471E",
"Ho@	c #5A6B32",
"Io@	c #617432",
"Jo@	c #556928",
"Ko@	c #4B5F1E",
"Lo@	c #4E6021",
"Mo@	c #506223",
"No@	c #495921",
"Oo@	c #38471B",
"Po@	c #303F1A",
"Qo@	c #32401E",
"Ro@	c #37471D",
"So@	c #41501E",
"To@	c #506025",
"Uo@	c #536324",
"Vo@	c #55622B",
"Wo@	c #515D28",
"Xo@	c #4C5A22",
"Yo@	c #333F13",
"Zo@	c #313B14",
"`o@	c #323B1B",
" p@	c #2E3521",
".p@	c #1D2018",
"+p@	c #394323",
"@p@	c #566532",
"#p@	c #586B30",
"$p@	c #39411E",
"%p@	c #3D4422",
"&p@	c #3C4421",
"*p@	c #384318",
"=p@	c #4D5C24",
"-p@	c #222619",
";p@	c #5D5348",
">p@	c #534F4D",
",p@	c #544B45",
"'p@	c #483E36",
")p@	c #594F46",
"!p@	c #897966",
"~p@	c #8E7C68",
"{p@	c #857661",
"]p@	c #7A6B59",
"^p@	c #65594B",
"/p@	c #605B56",
"(p@	c #332D2F",
"_p@	c #433D3E",
":p@	c #11130B",
"<p@	c #19180C",
"[p@	c #342B18",
"}p@	c #4F3B22",
"|p@	c #584326",
"1p@	c #544424",
"2p@	c #4E4723",
"3p@	c #535626",
"4p@	c #5F692A",
"5p@	c #6B722C",
"6p@	c #69712A",
"7p@	c #5C6622",
"8p@	c #4C591A",
"9p@	c #4B5A1C",
"0p@	c #475518",
"ap@	c #465618",
"bp@	c #475718",
"cp@	c #4A591A",
"dp@	c #475317",
"ep@	c #475415",
"fp@	c #455214",
"gp@	c #475618",
"hp@	c #445719",
"ip@	c #3D4F13",
"jp@	c #3E4F12",
"kp@	c #424F11",
"lp@	c #4D5813",
"mp@	c #545D12",
"np@	c #5D6318",
"op@	c #535519",
"pp@	c #34330E",
"qp@	c #191405",
"rp@	c #150F08",
"sp@	c #1F1711",
"tp@	c #5B524A",
"up@	c #61564D",
"vp@	c #7A6D65",
"wp@	c #675B56",
"xp@	c #1A161B",
"yp@	c #1E1614",
"zp@	c #1B120F",
"Ap@	c #56632F",
"Bp@	c #52602E",
"Cp@	c #2D3810",
"Dp@	c #303B19",
"Ep@	c #303A17",
"Fp@	c #384418",
"Gp@	c #434E1C",
"Hp@	c #404C1D",
"Ip@	c #333D1A",
"Jp@	c #22260D",
"Kp@	c #0C0B03",
"Lp@	c #21231A",
"Mp@	c #232C12",
"Np@	c #37451B",
"Op@	c #586830",
"Pp@	c #617131",
"Qp@	c #3D4D16",
"Rp@	c #3D4B17",
"Sp@	c #3B4819",
"Tp@	c #344019",
"Up@	c #323E1D",
"Vp@	c #36451D",
"Wp@	c #384718",
"Xp@	c #45561D",
"Yp@	c #4C5C1F",
"Zp@	c #536325",
"`p@	c #57642C",
" q@	c #5B6831",
".q@	c #4D5B25",
"+q@	c #384517",
"@q@	c #2B3412",
"#q@	c #2E3619",
"$q@	c #2B311F",
"%q@	c #1C1E18",
"&q@	c #0D1106",
"*q@	c #37401F",
"=q@	c #4D5C26",
"-q@	c #38421A",
";q@	c #38411F",
">q@	c #3A4120",
",q@	c #343E18",
"'q@	c #434F1C",
")q@	c #485524",
"!q@	c #3A451C",
"~q@	c #2F3815",
"{q@	c #323A1C",
"]q@	c #343A22",
"^q@	c #222519",
"/q@	c #171915",
"(q@	c #463E3B",
"_q@	c #424042",
":q@	c #4E4D4E",
"<q@	c #5A5049",
"[q@	c #5F564C",
"}q@	c #28272C",
"|q@	c #50453D",
"1q@	c #887864",
"2q@	c #746755",
"3q@	c #5E5952",
"4q@	c #444343",
"5q@	c #403C3E",
"6q@	c #10110A",
"7q@	c #0A0A05",
"8q@	c #17160B",
"9q@	c #322D19",
"0q@	c #493D23",
"aq@	c #4F4223",
"bq@	c #4D4422",
"cq@	c #46441E",
"dq@	c #4A511E",
"eq@	c #626C2B",
"fq@	c #7F843C",
"gq@	c #80863B",
"hq@	c #6A752D",
"iq@	c #4F5D1C",
"jq@	c #435217",
"kq@	c #415114",
"lq@	c #435416",
"mq@	c #475719",
"nq@	c #485519",
"oq@	c #495519",
"pq@	c #475417",
"qq@	c #4A5918",
"rq@	c #455416",
"sq@	c #435619",
"tq@	c #404F16",
"uq@	c #434E15",
"vq@	c #4E5915",
"wq@	c #515A0F",
"xq@	c #565D12",
"yq@	c #4B5214",
"zq@	c #30310A",
"Aq@	c #181504",
"Bq@	c #151207",
"Cq@	c #151008",
"Dq@	c #2B2627",
"Eq@	c #645A51",
"Fq@	c #695E56",
"Gq@	c #665B54",
"Hq@	c #534842",
"Iq@	c #1A151A",
"Jq@	c #281F1C",
"Kq@	c #515D2C",
"Lq@	c #4D592A",
"Mq@	c #323E14",
"Nq@	c #2F3A11",
"Oq@	c #2F3A14",
"Pq@	c #313C18",
"Qq@	c #394519",
"Rq@	c #434E1D",
"Sq@	c #485420",
"Tq@	c #293316",
"Uq@	c #2A3314",
"Vq@	c #22270E",
"Wq@	c #0A0A07",
"Xq@	c #202319",
"Yq@	c #242B1A",
"Zq@	c #222C10",
"`q@	c #5B6C30",
" r@	c #667834",
".r@	c #5A6A2B",
"+r@	c #46561F",
"@r@	c #3F4D1E",
"#r@	c #37431D",
"$r@	c #364320",
"%r@	c #33401F",
"&r@	c #35451D",
"*r@	c #394819",
"=r@	c #44551D",
"-r@	c #4F5F24",
";r@	c #546429",
">r@	c #526029",
",r@	c #55642C",
"'r@	c #505E26",
")r@	c #4A5922",
"!r@	c #404C1C",
"~r@	c #3A4719",
"{r@	c #313C14",
"]r@	c #2A3312",
"^r@	c #2E351A",
"/r@	c #2B301E",
"(r@	c #1B1E17",
"_r@	c #4F5C27",
":r@	c #4E5F23",
"<r@	c #4B5A23",
"[r@	c #3A441B",
"}r@	c #343F1A",
"|r@	c #394120",
"1r@	c #37401E",
"2r@	c #363F1B",
"3r@	c #4A5726",
"4r@	c #3C471E",
"5r@	c #313A17",
"6r@	c #1C1E1E",
"7r@	c #070409",
"8r@	c #060308",
"9r@	c #584D42",
"0r@	c #201B1E",
"ar@	c #2D2E32",
"br@	c #27282C",
"cr@	c #473B33",
"dr@	c #7A6D59",
"er@	c #746654",
"fr@	c #4D473B",
"gr@	c #6A635A",
"hr@	c #55534D",
"ir@	c #26261F",
"jr@	c #1B1D11",
"kr@	c #16170A",
"lr@	c #232411",
"mr@	c #3B3A1F",
"nr@	c #4C4726",
"or@	c #4C4621",
"pr@	c #47441C",
"qr@	c #41431A",
"rr@	c #47511B",
"sr@	c #5F6D2A",
"tr@	c #828A41",
"ur@	c #868D42",
"vr@	c #6D7B33",
"wr@	c #4F601E",
"xr@	c #45551B",
"yr@	c #415116",
"zr@	c #425418",
"Ar@	c #46571C",
"Br@	c #425018",
"Cr@	c #3F511E",
"Dr@	c #4B5814",
"Er@	c #4B5712",
"Fr@	c #3F490F",
"Gr@	c #31380E",
"Hr@	c #23260E",
"Ir@	c #1C1B0D",
"Jr@	c #18160E",
"Kr@	c #685F59",
"Lr@	c #4A4039",
"Mr@	c #463C35",
"Nr@	c #312829",
"Or@	c #342B29",
"Pr@	c #3F4C1E",
"Qr@	c #303A11",
"Rr@	c #2F3912",
"Sr@	c #323B17",
"Tr@	c #424E1E",
"Ur@	c #2E3919",
"Vr@	c #253014",
"Wr@	c #242D10",
"Xr@	c #22280F",
"Yr@	c #101006",
"Zr@	c #222918",
"`r@	c #5A6B2E",
" s@	c #667732",
".s@	c #465520",
"+s@	c #3E4A1F",
"@s@	c #333F1B",
"#s@	c #303B1D",
"$s@	c #303D1E",
"%s@	c #37461A",
"&s@	c #4C5A24",
"*s@	c #282F11",
"=s@	c #292F15",
"-s@	c #2B3019",
";s@	c #272B1D",
">s@	c #1A1C17",
",s@	c #353C1B",
"'s@	c #4E5E23",
")s@	c #475123",
"!s@	c #333C18",
"~s@	c #343D1C",
"{s@	c #373F1E",
"]s@	c #363F1D",
"^s@	c #343D1A",
"/s@	c #3B441B",
"(s@	c #475322",
"_s@	c #4E5925",
":s@	c #4B5627",
"<s@	c #3E4720",
"[s@	c #323620",
"}s@	c #23251A",
"|s@	c #171816",
"1s@	c #0A0509",
"2s@	c #49403A",
"3s@	c #54483F",
"4s@	c #564A41",
"5s@	c #463A37",
"6s@	c #211C20",
"7s@	c #2C2A2E",
"8s@	c #242529",
"9s@	c #3B312B",
"0s@	c #453932",
"as@	c #7A6C5D",
"bs@	c #313127",
"cs@	c #30351F",
"ds@	c #464C27",
"es@	c #555831",
"fs@	c #606233",
"gs@	c #555826",
"hs@	c #464919",
"is@	c #3D4216",
"js@	c #454F1C",
"ks@	c #546125",
"ls@	c #687330",
"ms@	c #697430",
"ns@	c #45571B",
"os@	c #40511B",
"ps@	c #3C4B16",
"qs@	c #3C4C16",
"rs@	c #43521C",
"ss@	c #354213",
"ts@	c #2E3B0E",
"us@	c #333C19",
"vs@	c #1F2310",
"ws@	c #20230E",
"xs@	c #2B3411",
"ys@	c #313C0E",
"zs@	c #2F3B0D",
"As@	c #353C1C",
"Bs@	c #363B1F",
"Cs@	c #2C2D19",
"Ds@	c #1B1A10",
"Es@	c #332926",
"Fs@	c #3B3030",
"Gs@	c #342A2B",
"Hs@	c #2C2424",
"Is@	c #364415",
"Js@	c #344114",
"Ks@	c #354216",
"Ls@	c #343F15",
"Ms@	c #354015",
"Ns@	c #353F16",
"Os@	c #343F18",
"Ps@	c #333C17",
"Qs@	c #323C14",
"Rs@	c #343F19",
"Ss@	c #2A3217",
"Ts@	c #232D14",
"Us@	c #252C13",
"Vs@	c #1F2318",
"Ws@	c #242D1A",
"Xs@	c #242F10",
"Ys@	c #3A491B",
"Zs@	c #5B6D30",
"`s@	c #667934",
" t@	c #586929",
".t@	c #41501B",
"+t@	c #36411B",
"@t@	c #333E1A",
"#t@	c #2A3516",
"$t@	c #283319",
"%t@	c #2E3D1A",
"&t@	c #465423",
"*t@	c #495722",
"=t@	c #45541F",
"-t@	c #43511E",
";t@	c #3F4D19",
">t@	c #404E1A",
",t@	c #404D1D",
"'t@	c #333E16",
")t@	c #2B3414",
"!t@	c #2C331E",
"~t@	c #262B1E",
"{t@	c #191D17",
"]t@	c #0F1308",
"^t@	c #4D5B27",
"/t@	c #54652B",
"(t@	c #4A5627",
"_t@	c #333D18",
":t@	c #353F1D",
"<t@	c #363F1C",
"[t@	c #353F1A",
"}t@	c #4E5929",
"|t@	c #404921",
"1t@	c #323621",
"2t@	c #191B18",
"3t@	c #080204",
"4t@	c #110A0A",
"5t@	c #3B3637",
"6t@	c #40342D",
"7t@	c #847969",
"8t@	c #847967",
"9t@	c #817563",
"0t@	c #7D725F",
"at@	c #6F695D",
"bt@	c #2D302A",
"ct@	c #34362D",
"dt@	c #383B28",
"et@	c #454E28",
"ft@	c #555F2F",
"gt@	c #6C763C",
"ht@	c #747E41",
"it@	c #788341",
"jt@	c #677030",
"kt@	c #50581F",
"lt@	c #434C19",
"mt@	c #48521F",
"nt@	c #4C581B",
"ot@	c #46551A",
"pt@	c #3B4D17",
"qt@	c #3C4C17",
"rt@	c #3E4B1C",
"st@	c #2E390F",
"tt@	c #232E08",
"ut@	c #262E10",
"vt@	c #282C17",
"wt@	c #191C11",
"xt@	c #040503",
"yt@	c #101105",
"zt@	c #141704",
"At@	c #181E06",
"Bt@	c #21290B",
"Ct@	c #3A4620",
"Dt@	c #424F27",
"Et@	c #46532A",
"Ft@	c #383F21",
"Gt@	c #212315",
"Ht@	c #1A1B15",
"It@	c #39372D",
"Jt@	c #1E1814",
"Kt@	c #3B312F",
"Lt@	c #352C2B",
"Mt@	c #334115",
"Nt@	c #323F14",
"Ot@	c #343F16",
"Pt@	c #364017",
"Qt@	c #353E19",
"Rt@	c #323B18",
"St@	c #313A16",
"Tt@	c #37401A",
"Ut@	c #2B331B",
"Vt@	c #252D15",
"Wt@	c #252C15",
"Xt@	c #111309",
"Yt@	c #1E2217",
"Zt@	c #242C19",
"`t@	c #252F10",
" u@	c #3B491D",
".u@	c #5C6C32",
"+u@	c #667635",
"@u@	c #58682B",
"#u@	c #404F1C",
"$u@	c #2B3418",
"%u@	c #242D17",
"&u@	c #27311B",
"*u@	c #2D391D",
"=u@	c #333E1B",
"-u@	c #414E1C",
";u@	c #404D1B",
">u@	c #3E4919",
",u@	c #404D1A",
"'u@	c #3F4A1A",
")u@	c #262C19",
"!u@	c #21261D",
"~u@	c #4F5B2B",
"{u@	c #586631",
"]u@	c #586532",
"^u@	c #4B5829",
"/u@	c #39431A",
"(u@	c #38401F",
"_u@	c #36401B",
":u@	c #495322",
"<u@	c #414922",
"[u@	c #313521",
"}u@	c #24261C",
"|u@	c #0A0406",
"1u@	c #0E0708",
"2u@	c #706657",
"3u@	c #71695F",
"4u@	c #615852",
"5u@	c #302F29",
"6u@	c #3C3D32",
"7u@	c #323727",
"8u@	c #303722",
"9u@	c #5C682C",
"0u@	c #738139",
"au@	c #7B893E",
"bu@	c #7C8B3F",
"cu@	c #6E7A34",
"du@	c #566223",
"eu@	c #4B591E",
"fu@	c #445119",
"gu@	c #3C4D1C",
"hu@	c #3E4E1E",
"iu@	c #394919",
"ju@	c #374816",
"ku@	c #3A4B18",
"lu@	c #3E4C1B",
"mu@	c #3D491C",
"nu@	c #27320E",
"ou@	c #293015",
"pu@	c #292D1D",
"qu@	c #111607",
"ru@	c #364423",
"su@	c #415027",
"tu@	c #45532A",
"uu@	c #394223",
"vu@	c #1A1E15",
"wu@	c #22241D",
"xu@	c #272824",
"yu@	c #292B22",
"zu@	c #353627",
"Au@	c #474633",
"Bu@	c #504C3A",
"Cu@	c #4C4739",
"Du@	c #344216",
"Eu@	c #374319",
"Fu@	c #394319",
"Gu@	c #38431C",
"Hu@	c #343C18",
"Iu@	c #394322",
"Ju@	c #2E371E",
"Ku@	c #252E19",
"Lu@	c #262F18",
"Mu@	c #262D17",
"Nu@	c #12150A",
"Ou@	c #1D2217",
"Pu@	c #262E1A",
"Qu@	c #293414",
"Ru@	c #5D6D35",
"Su@	c #647537",
"Tu@	c #3F4E1B",
"Uu@	c #37431A",
"Vu@	c #2C3419",
"Wu@	c #2A331F",
"Xu@	c #303B20",
"Yu@	c #323D1B",
"Zu@	c #374419",
"`u@	c #3A4716",
" v@	c #42501C",
".v@	c #434E22",
"+v@	c #3A4321",
"@v@	c #2A2F18",
"#v@	c #1E2114",
"$v@	c #181A16",
"%v@	c #111408",
"&v@	c #485327",
"*v@	c #4A5925",
"=v@	c #4A5727",
"-v@	c #454F24",
";v@	c #394220",
">v@	c #37411E",
",v@	c #495422",
"'v@	c #4D5827",
")v@	c #424A23",
"!v@	c #303522",
"~v@	c #24271D",
"{v@	c #1D1613",
"]v@	c #342E2D",
"^v@	c #35352B",
"/v@	c #414135",
"(v@	c #414133",
"_v@	c #404030",
":v@	c #3F402E",
"<v@	c #474936",
"[v@	c #4E4E3A",
"}v@	c #4D5236",
"|v@	c #414928",
"1v@	c #2F3E0F",
"2v@	c #364811",
"3v@	c #49591B",
"4v@	c #61712A",
"5v@	c #69792F",
"6v@	c #6D7E32",
"7v@	c #63712C",
"8v@	c #536021",
"9v@	c #46541B",
"0v@	c #47561D",
"av@	c #495A20",
"bv@	c #49591F",
"cv@	c #42521D",
"dv@	c #3D4D1C",
"ev@	c #3D4C1D",
"fv@	c #39481A",
"gv@	c #364717",
"hv@	c #384918",
"iv@	c #3D4C1C",
"jv@	c #374217",
"kv@	c #2F361A",
"lv@	c #121711",
"mv@	c #14180A",
"nv@	c #1B240E",
"ov@	c #31401F",
"pv@	c #3C4D25",
"qv@	c #415129",
"rv@	c #344020",
"sv@	c #242D16",
"tv@	c #232A16",
"uv@	c #2B311D",
"vv@	c #2D301E",
"wv@	c #303621",
"xv@	c #2C321D",
"yv@	c #2E341B",
"zv@	c #343A1D",
"Av@	c #414726",
"Bv@	c #45482A",
"Cv@	c #42432A",
"Dv@	c #344218",
"Ev@	c #36421A",
"Fv@	c #374119",
"Gv@	c #384319",
"Hv@	c #353E1B",
"Iv@	c #39401E",
"Jv@	c #384022",
"Kv@	c #2D341F",
"Lv@	c #242B19",
"Mv@	c #252D17",
"Nv@	c #252C16",
"Ov@	c #12140A",
"Pv@	c #1B2015",
"Qv@	c #252D1A",
"Rv@	c #273115",
"Sv@	c #37441B",
"Tv@	c #4F5F29",
"Uv@	c #4A5A22",
"Vv@	c #323C1D",
"Wv@	c #262E15",
"Xv@	c #212816",
"Yv@	c #252D1C",
"Zv@	c #2B361E",
"`v@	c #2C3518",
" w@	c #2C3710",
".w@	c #323F11",
"+w@	c #3C4919",
"@w@	c #414D1F",
"#w@	c #454F28",
"$w@	c #3A4025",
"%w@	c #242818",
"&w@	c #14160F",
"*w@	c #101208",
"=w@	c #2F3319",
"-w@	c #344213",
";w@	c #343F14",
">w@	c #37401C",
",w@	c #38421E",
"'w@	c #3B4320",
")w@	c #485320",
"!w@	c #4E5827",
"~w@	c #414820",
"{w@	c #333919",
"]w@	c #30351C",
"^w@	c #303421",
"/w@	c #27291F",
"(w@	c #1D1E1B",
"_w@	c #54473F",
":w@	c #54463E",
"<w@	c #3C312C",
"[w@	c #221917",
"}w@	c #14140E",
"|w@	c #37392C",
"1w@	c #444534",
"2w@	c #43442F",
"3w@	c #414329",
"4w@	c #3D4324",
"5w@	c #454D27",
"6w@	c #555E2B",
"7w@	c #515D25",
"8w@	c #46531B",
"9w@	c #33420B",
"0w@	c #2B3C06",
"aw@	c #31430D",
"bw@	c #405217",
"cw@	c #46551B",
"dw@	c #4C5C20",
"ew@	c #49571D",
"fw@	c #414F1A",
"gw@	c #43541E",
"hw@	c #44531E",
"iw@	c #414F1D",
"jw@	c #39491A",
"kw@	c #344317",
"lw@	c #324214",
"mw@	c #334416",
"nw@	c #323C15",
"ow@	c #2E3417",
"pw@	c #272B1B",
"qw@	c #0E110C",
"rw@	c #151609",
"sw@	c #233012",
"tw@	c #2C3917",
"uw@	c #31401A",
"vw@	c #2C3915",
"ww@	c #2E3914",
"xw@	c #3B4616",
"yw@	c #3C4915",
"zw@	c #3A4614",
"Aw@	c #3B4715",
"Bw@	c #3C4716",
"Cw@	c #404A18",
"Dw@	c #3D4719",
"Ew@	c #3A401B",
"Fw@	c #373921",
"Gw@	c #38382C",
"Hw@	c #373630",
"Iw@	c #39322F",
"Jw@	c #38431B",
"Kw@	c #37411C",
"Lw@	c #363F1F",
"Mw@	c #373D1E",
"Nw@	c #39411F",
"Ow@	c #374022",
"Pw@	c #2E3520",
"Qw@	c #262D1C",
"Rw@	c #272F19",
"Sw@	c #272D18",
"Tw@	c #13150B",
"Uw@	c #161910",
"Vw@	c #1C2213",
"Ww@	c #1E260E",
"Xw@	c #2D3914",
"Yw@	c #45541C",
"Zw@	c #364217",
"`w@	c #323D1A",
" x@	c #333D1D",
".x@	c #323C1E",
"+x@	c #242C14",
"@x@	c #1C2313",
"#x@	c #1F2718",
"$x@	c #242D13",
"%x@	c #252E0B",
"&x@	c #303C10",
"*x@	c #495523",
"=x@	c #3D491A",
"-x@	c #434E23",
";x@	c #454E2B",
">x@	c #353B23",
",x@	c #1E2214",
"'x@	c #0C0E09",
")x@	c #080A08",
"!x@	c #2B3117",
"~x@	c #343E17",
"{x@	c #3C4621",
"]x@	c #39431E",
"^x@	c #39421B",
"/x@	c #495420",
"(x@	c #4E5826",
"_x@	c #343A19",
":x@	c #30351A",
"<x@	c #333622",
"[x@	c #2B2D21",
"}x@	c #32332E",
"|x@	c #382E29",
"1x@	c #55473F",
"2x@	c #57473F",
"3x@	c #3F322D",
"4x@	c #655A4D",
"5x@	c #524C47",
"6x@	c #3A3D2D",
"7x@	c #4A4C34",
"8x@	c #474B2C",
"9x@	c #414521",
"0x@	c #3E471A",
"ax@	c #455019",
"bx@	c #4E5D19",
"cx@	c #54641A",
"dx@	c #536318",
"ex@	c #495915",
"fx@	c #36460B",
"gx@	c #283807",
"hx@	c #263609",
"ix@	c #2D3E0F",
"jx@	c #324111",
"kx@	c #374615",
"lx@	c #384514",
"mx@	c #3A4817",
"nx@	c #344217",
"ox@	c #303F12",
"px@	c #324114",
"qx@	c #394619",
"rx@	c #3F4A1D",
"sx@	c #323919",
"tx@	c #282D1A",
"ux@	c #0F120C",
"vx@	c #100E09",
"wx@	c #16170B",
"xx@	c #141607",
"yx@	c #192009",
"zx@	c #1D260A",
"Ax@	c #2A360E",
"Bx@	c #384613",
"Cx@	c #404F12",
"Dx@	c #445511",
"Ex@	c #42530E",
"Fx@	c #42530D",
"Gx@	c #41520E",
"Hx@	c #42520F",
"Ix@	c #414F10",
"Jx@	c #404D11",
"Kx@	c #3B4712",
"Lx@	c #394217",
"Mx@	c #3B3D2C",
"Nx@	c #2F3914",
"Ox@	c #2C3612",
"Px@	c #2B3314",
"Qx@	c #2D3419",
"Rx@	c #2B3218",
"Sx@	c #2E3519",
"Tx@	c #303718",
"Ux@	c #353D1D",
"Vx@	c #333D20",
"Wx@	c #2C3420",
"Xx@	c #242B1B",
"Yx@	c #262D1A",
"Zx@	c #12150B",
"`x@	c #10120B",
" y@	c #141A0C",
".y@	c #171F09",
"+y@	c #2A3513",
"@y@	c #323D19",
"#y@	c #343D1F",
"$y@	c #1F2618",
"%y@	c #222B18",
"&y@	c #212A11",
"*y@	c #232C0B",
"=y@	c #495524",
"-y@	c #465223",
";y@	c #404923",
">y@	c #3C4325",
",y@	c #242815",
"'y@	c #0F1109",
")y@	c #282E14",
"!y@	c #323B16",
"~y@	c #3B4420",
"{y@	c #3C4620",
"]y@	c #3D4721",
"^y@	c #3B4620",
"/y@	c #505A24",
"(y@	c #4D5626",
"_y@	c #343A18",
":y@	c #2F341A",
"<y@	c #343723",
"[y@	c #483B33",
"}y@	c #4A3C34",
"|y@	c #5F5449",
"1y@	c #0F0908",
"2y@	c #16160C",
"3y@	c #3D3E29",
"4y@	c #4B4D2C",
"5y@	c #484D22",
"6y@	c #444A19",
"7y@	c #3F4710",
"8y@	c #475110",
"9y@	c #48570C",
"0y@	c #4D5F0D",
"ay@	c #4A5B0C",
"by@	c #42520C",
"cy@	c #334109",
"dy@	c #253206",
"ey@	c #253209",
"fy@	c #2D3C10",
"gy@	c #334213",
"hy@	c #384415",
"iy@	c #3C4819",
"jy@	c #404E1C",
"ky@	c #41501C",
"ly@	c #404D1C",
"my@	c #334114",
"ny@	c #344115",
"oy@	c #3D471B",
"py@	c #313718",
"qy@	c #272C18",
"ry@	c #0F130A",
"sy@	c #15150A",
"ty@	c #161A09",
"uy@	c #171D08",
"vy@	c #20290C",
"wy@	c #27300D",
"xy@	c #404F11",
"yy@	c #40520E",
"zy@	c #3E4F0C",
"Ay@	c #3F500D",
"By@	c #3F4F0D",
"Cy@	c #40500D",
"Dy@	c #3E4D0D",
"Ey@	c #3D4B0F",
"Fy@	c #394412",
"Gy@	c #383F17",
"Hy@	c #34391D",
"Iy@	c #393B2A",
"Jy@	c #3F4C21",
"Ky@	c #27300E",
"Ly@	c #202809",
"My@	c #1D230A",
"Ny@	c #1B200C",
"Oy@	c #22270F",
"Py@	c #2A2F14",
"Qy@	c #333B1D",
"Ry@	c #333C21",
"Sy@	c #2E3621",
"Ty@	c #28301F",
"Uy@	c #29311E",
"Vy@	c #0E120A",
"Wy@	c #161D09",
"Xy@	c #425022",
"Yy@	c #41501D",
"Zy@	c #35411B",
"`y@	c #374121",
" z@	c #1E2515",
".z@	c #21291A",
"+z@	c #232D19",
"@z@	c #212C11",
"#z@	c #242F0B",
"$z@	c #4A5826",
"%z@	c #495628",
"&z@	c #414D23",
"*z@	c #3C4522",
"=z@	c #343B1F",
"-z@	c #171B0B",
";z@	c #07050A",
">z@	c #14170B",
",z@	c #363F1A",
"'z@	c #37431B",
")z@	c #323D18",
"!z@	c #323C18",
"~z@	c #404B23",
"{z@	c #3B471F",
"]z@	c #3A451B",
"^z@	c #47521D",
"/z@	c #4D5826",
"(z@	c #434C22",
"_z@	c #353C1A",
":z@	c #31371C",
"<z@	c #363A24",
"[z@	c #303226",
"}z@	c #34322A",
"|z@	c #4B3C2D",
"1z@	c #443729",
"2z@	c #362F26",
"3z@	c #261E19",
"4z@	c #332720",
"5z@	c #140D0C",
"6z@	c #3D332E",
"7z@	c #695F54",
"8z@	c #2A2C2A",
"9z@	c #130D0F",
"0z@	c #120C0E",
"az@	c #18170B",
"bz@	c #404128",
"cz@	c #4E532B",
"dz@	c #495116",
"ez@	c #444C0F",
"fz@	c #48530E",
"gz@	c #47570C",
"hz@	c #46570C",
"iz@	c #3D4C0E",
"jz@	c #2E3C0B",
"kz@	c #222F08",
"lz@	c #24300C",
"mz@	c #323E17",
"nz@	c #414E1F",
"oz@	c #455320",
"pz@	c #43521F",
"qz@	c #445420",
"rz@	c #404F1D",
"sz@	c #3A4918",
"tz@	c #384616",
"uz@	c #3B4A19",
"vz@	c #414E20",
"wz@	c #404A1F",
"xz@	c #13170C",
"yz@	c #14160A",
"zz@	c #15170C",
"Az@	c #191D10",
"Bz@	c #212911",
"Cz@	c #293514",
"Dz@	c #2C3A11",
"Ez@	c #2E3C11",
"Fz@	c #2D3910",
"Gz@	c #2F3B11",
"Hz@	c #2F3C11",
"Iz@	c #334113",
"Jz@	c #344113",
"Kz@	c #313A14",
"Lz@	c #323426",
"Mz@	c #2F312A",
"Nz@	c #222421",
"Oz@	c #3E4C1E",
"Pz@	c #28300F",
"Qz@	c #21280D",
"Rz@	c #1C210F",
"Sz@	c #1A1E0E",
"Tz@	c #222610",
"Uz@	c #2B2F16",
"Vz@	c #363C1F",
"Wz@	c #383F24",
"Xz@	c #323A25",
"Yz@	c #272E1D",
"Zz@	c #222818",
"`z@	c #0B0E08",
" A@	c #10140A",
".A@	c #2A3417",
"+A@	c #414E23",
"@A@	c #465422",
"#A@	c #414E1E",
"$A@	c #34401A",
"%A@	c #374020",
"&A@	c #1F2414",
"*A@	c #212719",
"=A@	c #232C18",
"-A@	c #212A10",
";A@	c #242E0A",
">A@	c #364116",
",A@	c #4E592D",
"'A@	c #4C582D",
")A@	c #434C27",
"!A@	c #373D21",
"~A@	c #2D331B",
"{A@	c #111306",
"]A@	c #18190E",
"^A@	c #3B461E",
"/A@	c #38421D",
"(A@	c #313A18",
"_A@	c #2F3816",
":A@	c #3D4722",
"<A@	c #404B24",
"[A@	c #3C471D",
"}A@	c #3F481B",
"|A@	c #505A25",
"1A@	c #4C5626",
"2A@	c #414920",
"3A@	c #363C1C",
"4A@	c #34381F",
"5A@	c #363A25",
"6A@	c #303326",
"7A@	c #544535",
"8A@	c #2D231C",
"9A@	c #2F251F",
"0A@	c #2E231E",
"aA@	c #241814",
"bA@	c #231714",
"cA@	c #1B1110",
"dA@	c #19100E",
"eA@	c #160E0D",
"fA@	c #1A1210",
"gA@	c #342C25",
"hA@	c #1D1512",
"iA@	c #51463D",
"jA@	c #635A52",
"kA@	c #130C0E",
"lA@	c #141308",
"mA@	c #3E3F29",
"nA@	c #4D5230",
"oA@	c #464C1C",
"pA@	c #444A17",
"qA@	c #455016",
"rA@	c #404E14",
"sA@	c #404D16",
"tA@	c #333E13",
"uA@	c #252F0D",
"vA@	c #1A2308",
"wA@	c #1D250D",
"xA@	c #313A1E",
"yA@	c #3F4928",
"zA@	c #434D28",
"AA@	c #414B23",
"BA@	c #414B21",
"CA@	c #3F491F",
"DA@	c #3A461C",
"EA@	c #3B471D",
"FA@	c #394716",
"GA@	c #465127",
"HA@	c #434925",
"IA@	c #30341E",
"JA@	c #0B0C07",
"KA@	c #101107",
"LA@	c #121309",
"MA@	c #15170E",
"NA@	c #161810",
"OA@	c #181A11",
"PA@	c #161B11",
"QA@	c #151C0F",
"RA@	c #101709",
"SA@	c #0E1309",
"TA@	c #12190B",
"UA@	c #181F0E",
"VA@	c #212811",
"WA@	c #1F2410",
"XA@	c #202412",
"YA@	c #1F2215",
"ZA@	c #3F4D1F",
"`A@	c #404D21",
" B@	c #36431B",
".B@	c #262E0F",
"+B@	c #1A1F0E",
"@B@	c #191E10",
"#B@	c #181C0F",
"$B@	c #222612",
"%B@	c #30361B",
"&B@	c #383F20",
"*B@	c #303823",
"=B@	c #22291B",
"-B@	c #181E12",
";B@	c #12160B",
">B@	c #070804",
",B@	c #11150B",
"'B@	c #2C3617",
")B@	c #425024",
"!B@	c #485523",
"~B@	c #435020",
"{B@	c #38441E",
"]B@	c #3A4421",
"^B@	c #293216",
"/B@	c #222816",
"(B@	c #262F19",
"_B@	c #252F12",
":B@	c #28310C",
"<B@	c #505C2E",
"[B@	c #535E34",
"}B@	c #505C33",
"|B@	c #454F2C",
"1B@	c #414A28",
"2B@	c #363D22",
"3B@	c #282E19",
"4B@	c #0E1106",
"5B@	c #1A1C0F",
"6B@	c #2D3217",
"7B@	c #343D18",
"8B@	c #3C491F",
"9B@	c #333D1C",
"0B@	c #2B3415",
"aB@	c #313B19",
"bB@	c #3A451E",
"cB@	c #3D461B",
"dB@	c #46501F",
"eB@	c #4C5623",
"fB@	c #495424",
"gB@	c #3F481F",
"hB@	c #35381F",
"iB@	c #383B26",
"jB@	c #303325",
"kB@	c #483D2D",
"lB@	c #3B2F22",
"mB@	c #2B221D",
"nB@	c #322821",
"oB@	c #1C130F",
"pB@	c #170F0E",
"qB@	c #1E1512",
"rB@	c #352E23",
"sB@	c #1D150E",
"tB@	c #292B2B",
"uB@	c #25271A",
"vB@	c #323422",
"wB@	c #2E301B",
"xB@	c #2F3117",
"yB@	c #383E1E",
"zB@	c #363D1F",
"AB@	c #31361D",
"BB@	c #2C311B",
"CB@	c #1F2413",
"DB@	c #0D1108",
"EB@	c #1F2515",
"FB@	c #202615",
"GB@	c #1C2310",
"HB@	c #171E09",
"IB@	c #161D08",
"JB@	c #191F09",
"KB@	c #232B0A",
"LB@	c #344013",
"MB@	c #404B1C",
"NB@	c #354218",
"OB@	c #32341C",
"PB@	c #292F13",
"QB@	c #272F0D",
"RB@	c #3B3F27",
"SB@	c #16180E",
"TB@	c #111109",
"UB@	c #121408",
"VB@	c #12130A",
"WB@	c #191B16",
"XB@	c #1A1D17",
"YB@	c #121511",
"ZB@	c #090C0B",
"`B@	c #0E110F",
" C@	c #151612",
".C@	c #1D1E16",
"+C@	c #1D1D15",
"@C@	c #3D4A1C",
"#C@	c #404D22",
"$C@	c #34401B",
"%C@	c #1E250B",
"&C@	c #0C0E05",
"*C@	c #101204",
"=C@	c #272D13",
"-C@	c #33391A",
";C@	c #30381A",
">C@	c #202714",
",C@	c #0B1007",
"'C@	c #0F120D",
")C@	c #12160E",
"!C@	c #161D0D",
"~C@	c #2A3418",
"{C@	c #414F26",
"]C@	c #475527",
"^C@	c #424E23",
"/C@	c #36431F",
"(C@	c #3A4521",
"_C@	c #3B4523",
":C@	c #2D371A",
"<C@	c #28311C",
"[C@	c #2A321F",
"}C@	c #2B351D",
"|C@	c #293315",
"1C@	c #2C3511",
"2C@	c #485529",
"3C@	c #4A552D",
"4C@	c #46522E",
"5C@	c #3A4526",
"6C@	c #2B321B",
"7C@	c #202414",
"8C@	c #0A0C04",
"9C@	c #1A1C10",
"0C@	c #2B2F15",
"aC@	c #3A461E",
"bC@	c #394320",
"cC@	c #1D2709",
"dC@	c #212A0E",
"eC@	c #283211",
"fC@	c #2B3410",
"gC@	c #363F13",
"hC@	c #414B1E",
"iC@	c #3A421B",
"jC@	c #2F3516",
"kC@	c #2D3119",
"lC@	c #2F3024",
"mC@	c #44352B",
"nC@	c #44362A",
"oC@	c #44382D",
"pC@	c #403526",
"qC@	c #473928",
"rC@	c #473726",
"sC@	c #403120",
"tC@	c #36291D",
"uC@	c #5A4934",
"vC@	c #513F2C",
"wC@	c #403021",
"xC@	c #2B201A",
"yC@	c #1F1712",
"zC@	c #2A1F1C",
"AC@	c #403229",
"BC@	c #261C14",
"CC@	c #070304",
"DC@	c #5E5346",
"EC@	c #675D53",
"FC@	c #3D3533",
"GC@	c #0F100B",
"HC@	c #11110A",
"IC@	c #1F1F15",
"JC@	c #36392B",
"KC@	c #303428",
"LC@	c #2C3025",
"MC@	c #2C2F26",
"NC@	c #1B1D18",
"OC@	c #080C07",
"PC@	c #090A02",
"QC@	c #171C06",
"RC@	c #323E15",
"SC@	c #252F0F",
"TC@	c #121806",
"UC@	c #161809",
"VC@	c #1F230B",
"WC@	c #3E4128",
"XC@	c #414430",
"YC@	c #2F3324",
"ZC@	c #1B1C11",
"`C@	c #141409",
" D@	c #141509",
".D@	c #131607",
"+D@	c #121506",
"@D@	c #1C1F16",
"#D@	c #22231D",
"$D@	c #20211D",
"%D@	c #1D1D1B",
"&D@	c #3E4D1F",
"*D@	c #333F1D",
"=D@	c #0C1007",
"-D@	c #252B12",
";D@	c #353B1A",
">D@	c #313A1A",
",D@	c #151813",
"'D@	c #171C13",
")D@	c #171F0F",
"!D@	c #29341A",
"~D@	c #37441C",
"{D@	c #2E3B16",
"]D@	c #2D3A16",
"^D@	c #313C1A",
"/D@	c #343E1D",
"(D@	c #2D3619",
"_D@	c #2D371F",
":D@	c #2E3922",
"<D@	c #2F3D1F",
"[D@	c #2E3B1A",
"}D@	c #303D14",
"|D@	c #37431C",
"1D@	c #34401F",
"2D@	c #2A3518",
"3D@	c #202612",
"4D@	c #1A1D10",
"5D@	c #2A3015",
"6D@	c #39451E",
"7D@	c #2C3619",
"8D@	c #1F2911",
"9D@	c #17210A",
"0D@	c #1C240F",
"aD@	c #202A10",
"bD@	c #232B0C",
"cD@	c #374115",
"dD@	c #40491F",
"eD@	c #38401B",
"fD@	c #2B3313",
"gD@	c #2E311E",
"hD@	c #43362B",
"iD@	c #3B2D21",
"jD@	c #392B1D",
"kD@	c #3E2F21",
"lD@	c #453427",
"mD@	c #47362A",
"nD@	c #3B2E1F",
"oD@	c #3B2E1D",
"pD@	c #3A2B1A",
"qD@	c #372919",
"rD@	c #312418",
"sD@	c #484242",
"tD@	c #34281D",
"uD@	c #564430",
"vD@	c #6D583D",
"wD@	c #6C553B",
"xD@	c #5B452F",
"yD@	c #322418",
"zD@	c #221711",
"AD@	c #100A09",
"BD@	c #564739",
"CD@	c #584B3C",
"DD@	c #3C3124",
"ED@	c #372B20",
"FD@	c #3C3027",
"GD@	c #5E544B",
"HD@	c #40392D",
"ID@	c #282224",
"JD@	c #33352D",
"KD@	c #363A31",
"LD@	c #2F332D",
"MD@	c #2B2F28",
"ND@	c #31342E",
"OD@	c #2F3C15",
"PD@	c #1F270F",
"QD@	c #080D05",
"RD@	c #1B1B13",
"SD@	c #2A2D1D",
"TD@	c #494C37",
"UD@	c #4A4E3A",
"VD@	c #323928",
"WD@	c #1C2012",
"XD@	c #161C06",
"YD@	c #1E2411",
"ZD@	c #212A14",
"`D@	c #1F2715",
" E@	c #22251D",
".E@	c #2C2D26",
"+E@	c #343026",
"@E@	c #3F4D20",
"#E@	c #353F22",
"$E@	c #1A2011",
"%E@	c #0A0F09",
"&E@	c #282F14",
"*E@	c #191C14",
"=E@	c #171D0E",
"-E@	c #273017",
";E@	c #3B4722",
">E@	c #2E3913",
",E@	c #2E3717",
"'E@	c #2F381D",
")E@	c #2C371D",
"!E@	c #2D3A1C",
"~E@	c #333E1D",
"{E@	c #212910",
"]E@	c #222713",
"^E@	c #212413",
"/E@	c #1A1C0E",
"(E@	c #38441D",
"_E@	c #333D1B",
":E@	c #242E12",
"<E@	c #1D260F",
"[E@	c #1E2814",
"}E@	c #1C2613",
"|E@	c #1B2514",
"1E@	c #1F2A16",
"2E@	c #2A3014",
"3E@	c #2A2D1A",
"4E@	c #27271E",
"5E@	c #574A3D",
"6E@	c #302218",
"7E@	c #463426",
"8E@	c #453426",
"9E@	c #433425",
"0E@	c #3E3122",
"aE@	c #362616",
"bE@	c #352617",
"cE@	c #2E2218",
"dE@	c #2B1F18",
"eE@	c #302622",
"fE@	c #3C3432",
"gE@	c #393333",
"hE@	c #34271B",
"iE@	c #58452E",
"jE@	c #6E573A",
"kE@	c #6D5439",
"lE@	c #58412A",
"mE@	c #2C1E11",
"nE@	c #1B0F09",
"oE@	c #433730",
"pE@	c #5B483C",
"qE@	c #635242",
"rE@	c #625344",
"sE@	c #5C4E42",
"tE@	c #584A3F",
"uE@	c #443529",
"vE@	c #4C3E34",
"wE@	c #443932",
"xE@	c #625447",
"yE@	c #494741",
"zE@	c #2A2427",
"AE@	c #32342F",
"BE@	c #2A2D29",
"CE@	c #30302B",
"DE@	c #090D07",
"EE@	c #070B07",
"FE@	c #19210D",
"GE@	c #070B06",
"HE@	c #25241F",
"IE@	c #34362A",
"JE@	c #494B3B",
"KE@	c #474C3A",
"LE@	c #1E2414",
"ME@	c #1F2213",
"NE@	c #262918",
"OE@	c #1F240F",
"PE@	c #141B02",
"QE@	c #191F07",
"RE@	c #283217",
"SE@	c #1E2514",
"TE@	c #1E2419",
"UE@	c #2A2C25",
"VE@	c #3E3839",
"WE@	c #463C37",
"XE@	c #425122",
"YE@	c #404C26",
"ZE@	c #060A06",
"`E@	c #272E10",
" F@	c #3A4515",
".F@	c #384515",
"+F@	c #262F10",
"@F@	c #191B15",
"#F@	c #3C4822",
"$F@	c #38441C",
"%F@	c #3B4520",
"&F@	c #2C3515",
"*F@	c #2D361D",
"=F@	c #2B351F",
"-F@	c #2A371D",
";F@	c #283418",
">F@	c #2B3714",
",F@	c #2E3B12",
"'F@	c #374418",
")F@	c #39451D",
"!F@	c #384421",
"~F@	c #2E381B",
"{F@	c #252D12",
"]F@	c #262B15",
"^F@	c #0D0D09",
"/F@	c #1C1E0E",
"(F@	c #2E3416",
"_F@	c #333B17",
":F@	c #323E1A",
"<F@	c #232D10",
"[F@	c #1C250F",
"}F@	c #212B19",
"|F@	c #1B2416",
"1F@	c #0D150A",
"2F@	c #080F06",
"3F@	c #0A1005",
"4F@	c #3F4B1D",
"5F@	c #434F22",
"6F@	c #3B4521",
"7F@	c #2A3115",
"8F@	c #232812",
"9F@	c #292B1C",
"0F@	c #26281D",
"aF@	c #2C221C",
"bF@	c #352921",
"cF@	c #463525",
"dF@	c #463425",
"eF@	c #413323",
"fF@	c #3D3020",
"gF@	c #392A1C",
"hF@	c #33261B",
"iF@	c #2D231F",
"jF@	c #36291C",
"kF@	c #56432D",
"lF@	c #695338",
"mF@	c #644D33",
"nF@	c #543E27",
"oF@	c #2E2013",
"pF@	c #150C07",
"qF@	c #655649",
"rF@	c #5C4D3E",
"sF@	c #5B473B",
"tF@	c #624F42",
"uF@	c #625445",
"vF@	c #4B3C2F",
"wF@	c #524131",
"xF@	c #55463A",
"yF@	c #261F17",
"zF@	c #5F5953",
"AF@	c #372D27",
"BF@	c #2B2B26",
"CF@	c #252521",
"DF@	c #2F2E25",
"EF@	c #61584D",
"FF@	c #312F25",
"GF@	c #15170D",
"HF@	c #181C12",
"IF@	c #151B13",
"JF@	c #0B0F0B",
"KF@	c #090E04",
"LF@	c #1E290C",
"MF@	c #2C3914",
"NF@	c #273113",
"OF@	c #0A0F0A",
"PF@	c #34362C",
"QF@	c #45483B",
"RF@	c #414637",
"SF@	c #303728",
"TF@	c #262B1C",
"UF@	c #282B1D",
"VF@	c #313423",
"WF@	c #262C15",
"XF@	c #131C02",
"YF@	c #182006",
"ZF@	c #242F13",
"`F@	c #2A361A",
" G@	c #253117",
".G@	c #202B16",
"+G@	c #21291B",
"@G@	c #2D3128",
"#G@	c #3E3B3C",
"$G@	c #3B373A",
"%G@	c #40342C",
"&G@	c #3E4D1E",
"*G@	c #1B230E",
"=G@	c #252C10",
"-G@	c #090D02",
";G@	c #181B13",
">G@	c #161B0D",
",G@	c #252E15",
"'G@	c #404C22",
")G@	c #36421B",
"!G@	c #1E250C",
"~G@	c #182011",
"{G@	c #161D13",
"]G@	c #161F13",
"^G@	c #141D0F",
"/G@	c #18220A",
"(G@	c #283410",
"_G@	c #3B4625",
":G@	c #30391D",
"<G@	c #252C14",
"[G@	c #262A15",
"}G@	c #232715",
"|G@	c #0E0E0B",
"1G@	c #1D2011",
"2G@	c #1A210F",
"3G@	c #1E2519",
"4G@	c #161D15",
"5G@	c #323A18",
"6G@	c #404C20",
"7G@	c #3A4420",
"8G@	c #232616",
"9G@	c #25271C",
"0G@	c #3D3025",
"aG@	c #3E2F20",
"bG@	c #443323",
"cG@	c #463424",
"dG@	c #453425",
"eG@	c #3E3022",
"fG@	c #33281D",
"gG@	c #4A3A28",
"hG@	c #56442E",
"iG@	c #4B3723",
"jG@	c #412F1F",
"kG@	c #2F241A",
"lG@	c #231A12",
"mG@	c #4E4035",
"nG@	c #46362B",
"oG@	c #4A392E",
"pG@	c #4F3D33",
"qG@	c #504135",
"rG@	c #44382F",
"sG@	c #584535",
"tG@	c #574434",
"uG@	c #604F41",
"vG@	c #5B4E43",
"wG@	c #160F0D",
"xG@	c #4E4639",
"yG@	c #28291E",
"zG@	c #272B21",
"AG@	c #21261E",
"BG@	c #131E07",
"CG@	c #1C270B",
"DG@	c #1A230C",
"EG@	c #0A0F0C",
"FG@	c #252127",
"GG@	c #373931",
"HG@	c #363930",
"IG@	c #30342A",
"JG@	c #2B2D23",
"KG@	c #303126",
"LG@	c #343528",
"MG@	c #262B18",
"NG@	c #101803",
"OG@	c #1A240D",
"PG@	c #202C12",
"QG@	c #202B13",
"RG@	c #222B16",
"SG@	c #262C1F",
"TG@	c #33362E",
"UG@	c #3A2F27",
"VG@	c #121A07",
"WG@	c #374417",
"XG@	c #364515",
"YG@	c #263111",
"ZG@	c #0A1004",
"`G@	c #161C0E",
" H@	c #252E16",
".H@	c #3A4724",
"+H@	c #404D23",
"@H@	c #2F3A15",
"#H@	c #313C17",
"$H@	c #323C1B",
"%H@	c #151909",
"&H@	c #05090A",
"*H@	c #050A09",
"=H@	c #030806",
"-H@	c #242E10",
";H@	c #404A24",
">H@	c #3D4927",
",H@	c #313A20",
"'H@	c #252A18",
")H@	c #2C3316",
"!H@	c #39461C",
"~H@	c #232B13",
"{H@	c #1B2219",
"]H@	c #141B15",
"^H@	c #333A18",
"/H@	c #424D20",
"(H@	c #414D20",
"_H@	c #3A4520",
":H@	c #25261B",
"<H@	c #423122",
"[H@	c #443324",
"}H@	c #433325",
"|H@	c #2C211A",
"1H@	c #3E2F1F",
"2H@	c #3F2F1E",
"3H@	c #443322",
"4H@	c #483728",
"5H@	c #3C362E",
"6H@	c #392B22",
"7H@	c #372821",
"8H@	c #3B2E26",
"9H@	c #36281D",
"0H@	c #4B3A2C",
"aH@	c #5C4835",
"bH@	c #634E3A",
"cH@	c #65564A",
"dH@	c #1E1813",
"eH@	c #4E453C",
"fH@	c #3D3D35",
"gH@	c #38382E",
"hH@	c #34352A",
"iH@	c #303227",
"jH@	c #32362A",
"kH@	c #272D25",
"lH@	c #111413",
"mH@	c #070A05",
"nH@	c #111B07",
"oH@	c #162209",
"pH@	c #161F0B",
"qH@	c #0F170C",
"rH@	c #0D120F",
"sH@	c #272229",
"tH@	c #34352E",
"uH@	c #37372B",
"vH@	c #101604",
"wH@	c #0E1304",
"xH@	c #131A07",
"yH@	c #18230B",
"zH@	c #242D18",
"AH@	c #2D3225",
"BH@	c #3A3C34",
"CH@	c #352F31",
"DH@	c #333F1A",
"EH@	c #121907",
"FH@	c #353F14",
"GH@	c #253010",
"HH@	c #171C0F",
"IH@	c #252D16",
"JH@	c #3A4524",
"KH@	c #3F4923",
"LH@	c #2E3915",
"MH@	c #303A1A",
"NH@	c #343C20",
"OH@	c #14170C",
"PH@	c #05070D",
"QH@	c #03070B",
"RH@	c #020507",
"SH@	c #3E4823",
"TH@	c #3C4727",
"UH@	c #303A20",
"VH@	c #252A15",
"WH@	c #272A18",
"XH@	c #252918",
"YH@	c #323B1C",
"ZH@	c #212713",
"`H@	c #151A0F",
" I@	c #141A14",
".I@	c #424B1F",
"+I@	c #3A431F",
"@I@	c #293014",
"#I@	c #212411",
"$I@	c #232415",
"%I@	c #252619",
"&I@	c #222319",
"*I@	c #23221A",
"=I@	c #202123",
"-I@	c #3A2D25",
";I@	c #3E2F22",
">I@	c #3F2E20",
",I@	c #402F22",
"'I@	c #423325",
")I@	c #232528",
"!I@	c #312518",
"~I@	c #332518",
"{I@	c #3D2E20",
"]I@	c #463729",
"^I@	c #372A24",
"/I@	c #483726",
"(I@	c #533F2C",
"_I@	c #695644",
":I@	c #615144",
"<I@	c #211914",
"[I@	c #0B0708",
"}I@	c #473F3C",
"|I@	c #716C62",
"1I@	c #7C7166",
"2I@	c #786C5F",
"3I@	c #574B3F",
"4I@	c #2C2219",
"5I@	c #32332A",
"6I@	c #31342A",
"7I@	c #282D26",
"8I@	c #101413",
"9I@	c #090D06",
"0I@	c #111C07",
"aI@	c #17230A",
"bI@	c #10190D",
"cI@	c #35332A",
"dI@	c #242618",
"eI@	c #0F1304",
"fI@	c #0F1504",
"gI@	c #161E06",
"hI@	c #232A15",
"iI@	c #2E2A2D",
"jI@	c #433C3C",
"kI@	c #49413E",
"lI@	c #352A23",
"mI@	c #44541F",
"nI@	c #37431E",
"oI@	c #141B09",
"pI@	c #232A0F",
"qI@	c #364015",
"rI@	c #344112",
"sI@	c #3F4A24",
"tI@	c #35411A",
"uI@	c #2B3614",
"vI@	c #2F3520",
"wI@	c #262A1A",
"xI@	c #090B0D",
"yI@	c #06080F",
"zI@	c #06090D",
"AI@	c #262E12",
"BI@	c #3D4823",
"CI@	c #3E4A29",
"DI@	c #313B21",
"EI@	c #262D15",
"FI@	c #272B16",
"GI@	c #282C19",
"HI@	c #171A0C",
"II@	c #12120D",
"JI@	c #2B3015",
"KI@	c #333D16",
"LI@	c #1D2311",
"MI@	c #0C0E08",
"NI@	c #434E20",
"OI@	c #2A3214",
"PI@	c #21250F",
"QI@	c #242515",
"RI@	c #3F3023",
"SI@	c #402F21",
"TI@	c #413225",
"UI@	c #3F3227",
"VI@	c #242629",
"WI@	c #252729",
"XI@	c #67625B",
"YI@	c #2D231B",
"ZI@	c #36281C",
"`I@	c #3C3020",
" J@	c #4B4131",
".J@	c #363731",
"+J@	c #453322",
"@J@	c #4C3A28",
"#J@	c #4E3B2D",
"$J@	c #4A4441",
"%J@	c #6A6055",
"&J@	c #34342C",
"*J@	c #313128",
"=J@	c #30332A",
"-J@	c #262C24",
";J@	c #121614",
">J@	c #19260C",
",J@	c #1C290D",
"'J@	c #1D290F",
")J@	c #151F0F",
"!J@	c #0E140F",
"~J@	c #242518",
"{J@	c #111304",
"]J@	c #141905",
"^J@	c #171F06",
"/J@	c #192007",
"(J@	c #323625",
"_J@	c #3F4037",
":J@	c #363031",
"<J@	c #44531D",
"[J@	c #141A08",
"}J@	c #343D17",
"|J@	c #252D11",
"1J@	c #1A1B14",
"2J@	c #262C17",
"3J@	c #3A4224",
"4J@	c #3E4724",
"5J@	c #323C1A",
"6J@	c #232B10",
"7J@	c #1F2612",
"8J@	c #202316",
"9J@	c #181A12",
"0J@	c #080911",
"aJ@	c #0B0E12",
"bJ@	c #0A0D0E",
"cJ@	c #13170D",
"dJ@	c #3C4422",
"eJ@	c #3D4529",
"fJ@	c #333A22",
"gJ@	c #292D16",
"hJ@	c #292B16",
"iJ@	c #292A18",
"jJ@	c #1D1F10",
"kJ@	c #121109",
"lJ@	c #14130F",
"mJ@	c #191A0D",
"nJ@	c #282C13",
"oJ@	c #323B15",
"pJ@	c #364119",
"qJ@	c #2D361A",
"rJ@	c #171A0D",
"sJ@	c #141807",
"tJ@	c #424B1D",
"uJ@	c #434D20",
"vJ@	c #3B431E",
"wJ@	c #2B3113",
"xJ@	c #22260E",
"yJ@	c #232313",
"zJ@	c #252517",
"AJ@	c #212117",
"BJ@	c #24231E",
"CJ@	c #3C2F24",
"DJ@	c #3F3126",
"EJ@	c #3D3028",
"FJ@	c #27292C",
"GJ@	c #453728",
"HJ@	c #453727",
"IJ@	c #3A2F20",
"JJ@	c #333534",
"KJ@	c #363835",
"LJ@	c #423225",
"MJ@	c #3E2D20",
"NJ@	c #39291F",
"OJ@	c #302620",
"PJ@	c #3A302A",
"QJ@	c #2A2B27",
"RJ@	c #504844",
"SJ@	c #443D3D",
"TJ@	c #413630",
"UJ@	c #2E2420",
"VJ@	c #24241D",
"WJ@	c #20241E",
"XJ@	c #131614",
"YJ@	c #161B0C",
"ZJ@	c #243011",
"`J@	c #273411",
" K@	c #222D0F",
".K@	c #17200F",
"+K@	c #0E130D",
"@K@	c #242318",
"#K@	c #1A1A0C",
"$K@	c #1E210B",
"%K@	c #1F230A",
"&K@	c #22250D",
"*K@	c #2A2D17",
"=K@	c #303121",
"-K@	c #45551E",
";K@	c #31371A",
">K@	c #232914",
",K@	c #0E1006",
"'K@	c #191C10",
")K@	c #252B17",
"!K@	c #3E4624",
"~K@	c #151712",
"{K@	c #0A0A11",
"]K@	c #0B0C14",
"^K@	c #0F1216",
"/K@	c #111414",
"(K@	c #1B1F12",
"_K@	c #2A3216",
":K@	c #35401A",
"<K@	c #3A4226",
"[K@	c #32351F",
"}K@	c #31331D",
"|K@	c #32351E",
"1K@	c #292C1A",
"2K@	c #222316",
"3K@	c #1C1A13",
"4K@	c #19190E",
"5K@	c #262911",
"6K@	c #323B14",
"7K@	c #344017",
"8K@	c #16190C",
"9K@	c #020106",
"0K@	c #3A4219",
"aK@	c #444E1C",
"bK@	c #444E1F",
"cK@	c #3C441D",
"dK@	c #2D3314",
"eK@	c #212017",
"fK@	c #272A2B",
"gK@	c #272829",
"hK@	c #493B29",
"iK@	c #392E1E",
"jK@	c #353736",
"kK@	c #383A38",
"lK@	c #393B38",
"mK@	c #3C3F3B",
"nK@	c #3C3E3B",
"oK@	c #3B3E39",
"pK@	c #3F423C",
"qK@	c #42433E",
"rK@	c #3A2D21",
"sK@	c #33281E",
"tK@	c #2A2C28",
"uK@	c #1A1912",
"vK@	c #1C1F19",
"wK@	c #161816",
"xK@	c #141611",
"yK@	c #1F2511",
"zK@	c #273410",
"AK@	c #2B3910",
"BK@	c #26310F",
"CK@	c #1B240F",
"DK@	c #0F140C",
"EK@	c #131412",
"FK@	c #3E3635",
"GK@	c #352D2C",
"HK@	c #26241B",
"IK@	c #202012",
"JK@	c #252613",
"KK@	c #262710",
"LK@	c #2E3014",
"MK@	c #302E17",
"NK@	c #33301D",
"OK@	c #45541E",
"PK@	c #0F1306",
"QK@	c #1B1F0F",
"RK@	c #1D2212",
"SK@	c #15180C",
"TK@	c #191A15",
"UK@	c #181B11",
"VK@	c #373F22",
"WK@	c #30371A",
"XK@	c #202514",
"YK@	c #181B15",
"ZK@	c #141615",
"`K@	c #090811",
" L@	c #0D0D16",
".L@	c #131616",
"+L@	c #2C3318",
"@L@	c #333B20",
"#L@	c #323722",
"$L@	c #393C26",
"%L@	c #3A3B25",
"&L@	c #3B3E26",
"*L@	c #343724",
"=L@	c #17160E",
"-L@	c #303911",
";L@	c #313C12",
">L@	c #2B3315",
",L@	c #16180B",
"'L@	c #040209",
")L@	c #05030A",
"!L@	c #06040B",
"~L@	c #191C08",
"{L@	c #414B1C",
"]L@	c #3B431C",
"^L@	c #292C15",
"/L@	c #201D16",
"(L@	c #26292A",
"_L@	c #706558",
":L@	c #837665",
"<L@	c #877B69",
"[L@	c #6F5E4A",
"}L@	c #615039",
"|L@	c #614F38",
"1L@	c #5F4E39",
"2L@	c #382D1F",
"3L@	c #31291E",
"4L@	c #3D3F3B",
"5L@	c #3E403C",
"6L@	c #40423E",
"7L@	c #3F423E",
"8L@	c #41443F",
"9L@	c #43453F",
"0L@	c #43433F",
"aL@	c #130C0B",
"bL@	c #2B2B25",
"cL@	c #050101",
"dL@	c #140E0C",
"eL@	c #564D48",
"fL@	c #1B1C1A",
"gL@	c #362E2C",
"hL@	c #191811",
"iL@	c #1D1F1A",
"jL@	c #181918",
"kL@	c #151611",
"lL@	c #202710",
"mL@	c #28360E",
"nL@	c #273509",
"oL@	c #26310C",
"pL@	c #1A220C",
"qL@	c #0E130A",
"rL@	c #312A2A",
"sL@	c #322A28",
"tL@	c #2F2727",
"uL@	c #222112",
"vL@	c #292816",
"wL@	c #31311B",
"xL@	c #332E1C",
"yL@	c #47581F",
"zL@	c #39461E",
"AL@	c #161C0B",
"BL@	c #040607",
"CL@	c #030003",
"DL@	c #242918",
"EL@	c #2F371B",
"FL@	c #222715",
"GL@	c #1C1F18",
"HL@	c #0A0911",
"IL@	c #0D0D15",
"JL@	c #0F1016",
"KL@	c #121515",
"LL@	c #2E361C",
"ML@	c #2F361F",
"NL@	c #393E26",
"OL@	c #3B3C27",
"PL@	c #3D3F28",
"QL@	c #3F412C",
"RL@	c #19180F",
"SL@	c #252810",
"TL@	c #2F370F",
"UL@	c #334013",
"VL@	c #1A1D0E",
"WL@	c #0D0B12",
"XL@	c #191C09",
"YL@	c #374019",
"ZL@	c #3F491D",
"`L@	c #30371B",
" M@	c #282C18",
".M@	c #28291B",
"+M@	c #24221A",
"@M@	c #272A2A",
"#M@	c #7D7261",
"$M@	c #736554",
"%M@	c #665642",
"&M@	c #5C4B35",
"*M@	c #5F4E37",
"=M@	c #5D4E3A",
"-M@	c #4B3F2E",
";M@	c #362D20",
">M@	c #312B20",
",M@	c #40413D",
"'M@	c #41433E",
")M@	c #41423E",
"!M@	c #434540",
"~M@	c #41423D",
"{M@	c #1B130F",
"]M@	c #160E0C",
"^M@	c #140C0C",
"/M@	c #120A0B",
"(M@	c #160E0F",
"_M@	c #160E0E",
":M@	c #1C1313",
"<M@	c #2B2D29",
"[M@	c #1F211E",
"}M@	c #1D1C15",
"|M@	c #23231B",
"1M@	c #23251F",
"2M@	c #1A1C1A",
"3M@	c #171912",
"4M@	c #20270F",
"5M@	c #26340B",
"6M@	c #283709",
"7M@	c #24300B",
"8M@	c #312928",
"9M@	c #31292A",
"0M@	c #342C2D",
"aM@	c #1A1D14",
"bM@	c #24251A",
"cM@	c #313023",
"dM@	c #332F24",
"eM@	c #271E1E",
"fM@	c #47571F",
"gM@	c #0C070C",
"hM@	c #100B10",
"iM@	c #0A050B",
"jM@	c #070307",
"kM@	c #22271A",
"lM@	c #343A24",
"mM@	c #2D351B",
"nM@	c #1B1F18",
"oM@	c #0D0C14",
"pM@	c #121413",
"qM@	c #2C3319",
"rM@	c #31361C",
"sM@	c #2C321B",
"tM@	c #2D331C",
"uM@	c #363C23",
"vM@	c #393B25",
"wM@	c #3D3F29",
"xM@	c #42442D",
"yM@	c #3C392B",
"zM@	c #272A11",
"AM@	c #2E3614",
"BM@	c #1F2311",
"CM@	c #09080D",
"DM@	c #151806",
"EM@	c #2E3612",
"FM@	c #384317",
"GM@	c #38421C",
"HM@	c #212614",
"IM@	c #171B0F",
"JM@	c #252625",
"KM@	c #3B3224",
"LM@	c #2B2519",
"MM@	c #40413C",
"NM@	c #363732",
"OM@	c #352C28",
"PM@	c #1F1515",
"QM@	c #1D1313",
"RM@	c #1E1414",
"SM@	c #403325",
"TM@	c #403428",
"UM@	c #292C28",
"VM@	c #1F201E",
"WM@	c #232421",
"XM@	c #313029",
"YM@	c #2A2C26",
"ZM@	c #1B220B",
"`M@	c #233108",
" N@	c #253305",
".N@	c #212B06",
"+N@	c #1A230B",
"@N@	c #191D13",
"#N@	c #302727",
"$N@	c #30282A",
"%N@	c #30292C",
"&N@	c #0D1114",
"*N@	c #2E241E",
"=N@	c #483F34",
"-N@	c #46571E",
";N@	c #39461D",
">N@	c #151613",
",N@	c #1C1B16",
"'N@	c #080409",
")N@	c #161116",
"!N@	c #161117",
"~N@	c #0F0A10",
"{N@	c #0B070B",
"]N@	c #24281D",
"^N@	c #353B27",
"/N@	c #384026",
"(N@	c #2D371D",
"_N@	c #212815",
":N@	c #1E2318",
"<N@	c #0D0C13",
"[N@	c #1F2314",
"}N@	c #2F331D",
"|N@	c #373C23",
"1N@	c #3C3E26",
"2N@	c #404229",
"3N@	c #45472F",
"4N@	c #3F3C2D",
"5N@	c #354013",
"6N@	c #344311",
"7N@	c #111404",
"8N@	c #252D0B",
"9N@	c #2B340E",
"0N@	c #090D05",
"aN@	c #191419",
"bN@	c #1A1519",
"cN@	c #2C2D27",
"dN@	c #31322C",
"eN@	c #291F1C",
"fN@	c #281F18",
"gN@	c #221810",
"hN@	c #241A10",
"iN@	c #292015",
"jN@	c #221B12",
"kN@	c #2C2220",
"lN@	c #221818",
"mN@	c #1D1414",
"nN@	c #1D1514",
"oN@	c #322E25",
"pN@	c #393226",
"qN@	c #483928",
"rN@	c #4A3B29",
"sN@	c #272A28",
"tN@	c #252623",
"uN@	c #090701",
"vN@	c #3B3A33",
"wN@	c #2F322C",
"xN@	c #13150F",
"yN@	c #192109",
"zN@	c #222E03",
"AN@	c #202A05",
"BN@	c #342C2C",
"CN@	c #312A2D",
"DN@	c #0A0F15",
"EN@	c #090C11",
"FN@	c #170E10",
"GN@	c #1B1114",
"HN@	c #1D1315",
"IN@	c #1E1517",
"JN@	c #46551E",
"KN@	c #38451C",
"LN@	c #060208",
"MN@	c #0F0B11",
"NN@	c #110B12",
"ON@	c #0A060B",
"PN@	c #0B080D",
"QN@	c #22251E",
"RN@	c #343D24",
"SN@	c #2A351B",
"TN@	c #1F2914",
"UN@	c #1C2216",
"VN@	c #1E211B",
"WN@	c #2C3118",
"XN@	c #30351D",
"YN@	c #30341F",
"ZN@	c #3C3F28",
"`N@	c #3D3F27",
" O@	c #41422D",
".O@	c #393628",
"+O@	c #201F13",
"@O@	c #2F3317",
"#O@	c #364214",
"$O@	c #282C14",
"%O@	c #16141B",
"&O@	c #0A0A10",
"*O@	c #0D0E03",
"=O@	c #1A2104",
"-O@	c #202706",
";O@	c #20250F",
">O@	c #171317",
",O@	c #1B161A",
"'O@	c #35352E",
")O@	c #271C1C",
"!O@	c #241A1A",
"~O@	c #251C1B",
"{O@	c #1B1413",
"]O@	c #4F4D4A",
"^O@	c #3C332E",
"/O@	c #281E1C",
"(O@	c #251B1A",
"_O@	c #1B1313",
":O@	c #473929",
"<O@	c #4C3C29",
"[O@	c #4A3826",
"}O@	c #47392A",
"|O@	c #524536",
"1O@	c #574939",
"2O@	c #212320",
"3O@	c #0D0A04",
"4O@	c #453B36",
"5O@	c #12140E",
"6O@	c #161E05",
"7O@	c #1C2901",
"8O@	c #202C01",
"9O@	c #1F2904",
"0O@	c #11160B",
"aO@	c #1A1B17",
"bO@	c #302829",
"cO@	c #322C2F",
"dO@	c #272329",
"eO@	c #0B1117",
"fO@	c #090D14",
"gO@	c #090A0F",
"hO@	c #140C0F",
"iO@	c #160C10",
"jO@	c #1C1115",
"kO@	c #1C1315",
"lO@	c #1A1215",
"mO@	c #171012",
"nO@	c #4B4035",
"oO@	c #2D2421",
"pO@	c #070A06",
"qO@	c #0F1210",
"rO@	c #20201D",
"sO@	c #292822",
"tO@	c #181318",
"uO@	c #1B1E19",
"vO@	c #252C1B",
"wO@	c #28321A",
"xO@	c #233014",
"yO@	c #1D2811",
"zO@	c #1C2615",
"AO@	c #1F261B",
"BO@	c #1B1E18",
"CO@	c #121416",
"DO@	c #151816",
"EO@	c #222417",
"FO@	c #2F341C",
"GO@	c #343B1D",
"HO@	c #30361D",
"IO@	c #343821",
"JO@	c #3F432B",
"KO@	c #42432D",
"LO@	c #40442D",
"MO@	c #373926",
"NO@	c #2D2C1F",
"OO@	c #181114",
"PO@	c #2D3316",
"QO@	c #313E11",
"RO@	c #2E3F0E",
"SO@	c #2B3610",
"TO@	c #262D14",
"UO@	c #0B0D02",
"VO@	c #181F03",
"WO@	c #1B2404",
"XO@	c #3A372E",
"YO@	c #34342D",
"ZO@	c #383830",
"`O@	c #231B1C",
" P@	c #1D1513",
".P@	c #1C1413",
"+P@	c #483A29",
"@P@	c #4E3D2A",
"#P@	c #4A3A25",
"$P@	c #473825",
"%P@	c #5A4C3B",
"&P@	c #60503C",
"*P@	c #5A4B3A",
"=P@	c #1C1E1D",
"-P@	c #12150F",
";P@	c #161E04",
">P@	c #1D2901",
",P@	c #232F02",
"'P@	c #202A04",
")P@	c #161712",
"!P@	c #312B2E",
"~P@	c #28262A",
"{P@	c #17191E",
"]P@	c #101519",
"^P@	c #12171B",
"/P@	c #121317",
"(P@	c #1F1418",
"_P@	c #211619",
":P@	c #201518",
"<P@	c #201F1A",
"[P@	c #100C10",
"}P@	c #0C0910",
"|P@	c #10130E",
"1P@	c #1F2615",
"2P@	c #232C13",
"3P@	c #202D10",
"4P@	c #1C280F",
"5P@	c #1C2712",
"6P@	c #1F2617",
"7P@	c #232519",
"8P@	c #2F341D",
"9P@	c #343A1F",
"0P@	c #32361F",
"aP@	c #373A26",
"bP@	c #383726",
"cP@	c #2A2B1C",
"dP@	c #1E1D13",
"eP@	c #1D230D",
"fP@	c #1D2706",
"gP@	c #1B2905",
"hP@	c #1B2608",
"iP@	c #1C220F",
"jP@	c #1A181E",
"kP@	c #151C03",
"lP@	c #171F03",
"mP@	c #0E0B12",
"nP@	c #33332E",
"oP@	c #373731",
"pP@	c #4C4B43",
"qP@	c #4A4940",
"rP@	c #1C1518",
"sP@	c #493928",
"tP@	c #453623",
"uP@	c #584A39",
"vP@	c #5E4E3C",
"wP@	c #5C4C38",
"xP@	c #1A1C1C",
"yP@	c #181F06",
"zP@	c #202C03",
"AP@	c #263304",
"BP@	c #263108",
"CP@	c #1F270E",
"DP@	c #2E282B",
"EP@	c #1A1F22",
"FP@	c #1B1F22",
"GP@	c #2D2224",
"HP@	c #291C1F",
"IP@	c #25181B",
"JP@	c #221619",
"KP@	c #140D0F",
"LP@	c #42521A",
"MP@	c #1A210E",
"NP@	c #0C110C",
"OP@	c #151512",
"PP@	c #181812",
"QP@	c #0A0E0A",
"RP@	c #263315",
"SP@	c #223110",
"TP@	c #1D2D0D",
"UP@	c #1E2C10",
"VP@	c #212A15",
"WP@	c #1F2317",
"XP@	c #10100B",
"YP@	c #31351F",
"ZP@	c #363C21",
"`P@	c #363A23",
" Q@	c #373B27",
".Q@	c #2D311F",
"+Q@	c #262817",
"@Q@	c #232114",
"#Q@	c #1D1D13",
"$Q@	c #171812",
"%Q@	c #0F1407",
"&Q@	c #091101",
"*Q@	c #0A1400",
"=Q@	c #0B1201",
"-Q@	c #101508",
";Q@	c #16151B",
">Q@	c #0C0E04",
",Q@	c #151B04",
"'Q@	c #182004",
")Q@	c #3A2F2C",
"!Q@	c #32332D",
"~Q@	c #4E473A",
"{Q@	c #292318",
"]Q@	c #382E20",
"^Q@	c #3D3022",
"/Q@	c #493D2E",
"(Q@	c #453827",
"_Q@	c #1B1E1E",
":Q@	c #1B2309",
"<Q@	c #283507",
"[Q@	c #27320A",
"}Q@	c #1C2014",
"|Q@	c #242A2A",
"1Q@	c #262B2B",
"2Q@	c #2D2626",
"3Q@	c #312628",
"4Q@	c #2A1D1F",
"5Q@	c #201416",
"6Q@	c #1D1114",
"7Q@	c #1C1215",
"8Q@	c #160F11",
"9Q@	c #090B0F",
"0Q@	c #3F5018",
"aQ@	c #1A220F",
"bQ@	c #0D110D",
"cQ@	c #16150F",
"dQ@	c #1B161B",
"eQ@	c #09050A",
"fQ@	c #090D09",
"gQ@	c #243314",
"hQ@	c #20320E",
"iQ@	c #1C2E0A",
"jQ@	c #1B2B0B",
"kQ@	c #212C13",
"lQ@	c #1F2516",
"mQ@	c #24261D",
"nQ@	c #333723",
"oQ@	c #363B22",
"pQ@	c #353924",
"qQ@	c #383C2A",
"rQ@	c #2D2F22",
"sQ@	c #1E2013",
"tQ@	c #17150D",
"uQ@	c #231C1E",
"vQ@	c #060C00",
"wQ@	c #121410",
"xQ@	c #111508",
"yQ@	c #171F04",
"zQ@	c #0D110B",
"AQ@	c #06070D",
"BQ@	c #3B2F2A",
"CQ@	c #392D2A",
"DQ@	c #372C2A",
"EQ@	c #20191D",
"FQ@	c #211B1F",
"GQ@	c #191318",
"HQ@	c #211815",
"IQ@	c #1D1619",
"JQ@	c #585042",
"KQ@	c #5D5445",
"LQ@	c #2C261D",
"MQ@	c #30291F",
"NQ@	c #363735",
"OQ@	c #1B1E1D",
"PQ@	c #27320D",
"QQ@	c #27320B",
"RQ@	c #1D250F",
"SQ@	c #191E13",
"TQ@	c #1D1E1A",
"UQ@	c #272B2C",
"VQ@	c #2E2425",
"WQ@	c #24191A",
"XQ@	c #160B0D",
"YQ@	c #13090D",
"ZQ@	c #110A0D",
"`Q@	c #0E090D",
" R@	c #281F1A",
".R@	c #384A16",
"+R@	c #2E3B15",
"@R@	c #1A230F",
"#R@	c #0F140F",
"$R@	c #111513",
"%R@	c #171612",
"&R@	c #1B2614",
"*R@	c #203011",
"=R@	c #1F320C",
"-R@	c #1C3009",
";R@	c #1E300B",
">R@	c #243013",
",R@	c #212715",
"'R@	c #343825",
")R@	c #383D24",
"!R@	c #3A3E2C",
"~R@	c #2F3225",
"{R@	c #1F2016",
"]R@	c #15140E",
"^R@	c #081101",
"/R@	c #1B1F10",
"(R@	c #1E260B",
"_R@	c #202613",
":R@	c #171B12",
"<R@	c #070B09",
"[R@	c #5A5046",
"}R@	c #534840",
"|R@	c #3A2E2A",
"1R@	c #352A28",
"2R@	c #241E21",
"3R@	c #1F1713",
"4R@	c #312B2D",
"5R@	c #1D201E",
"6R@	c #141811",
"7R@	c #1E2609",
"8R@	c #1C2408",
"9R@	c #101609",
"0R@	c #0F130E",
"aR@	c #282D2D",
"bR@	c #2E2526",
"cR@	c #10080A",
"dR@	c #0F080B",
"eR@	c #0E080B",
"fR@	c #100A0C",
"gR@	c #24320B",
"hR@	c #1F2A0D",
"iR@	c #151D0E",
"jR@	c #0F1511",
"kR@	c #121415",
"lR@	c #080B07",
"mR@	c #151E0D",
"nR@	c #1B2A0C",
"oR@	c #1E3109",
"pR@	c #1D2F07",
"qR@	c #213109",
"rR@	c #263110",
"sR@	c #212813",
"tR@	c #343625",
"uR@	c #393D27",
"vR@	c #363925",
"wR@	c #373B29",
"xR@	c #303225",
"yR@	c #202018",
"zR@	c #0F1605",
"AR@	c #0F1A02",
"BR@	c #0E1209",
"CR@	c #1E1F19",
"DR@	c #222614",
"ER@	c #2B3216",
"FR@	c #20241A",
"GR@	c #0E100E",
"HR@	c #302625",
"IR@	c #302626",
"JR@	c #282020",
"KR@	c #1A120E",
"LR@	c #221817",
"MR@	c #2B221F",
"NR@	c #201815",
"OR@	c #2C2526",
"PR@	c #2A1F1E",
"QR@	c #2B201C",
"RR@	c #41332C",
"SR@	c #141712",
"TR@	c #0E1501",
"UR@	c #090C03",
"VR@	c #242728",
"WR@	c #232727",
"XR@	c #2A2425",
"YR@	c #0D080A",
"ZR@	c #121D02",
"`R@	c #0F1705",
" S@	c #101514",
".S@	c #101A09",
"+S@	c #162407",
"@S@	c #1E3008",
"#S@	c #223408",
"$S@	c #27380A",
"%S@	c #293710",
"&S@	c #242C13",
"*S@	c #14150B",
"=S@	c #1A1B1C",
"-S@	c #272820",
";S@	c #333625",
">S@	c #353927",
",S@	c #161410",
"'S@	c #0C0F0A",
")S@	c #121904",
"!S@	c #111C01",
"~S@	c #141B04",
"{S@	c #1D1F17",
"]S@	c #262B17",
"^S@	c #2A2E21",
"/S@	c #181A17",
"(S@	c #21191C",
"_S@	c #1E171B",
":S@	c #19110F",
"<S@	c #231917",
"[S@	c #261B1A",
"}S@	c #241A18",
"|S@	c #271C18",
"1S@	c #2E2220",
"2S@	c #2D201D",
"3S@	c #2D2019",
"4S@	c #392A22",
"5S@	c #2C221D",
"6S@	c #151815",
"7S@	c #060B00",
"8S@	c #202424",
"9S@	c #281E17",
"0S@	c #2A2019",
"aS@	c #2D231E",
"bS@	c #0D1701",
"cS@	c #0A1104",
"dS@	c #0D130F",
"eS@	c #101317",
"fS@	c #050906",
"gS@	c #0B1405",
"hS@	c #101C02",
"iS@	c #1F3108",
"jS@	c #283C0C",
"kS@	c #2D3F0E",
"lS@	c #2E3B13",
"mS@	c #13140A",
"nS@	c #292921",
"oS@	c #323523",
"pS@	c #363923",
"qS@	c #313523",
"rS@	c #0C0D08",
"sS@	c #182201",
"tS@	c #1B1F04",
"uS@	c #1A1B0E",
"vS@	c #19161E",
"wS@	c #1B1D16",
"xS@	c #252A16",
"yS@	c #363A21",
"zS@	c #2E3023",
"AS@	c #423938",
"BS@	c #1B1519",
"CS@	c #272327",
"DS@	c #1D1415",
"ES@	c #1E1417",
"FS@	c #221916",
"GS@	c #2A1F1D",
"HS@	c #2D201F",
"IS@	c #2A1D1B",
"JS@	c #2D201C",
"KS@	c #2C201B",
"LS@	c #271C17",
"MS@	c #231915",
"NS@	c #2D2120",
"OS@	c #36241E",
"PS@	c #392B26",
"QS@	c #3F3A3E",
"RS@	c #0F090B",
"SS@	c #473E3A",
"TS@	c #070800",
"US@	c #080904",
"VS@	c #0B090E",
"WS@	c #212324",
"XS@	c #2C201C",
"YS@	c #2F231E",
"ZS@	c #271B14",
"`S@	c #291D16",
" T@	c #121C05",
".T@	c #0C1508",
"+T@	c #0E1311",
"@T@	c #101419",
"#T@	c #15171E",
"$T@	c #050A04",
"%T@	c #0A1203",
"&T@	c #0D1A01",
"*T@	c #283C0F",
"=T@	c #304317",
"-T@	c #303D1A",
";T@	c #262C16",
">T@	c #13150C",
",T@	c #2C2B22",
"'T@	c #343820",
")T@	c #33371F",
"!T@	c #343728",
"~T@	c #292920",
"{T@	c #232B06",
"]T@	c #2B330A",
"^T@	c #1C1822",
"/T@	c #1E1B22",
"(T@	c #1B1E16",
"_T@	c #262B16",
":T@	c #383F1D",
"<T@	c #383D22",
"[T@	c #2F3123",
"}T@	c #201719",
"|T@	c #22191A",
"1T@	c #251C1D",
"2T@	c #2D2422",
"3T@	c #2E2423",
"4T@	c #322724",
"5T@	c #2D2322",
"6T@	c #2F2421",
"7T@	c #392A23",
"8T@	c #41332B",
"9T@	c #3F332E",
"0T@	c #3F3C3F",
"aT@	c #181B17",
"bT@	c #0F140A",
"cT@	c #090D03",
"dT@	c #202223",
"eT@	c #30231D",
"fT@	c #271A14",
"gT@	c #291C16",
"hT@	c #2E2119",
"iT@	c #231918",
"jT@	c #172109",
"kT@	c #0E170A",
"lT@	c #0E1118",
"mT@	c #12151D",
"nT@	c #17161C",
"oT@	c #080E03",
"pT@	c #0D1703",
"qT@	c #101B01",
"rT@	c #162604",
"sT@	c #192809",
"tT@	c #202F13",
"uT@	c #242C18",
"vT@	c #202416",
"wT@	c #14150F",
"xT@	c #2A2820",
"yT@	c #35391F",
"zT@	c #33361E",
"AT@	c #373829",
"BT@	c #2A2A21",
"CT@	c #1A1B0A",
"DT@	c #323A08",
"ET@	c #3B4805",
"FT@	c #373F0B",
"GT@	c #262813",
"HT@	c #1B1822",
"IT@	c #1E1C23",
"JT@	c #1A1C14",
"KT@	c #393F1E",
"LT@	c #383D23",
"MT@	c #2E3122",
"NT@	c #242024",
"OT@	c #292429",
"PT@	c #282327",
"QT@	c #292428",
"RT@	c #2E292C",
"ST@	c #1E171A",
"TT@	c #241A1B",
"UT@	c #261C1D",
"VT@	c #333033",
"WT@	c #232526",
"XT@	c #252727",
"YT@	c #33261E",
"ZT@	c #32241C",
"`T@	c #2F2119",
" U@	c #2C1E18",
".U@	c #2C1E1A",
"+U@	c #1E1516",
"@U@	c #1B260B",
"#U@	c #11190B",
"$U@	c #0E1212",
"%U@	c #0E1017",
"&U@	c #101219",
"*U@	c #0F0D13",
"=U@	c #131D08",
"-U@	c #1F2D0B",
";U@	c #22310A",
">U@	c #172707",
",U@	c #0C1806",
"'U@	c #0E180B",
")U@	c #111710",
"!U@	c #2B2C20",
"~U@	c #34371E",
"{U@	c #373B1F",
"]U@	c #3C4127",
"^U@	c #3B3E2C",
"/U@	c #2C2D23",
"(U@	c #3B4509",
"_U@	c #455507",
":U@	c #3D490D",
"<U@	c #1B1922",
"[U@	c #1F1D23",
"}U@	c #353E1E",
"|U@	c #393E23",
"1U@	c #2F3222",
"2U@	c #18171C",
"3U@	c #211B21",
"4U@	c #231C21",
"5U@	c #2B2428",
"6U@	c #312B2F",
"7U@	c #221A1B",
"8U@	c #201618",
"9U@	c #23191A",
"0U@	c #0B0F03",
"aU@	c #0B090F",
"bU@	c #34261C",
"cU@	c #302119",
"dU@	c #2B1D17",
"eU@	c #291D17",
"fU@	c #2C1F1A",
"gU@	c #2B1E1A",
"hU@	c #281D1A",
"iU@	c #343128",
"jU@	c #1B240A",
"kU@	c #161E0F",
"lU@	c #101118",
"mU@	c #110F17",
"nU@	c #110E14",
"oU@	c #120F15",
"pU@	c #171319",
"qU@	c #231F23",
"rU@	c #212B0B",
"sU@	c #374A14",
"tU@	c #243210",
"uU@	c #0D160A",
"vU@	c #070F0C",
"wU@	c #0B1011",
"xU@	c #151819",
"yU@	c #2D2D1E",
"zU@	c #3A3F1B",
"AU@	c #3A3F1E",
"BU@	c #3B3F22",
"CU@	c #3B3F29",
"DU@	c #2D2D21",
"EU@	c #171610",
"FU@	c #23250B",
"GU@	c #3B4607",
"HU@	c #445405",
"IU@	c #3C470B",
"JU@	c #272B13",
"KU@	c #201F25",
"LU@	c #1D1E17",
"MU@	c #252B16",
"NU@	c #363E1F",
"OU@	c #39401F",
"PU@	c #393E22",
"QU@	c #2F3122",
"RU@	c #322C2E",
"SU@	c #1C141A",
"TU@	c #1E171C",
"UU@	c #211A1F",
"VU@	c #272024",
"WU@	c #231A1C",
"XU@	c #383537",
"YU@	c #0C0A0F",
"ZU@	c #120E14",
"`U@	c #34251B",
" V@	c #302118",
".V@	c #2E2018",
"+V@	c #2B1D18",
"@V@	c #281D19",
"#V@	c #271D18",
"$V@	c #261B17",
"%V@	c #261B19",
"&V@	c #221819",
"*V@	c #21191B",
"=V@	c #20171B",
"-V@	c #1C250C",
";V@	c #181F11",
">V@	c #161319",
",V@	c #232C0A",
"'V@	c #35460C",
")V@	c #374711",
"!V@	c #222D10",
"~V@	c #0B1108",
"{V@	c #05090D",
"]V@	c #0D1013",
"^V@	c #2E2F1D",
"/V@	c #383C1A",
"(V@	c #3E431B",
"_V@	c #3D4321",
":V@	c #3C4128",
"<V@	c #2E2E20",
"[V@	c #1F210A",
"}V@	c #313B05",
"|V@	c #374503",
"1V@	c #303A09",
"2V@	c #212510",
"3V@	c #373F20",
"4V@	c #3B421F",
"5V@	c #3B4223",
"6V@	c #303321",
"7V@	c #1A1419",
"8V@	c #1A1318",
"9V@	c #1A1319",
"0V@	c #191217",
"aV@	c #231B1D",
"bV@	c #261E20",
"cV@	c #27272B",
"dV@	c #1F211C",
"eV@	c #191D12",
"fV@	c #121609",
"gV@	c #0F1206",
"hV@	c #35281D",
"iV@	c #35271C",
"jV@	c #251A16",
"kV@	c #241A19",
"lV@	c #211917",
"mV@	c #201816",
"nV@	c #21181A",
"oV@	c #1E1518",
"pV@	c #050205",
"qV@	c #262229",
"rV@	c #26232A",
"sV@	c #211E25",
"tV@	c #141119",
"uV@	c #243104",
"vV@	c #27310A",
"wV@	c #3E4318",
"xV@	c #3C4118",
"yV@	c #3F451F",
"zV@	c #3B3F24",
"AV@	c #2C2D1D",
"BV@	c #161705",
"CV@	c #212801",
"DV@	c #232C00",
"EV@	c #1B2402",
"FV@	c #101117",
"GV@	c #14151A",
"HV@	c #10140D",
"IV@	c #1D2411",
"JV@	c #363F20",
"KV@	c #3D4421",
"LV@	c #3C4224",
"MV@	c #313421",
"NV@	c #0F0A0F",
"OV@	c #1D1F19",
"PV@	c #1D2116",
"QV@	c #14180C",
"RV@	c #0B0E04",
"SV@	c #31251F",
"TV@	c #1A1113",
"UV@	c #1B1215",
"VV@	c #1A1114",
"WV@	c #191113",
"XV@	c #180F12",
"YV@	c #191114",
"ZV@	c #141906",
"`V@	c #2B2630",
" W@	c #2B2830",
".W@	c #252229",
"+W@	c #151B03",
"@W@	c #1F2803",
"#W@	c #21270A",
"$W@	c #3D4119",
"%W@	c #3F4516",
"&W@	c #3E4518",
"*W@	c #3C4123",
"=W@	c #15130D",
"-W@	c #141505",
";W@	c #1D2302",
">W@	c #1E2601",
",W@	c #171D03",
"'W@	c #06090A",
")W@	c #090F08",
"!W@	c #3F4820",
"~W@	c #404826",
"{W@	c #323721",
"]W@	c #1A1A12",
"^W@	c #120E13",
"/W@	c #090409",
"(W@	c #0E0B0F",
"_W@	c #1F201B",
":W@	c #22251A",
"<W@	c #181012",
"[W@	c #170E11",
"}W@	c #150D0F",
"|W@	c #181013",
"1W@	c #242128",
"2W@	c #2D2A32",
"3W@	c #2C2B33",
"4W@	c #26242B",
"5W@	c #17151C",
"6W@	c #222709",
"7W@	c #1E220B",
"8W@	c #070902",
"9W@	c #32301B",
"0W@	c #43461E",
"aW@	c #3A4114",
"bW@	c #3F461C",
"cW@	c #414526",
"dW@	c #323321",
"eW@	c #14130C",
"fW@	c #050401",
"gW@	c #121404",
"hW@	c #1C2203",
"iW@	c #1E2704",
"jW@	c #171E08",
"kW@	c #0C1109",
"lW@	c #070A0B",
"mW@	c #0B0E0F",
"nW@	c #34371F",
"oW@	c #22241C",
"pW@	c #151A0C",
"qW@	c #070B00",
"rW@	c #171011",
"sW@	c #161A0D",
"tW@	c #10130A",
"uW@	c #1C200C",
"vW@	c #171A0A",
"wW@	c #2C2C1B",
"xW@	c #3D401D",
"yW@	c #3B4316",
"zW@	c #353D13",
"AW@	c #3B441C",
"BW@	c #3D4227",
"CW@	c #2E3020",
"DW@	c #161C04",
"EW@	c #141A0A",
"FW@	c #141C08",
"GW@	c #424C22",
"HW@	c #353C1D",
"IW@	c #141410",
"JW@	c #0C0B08",
"KW@	c #13180C",
"LW@	c #070B01",
"MW@	c #0A0B05",
"NW@	c #140E10",
"OW@	c #080902",
"PW@	c #15150D",
"QW@	c #21240D",
"RW@	c #242A0A",
"SW@	c #161A10",
"TW@	c #0B0F02",
"UW@	c #090D04",
"VW@	c #36431A",
"WW@	c #454E21",
"XW@	c #171909",
"YW@	c #0F0F07",
"ZW@	c #161812",
"`W@	c #10110E",
" X@	c #080A01",
".X@	c #141804",
"+X@	c #171E0A",
"@X@	c #060B02",
"#X@	c #354217",
"$X@	c #363D1A",
"%X@	c #121303",
"&X@	c #050400",
"*X@	c #0B0607",
"=X@	c #0A0404",
"-X@	c #0D1004",
";X@	c #141C0B",
">X@	c #333F14",
",X@	c #495321",
"'X@	c #373C1B",
")X@	c #111103",
"!X@	c #0A0E04",
"~X@	c #131D09",
"{X@	c #111C09",
"]X@	c #090F01",
"^X@	c #313C16",
"/X@	c #4A5327",
"(X@	c #353A1C",
"_X@	c #111205",
":X@	c #0B1503",
"<X@	c #091404",
"[X@	c #1D270D",
"}X@	c #2C3614",
"|X@	c #31381B",
"1X@	c #232813",
"2X@	c #070C01",
"3X@	c #0E1700",
"4X@	c #0E1901",
"5X@	c #050901",
"6X@	c #120E09",
"7X@	c #110F0A",
"8X@	c #100D09",
"9X@	c #162003",
"0X@	c #1F2B02",
"aX@	c #202E06",
"bX@	c #0E100C",
"cX@	c #4A463A",
"dX@	c #292F27",
"eX@	c #192610",
"fX@	c #222F05",
"gX@	c #2E3D03",
"hX@	c #2F4006",
"iX@	c #222B0A",
"jX@	c #554D40",
"kX@	c #554A3F",
"lX@	c #23221B",
"mX@	c #15130C",
"nX@	c #3C372D",
"oX@	c #293026",
"pX@	c #1A280F",
"qX@	c #283407",
"rX@	c #334103",
"sX@	c #324105",
"tX@	c #252C0A",
"uX@	c #605851",
"vX@	c #61574D",
"wX@	c #63584E",
"xX@	c #60544B",
"yX@	c #70665F",
"zX@	c #5B5048",
"AX@	c #6E5D4F",
"BX@	c #705D4C",
"CX@	c #6C5948",
"DX@	c #645241",
"EX@	c #5A4939",
"FX@	c #574938",
"GX@	c #574B40",
"HX@	c #5F5044",
"IX@	c #5E5043",
"JX@	c #5C4E41",
"KX@	c #594A3E",
"LX@	c #524438",
"MX@	c #53453A",
"NX@	c #52443A",
"OX@	c #63615C",
"PX@	c #767470",
"QX@	c #777671",
"RX@	c #6D6B67",
"SX@	c #6B655D",
"TX@	c #473F38",
"UX@	c #15140F",
"VX@	c #293025",
"WX@	c #1B280E",
"XX@	c #293507",
"YX@	c #333F03",
"ZX@	c #323F05",
"`X@	c #272E0B",
" Y@	c #4F4945",
".Y@	c #0B0D05",
"+Y@	c #090904",
"@Y@	c #605750",
"#Y@	c #62594F",
"$Y@	c #665A4E",
"%Y@	c #685B51",
"&Y@	c #74685F",
"*Y@	c #605852",
"=Y@	c #6E5F53",
"-Y@	c #705D4E",
";Y@	c #735E4C",
">Y@	c #6E5946",
",Y@	c #685341",
"'Y@	c #5D4A38",
")Y@	c #5B4A37",
"!Y@	c #5A4B39",
"~Y@	c #584B3D",
"{Y@	c #5F5145",
"]Y@	c #625245",
"^Y@	c #5F4F42",
"/Y@	c #5B4B3F",
"(Y@	c #58493C",
"_Y@	c #5A4B3F",
":Y@	c #5A4B40",
"<Y@	c #53483C",
"[Y@	c #150E0B",
"}Y@	c #413E35",
"|Y@	c #25231A",
"1Y@	c #64625D",
"2Y@	c #6B6A67",
"3Y@	c #6C6C67",
"4Y@	c #666462",
"5Y@	c #565351",
"6Y@	c #5F544A",
"7Y@	c #59544B",
"8Y@	c #434237",
"9Y@	c #080A05",
"0Y@	c #1C1D18",
"aY@	c #4A4539",
"bY@	c #262E25",
"cY@	c #1A2810",
"dY@	c #28340A",
"eY@	c #2F3A07",
"fY@	c #303B0A",
"gY@	c #262D0D",
"hY@	c #17160F",
"iY@	c #403E3E",
"jY@	c #222513",
"kY@	c #232513",
"lY@	c #18190D",
"mY@	c #353234",
"nY@	c #4D4641",
"oY@	c #62584C",
"pY@	c #6D6053",
"qY@	c #6E6154",
"rY@	c #6F6155",
"sY@	c #706256",
"tY@	c #6A5D52",
"uY@	c #74685E",
"vY@	c #0D0A10",
"wY@	c #3E3632",
"xY@	c #403834",
"yY@	c #342A24",
"zY@	c #715E4D",
"AY@	c #745F4B",
"BY@	c #715A45",
"CY@	c #6C553F",
"DY@	c #634E39",
"EY@	c #624F3C",
"FY@	c #5D5145",
"GY@	c #615347",
"HY@	c #635448",
"IY@	c #645447",
"JY@	c #635346",
"KY@	c #5D4D41",
"LY@	c #5C4E43",
"MY@	c #5F5045",
"NY@	c #575553",
"OY@	c #5B5B58",
"PY@	c #565554",
"QY@	c #625952",
"RY@	c #695B4E",
"SY@	c #746657",
"TY@	c #736455",
"UY@	c #625D51",
"VY@	c #696658",
"WY@	c #615D52",
"XY@	c #47463A",
"YY@	c #1F2117",
"ZY@	c #0A0D08",
"`Y@	c #0C100C",
" Z@	c #212824",
".Z@	c #142211",
"+Z@	c #1B260A",
"@Z@	c #1F2809",
"#Z@	c #21280B",
"$Z@	c #1C200E",
"%Z@	c #13160D",
"&Z@	c #3A3F28",
"*Z@	c #474B2B",
"=Z@	c #4A4C2D",
"-Z@	c #111108",
";Z@	c #574F4D",
">Z@	c #544D49",
",Z@	c #6B6053",
"'Z@	c #746659",
")Z@	c #76685C",
"!Z@	c #77695C",
"~Z@	c #76685B",
"{Z@	c #77695B",
"]Z@	c #776A5F",
"^Z@	c #7A6E64",
"/Z@	c #5E534B",
"(Z@	c #69605A",
"_Z@	c #615854",
":Z@	c #494240",
"<Z@	c #383133",
"[Z@	c #5D4F42",
"}Z@	c #604C3B",
"|Z@	c #5F4935",
"1Z@	c #624B35",
"2Z@	c #654D37",
"3Z@	c #6B543E",
"4Z@	c #5F5040",
"5Z@	c #54463A",
"6Z@	c #4C3F35",
"7Z@	c #5E5348",
"8Z@	c #61554B",
"9Z@	c #615449",
"0Z@	c #55473E",
"aZ@	c #665B55",
"bZ@	c #67584A",
"cZ@	c #706050",
"dZ@	c #4A4438",
"eZ@	c #4B483C",
"fZ@	c #161C1E",
"gZ@	c #050F0B",
"hZ@	c #070B05",
"iZ@	c #120E15",
"jZ@	c #42472C",
"kZ@	c #595B31",
"lZ@	c #434326",
"mZ@	c #18170C",
"nZ@	c #3C393C",
"oZ@	c #575350",
"pZ@	c #726B67",
"qZ@	c #68605C",
"rZ@	c #6E6459",
"sZ@	c #7E7064",
"tZ@	c #7F7265",
"uZ@	c #7E7063",
"vZ@	c #7E7264",
"wZ@	c #817365",
"xZ@	c #7E7164",
"yZ@	c #7A6E63",
"zZ@	c #776B60",
"AZ@	c #66615B",
"BZ@	c #5F5956",
"CZ@	c #5D5449",
"DZ@	c #61554A",
"EZ@	c #685D54",
"FZ@	c #70645E",
"GZ@	c #675C57",
"HZ@	c #3B3334",
"IZ@	c #353032",
"JZ@	c #3B2B20",
"KZ@	c #3E2C1E",
"LZ@	c #412D1B",
"MZ@	c #634A34",
"NZ@	c #705740",
"OZ@	c #735B46",
"PZ@	c #6E5948",
"QZ@	c #554536",
"RZ@	c #2B211A",
"SZ@	c #61564A",
"TZ@	c #66574B",
"UZ@	c #57483B",
"VZ@	c #54483D",
"WZ@	c #282225",
"XZ@	c #0E0908",
"YZ@	c #3F393B",
"ZZ@	c #564C46",
"`Z@	c #605650",
" `@	c #574F49",
".`@	c #4B4542",
"+`@	c #524C48",
"@`@	c #28221B",
"#`@	c #736352",
"$`@	c #3C2F20",
"%`@	c #2E2418",
"&`@	c #222117",
"*`@	c #11120C",
"=`@	c #0A0D0A",
"-`@	c #090D0B",
";`@	c #171918",
">`@	c #040A0D",
",`@	c #110C15",
"'`@	c #41492C",
")`@	c #5B5F2F",
"!`@	c #4C4E2A",
"~`@	c #1E1E0F",
"{`@	c #5C5957",
"]`@	c #787470",
"^`@	c #7A746F",
"/`@	c #6D6661",
"(`@	c #5D5550",
"_`@	c #6D6861",
":`@	c #353538",
"<`@	c #615547",
"[`@	c #6F6358",
"}`@	c #7D7167",
"|`@	c #736962",
"1`@	c #3F3938",
"2`@	c #1B1312",
"3`@	c #36271C",
"4`@	c #3B2A1A",
"5`@	c #644E36",
"6`@	c #745D43",
"7`@	c #2D2218",
"8`@	c #1E1712",
"9`@	c #1D1510",
"0`@	c #51493B",
"a`@	c #605849",
"b`@	c #685D4E",
"c`@	c #706052",
"d`@	c #6A5A4B",
"e`@	c #625142",
"f`@	c #5E544A",
"g`@	c #3A3436",
"h`@	c #363132",
"i`@	c #6A5F54",
"j`@	c #6D6055",
"k`@	c #6C635B",
"l`@	c #655A52",
"m`@	c #655851",
"n`@	c #655952",
"o`@	c #5E554F",
"p`@	c #544D48",
"q`@	c #716252",
"r`@	c #594A3B",
"s`@	c #1C1C14",
"t`@	c #080A09",
"u`@	c #171A20",
"v`@	c #070C10",
"w`@	c #0F0A12",
"x`@	c #3D452A",
"y`@	c #585B2D",
"z`@	c #4C4D29",
"A`@	c #202010",
"B`@	c #595453",
"C`@	c #756F6E",
"D`@	c #75706B",
"E`@	c #67625D",
"F`@	c #51493D",
"G`@	c #696561",
"H`@	c #66635F",
"I`@	c #55524F",
"J`@	c #716458",
"K`@	c #7C7066",
"L`@	c #786E65",
"M`@	c #59504C",
"N`@	c #342820",
"O`@	c #3B2C1D",
"P`@	c #4C3A27",
"Q`@	c #624D37",
"R`@	c #735D46",
"S`@	c #75604A",
"T`@	c #746250",
"U`@	c #221915",
"V`@	c #211913",
"W`@	c #494234",
"X`@	c #524B3D",
"Y`@	c #6D6354",
"Z`@	c #706254",
"``@	c #756657",
"  #	c #766455",
". #	c #2C262A",
"+ #	c #6D5F54",
"@ #	c #6C5D53",
"# #	c #6D5E52",
"$ #	c #68574D",
"% #	c #685A50",
"& #	c #695F59",
"* #	c #473E3B",
"= #	c #5D534D",
"- #	c #62544F",
"; #	c #61544F",
"> #	c #625852",
", #	c #645B56",
"' #	c #635A56",
") #	c #625955",
"! #	c #665D57",
"~ #	c #6A6059",
"{ #	c #564C49",
"] #	c #352D22",
"^ #	c #191D22",
"/ #	c #0B0F12",
"( #	c #3B4428",
"_ #	c #4B5326",
": #	c #54592A",
"< #	c #4B4D27",
"[ #	c #242512",
"} #	c #625D5B",
"| #	c #6B6555",
"1 #	c #564E41",
"2 #	c #605F59",
"3 #	c #2D2C30",
"4 #	c #5C5242",
"5 #	c #5C5041",
"6 #	c #5B524D",
"7 #	c #604E38",
"8 #	c #715F48",
"9 #	c #726453",
"0 #	c #251B15",
"a #	c #231B14",
"b #	c #706858",
"c #	c #786857",
"d #	c #746354",
"e #	c #4C4543",
"f #	c #6A5B51",
"g #	c #66584E",
"h #	c #5F5147",
"i #	c #61554C",
"j #	c #443D3A",
"k #	c #5C514B",
"l #	c #5D534E",
"m #	c #5E544F",
"n #	c #5F5551",
"o #	c #645A55",
"p #	c #615850",
"q #	c #2B2A2F",
"r #	c #191C22",
"s #	c #07040A",
"t #	c #131016",
"u #	c #373F25",
"v #	c #434A21",
"w #	c #454821",
"x #	c #262713",
"y #	c #645C4C",
"z #	c #5E5647",
"A #	c #454239",
"B #	c #5B5144",
"C #	c #695C51",
"D #	c #291E18",
"E #	c #4E412E",
"F #	c #574A36",
"G #	c #5E513E",
"H #	c #605143",
"I #	c #221A13",
"J #	c #1C1412",
"K #	c #281C15",
"L #	c #281B15",
"M #	c #281C14",
"N #	c #3D3629",
"O #	c #655C4E",
"P #	c #695D51",
"Q #	c #716355",
"R #	c #5E5A51",
"S #	c #1E181C",
"T #	c #20191C",
"U #	c #493F3A",
"V #	c #574735",
"W #	c #4A3A2C",
"X #	c #4C3D37",
"Y #	c #463934",
"Z #	c #3F3431",
"` #	c #423A37",
" .#	c #453D3B",
"..#	c #59524C",
"+.#	c #18191E",
"@.#	c #343531",
"#.#	c #2B2B2F",
"$.#	c #1C1F23",
"%.#	c #0F1314",
"&.#	c #394226",
"*.#	c #434A1D",
"=.#	c #3F441B",
"-.#	c #2B2D16",
";.#	c #363026",
">.#	c #68604E",
",.#	c #625947",
"'.#	c #615948",
").#	c #5C5852",
"!.#	c #5F594D",
"~.#	c #625B4E",
"{.#	c #5D574A",
"].#	c #5F5A4F",
"^.#	c #5F5B4F",
"/.#	c #74685A",
"(.#	c #655950",
"_.#	c #5B514A",
":.#	c #241A14",
"<.#	c #17100D",
"[.#	c #241A16",
"}.#	c #271B15",
"|.#	c #291C15",
"1.#	c #2A1C14",
"2.#	c #281A12",
"3.#	c #291B12",
"4.#	c #291D15",
"5.#	c #3A3226",
"6.#	c #534A41",
"7.#	c #5A5652",
"8.#	c #6E685D",
"9.#	c #6A6457",
"0.#	c #5C574F",
"a.#	c #352D2D",
"b.#	c #413835",
"c.#	c #423732",
"d.#	c #544230",
"e.#	c #3D2C1D",
"f.#	c #36261E",
"g.#	c #30211F",
"h.#	c #2A1E1E",
"i.#	c #4D4644",
"j.#	c #5D544E",
"k.#	c #48403D",
"l.#	c #232329",
"m.#	c #28292E",
"n.#	c #2A2C2C",
"o.#	c #101412",
"p.#	c #0D100D",
"q.#	c #514F49",
"r.#	c #3B4427",
"s.#	c #3B4217",
"t.#	c #383C17",
"u.#	c #4E4747",
"v.#	c #655D4F",
"w.#	c #655D4C",
"x.#	c #5E5443",
"y.#	c #625F5A",
"z.#	c #5C574C",
"A.#	c #5E5A50",
"B.#	c #60544D",
"C.#	c #574D47",
"D.#	c #120B0C",
"E.#	c #291A12",
"F.#	c #281910",
"G.#	c #2A1B12",
"H.#	c #2A1F17",
"I.#	c #6D6758",
"J.#	c #504A46",
"K.#	c #3A3334",
"L.#	c #443933",
"M.#	c #43372A",
"N.#	c #594934",
"O.#	c #67553D",
"P.#	c #5A4835",
"Q.#	c #402E22",
"R.#	c #33231E",
"S.#	c #2B1E1F",
"T.#	c #271E21",
"U.#	c #222227",
"V.#	c #2A2C2B",
"W.#	c #31322D",
"X.#	c #1E221D",
"Y.#	c #14190F",
"Z.#	c #0A0E08",
"`.#	c #080B08",
" +#	c #56544E",
".+#	c #3B4528",
"++#	c #394116",
"@+#	c #333813",
"#+#	c #2A2B16",
"$+#	c #605A49",
"%+#	c #5B5442",
"&+#	c #5A5141",
"*+#	c #58554F",
"=+#	c #59534F",
"-+#	c #59544A",
";+#	c #5B554C",
">+#	c #58544C",
",+#	c #5C584F",
"'+#	c #615A52",
")+#	c #2A1A11",
"!+#	c #28180F",
"~+#	c #27180F",
"{+#	c #2B1E16",
"]+#	c #291F18",
"^+#	c #6A6458",
"/+#	c #726B5C",
"(+#	c #282328",
"_+#	c #363235",
":+#	c #5D4D3B",
"<+#	c #31241F",
"[+#	c #271C1E",
"}+#	c #0E0F0B",
"|+#	c #202125",
"1+#	c #353732",
"2+#	c #353630",
"3+#	c #30312C",
"4+#	c #232520",
"5+#	c #1E270B",
"6+#	c #1C2606",
"7+#	c #161E03",
"8+#	c #0F1009",
"9+#	c #191813",
"0+#	c #191B11",
"a+#	c #353E14",
"b+#	c #2E3411",
"c+#	c #1E200F",
"d+#	c #1C1A20",
"e+#	c #5C5650",
"f+#	c #58524D",
"g+#	c #534E48",
"h+#	c #565049",
"i+#	c #2A1D15",
"j+#	c #312117",
"k+#	c #291911",
"l+#	c #2A1B13",
"m+#	c #2C2017",
"n+#	c #28201E",
"o+#	c #242126",
"p+#	c #3F3A3A",
"q+#	c #413A39",
"r+#	c #4C4031",
"s+#	c #4F4134",
"t+#	c #202224",
"u+#	c #1F2024",
"v+#	c #12130E",
"w+#	c #11140E",
"x+#	c #282A2B",
"y+#	c #2E322D",
"z+#	c #353731",
"A+#	c #35362F",
"B+#	c #2F312B",
"C+#	c #222521",
"D+#	c #20251B",
"E+#	c #273112",
"F+#	c #2F3E09",
"G+#	c #304205",
"H+#	c #2A3904",
"I+#	c #1F2C0A",
"J+#	c #202017",
"K+#	c #2D2E26",
"L+#	c #12130B",
"M+#	c #394017",
"N+#	c #333818",
"O+#	c #18180B",
"P+#	c #04040B",
"Q+#	c #07060E",
"R+#	c #2C2218",
"S+#	c #2F231C",
"T+#	c #5E564A",
"U+#	c #130C0D",
"V+#	c #130B0E",
"W+#	c #140D11",
"X+#	c #160F13",
"Y+#	c #302319",
"Z+#	c #3A2B1F",
"`+#	c #34251C",
" @#	c #261912",
".@#	c #221611",
"+@#	c #231712",
"@@#	c #271A15",
"#@#	c #31251C",
"$@#	c #332A20",
"%@#	c #655F52",
"&@#	c #15171A",
"*@#	c #251815",
"=@#	c #1B1419",
"-@#	c #221713",
";@#	c #22211A",
">@#	c #212423",
",@#	c #222527",
"'@#	c #212326",
")@#	c #10100A",
"!@#	c #141511",
"~@#	c #33342D",
"{@#	c #2D3028",
"]@#	c #1E221E",
"^@#	c #2A3311",
"/@#	c #384A09",
"(@#	c #3C5105",
"_@#	c #364807",
":@#	c #25330E",
"<@#	c #151E0C",
"[@#	c #202118",
"}@#	c #0F1008",
"|@#	c #333D21",
"1@#	c #444C22",
"2@#	c #3A3F21",
"3@#	c #03030B",
"4@#	c #14131A",
"5@#	c #1B100E",
"6@#	c #241813",
"7@#	c #30241F",
"8@#	c #2B1F1F",
"9@#	c #756E65",
"0@#	c #7D6E5E",
"a@#	c #786A5D",
"b@#	c #75675B",
"c@#	c #6B6056",
"d@#	c #2A2A2E",
"e@#	c #120B0F",
"f@#	c #150D11",
"g@#	c #211713",
"h@#	c #2F221A",
"i@#	c #1E130F",
"j@#	c #150E0C",
"k@#	c #2B211C",
"l@#	c #32271F",
"m@#	c #352A21",
"n@#	c #211613",
"o@#	c #201513",
"p@#	c #1B1010",
"q@#	c #1B1216",
"r@#	c #211514",
"s@#	c #251712",
"t@#	c #27170F",
"u@#	c #2C1C13",
"v@#	c #2B1C14",
"w@#	c #242119",
"x@#	c #23231D",
"y@#	c #242727",
"z@#	c #222528",
"A@#	c #23262A",
"B@#	c #222429",
"C@#	c #201E24",
"D@#	c #151610",
"E@#	c #1A1B18",
"F@#	c #31332B",
"G@#	c #2E3128",
"H@#	c #1D2317",
"I@#	c #384D0C",
"J@#	c #3F5609",
"K@#	c #36480A",
"L@#	c #212F0E",
"M@#	c #0D1608",
"N@#	c #1A1C16",
"O@#	c #0F1108",
"P@#	c #333E24",
"Q@#	c #43512A",
"R@#	c #4A532C",
"S@#	c #3B4022",
"T@#	c #080810",
"U@#	c #18161D",
"V@#	c #221816",
"W@#	c #281C1A",
"X@#	c #312623",
"Y@#	c #312724",
"Z@#	c #2C2221",
"`@#	c #6F655A",
" ##	c #2B2C31",
".##	c #2F3033",
"+##	c #150D10",
"@##	c #180F13",
"###	c #372A1F",
"$##	c #15181D",
"%##	c #261713",
"&##	c #2A1811",
"*##	c #2E1C12",
"=##	c #242722",
"-##	c #26292C",
";##	c #202126",
">##	c #14160C",
",##	c #14160D",
"'##	c #151510",
")##	c #2F302A",
"!##	c #1E221F",
"~##	c #233607",
"{##	c #293D08",
"]##	c #213107",
"^##	c #101E07",
"/##	c #020904",
"(##	c #1B2612",
"_##	c #253115",
":##	c #2B3417",
"<##	c #212710",
"[##	c #0A0912",
"}##	c #1B1920",
"|##	c #4A443F",
"1##	c #5C554E",
"2##	c #2B2C32",
"3##	c #2F3135",
"4##	c #232228",
"5##	c #170E12",
"6##	c #160D12",
"7##	c #241D15",
"8##	c #272018",
"9##	c #201514",
"0##	c #251512",
"a##	c #2C1811",
"b##	c #301B12",
"c##	c #301E13",
"d##	c #28251D",
"e##	c #262722",
"f##	c #262826",
"g##	c #24262A",
"h##	c #212126",
"i##	c #171910",
"j##	c #1C1E13",
"k##	c #1A1D12",
"l##	c #2E302B",
"m##	c #1E211F",
"n##	c #161B16",
"o##	c #111D09",
"p##	c #0C1D01",
"q##	c #0E1D02",
"r##	c #0A1603",
"s##	c #020C04",
"t##	c #000303",
"u##	c #050C02",
"v##	c #040D00",
"w##	c #0E0D14",
"x##	c #2A2D32",
"y##	c #150E10",
"z##	c #140D10",
"A##	c #180F14",
"B##	c #160F12",
"C##	c #1E1612",
"D##	c #31261D",
"E##	c #111518",
"F##	c #14181D",
"G##	c #0E070B",
"H##	c #120A0F",
"I##	c #191115",
"J##	c #1B1317",
"K##	c #1E1413",
"L##	c #2C1912",
"M##	c #311C13",
"N##	c #311E14",
"O##	c #2F2015",
"P##	c #2B2218",
"Q##	c #272721",
"R##	c #191A13",
"S##	c #1C1E14",
"T##	c #1E201E",
"U##	c #0F1A0B",
"V##	c #041200",
"W##	c #031001",
"X##	c #010A02",
"Y##	c #000603",
"Z##	c #363337",
"`##	c #030B02",
" $#	c #020A00",
".$#	c #060D00",
"+$#	c #06050B",
"@$#	c #514A46",
"#$#	c #6F675D",
"$$#	c #6F675B",
"%$#	c #6A6153",
"&$#	c #6D6455",
"*$#	c #2E3135",
"=$#	c #111217",
"-$#	c #120B0E",
";$#	c #110B0A",
">$#	c #121519",
",$#	c #13171C",
"'$#	c #181A1C",
")$#	c #0D090F",
"!$#	c #0C050A",
"~$#	c #170F14",
"{$#	c #1D1312",
"]$#	c #231510",
"^$#	c #311E13",
"/$#	c #302014",
"($#	c #2D2117",
"_$#	c #1A1C13",
":$#	c #1C1F1C",
"<$#	c #0E180A",
"[$#	c #010C02",
"}$#	c #000702",
"|$#	c #010805",
"1$#	c #000403",
"2$#	c #343135",
"3$#	c #3A373A",
"4$#	c #030901",
"5$#	c #030C00",
"6$#	c #070F01",
"7$#	c #070D01",
"8$#	c #070B04",
"9$#	c #464343",
"0$#	c #212227",
"a$#	c #2A2D31",
"b$#	c #191210",
"c$#	c #150E11",
"d$#	c #17120E",
"e$#	c #31261A",
"f$#	c #2F2519",
"g$#	c #121619",
"h$#	c #17191B",
"i$#	c #0D0A0F",
"j$#	c #030004",
"k$#	c #090307",
"l$#	c #140D12",
"m$#	c #1A1116",
"n$#	c #1C1414",
"o$#	c #1D1412",
"p$#	c #231511",
"q$#	c #2D1A13",
"r$#	c #331E14",
"s$#	c #321E13",
"t$#	c #312015",
"u$#	c #2E2217",
"v$#	c #2C2C27",
"w$#	c #080906",
"x$#	c #050C03",
"y$#	c #000600",
"z$#	c #000301",
"A$#	c #010503",
"B$#	c #181319",
"C$#	c #100C12",
"D$#	c #5D5245",
"E$#	c #212225",
"F$#	c #2A2B30",
"G$#	c #2F3134",
"H$#	c #352819",
"I$#	c #342617",
"J$#	c #342718",
"K$#	c #14181C",
"L$#	c #13151A",
"M$#	c #0E070C",
"N$#	c #160E13",
"O$#	c #2D1B15",
"P$#	c #311D14",
"Q$#	c #301F14",
"R$#	c #2E241A",
"S$#	c #2B261E",
"T$#	c #010900",
"U$#	c #060E01",
"V$#	c #0B0C0A",
"W$#	c #382E22",
"X$#	c #3F352A",
"Y$#	c #17110F",
"Z$#	c #2B2D30",
"`$#	c #3B2E23",
" %#	c #372A1A",
".%#	c #372918",
"+%#	c #372817",
"@%#	c #35271A",
"#%#	c #33271C",
"$%#	c #1C1E20",
"%%#	c #161A1E",
"&%#	c #161A20",
"*%#	c #14161B",
"=%#	c #2A2D2C",
"-%#	c #1A1D1E",
";%#	c #2D1D17",
">%#	c #2F1D14",
",%#	c #2E1E13",
"'%#	c #2E2117",
")%#	c #1D181E",
"!%#	c #100C13",
"~%#	c #060A01",
"{%#	c #2C2D2E",
"]%#	c #3A2C21",
"^%#	c #362817",
"/%#	c #35281C",
"(%#	c #100906",
"_%#	c #0E0806",
":%#	c #171A1E",
"<%#	c #16191F",
"[%#	c #15171C",
"}%#	c #080206",
"|%#	c #140C10",
"1%#	c #2A1C17",
"2%#	c #2B1D14",
"3%#	c #161511",
"4%#	c #151511",
"5%#	c #201B20",
"6%#	c #000501",
"7%#	c #040902",
"8%#	c #0A0B07",
"9%#	c #201814",
"0%#	c #1C1511",
"a%#	c #332619",
"b%#	c #130C09",
"c%#	c #16191C",
"d%#	c #161A1F",
"e%#	c #0F090C",
"f%#	c #2A1F19",
"g%#	c #12140D",
"h%#	c #050806",
"i%#	c #14161A",
"j%#	c #201613",
"k%#	c #29271E",
"l%#	c #1B1C14",
"m%#	c #070A08",
"n%#	c #150F13",
"   .  +  @  #  $  %  &  *  =  -  ;  >  ,  '  )  !  ~  {  ]  ^  /  (  _  :  <  [  }  }  }  |  1  2  3  4  5  6  7  8  9  0  a  b  c  d  e  f  g  h  i  j  k  l  m  n  o  p  q  r  s  t  u  v  w  x  y  z  A  B  C  D  E  F  G  H  I  J  K  L  M  N  O  P  Q  R  S  T  U  V  W  X  Y  Z  `   . .. +. @. #. $. %. &. *. =. -. ;. >. ,. '. ). !. ~. {. ]. ^. /. (. _. :. <. [. }. |. 1. 2. 3. 4. 5. 6. 7. 8. 9. 0. a. b. c. d. e. f. g. h. i. j. k. 4  l. m. n. o. p. q. r. s. t. u. v. w. x. y. z. [  A. B. C. }  }  }  D. E. F. G. H. I. J. K. L. M. N. O. P. Q. R. S. T. U. V. W. i. X. Y. Z. `.  + .+ ++ @+ #+ $+ %+ &+ *+ =+ -+ ;+ >+ ,+ '+ )+ !+ ~+ {+ ]+ M  ^+ /+ }  }  }  }  }  (+ _+ :+ <+ [+ }+ |+ 1+ 2+ 3+ 4+ 5+ 6+ 7+ d. 8+ W  9+ 0+ a+ b+ c+ d+ e+ f+ g+ h+ i+ j+ k+ l+ m+ n+ o+ p+ q+ r+ s+ t+ u+ v+ w+ x+ y+ z+ A+ B+ C+ D+ E+ F+ G+ H+ I+ J+ K+ L+ M+ N+ O+ P+ Q+ R+ S+ T+ U+ V+ W+ X+ Y+ Z+ `+  @ .@ +@ @@ #@ $@ %@ &@ *@ =@ -@ ;@ >@ ,@ '@ )@ !@ ~@ {@ ]@ ^@ ^@ /@ (@ _@ :@ <@ [@ a. }@ |@ 1@ 2@ 3@ 4@ 5@ 6@ 7@ ",
"8@ 9@ 0@ a@ b@ c@ d@ e@ f@ g@ h@ i@ j@ k@ l@ m@ n@ o@ p@ q@ r@ s@ t@ u@ v@ w@ [  x@ }  }  A. y@ 2  z@ A@ B@ C@ D@ E@ F@ G@ H@ I@ J@ K@ L@ M@ N@ O@ P@ Q@ R@ S@ T@ U@ V@ W@ X@ Y@ Z@ `@  # .# +# @# ## $# %# &# *# =# -# ;# ># H  I  ,# '# )# !# =# ~# {# ]# ^# /# (# _# :# <# [# }# |# 1# 2# 3# 4# 5# 6# 7# 8# 9# 0# a# b# c# d# e# f# g# h# i# j# k# l# m# n# o# p# q# r# s# t# u# v# w# x# y# z# A# B# C# D# E# F# G# H# I# J# K# L# M# N# O# P# Q# R# S# T# U# V# W# X# Y# Z# `#  $ .$ +$ @$ #$ $$ %$ &$ x@ }  }  D. *$ =$ -$ ;$ >$ ,$ '$ )$ !$ ~$ O. {$ ]$ ^$ /$ ($ _$ :$ <$ [$ }$ |$ 1$ 2$ 3$ 4$ 5$ 6$ #+ 7$ %+ 8$ 9$ 0$ a$ b$ c$ d$ e$ f$ g$ h$ i$ j$ k$ l$ m$ }  }  }  }  }  n$ o$ p$ q$ r$ s$ t$ u$ v$ w$ x$ y$ z$ A$ B$ C$ D$ E$ F$ G$ ,+ H$ I$ J$ K$ L$ M$ N$ O$ P$ Q$ R$ S$ T$ U$ V$ W$ X$ Y$ Z$ `$  % .% +% @% #% $% %% &% *% =% -% ;% >% ,% '% )% !% ~% {% ]% ^% /% (% _% :% <% [% }% |% 1% 2% 3% 4% 5% 6% 7% 8% 9% 0% a% b% c% d% e% f% g% h% i% j% k% l% m% n% o% p% q% r% s% t% u% v% w% x% y% z% A% B% C% D% ",
"E% F% G% H% I% J% K% L% M% N% O% P% Q% R% S% T% U% V% W% X% Y% Z% `%  & .& +& @& }  }  }  C. #& $& %& && *& =& -& ;& >& ,& '& )& !& ~& {& ]& ^& /& (& _& :& ~. !. <& [& }& |& 1& 2& 3& 4& 5& 6& 7& 8& 9& 0& B  a& b& c& d& e& f& g& h& i& j& k& l& m& n& o& p& q& r& s& t& u& v& w& x& y& z& A& B& C& D& E& F& G& H& I& J& K& L& M& N& O& P& Q& R& S& T& U& V& W& X& X& Y& Z& `&  * .* +* @* #* $* %* &* ** =* -* ;* >* ,* '* )* !* ~* {* n. ]* ^* /* (* _* :* <* [* }* |* 1* 2* 3* 4* 5* 6* 7* 8* 9* 8* 0* x@ }  }  D. a* b* c*  . d* e* f* g* h* i* j* k* l* m* n* o* p* q* r* s* t* u* v* w* x* y* z* &+ A* B* C* 9$ A* D* E* F* G* H* I* J* K* L* M* N* 4* O* P* }  }  }  }  }  (+ Q* :+ <+ R* S* T* U* h. V* W* X* Y* Z* `*  = .= += @= #= $= %= &= *= v% == -= ;= >= ,= '= )= != ~= {= ]= ^= /= (= _= := <= [= }= |= 1= 2= 3= 4= 5= 6= 7= 8= 9= 0= a= b= c= d= e= f= g= h= i= j= k= l= m= n= o= p= q= r= s= t= u= v= w= x= 0% y= z= A= B= C= D= E= F= G= H= ~@ '+ I= J= K= L= M= N= O= P= Q= R= S= T= U= V= W= X= Y= Z= ",
"`=  - .- +- @- #- $- %- &- *- =- -- ;- >- ,- '- )- !- ~- {- ]- ^- /- (- _- w@ [  }  }  }  :- <- $& [- z. }- 4* |- 1- 2- 3- 4- 5- 6- 7- 8- 9- 0- a- b- c- d- e- f- g- h- i- j- k- l- m- n- o- p- q- r- s- t- u- v- |- w- x- y- I  g& h& G. z- A- B- C- s. D- E- F- G- H- I- J- K- L- M- N- O- P- Q- R- S- T- &$ U- V- W- X- Y- Z- `-  ; .; +; @; #; $; %; &; U& *; =; -; ;; -; >; ,; '; ); !; ~; {; ]; ^; /; (; _; :; <; [; r# }; |; 1; 2; 3; 4; 5; 6; :; 7; 8; 9; q* 0; a; v* b; c; d; e; f; g; h; i; j; k; l; }  }  D. m; n;  . o; p; q; r; s; t; u; v; w; x; y; z; A; B; C; D; E; F; G; H; I; J; K; L; M; N; O; A* O# P; Q; R; S; T; ]+ U; B% V; W; B# X; Y; i+ P* }  }  }  }  }  4- Z; =. `;  > .> +> @> #> $> %> &> *> => -> ;> >> ,> v# '> )> !> ~> {> ]> ^> /> (> _> f. :> <> [> }> |> 1> 2> 3> 4> 5> 6> 7> 8> 9> 0> a> b> c> d> e> f> g> h> i> j> k> l> m> n> 8% o> p> q> r> s> t> u> v> w> x> y> z> A> B> p= C> D> E> F> G> H> I> J> K> L> M> N> O> P> Q> y  R> S> T> U> V> W> X> Y> Z> `* `>  , ., +, @, @, Y= #, $, ",
"U. ($ %, &, *, =, -, ;, >, ,, ', ), !, ~, {, ], ^, /, (, _, :, <, [, }, _- |, 1, }  }  }  2, 3, 4, 4$ 5, 6, 7, 8, 9, 0, a, b, c, d, e, f, g, h, U* i, j, k, l, m, n, I# o, p, q, r, s, s, t, p% u, v, w, I$ x, y, ]* z, A, B, C, f& D, E, z- F, G, H, I, J, K, L, M, N, O, P, Q, R, S, T, U, V, W, X, Y, Z, `,  ' .' +' $* @' #' $' %' &' *' =' -' ;' >' ,' '' )' !' ~' Y& {' ]' ^' /' (' _' :' <' [' }' |' 1' 2' A# 3' 4' 5' 6' 7' 8' 9' 0' a' b' c' N* d' e' f' p* g' h' i' /  j' k' :  l' m' n' j; o' [+ Y, }  x@ Z, p' q' r' s' t' u' v' Z  w' x' y' X  z' A' B' C' D' E' F' G' H' I' J' K' L' M' N' 3$ O' P' B* Q' R' S' T' U' V' W' X' Y' Z' `'  ) /. .) +) @) }  }  }  }  }  #) $) %) &) *) z. p. =) -) ;) >) ,) ') )) !) ~) {) ]) ^) %= &= /) () _) :) <) [) }) |) 1) 2) 3) 4) 5) 6) 7) 8) 9) 0) a) b) c) d) e) f) g) h) i) j) k) l) m) n) o) p) q) r) s) w= t) u) v) w) x) y) z) A) B) C) D) E) F) G) H) I) J) K) L) M) N) O) P) Q) R) S) T) U) V) W) X) Y) Z) `)  ! .! +! @! #! $! %! &! *! =! -! ;! |> >! L= ,! '! ",
"~+ S. )! !! ~! =, {! ]! ^! /! (! _! :! <! [! }! |! 1! 2! 3! 4! 5! 6! 7! v@ 8! 9! }  }  }  0! a! 8! b! c! d! e! f! d! Y. g! h! i! j! k! #& l! A@ m! n! o! p! q! r! s! t! u! )) v! w! x! y! z! A! V> ]> B! C! D! E! ]* F! G! H! H  H  I! J! K! L! M! N! O! P! Q! R! S! T! U! V! W! X! Y! Z! `!  ~ .~ +~ @~ T- #~ }# V= $~ %~ &~ *~ =~ -~ ;~ `- >~ %* ,~ '~ V# )~ !~ X; ~~ {~ ]~ ^~ /~ (~ _~ :~ <~ [~ }~ |~ 1~ 2~ 3~ 4~ 5~ 6~ 7~ 8~ 9~ 0~ a~ r. b~ c~ d~ e~ f~ g~ h~ i~ j~ k~ l~ m~ n~ .& *+ 2  o~ d* p~ p~ [+ T- }  x@ f& G. q~ r~ r~ -# s~ t~ u~ v~ w~ x~ y~ z~ A~ B~ C~ K@ D~ E~ F~ G~ H~ I~ J~ K~ L~ M~ N~ O~ I. B* P~ Q~ R~ S~ T~ U~ V~ W~ X~ Y~ Z~ /; `~  { .{ C, x@ l; }  }  Y, J! +{ @{ #{ ${ %{ &{ z* *{ ={ -{ ;{ A# >{ ,{ '{ ){ !{ ~{ L$ {{ T! ]{ ^{ /{ ({ _{ :{ _{ <{ [{ }{ |{ 1{ 2{ 3{ 4{ 5{ 6{ 7{ 8{ 9{ 0{ a{ b{ c{ d{ M) e{ f{ g{ h{ i{ j{ k{ l{ m{ n{ o{ p{ %@ q{ r{ q{ s{ t{ u{ v{ w{ x{ y{ z{ A{ B{ C{ D{ E{ F{ G{ H{ I{ J{ K{ L{ M{ N{ O{ P{ Q{ R{ S{ T{ U{ V{ W{ X{ x% Y{ Z{ `{  ] .] +] @] #] $] %] #] &] *] ",
"u$ =] -] ;] >] ,] '] )] !] ~] {] ]] ^] /] (] _] :] <] [] }] |] 1] 2] 3] 4] *+ $$ }  }  }  0! 6- 4, 5] l' 6] 7] 8] 9] Y. 0] f& a] b] ;$ c] d] e] f] g] 3* y. h] i] j] k] l] m] n] o] p] q] r] s] t] u] v] _{ w] x] y] z] A] B] f& f& D, J! C] F, D] L  E] F] X' G] H] I] J] K] L] M] N] O] P] Q] M# z. R] S] T] U] V] W] X] Y] Z] `]  ^ .^ +^ @^ 4' #^ (' /; 2' 9; :$ $^ %^ J= &^ *^ =^ :~ -^ ;^ >^ ,^ '^ )^ !^ ~^ {^ ]^ ^^ /^ (^ _^ :^ <^ [^ }^ z* |^ 1^ 2^ 3^ h~ 4^ 5^ 6^ 7^ 8^ 9^ .& 0^ 9$ #+ a^ O- P- b^ 0] }  }  c^ d^ e^ f^ g^ h^ i^ Z  =# j^ k^ l^ N] |* m^ n^ o^ p^ q^ r^ s^ t^ u^ v^ w^ x^ y^ z^ Q] A^ b] B^ 6* C^ D^ E^ F^ G^ H^ I^ J^ K^ [* L^ M^ N^ O^ P^ Q^ R^ S^ S- T^ U^ V^ W^ X^ Y^ Z^ `^  / ./ +/ U] @/ #/ $/ %/ &/ */ =/ -/ ;/ >/ ,/ >/ '/ )/ >* !/ x. ~/ {/ {/ ]/ ^/ // (/ _/ :/ </ [/ }/ |/ 1/ 2/ 3/ 4/ 5/ 6/ 7/ 8/ 9/ 0/ a/ b/ c/ d/ e/ f/ v{ g/ h/ h/ i/ j/ i/ i/ k/ l/ m/ n/ o/ p/ q/ r/ s/ t/ u/ v/ w/ x/ y/ z/ A/ B/ C/ D/ E/ F/ G/ H/ I/ J/ K/ L/ M/ N/ O/ P/ Q/ R/ S/ T/ U/ V/ W/ -* X/ Y/ Z/ -/ `/ ",
" ( =] .( +( @( #( $( %( &( *( =( -( ;( >( ,( '( )( !( ~( {( ]( ^( /( (( N; _( $$ }  }  }  0! 6- 1  b! :( <( [( }( %{ |( 1( H  R^ 2( 3( i; n' 4  4( 5( 6( T* 7( 8( 9( 0( a( @; b( c( d( e( f( g( h( i( j] j( k( l( m( n( o( p( /+ H  q( r( K! s( G, t( G^ O! u( v( w( x( y( z( A( c' B( C( D( E( F( G( H( I( J( o! K( L( M( U@ N( g$ O( P( Q( R( /$ S( T( U( V( ;~ W( X( Y( w, Z( `(  _ ._ +_ @_ #_ $_ %_ &_ *_ =_ -_ ;_ >_ ,_ '_ )_ !_ ~_ {_ ]_ c! c! z* ^_ /_ (_ __ :_ <_ [_ }_ |_ 1_ 2_ 3_ 4, 5$ 2_ b! .+ g! x@ x@ 4_ D] E* 5_ 6_ ;& 7_ 8_ 9_ x~ 0_ a_ b_ c_ d_ e_ f_ g_ h_ i_ v^ j_ k_ l_ m_ n_ o_ p_ N~ q_ r_ s_ t_ u_ v_ w_ x_ y_ z_ A_ B_ C_ D_ C# E_ F_ q$ G_ G  H_ I_ J_ K_ L_ M_ N_ O_ P_ Q_ R_ z* S_ T_ U_ V_ W_ X_ Y_ Z_ `_  :  ( .: +: J, @: y, #: $: %: &: *: =: -: -: L, '> ;: >: ,: ': ): !: ~: {: ]: ^: /: (: _: :: <: [: }: |: 1: 2: 3: 4: 5: 6: 7: 8: 9: 0: a: b: j/ c: d: e: f: g: h: i: j: k: l: k: m: n: o: p: q: r: s: t: u: v: w: x: y: z: A: B: C: D: E: /. E: F: G: H: $: I: *: J: K: L: M: N: O: P: ",
"Q: E: R: S: T: U: V: W: X: Y: Z: `:  < .< +< @< #< X= $< %< &< *< =< -< ;< >< $$ }  }  }  0! ,< y@ '< l' 6] )< )< !< Y. ~< Z, {< ]< ++ <  k' {_ ^< /< O$ (< _< :< << [< }< |< 1< 2< +! 3< 4< {# A% 5< 6< 7< 8< 9< 0< B- a< ,# I  b< h& E, c< s( n; d< e< f< g< h< a_ i< j< k< l< m< n< C( o< p< q< r< <@ s< t< N. u< v< ., w< x< C% y< z< A< B< 7( C< D< E< M& F< G< H< I< J< K< L< M< N< O< 1~ P< Q< R< S< T< U< V< W< X< Y< Z< `<  [ .[ +[ +[ @[ @[ o. #[ $[ %[ %' &[ F< *[ =[ -[ ;[ >[ 6$ w@ b! a! ,[ O~ '[ x@ )[ ![ ~[ E* {[ ][ c~ ^[ /[ ([ _[ :[ :[ P# o. <[ [[ }[ |[ 1[ 2[ 3[ 4[ 4[ 5[ 6[ 7[ 8[ 9[ 0[ A^ a[ b[ L; c[ d[ e[ f[ g[ h[ i[ j[ k[ l[ m[ n[ o[ p[ q[ r[ s[ t[ 2( 2( u[ v[ w[ x[ Y^ y[ z[ +[ A[ m' B[ C[ D[ E[ F[ {) G[ H[ B< f! I[ J[ K[ L[ M[ N[ O[ W# P[ Q[ R[ S[ T[ U[ V[ W[ X[ Y[ Z[ `[  } .} +} @} #} $} %} &} *} =} -} ;} >} ,} '} )} !} ~} {} ]} ^} /} (} _} :} <} [} }} |} 1} 2} 3} o: 4} 5} 6} 7} 8} 9} 0} a} b} c} d} e} f} g} h} i} j} k} l} m} E! n} b' o} p} q} r} s} v~ u; t; t} u} v} w} x} y} ",
"B< E: Y< z} A} B} C} D} E} F} G} H} I} J} K} L} M} N} O} P} !/ 0_ Q} R} S} T} U} }  }  }  l; ,< y@ k. h; R' C- b& d! R] S] V} W} X} Y} Z} `}  | .| +| @| #| $| g~ %| 8+ &| &| ($ q! *| =| -| ;| >| ,| '| )| !| ~| {| ]| O^ ^| /| g& (| _| c< :| C] <| N_ [| }| || 1| 2| 3| U& 4| 5| q. 6| 6; n& 7| 8| 9| )' *; 0| a| W> b| c| x< d| t! e| f| g| h| i| j| k| l| m| n| o| p| o& q| r| s| t| u| [' v| w| S( x| :] g# y| z| A|  - B| C| :^ D| E| F| G| H| I| J| K| r! L| M| N| O| P| Q| R| |, l' C* 5, S| b! k; T^ )[ T| U| U^ q~ V| W| [@ X| Y| Z| `|  1 -& .1 +1 H( @1 #1 $1 %1 &1 *1 =1 -1 ;1 >1 ,1 '1 )1 4$ !1 I. 9$ a~ ~1 {1 p! ]1 ^1 /1 (1 _1 :1 <1 [1 }1 |1 J  11 U^ u[ 21 31 41 +{ 51 61 71 81 Y^ 91 01 a1 b1 && 7* t_ c1 d1 e1 f1 g1 h1 i1 I[ M$ j1 k1 l1 m1 n1 o1 p1 q1 r1 s1 t1 u1 v1 w1 x1 y1 z1 A1 B1 C1 D1 E1 F1 G1 _: H1 I1 J1 K1 L1 M1 N1 O1 P1 Q1 R1 S1 T1 U1 V1 W1 X1 Y1 Z1 `1 `1  2 .2 +2 @2 #2 $2 %2 &2 *2 =2 &2 -2 ;2 a} >2 ,2 '2 )2 !2 ~2 {2 ]2 ^2 /2 (2 _2 :2 <2 [2 }2 |2 y' 12 22 32 42 52 62 72 82 92 92 ",
"02 b. a2 b2 c2 d2 e2 f2 g2 h2 i2 j2 k2 l2 m2 n2 o2 p2 q2 r2 s2 t2 u2 v2 w2 x2 `; }  }  }  l; y2 s[ z2 A2 R; R; d* C* %$ 0! }  l; x@ 0! l; :- B2 C2 D2 E2 E2 K^ F2 G2 H2 I2 J2 K2 L2 M2 N2 O2 P2 Q2 R2 S2 T2 U2 V2 )& W2 X2 Y2 /| I  h& Z2 D] F, n; `2  3 .3 +3 @3 2| #3 $3 %3 &3 *3 =3 -3 /> ;3 >3 ,3 '3 )3 !3 K( ~3 {3 ]3 ^3 /3 (3 |. m| _3 :3 <3 [3 }3 |3 Z] 13 23 8^ ~# 33 43 53 63 73 83 93 N| d. 03 !~ c. a3 b3 c3 l[ d3 e3 f3 S# g3 h3 h3 1- i3 j3 k3 l3 m3 n3 o3 p3 q3 r3 s3 t3 v@ b1 && h; 8! w@ u3 v3 )[ w3 T| x3 y3 z3 E! A3 i] B3 i~ _< m& :[ C3 4  D3 E3 F3 G3 H3 I3 J3 K3 L3 M3 N3 O3 P3 Q3 4$ R3 3( Q' S3 T3 U3 T* V3 W3 X3 Y3 Z3 `3 q!  4 .4 O* +4 @4 #4 z- n; $4 x2 %4 x2 T2 P' &4 *4 *4 =4 -4 ;4 =4 >4 ,4 M# '4 )4 E: b. .$ R~ !4 ~4 .: {4 ]4 ^4 /4 (4 _4 :4 <4 [4 }4 |4 14 24 34 44 54 64 74 84 94 04 a4 b4 c4 d4 e4 f4 g4 h4 i4 j4 7: k4 l4 8% m4 n4 o4 p4 q4 r4 s4 t4 W1 u4 v4 w4 x4 y4 z4 A4 B4 C4 D4 E4 F4 d> G4 H4 I4 J4 K4 L4 M4 N4 O4 P4 Q4 R4 S4 T4 U4 V4 v( I, j^ v~ W4 X4 Y4 Z4 42 `4  5 72 H^ 62 ",
".5 +5 @5 #5 $5 %5 &5 *5 =5 -5 ;5 >5 ,5 '5 )5 !5 ~5 {5 ]5 ^5 /5 (5 _5 :5 R} b* `; }  }  }  l; y2 <5 [5 }5 `2 |5 _( 15 25 35 0! 45 l; 0! l; 55 65 J( 75 85 95 05 t< a5 a5 b5 C_ c5 d5 I2 e5 f5 g5 h5 i5 j5 k5 l5 K_ m5 n5 O^ ,& m$ m$ o5 p5 q5 r5 s5 t5 u5 v5 R[ w5 x5 y5 z5 A5 B5 C5 D5 E5 F5 G5 H5 I5 *~ <_ J5 v< K5 L5 M5 u| `{ N5 O5 P5 Q5 R5 S5 Q& T5 U5 ]. V5 W5 X5 Y5 Z5 Z' `5 5^  6 .6 #! +6 @6 #6 $6 @> %6 &6 *6 =6 -6 ;6 >6 !_  [ ,6 '6 )6 )6 r. 6| /. !6 ~6 {6 ]6 ^6 /6 (6 _6 :6 <6 [6 C* #+ a^ }6 |6 )[ 16 x@ c^ 26 36 46 56 66 76 86 96 06 a6 ;& b6 c6 b~ d6 e6 f6 g6 h6 i6 D2 j6 k6 l6 m6 n6 |$ 0^ o6 d! p6 q6 r6 s6 t6 u6 v6 w6 x6 y6 z6 A6 B6 0* P^ C6 D6 q5 z- 31 41 E6 F6 G6 Q^ m5 3( &4 o' o~ t5 t5 P-  + `} H6 Q3 =6 I6 J6 K6 +$ E! %; T* L6 ^4 M6 N6 O6 P6 Q6 R6 S6 T6 U6 V6 W6 X6 Y6 Z6 `6  7 .7 +7 @7 #7 $7 %7 &7 *7 =7 -7 ;7 ~} >7 ,7 h/ E> '7 )7 !7 p4 ~7 r4 t4 {7 X1 ]7 ^7 /7 (7 _7 :7 <7 a: 3} n: [7 }7 |7 17 27 37 47 57 67 77 87 97 L_ 07 a7 A- b7 z& c7 d7 e7 f7 g7 t} h7 Y4 Z4 i7 j7 i7 k7 k7 v} ",
";/ l7 m7 n7 o7 p7 q7 r7 s7 t7 u7 v7 w7 x7 y7 z7 A7 A7 B7 /5 C7 D7 E7 v2 F7 b* `; }  }  }  l; I_ G7 H7 I7 J7 A, K7 a! L7 J( B2 M7 65 N7 O7 P7 Q7 R7 S7 T7 U7 V7 y^ W7 X7 Y7 Z7 `7  8 .8 +8 @8 #8 $8 %8 &8 H2 *8 =8 o[ |1 -8 e, ;8 T- >8 ,8 o6 '8 )8 !8 z3 v5 ~8 {8 x5 ]8 y5 }1 ^8 /8 (8 _8 :8 <8 [8 }8 |8 .( 18 28 /3 38 48 58 68 78 *! 88 98 08 a8 N& b8 c8 7. d8 W5 e8 f8 n# S& M| g8 h8 i8 j8 4' k8 R_ L: l8 n. 5| m8 c~ n8 W. o8 p8 q8 r8 s8 t8 N$ u8 v8 w8 x8 y8 z8 A8 B8 C8 D8 E8 F8 G8 [^ H8 C* O- u3 I8 x@ x@ }  J8 j. p. K8 L8 M8 N8 O8 P8 Q8 R8 S8 n' 2  T8 U8 V8 W8 X8 Y8 Z8 `8  9 .9 k6 +9 @9 i. #9 B[ h3 p< $9 %9 &9 *9 =9 -9 ;9 >9 ,9 '9 )9 *: W, `, !9 G. ~9 {9 ]9 ^9 L_ U^ /9 i! e& (9 _9 9$ O- :9 C* w@ <9 R] [9 /< e~ G( )' E! }9 |9 %; 19 29 39 49 59 69 79 89 99 09 a9 b9 c9 d9 e9 f9 g9 h9 i9 j9 k9 l9 m9 n9 o9 p9 q9 A{ I) r9 s9 t9 u9 v9 w9 x9 x9 y9 z9 A9 r4 B9 C9 t4 D9 E9 F9 G9 H9 I9 J9 K9 L9 l{ M9 N9 O9 P9 Q9 R9 S9 T9 U9 V9 W9 X9 Y9 #{ Z9 `9 F!  0 .0 +0 @0 #0 $0 w} %0 &0 *0 X4 =0 52 12 g* u; ",
"-0 !' ~' ;0 >0 ,0 '0 )0 !0 ~0 {0 ]0 ^0 /0 (0 _0 _0 :0 <0 u; [0 }0 |0 10 c< b* 20 }  }  }  0! I_ P' ,$ P'  . A2 9* 30 40 50 60 50 70 80 90 00 a0 b0 c0 d0 e0 f0 g0 h0 i0 j0 k0 l0 m0 n0 o0 p0 q0 r0 s0 t0 u0 X# n[ v0 t8 w0 x0 y0 0! z0 a[ o6 A0 )8 !8 ${ b6 B0 C0 N: D0 E0 F0 G0 H0 I0 J0 w% K0 L0 M0 N0 O0 P0 Q0 R0 S0 T0 U0 V0 W0 D< X0 Y0 Z0 `0  a .a +a E: A3 F- @a #a $a H# ~6 %a &a *a =a e' -6 l( -a ;a 4* P: >a ,a D^ 'a )a !a ~a {a ]a `| I6 ^a |* /a (a _a :a <a [a }a |a 1a 2a 3a c; m' t5 p~ A^ x@ x@ x@ }  &$ c! 4a 5a ;' 6a 7a 8a 9a 0a aa ba n' z@ n. ca da ea fa ga ha ia G; ja ka la ma na v* oa pa qa ra G( _[ [| sa h[ ta ua Q! va wa -0 x~ xa ya za Aa u[ Ba Ca Da Ea Fa Ga Ha Ia *4 H| )6 G| +1 5$ Ja <- Ka ^< P: z( {/ )' n} La Ma Na Oa Pa Qa Ra Sa Ta Ua Va Wa Xa Ya 6/ Za `a  b .b +b @b #b $b %b &b *b =b -b -b ;b >b ,b 'b )b !b ~b {b ]b ]b ^b ^b /b /b s4 (b _b :b <b [b }b |b 1b 2b 3b 4b 5b 6b 7b 8b 9b 0b ab bb cb db eb fb gb hb ib jb kb *; lb mb nb ob pb qb rb !| sb =9 32 tb ub 1| vb a_ ",
"wb xb yb zb Ab #* M( Bb Cb Db Eb Fb Gb Hb Ib Jb Jb Kb Lb 71 Mb Nb Ob Pb K! Qb Rb }  }  }  0! I_ P' Sb Tb ,< Ub Vb Wb Xb S7 Yb Zb `b  c .c +c @c #c $c %c &c *c =c -c ;c >c ,c 'c )c !c ~c {c ]c ^c /c (c _c  ^ :c <c [c }c |c 1c 2c &$ 3c 4c j; &+ m' 5c 6c 7* 7c c~ 8c 9c k1 O$ 0c ac bc d| cc dc ec fc gc hc ic jc kc lc mc nc 5^ A# Z~ oc pc qc rc f~ I: sc #: I6 #6 tc -[ 9~ uc vc wc xc yc zc Ac b! +& H8 Bc !4 Cc 1* Dc Ec Fc Gc Hc Ic Jc Kc Lc Mc Nc Oc Pc Qc Rc Sc Tc Uc Vc Wc Xc Yc Zc {_ p~ a^ `c }  }  }  }   d .d 5; +d p# B$ @d #d $d %d C  &d t5 %& F8 *d ea =d -d ;d >d ,d 'd )d !d ~d {d ]d ^d o8 /d (d _d 0~ _2 [| :d h[ <d 82 [d X; }d |d 1d 2d 3d 4d 5d 6d 7d 8d 9d 0d ad bd f* cd dd ed fd gd hd id jd kd ld Z! md +$ nd ~4 )' od pd qd rd sd td ud vd wd xd yd zd Ad Bd Cd Dd Ed Fd Gd Hd Id Jd Kd Ld Md Nd Od Pd Qd Rd G{ Sd Td Td Ud Vd Wd Xd d{ Yd A9 Zd `d  e .e +e @e #e $e %e &e *e =e -e ;e >e ,e 'e )e !e ~e {e ]e ^e /e (e _e :e Ua <e [e }e |e P. 1e 2e 3e 4e /* 91 5e t; 6e 7e 8e 9e 0e ae be ",
"ce de ee fe ge he ie je ke le me ne oe pe qe re se X  P: g3 ${ te ue C] D] Qb q$ x@ }  }  ~< I_ <5 a[ !1 #~ S] }  }  ve we xe Yb ye ze Ae Be Ce De Ee Fe Ge He Ie Je Ke Le Me Ne Oe Pe Qe Re Se Te Ue Ve We s# Xe Ye Ze w. n< `e  f I( 3c }5 s5 &+ l' .> @[ .f +f .4 @f #f $f %f &f Q7 *f =f -f ;f >f ,f 'f l2 )f !f ~f {f ]f ^f /f (f _f '4 :f <f [f }f |f 5| 1f ^< 2f o. 2f +| 3f 4f 5f 6f n7 7f }$ `! 8f ,[ 9f 0f af bf 9c ,~ 83 cf df ef ff Ze gf Mc Nc hf if jf kf lf mf nf of pf qf rf sf tf P- uf vf }  }  }  }  wf )' xf z6 yf zf )! Af Ze Bf Cf Df Ef Ff Gf Hf If If Jf Kf Lf Mf Nf Of Pf Pf Qf Rf Sf Tf Uf '4 K; O: s} Vf Wf Xf Yf H^ Zf `f 3@  g .g +g @g #g $g )# %g &g *g =g -g ;g r; O_ >g {+ ,g 6; 7_ 'g m$ a, &$ |( Y; i1 )g !g od ~g {g ]g 6> ^g /g (g _g :g <g [g }g |g 1g 2g 3g 4g 5g 6g 7g 8g 9g 0g ag bg cg dg eg fg >b -2 L9 gg hg ig jg kg lg mg ng og pg Zd qg 2= rg sg tg ug vg wg xg }  }  }  yg zg Ag Bg Cg Dg Eg Fg Gg Hg Ig Jg !7 Kg Lg Mg Ng Og N. Pg 1; Qg Rg L[ _[ y} x6 7e >9 Sg Tg Ug Vg Wg ",
"Xg Yg Zg `g  h .h +h @h #h $h %h &h *h =h qe -h f[ 1* ;h f3 >h ,h J7 'h )h K  !h x@ }  }  ~< ~h c* R3 !1 kd C. }  }  {h o< ]h ^h /h L3 (h _h :h b- <h [h }h |h 1h 2h 3h 4h 5h 6h 7h 8h 9h 0h ah bh ch dh E# eh fh U3 U3 {+ '6 N7 2c ;8 !1 3( $+ 7$ gh hh |^ T, .| p< [@ ih )' jh kh lh mh nh oh ph qh rh sh th uh vh wh $! xh yh zh Ah Bh Ch Dh P[ Eh Fh 7* G& @$ g; g; D3 Gh Hh Ih Jh Kh Lh Mh Nh N~ Oh 1, <- |- qb af Ph Qh Rh Sh Th Uh Vh Wh U3 $9 Xh Yh Zh `h  i .i +i @i #i $i %i &i *i =i i. N# P- Ub }  }  }  }  Q] -i -* $; ;i >i ,i 'i *< m& )i !i ~i {i ]i (- ^i /i (i _i :i <i [i }i |i 1i 2i V7 3i 4i 5i '4 6i c~ b_ 7i Wf 8i 9i 0i ai K, >+ bi ci di ei fi gi hi ii ji ki li ii c& 71 R_ )g -i c' mi ni oi pi g! qi ri ni si nd La La ti ui vi wi xi yi zi Ai Bi Ci Di Ei Fi Jd Gi Hi Ii Ii Ji Ki Li Mi Ni Oi Pi Qi Ri Si Ti Ui Vi X1 Wi Xi Yi Zi `i `i  j .j +j @j #j ]7 +2 $j %j &j *j =j -j ;j }  )[ )[ >j ,j 'j )j !j ~j {j ]j ^j /j s4 A9 (j Kg _j :j <j [j A( }j |j 1j Z5 L[ z[ rb g* 2j 3j 4j 5j 6j 7j <2 ",
"8j 9j 0j aj bj cj dj ej fj gj hj ij jj kj lj mj nj =; oj pj qj rj sj tj )h uj !h V} }  }  ~< ~h '# H7 H_ vj $$ wj xj yj zj C2 Aj Bj Cj Dj Ej Fj )1 Gj Hj Ij Jj Kj Lj Mj Nj Oj Pj Qj Rj V( Sj Tj Uj Vj Wj O: Xj #6 Yj Zj `j #9  k 0! .k .+ 3( (( 7$ [^ n~ +k @k M# r. I6 #k v0  / $k 05 %k &k *k =k -k ;k >k ,k 'k )k !k ~k {k ]k ^k /k (k K8 6| _k -: :k <k B0 B0 K2 =8 D3 K2 ,' [k }k |k 1k Rf )_ 2k 3k 3k c! 4k 5k j1 6k 7k 8k 9k Sh j8 0k ak bk *< ck oj dk ek fk gk hk ik jk kk lk mk nk ok pk T, @$ qk }  }  }  rk sk c1 tk uk ,; E# vk A3 wk a' +: xk G| z. =) yk zk Ak Bk Ck Dk 5] Zc Ek Fk Gk Gk Hk Ik Sf Jk <f ;h Kk Lk Mk :d *0 Nk 0i Ok Pk 8j Qk Rk Sk Tk Uk xa Vk Wk Xk Yk Zk `k y~  l 7; 03 '~ ~/ .l 4* +l 3, 3, @l Z! #l R~ )' }9 y( $l %l &l *l =l -l ;l >l ,l 'l )l !l ~l {l ]l ^l /l (l _l :l <l [l }l |l 1l 2l 3l 4l 5l 6l 7l y9 8l 9l 0l al `i bl cl dl el fl gl (b hl il jl kl ll ml nl ol pl ql rl sl tl ul vl wl xl yl zl Al Bl Cl Dl El Fl Gl Hl Il Jl Kl Ll ~' |j Ml Nl Ol Pl Ql Rl Sl Tl Ul Vl Wl Pk ",
"Xl K] Yl Zl `l  m .m +m @m #m $m %m &m *m =m -m ;m >m ,m 'm )m !m ~m {m ]m T} jd V} }  }  ~< ^m /m a[ I_ 0* Y} I( (m rk _m :m <m _m [m }m |m 1m yj 2m 3m 4m 5m 6m 7m 8m 9m 0m am bm @9 w5 cm dm em fm gm `} .~ hm J( im I( jm V} V} km lm Qb O; mm nm om pm qm {_ rm rm ^< p. 1_ sm `. tm um %: vm wm 48 xm 6+ ym 6~ zm Am Bm Cm <3 43 @6 Dm t8 Em b; Fm Gm Hm Hm Im Jm H2 Im Km Lm Mm Z< Nm Om Pm 1f Qm f; 6* Rm ih 6k j1 Sm Tm Um ($ Vm Wm Xm b' Ym Zm F- 7. /f `m  n .n +n @n #n $n %n &n *n =n -n .f ;n x@ }  }  >n p! ,n 'n $; )n !n o! Sm ~n W| i1 _[ {n Q[ t_ >h Zj ]n <^ ^n /n (n +k _n :n Pf C; Hk <n 3i Sf :f Dh l< [n }n |n 1n 2n 72 3n 4n 5n 6n 7n 8n 9n 0n an bn cn dn en M, r# e- fn gn hn Y| in &: g3 tm +1 n' Qm N- <@ m. jn kn 4| ln mn nn on pn qn rn sn tn un vn wn xn yn .3 zn An >4 wf Bn 2, Cn Dn En Fn Gn Hn In Jn Kn Ln Mn Nn On Pn Qn Rn Sn Tn Un Vn Wn gl @2 hl :b Xn Yn Zn `n Ri  o .o ql +o @o #o $o %o &o *o =o -o ;o >o ,o 'o )o !o ~o {o ]o ^o pd X# /o (o _o :o <o [o i* }o |o 1o 2o :2 3o U& ",
"4o 5o N, 6o 7o 8o 9o 0o ao bo co do eo fo go ho io Hb jo ko lo mo no {m tj T} jd V} }  }  ~< 0* B^ oo i+ po qo #$ 8f ro }  }  }  }  so }  so }  }  }  }  }  }  so ro to uo uo vo wo +~ xo yo zo Ao Y} Ub &$ Bo 55 45 V} V} }  x@ x@ {< Co c* Do mm nm Eo om [^ .& |, Fo Go N~ 0[ Ho Io Io Jo Ko @| 9( :_ Lo Mo No Oo Po ') Qo Ro So << To Uo %f Vo jh Wo Xo 2f z* Km H( Km  / Yo Zo `o  p .p +p a; oa  { @p m. #p 1* $p k( %p &p G# *p =p -p ;p >p >p ,p O. A3 'p )p !p ~p {p ]p ^p /p (p _p :p <p [p Gh }p |p }  so 1p 5o 2p 3p 4p W& ,a 5p V& 6k ~n 6p 7p dd R_ jn hd 8p 9p O] D2 Dk 0p d; ap bp cp dp ep fp gp Ik hp ip jp kp lp mp mp Xf np op 4n Lk pp qp 6i rp sp tp up vp wp xp yp zp Ap Bp Cp Dp Ep 3i Fp hd Gp Hp *& Ip y& &{ Jp ;a Kp Lp Mp Np Op Pp Qp Rp Sp Tp Up Vp Wp Xp Yp Zp `p  q .q d* +q _m 2, 2, 2, 35 |p @q #q $q %q &q *q =q 'e -q ;q >q ,q 'q )q !q ~q {q ]q @2 ^q  e /q (q _q :q <q [q }q |q 1q 2q 3q 4q 5q 6q 7q 8q 9q 0q aq bq cq dq eq fq gq hq iq jq kq lq n# o| mq nq oq re pq qq rq 2o 3| sq j< ",
"tq uq vq wq xq yq zq Aq Bq Cq Dq Eq Fq Gq Hq Iq Jq Kq Lq Mq Nq Oq ~m Pq Qq I7 jd V} }  }  ~< qo [5 O' Rq Sq 0* qo Tq 0! }  }  }  l; l; }  V} so }  }  }  }  so 0! :- Uq 3m Vq Wq Xq Yq yo k5 Ub Y} Zq `q 1( X, Wb 0! ~< ~< x@ x@ x@ a, B] P' N;  r .r +r @r #r $r `8 %r Q] &r *r =r Io qo po -r }- {' >~ ;r >r ,r Qo 'r )r !r 4' U/ ~r {r y* }f k3 ]r ^r /r (r _r /[ :r *: K8 <r [r in }r |r 1r 2r t@ o. Qm u5 3r i1 *# 4r &p &p u0 5a 5a 5r 6r 7r >p 8r N. 9r 0r {a ar br Jj cr dr er fr gr hr ir jr kr lr l; }  so ri mr nr or lq 8c pr `^ 6p qr I[ rr #3 rr sr 91 @p .f 3$ tr %r ur _  vr _n }i Gk dp wr xr yr zr Ar Br Cr Dr [0 &0 Er Fr Gr Hr Ir Jr y( Kr ~1 Lr Mr  q Nr Or Pr Qr >i 63 Rr Sr Tr Ur Vr Wr N' Qm d] Xr l& H| Yr t_ h3 s$ Zr k< `r  s .s +s @s #s $s %s &s *s =s -s ;s >s ,s xa .q t5 R] Z} 's )s 's !s g! ~s {s ]s ^s /s (s _s :s <s [s }s |s 1s 2s 3s 4s 5s 6s gg @2 7s 8s 9s 0s as bs cs ds es 1q fs gs hs is js i5 ks ls ms ns os ps qs rs ss ts us vs ws xs ys ,p zs [2 As vp Bs Cs Ds Es Fs  0 J: Gs ",
"mj Hs Is 8& Js Ks Ls Ms Ns Os Ps Qs Rs Ss Ts Us Vs Ws g+ Mc Xs Ys -4 Zs `s  t .{ V} }  }  ~< po K7 l$ O* i+ O* V, %$ 45 }  }  }  }  l; |p wj .t +t 0! @t xj #t $t %t &t *t =t -t ;t >t ,t 't )t !t j. :- 45 xj X, ~< ~< ~< Z, V} }  a, p( P' ~t  r nm {t ]t ^t ^n /t (t _t |$ 5] 5] :t k; !1 <t N^ [t }t |t 1t 2t 3t 4t _$ l[ 5t c.  $ -[ 6t G0 6| 7t 8t %: W. X| 9t 7; 0t l3 8k at bt ct dt et ft Fp gt Qm y& }+ q} ht qr m# p! it jt 0t kt lt mt nt ot pt qt rt b8 st tt ut vt wt xt yt zt At Bt C( Fh Ct Dt }  }  Et Ft Gt Ht Kl |9 9_ `^ It 2* 2* Jt Kt Lt F^ Mt Nt Ot Pt G2 3$ |$ 6$ hh Q3 Qt Rt St Tt Ut Vt Wt Xt Yt Zt jb `t Xf  u .u Gr +u Ds @u #u $u %u Y& ~4 r~ &u *u =u -u ;u >u ,u 'u )u !u ~u {u ]u |f &4 ^u Xr Y; Em /u um Ot @3 Gs (u _u :u <u [u }u |u 1u 2u 3u 4u @o 5u Pb `p 6u f] +1 7u ,4 @$ B0 F_ 8u 9u 0u au bu cu du eu ;2 fu gu hu iu ju ku lu mu nu ou pu qu +e ru su tu uu vu <q wu xu yu zu Au Q2 Bu Cu Cu Du Eu Fu Gu Hu Iu 6# Ju Ku Lu Mu Nu Ou Pu Qu Ru Su Tu Uu Vu s2 9e Wu Xu >9 >9 U& jn kn ",
"wb Yu T! 1{ Zu `u  v .v +v @v #v $v %v &v *v =v -v ;v >v m~ 3a ,v 'v )v !v n; .{ V} }  }  l; po ^+ 3( K7 O* O* .+ 30 |p }  }  l; l; S] ~v $$ J. {v J_ Q- ]v ^v /v (v _v :v &; <v [v }v 92 x6 s; |v 1v Bn V} ~< 0! 0! }  V} V} x@ }  J8 vj /m >< 2v 3v 4v 5v ^t 6v ac D2  | 7v 7v |$ 5] O' 8v p( 9v [f k# B$ 0v av 9~ bv m~ !_ cv t_ dv m. 5| <@ Xj Bh _* ev fv ft e' gv hv iv 'a jv qc kv lv mv nv Ih ^< f; z3 Hp ov pv qv 4r X# j, rv sv +5 ,9 >p tv o! >* d' Q/ uv vv wv vt xv yv zv Av Bv W7 Cv C( Ka Dv }  }  }  }  Ev Fv 6p %; Gv z[ Uu Hv Iv Jv J, Kv Lv Mv Mv [d Nv !< [6 Ov N~ 2v Pv Qv Rv H; Sv Tv hn Uv Vv Wv ,~ 9| Xv Yv Y4 42 0i Zv `v  w .w +w @w #w $w %w &w *w =w -w ;w >w ,w 'w )w !w ~w {w ]w p8 }- A* ^w g; /w `| rp @/ 4* Ip (w _w :w <w [w }w |w 1w 2w 3w 4w 5w 0  6w 7w t( &d 8w D3 9  n' u5 U- cm Mb 9w 0w aw bw cw dw ew fw gw hw iw jw kw lw mw nw ow pw qw rw sw ]j tw uw vw ww xw yw zw Aw Bw Cw Dw Dw Ba Ew Fw Gw Hw &0 Iw Jw Kw Lw Mw Nw Ow Pw Qw Rw Sw Tw Uw Vw Ww w- w- Xw g^ cd u; Yw Zw `w kn ",
" x .x +x @x #x $x %x &x *x =x -x ;x >x ,x 'x )x !x ~x Wg m~ m8 5* Q' `s {x q5 vf x@ }  }  l; ]x ^x /x >< (x -8 ++ _x 45 }  }  l; 1( :x <x j5 is [x -8 }x A, |x 1x u; c7 2x 3x 4x 5x 6x 7x 8x 9x 4k 0x 2m 0! ax Wb ro 45 1( V} V} }  0] vf k! I7 bx 7$ cx cx om _- $r dx ex fx _t Q] gx hx ix jx y0 kx lx mx nx 9t ox /< g3 n. @p &{ Kp Lp px Vo qx c. rx sx tx ux vx wx 7( xx yx 6. zx Ax Bx Oo Cx Dx ^[ }+ Ex i3 S* Fx Nv Gx kt Hx Ix R( Jx Kx Ll $a  ( Lx b8 Mx Nx Ox Px Qx !u Rx Sx Tx Ux Vx Wx Xx Im Yx }  }  }  }  Bn Zx |# %8 `x Lb Wl  y .y se j* +y -h @y #y $y i* 6_ 7_ H2 %y M; :( M# &y *y Sv Ut =y -y ;y >y ,y 'y )y !y Y4 ~y {y Gr `v ^1 @u x_ ]y ^y /y %w <| (y _y ~y :y X! <y [y _a !u }y |y 1y 2y L; B[ F@ ,' 3y w8 4y ~1 6* 4  U' 5y 6y 7y 8y 9y 0y ay Dt ay by l; cy dy F6 ey fy Ex g; gy h; +1 hy iy jy ky ly ]x my ny oy py qy ry sy ty uy vy wy xy lg mu yy Vd {b y9 zy Ay By Cy Dy Ey Fy Gy pl Hy Iy Jy Dw Ky Ly My Ny Oy Py Qy Ry Sy Ty Uy Vy Wy Xy Yy Zy `y  z .z +z F_ Xr @z 61 s~ !# #z }| $z 5( 5( ",
"%z [# &z *z =z -z ;z >z ,z 'z )z !z ~z {z ]z ^z /z (z F] a~ E3 9] _z )h :z q5 .{ }  }  }  V} xj [  `! <z B* [z _( ,[ }z ~< 45 T] Sq vj Ao 3c |z 1z  . 2z 3z 4z 5z 6z 7z 8z 9z 0z az bz cz dz ez fz n8 a5 ,< y2 gz po ~h H! hz }  }  P* iz a< b* c* I7 x- jz `2 !8 !8 M; 2k 2k kz lz 9p mz 0, _x ;n y* 'a nz oz pz qz -[ dv um x] zn rz Y; ni Fv sz K8 tz ;6 K; #/ uz =] [t vz wz jv 7; xz ]. yz zz Az Bz w0 P# Cz Dz Ez Gv *# Fz R( Gz Gz Hz 02 A3 X( Iz Jz Kz Lz Mz Nz Oz Pz Qz Rz Sz Tz Uz Vz Wz ,4 Xz Yz }  }  }  }  l; Zz `z N2 *9 y}  A .A +A @A #A w( $A %A &A *A Bs _2 Ip c; z. :9 =A <^ C| -A ;A >A ,A 'A )A !A ~A '; {A mp Y4  u ]A 3n op 2o kb ^A /A w, (A L: _A :A <A 8i [A }A |A 1A 2A 3A 4A 5A 6A 7A 8A 9A H( 0A V. aA bA cA .d dA @z eA Xp fA gA hA iA ds jA kA +t lA mA nA j! w- oA L: pA b6 z3 U- qA y' rA sA tA uA vA wA xA yA zA AA BA CA DA EA FA GA HA mu IA JA KA LA MA NA OA PA QA RA SA xu TA UA VA WA XA YA ZA `A =w M_  B .B +B @B #B $B W9 %B &B *B =B -B ;B >B ,B 'B )B !B z& jz F  t' t' Hp &{ u5 ",
"~B {B ]B *z ^B /B (B _B :B <B [B }B |B 1B 2B 3B 4B 5B 6B N: 7B 8B `  !v 9B 0B .{ }  }  }  |p so 45 0! aB [z bB dA %+ k; cB id 4, o' C* P- d] dB F* eB fB gB hB iB jB Ib kB lB mB nB oB pB qB rB sB tB K[ uB vB wB ;# v[ xB yB x@ }  P* G_ zB b* =$ AB *w BB CB DB EB FB GB HB IB Gx >a JB KB [9 <k hd Bh LB MB NB OB *f a. x. PB .4 `w rz Kp QB *: RB SB N~ y* TB _f $9  l c[ T. xx UB 7; rt VB uz a3 O: }9 f! WB 9_ i< Xv V& XB wx YB @5 ZB `B ,*  C .C +C <a @C #C $C %C Qz &C *C =C -C ;C Yc [- |1 >C ,C }  }  }  }  45 'C !t Ja >C -8 =8 )C !C ~C v; {C 4x x~ Vu j^ y} Ip f; hh ]C l' :( e; @> ^C $[ /C (C (; _C :C yz <C [C =9 }C  u |C Tl 2o 1C Vl ^A 2C /{ 3C =# _A 4C 5C *0 6C <0 7C 8C 9C 0C aC 5A bC cC dC 0A eC d3 `' fC gC yx WB jy W4 6e hC iC jC kC lC mC nC I2 oC zo pC +o qC c7 rC sC Ol tC uC .A vC @y <0 wC Xu xC #B yC zC py AC BC CC DC f, EC FC GC HC IC %b JC KC LC MC NC OC PC QC RC SC TC UC VC WC XC YC ZC `C  D V^ .D +D @D #D $D %D &D *D =D -D Al ;D >D ,D 'D _v )D t~ !D F  |5 o( ~D {D [6 Gh x0 ",
"7j ,p ]D ^D ._ /D (D _D :D <D [D }D |D 1D 2D 3D 4D 5D Bs 6D a' W| n( 0B 9B :| Rb }  }  }  so so 0! so T] ]m 7D 8D 9D 6$ a! 0D H8 aD :( M; -4 bD cD dD 6z eD b$ fD gD hD iD jD kD lD mD nD oD pD qD rD c' sD ki tD T4 uD vD c, }  }  @) G_ wD xD =$ %4 yD zD AD BD XA CD DD ED FD GD $a ]u HD G2 ~8 ID T, JD B| KD LD MD r# :; )' 4a 9_ Kp Kp ND Kp OD 45 Tq C* E| PD V_ /w ND u_ s% s% Xm c[ 0r d3 n8 J6 K6 ~4 ~4 R_ s} Nt )g !/ vm QD RD SD TD 1+ UD VD WD XD YD ZD `D  E .E +E cC *y @E >6 #E Y} xo k5 DC }  }  }  }  R- I_ $E po kd %E +) &E *E =E Nr -E `9 ey ;E s~ iy 4  n' l' d; :9 =A tm h3 >E J6 bf lb O. Zm U. 3' w8 X  52 72 52 |C ,E 2o 1C 'E Kv bc 2e )E Cz A- a7 !E ~E {E ]E ^E kq /E (E _E :E <E [E }E |E fv <* 1E 2E 3E 4E ed 5E 6E 7E 8E 9E 0E aE bE cE k1 .$ .) y2 mA dE %) 12 be eE rC fE gE *A hE iE jE kE ,E lE mE nE oE (s pE qE rE H  U} sE tE uE vE wE xE yE zE AE BE CE DE EE }l FE GE HE IE JE KE LE ME NE 59 OE PE QE RE SE TE UE VE WE XE YE ZE `E  F .F +F @F #F ;g ey t' $F %F ~9 &F *F <z a! <- ",
"=F -F ;F >F ,F 'F )F !F ~F {F ]F ^F /F (F _F :F <F [F }F |F J, qb .q 6d 1F :| 20 }  }  }  so by 45 V} T] 2F 3F 4F 5F 6F 0D 0, *+ 7F [^ .& aD up 8F 9F 0F aF bF cF dF E$ eF fF D$ gF hF iF jF kF lF mF nF oF pF qF rF sF G, ,& }  }  @) tF wD uF 41 ]9 vF wF xF yF zF AF BF CF x_ DF *f EF Zj FF Qm gy GF HF ^d IF JF KF LF MF 8c E! >a l< Kp NF J: +l 45 #~ OF *& |^ ]_ Qm zn PF -; -; Zm P| G# 5. |+ t$ !g .: ed .: R_ 3* t$ QF RF SF TF Y| UF VF WF XF YF ZF `F  G .G +G @G #G $G %G &G d! O' *G =G DC ~v }  }  }  }  :x -G 6- 'g 8f '[ ;G $4 >G ,G 7E uD 'G )G !G Ia ~G n( z, T' @[ >4 Q; =4 }+ |- {G ]1 .A ]G n!  ( ^G KD ~$ /G Rl (G }v }v 1C _G Wl rC :G <G [G }G |G 1G 1z 2G 3G ]E 4G 5G 6G 7G 8G 9G 0G aG bG ]6 ct j~ cG dG eG fG Sm gG V4 hG iG jG by kG lG !~ N* %p Zr mG Y, Y, nG c7 -h be <2 oG pG qG rG sG tG 3G ,E uG vG nE wG xG yG zG AG lA [  BG CG DG EG FG GG HG IG JG KG LG jG }  }  }  MG NG OG PG QG RG SG TG UG VG WG u6 XG YG ZG `G  H .H +H @H #H $H %H &H *H =H -H ;H >H ,H )# 'H )H !H ~H `, }z im ",
"Q_ ;p {H ]H ^H /H (H _H :H <H [H }H |H 1H 2H 3H @y 4H Kt S, 5H p} 3r `2 ue z- ]x }  }  }  by by @t V} Zq [z 7D 6H sj 7H =r 8H [- +k ~_ 9H om 0H up aH bH cH iE dH eH B% fH gH hH iH jH kH lH mH nH oH pH qH pF rH sH sH tH =G }  }  @) tF wD b* b* |z vF uH D7 vH wH xH yH zH AH w] D^ BH Q| rm V_ Xx *3 <[ CH DH ]3 EH FH GH jt HH sc IH 46 IH Vo JH KH Ho v' x] n< %6 Y; c~ 9| LH {' v_ :; 8+ %| |+ MH )' nd i1 n} ~4 z( #k M[ NH g~ OH PH QH RH Q$ SH TH UH VH WH XH ]w YH ZH `H  I ]* .I ^x ;G ,& R^ :x x@ }  }  }  1( [  #~ &$ &$ {< `, p5 +I @I -g #I $I v[ %I ey &I M  *I Ip z* =I -I ;I >I P# ,I  A G^ 'I F^ w] )I !I ~I {I ]I ^I .w kb Vl Vl pq /I (I _I vp 5e :I a7 <I 2G [I }I |I 1I m* 2I 3I 4I 5I 6I 7I 8I 9I 0I aI bI vv cI dI eI fI gI hI iI by jI kI lI j1 )' mI nI l; l; oI )C X' X' X' u( O! pI qI bF rI sI /5 tI uI vI wI xI yI zI AI *G BI CI DI EI FI GI HI II JI KI LI MI NI }  }  }  OI PI QI RI SI TI UI VI WI XI YI g7 ZI `I  J Jy .J D& BF =o +J @J #J $J %J Ky tA tA ,H ;# ;g &J *J =J -J S^ :- ;J ",
">J lb ,J 'J )J !J ~J {J ]J ^J /J (J _J :J <J [J }J |J k* ]/ k, 1J t8 9  G, uF 2J }  }  }  by by @q l; 8f [z 3J 4J 5J 6F 0D 6J 7J ,v ,v >h N$ z[ uC 8J 9J 0J fD aJ bJ jj cJ dJ eJ fJ gJ hJ iJ jJ kJ lJ mJ nJ oJ pJ qJ rJ tH 3- }  }  P* G_ sJ uF uF 0B tJ uJ }C sa vJ wJ xJ <v b# U* yJ zJ AJ BJ CJ DJ TB ;h jv EJ FJ GJ HJ IJ j] 7( JJ %: 6| f~ KJ .| Go *+ |- C^ j$ pt #a F- S& C$ e| /o O. 9r Tm QF Qh }1 A5 )' A5 )' sc Zt rx <$ LJ Yt ux MJ Kc NJ OJ PJ QJ RJ SJ TJ L~ av oj @/ UJ VJ R; <5 I@ WJ XJ Rb Y, }  }  }  V} ~< YJ S^ gz I_ ZJ `J  K c< 07 .K +K @K #K $K t' %K &K 71 9, ~i *K =K -K =# ;K 9e >K |I ,K 'K :c )K kt !K ~K {K kb ]K kb  w ^K Wu /K bH u} $K a7 E6 (K Fu _K :K rq Jv <K [K }K |K 1K 2K 3K +E 4K 5K bI 6K 7K ZH dI Nv s2 /K 0# 8K lr Ov 9K 0K g3 1f aK !t bK  > <k b_ cK P_ dK eK i* $A fK gK hK iK Xu jK kK lK mK nK oK 79 Fm pK qK ,' rK sK tK uK vK wK xK yK zK AK BK CK bq z+ DK EK FK GK HK IK JK KK LK MK NK OK PK QK RK SK O2 TK tI UK VK WK +B XK P2 YK 1x ey jy ZK ;g Qq `K  L .L `c W, +L ",
"$p PF @L #L dH $L %L &L *L =L -L ;L >L ,L 'L )L !L ~L {L ]L ^L [c f3 Fo y3 R3 :x }  }  }  }  by 45 0! 8f [z 4F /L (L _L =r :L om <L #> [L }L R~ %w 6_ |L 1L 2L 3L 4L 5L 6L 7L 8L 9L 0L aL bL cL dL eL fL gL hL iL N; ^+ c* jL }  x@ P* G_ sJ uF Qb q' kL lL mL g* Ir nL $3 N] nd #: oL pL zJ s8 (< e~ qL {1 rL sL Vx tL uL vL wL xL wz yL ;6 zL l~ AL {i KB ]C BL CL DL %u EL FL GL !I )E nt y~ ~/ 7k ~/ )g )g nd .$ J6 ^a qz W# -6 *: /w HL IL JL rp KL LL mJ ML NL OL PL Az Lc QL RL 0^ P' k! '# SL TL UL wj }  }  }  so }  45 YJ VL  t c* !9 WL XL (| YL ZL `L  M q' o( e] H, .M +M @M #M =K f] ;& c7 ub kE 6x pI $M l7  l n[ 6r |I Wl ]1 %M ]K f< &M *M =M -M ue ;M U^ >M ,M 'M )M !M [| b_ *p ~M {M ]M ^M /M (M _M :M <M [M }M :M vx )' _2 |M 1M w' Mb H, y] &6 t* 1$ 2M 36 8w rb 3M _2 8J l^ |L 4M E@ d7 w( 5M Pr 6M 7M Wu V3 8M 9M 0M aM bM cM nd dM #p 4* %f eM fM gM hM iM jM kM lM mM nM oM pM qM rM sM tM uM vM wM xM yM zM AM BM CM 8z ZI DM EM FM GM Q_ .A Kt HM @A IM *I Cz r} 9< x} JM k& KM LM MM NM O; .> Gp ",
"OM PM Hs Xl QM RM SM TM UM VM WM XM YM ZM `M  N .N +N @N !/ {1 [c Nh tr a! ~h wj }  }  }  Dt |p 35 2, aB ]m #N $N %N ~t Ho X. hh #> &N %G *N =N O: ND #3 -N ;N >N ,N 'N )N !N ~N 0L {N ]N ^N /N (N .] 7| gL _N !# l! uf P' v3 }  x@ C, G_ sJ uF ;$ x- :N 4M  A |2 K, <N [N &p 7k >a e~  I }N |N e~ I6 bk P8 1N 2N M' Vz 3N d8 4N n| UB 5N H: ox U# &6 #E Q] 9H 6N 7N 8N 9N }. 0N Z- aN ;* bN >g n[ u0 u0 ,a 6k Ph cN |* F( To /r dN eN fN 1, y0 gx @k G8 rm 6, E| >h v* +| =6 n8 :^ C2 85 e, a[ b* 41 gN hN :x }  }  }  0! 45 A. jd <5 x- iN C6 @) @) WL jN kN Ob lN u[  . o( p; &K 0H mN ;& nN oN !# pN qN rN sN <0 j* k( [@ ,a }F tN ^E .A @u 'E iK uN 'G vN Fa Fa wN xN G  0w yN Oy zN AN BN F0 CN _a DN EN FN ~M GN HN IN ). JN KN LN n} s} 6D X^ MN $z h+ md cv NN tr ON Z! Z  2| 4x PN -& QN RN =u SN TN ,| vC UN VN WN Es T~ XN YN ZN `N  O .O X# +O X  l< @O #O $O %O &O A+ *O =O -O ;O >O ,O 'O )O !O ~O {O ]O ^O /O (O _O :O <O [O }O w& |O 1O 2O 3O Vg .x 6n 4O 5O 6O =u || 7O 8O ||  A pN 9O 3( j! 0O aO f* 3M z[ ",
"Tu cK bO [J cO dO eO fO gO hO iO jO kO lO mO nO oO pO qO !/ c[ rO sO tO B2 T] @q }  }  }  }  l; 55 ro Tq  t uO vO ]m wO xO 8H ~_ yO o8 F3 zO Uf %: ^d |* AO BO CO DO EO FO GO HO HO IO JO KO LO MO NO OO PO QO RO pK P- k! hz }  }  P* G_ r[ ;< ;< q' {[ SO )i N] Ph TO |+ I6 .4 md m. )6 UO VO 4a dv %9 WO RH sL RH XO qL YO X# )/ r6 ZO /[ `O *6 sk I0 ;[  P .P +P @P #P $P %P &P *P l7 .0 )$ X  S, $p rr 4r Ph =P rx |* ;h -P y0 }  }  }  }  jm j. *r mz 6J &r Q] C2 ;P >P U8 C| Dj ,P <- ++ c* -$ 'P XJ g! }  }  }  0! fN vj )P c* b7 21 !P I  ~P {P ]P ^P /P (P F, G! B- k& _P :P %K %K <P jy [P }P 72 ZI |P 1P G^ [d 6p #3 #A re 0e 2P 3P 4P kE 5P vN %4 6P 7P 8P zB `J 9P 0P aP bP N_ BN n} U/ cP Hc dP eP 7( fP gP *P hP *~ iP jP n} _2 rb 8O X^ s; 4( 9, |^ 9p N# 2- b! n' E  cd w~  q 0_ kP lP 9F Or mP j* nP oP G^ pP qP :4 rP sP Sn tP uP Ph vP z[ Z  +1 wP xP yP zP A+ AP BP CP DP EP FP GP HP IP JP KP LP MP NP OP PP QP RP SP TP UP VP 4P @A Q_ WP zs XP YP ZP `P Or 9< Hp z] y' g7 9< )B s[ Tb x3  Q d* .Q oA ",
"+Q @Q Nt Y^ vb Zf e[ #Q $Q %Q &Q *Q =Q -Q ;Q >Q ,Q 'Q )Q !Q CJ sk C( ve ro 45 55 so by }  0! so ~Q ro im y3 ~9 Zs Zs ,8 ]< qo }^ ^C p8 {Q ;C ]Q qc ^Q U5 /Q (Q _Q :Q <Q [Q }Q |Q 1Q 2Q 3Q 4Q Z= 5Q 6Q <{ 7Q 8Q &d e; h; N; ,& }  x@ f& iz r[ ;< ;< Aa 9Q e7 0Q aQ %p R~ tz 5| b; && .> 6c b1 ~i ]* 7, Rm Xh bQ cQ Q$ KD dQ eQ fQ kz  / gQ DJ hQ N' +| iQ |N jQ kQ lQ mQ nQ oQ pQ qQ rQ 9| K[ Lb ]1 m! sQ PN x~ !g tQ uQ $| <r gt vQ x@ x@ }  }  aw Y. wQ ia 5] xQ _t tf [p yQ %G zQ AQ >6 r. u5 e* BQ CQ DQ EQ }  }  }  qi 8* qJ FQ >$ 3(  . GQ HQ r( D6 J! 11 G_ r( D] :| ~9  . s5 A, `2 IQ 9O JQ KQ Hw 42 LQ MQ NQ OQ PQ QQ ]G ^E $y +A RQ TK jy SQ )G TQ UQ VQ WQ XQ >M YQ XJ R2 ZQ fB !| M: `Q 02 yx  R .R cQ Ph 81 )g +R q* ($ wz >* nd {G m! 81 @R  ' #R j3 x0 RL (  $R @l 7u TK pN 22 r~ %R t( &R *R W' |2 Kv 5O =R =u %M -R ;R >R ,R 'R )R !R zn ~R z] {R &4 ]R ^R yw /R Cl (R _R :R <R [R }R |R 1R 2R 3R 4R 5R 6R 7R 8R 9R 0R aR bR cR dR eR fR Mv E- )/ Lr  $ {+ v- Hv rb z, U' b6 hy iy +3 gR #& hR 0O iR +1 jR 4r ",
"1, %$ gm ,4 =8 kR z* lR mR uQ nR oR pR qR rR sR tR uR vR wR xR yR zR  f }  }  AR BI Dv BR CR }  so }  :- I_ DR ER ;< r( G_ FR pK GR q8 HR IR 3' JR |3 Z] KR LR MR NR OR PR QR RR SR TR UR VR WR XR YR L$ ZR `R  S .S  3 B- 0  }  x@ f& +S r[ @S b* Aa #S $S %S @: qb |_ .) && 6c t5 R; A0 B* &S d* d! *S  I =S .^ -S ;S >S ,S L7 y0 'S '< Ff )S Qv JL !S ~S {S ]S ^S /S (S _S :S <S ~M F- `P v( [S }S g* 22 u; #R .4 KJ G: ;6 36 8f x@ }  }  Dt .{ &S :( vr |S 8p 1S rm 2S 3S 4S 5S 6S 7. 7S 8S $z 9S TL ]v 0S }  }  so Y} A, i^ f* aS [5 sH D] bS ;M wD J  C, f& E. cS dS eS lm B] B] B] /x q~ fS -E gS =0 hS LQ iS jS kS TN lS Bs mS G^ T; 9S 21 ~[ J! Y2 nS C, b, oS 0O y- ># ]9 uD pS qS x[ ht af 7k rS sS tS uS E  vS 7k jt cA Xm x. 1* wS |2 x~ $0 xS yS -a z. wQ w@ ,[ zS 3, o; AS BS  M CS DS ES 9B L  xk #0 FS GS Wl |2 B6 HS IS JS KS LS MS !8 tj `s Qq ;$ NS OS PS QS RS SS _R TS Eu sQ US VS WS XS :d Xf YS 1| 6S ZS `S  T .T +T @T #T $T >/ M. %T &T -i I6 R# Bz }G !D o; O- K. F@ Gm 8* *T 'g .{ =T <+ Km D0 Jt ",
"[  9! &t -T ;T ]v N~ >T ,T 'T )T !T ~T {T ]T ^T /T (T _T :T En rk <T }  }  }  [  3, bK 9* !s }  }  }  0! Ub lm E, F. jN H@ [T |1 n< }T |T 1T 2T 3T 1< 4T 5T 6T 7T 8T 9T 0T aT bT cT dT eT R> fT gT K5 hT iT jT kT m( N! lT mT x@ x@ C, +S r[ T} Qb nT oT pT qT eK G* =# z3 &4 rT G! rF  . P' ^x i; sT ]* um tT uT vT I* $T rm Z} I( Z} wf 2- 2k wT xT yT zT AT BT mk CT DT ET FT GT HT /o eR IT iK JT 32 Y4 KT -# }G *: LT &3 3  <+ cy ql yu MT ~h a^ Q' NT ~i 6, ,6 m8 !_ OT )_ PT QT RT %^ pO ST hs TT UL 0S }  }  so J_ te UT VT BQ WT |z L! XT YT F. ZT @) g& `T sJ TQ 11 y- J   U |6 .U +U &u fS %0 X4 @U #U $U %U &U *U =U -U ;U V4 >U <5 ,U 'U )U @) x@ )[ @) (+ 0O !U ~U bd #K eB 5E {U a6 a& )' ]U C^ ^U /U <P #R It y6 Kx ;p &p *# )$ Ol )$ uC (U (U *I $+ i+ u3 ^m Oh I_ _U :U <U [U }U |U 1U 2U 3U  q 4U GS 5U 6U 8< Zr 7U 8U 9U )q 0U aU A2 `K bU CS b* cU dU eU fU gU hU iU jU ~E @A #3 tQ /u kU lU mU nU oU pU qU rU sU tU uU vU wU xU yU Vg zU j1 6p Kk w0 m. T; AU BU (9 r$ |1 R* $E BI aw fN =G g! CU 1* N] ",
"o[ DU EU O# FU GU q8 HU IU JU KU LU MU NU OU PU QU RU SU TU _l UU UU VU _m :- +q 8* 3_ l$ 's }  }  }  by WU p[ XU a  YU ZU @) 9* `U  V }i {u 1E Th .V +V =k @V #V $V J0 %V &V *V =V -V ;V >V jc ,V 'V )V !V ~V {V b& g^ ]V mT x@ x@ C, ^V r( K  ,U /V (V oT _V 6E ya :V 9S 3c r_ k! ;< H. a[ 2( FQ <V Xr j3 aa [V }V Qr OK ]_ Z} P] Z} oi <- mz (8 <L |V 1V 2V ,) 3V 4V 5V 6V 7V 8V 9V %T 0V ,G aV =0 bV cV dV vF q; b6 eV 3  fV =T YU gV hV C6 q_ (x A2 iV ]C |c jV kV  [ lV mV nV Q/ oV ^G pV #R g5 h5 qV S] }  }  }  fN (9 VT 9w aS aS |z !v 9B rV uF J  ~P  U sV E, `J +S y- `T P^ ~P m; tV uV vV Oy vF )M wV 42 xV yV zV AV BV CV bH DV <5 c* K  )U 0] @) I8 /+ ,# !U Co WJ $4 -E g^ E  -K N  vP y, R~ EV FV `  c] ^w z3 M: @R @R b_ y' ST g< eI GV g< HV IV )v !P !P y- )U JV U^ kN KV LV MV NV OV PV QV RV IM E@ SV TV bH Ez UV VV WV XV YV ;R A0 bU ZV `V  W .W +W @W #W $W %W &W *W Ew =W Zr t8 Q[ sA -W ;W >W ,W 'W )W !W ~W {W ]W ^W /W (W _W 0e Jr :W <W ,H p; 2# DB vN [W ^9 }W tH FQ #& gz C. X} R- aw Km Ph X  ",
"8x *U |W 1W 2W 3W 4W 5W 6W 7W 8W 9W 0W aW bW cW dW eW fW lq Hz d- pc yQ )S 9$ gW @z P; d* lr so so }  2, hW /+ )[ x@ }  }  x@ <t rz KJ iW jW kW lW mW nW oW pW qW rW sW LD tW uW vW wW xW yW zW AW BW _@ CW DW EW <( 9< q~ +4 x@ x@ C, p[ aO FW GW p' ~9 %F HW IW JW o6 d, T^ v3 q( 0O *$ sJ KW _U ~D LW n' P~ k$ MW NW hh ,[ id _x wf 85 `} OW PW BJ 8' QW RW ,) SW TW UW VW WW XW YW U* g^ Da ZW `W |0  X .X +X lm @X Z} T] #X 0  $X %X &X *X H_ Rq =X -X ;X >X ,X 'X &6 na )X PT !X 3t 0. b' z3 U2 ~X {X |p }  x@ }  S] 'g fV <5 iN _U rF x- ]X hi ^X /X J! )U (X (X TQ  Q TQ )U q[ p[ FW tV _X =M 'G :X I^ vN :X <X KT Nr 5P vB 4z Ia FQ hR q_ [X a[ *F G. ER }X ,8 R3 I_ |X FQ ~| jy t~ R' e! R8 ~n a' v- e! d] ZJ ~h Ja ^w 2  1X 2X >U r~ u} 3X s2 6E 4X 5X 6X 7X 8X 9X 0X aX bX cX dX eX fX gX hX iX jX s( r5 A] {D |G !G r; kX gb lX mX nX oX tV pX `V qX E6 rX SC sX ^7 tX uX vX wX xX #{ qK Wz 01 yX zX AX BX CX yX DX EX FX GX HX IX JX KX ,g LX MX &) NX OX J! `J PX QX RX SX TX _A $K  . ,$ vf y2 d, P'  ' eE Lt ",
"UX VX WX XX YX ZX `X  Y .Y +Y @Y #Y $Y %Y &Y *Y =Y -Y 1{ ;Y KF >Y ,Y 'Y )Y `  za !Y ~Y {Y ]Y  f }  }  so ~v ^Y }  }  }  }  x@ /Y Ex &: (Y _Y :Y <Y [Y }Y |Y 1Y 2Y 3Y 4Y 5Y 6Y 7Y 8Y 9Y 0Y aY bY cY dY eY fY gY hY iY mN jY 4- }  }  @) h& `J m; q_ kY lY mY nY nY oY d^ !U pY Y2 U| (| MM qY rV rY sY ;# OF tY Q; A[ uY >[ u3 b^ Rq  ~ vY j. Z8 ha  P Bf wY xY yY zY AY BY #C CY DY EY 7B <| 0X FY GY HY IY JY :5 G@ l; 0! so Y, dy KY LY MY NY DR qo OY uY @r PY ,X QY 3a RY SY TY UY VY 1V ~n 9  WY XY YY Dt }  }  }  }  1( FR H_ ZY `Y KQ ;#  Z .Z +Z @Z #Z $Z -< cS aO *$ E, E, %Z aO &Z _U ;g *Z *Z _A =Z wN bd _A -Z ;Z >Z ,Z ZY q5 H7 'Z )Z !Z G. ~Z {Z :z ]Z KM Tb ^Z 0* ^+ JW !B {R =A 01 e! /Z (Z ^* _Z |5 :Z H_ WT <Z }5 [Z _U %I ;Z }Z |Z 1Z 2Z 3Z 4Z 5Z 6Z 7Z 8Z 9Z 0Z aZ bZ XU cZ dZ eZ fZ gZ hZ iZ d^ jZ qY kZ lZ tV mZ nZ oZ )7 pZ qZ  M rZ sZ tZ (P uZ vZ wZ xZ yZ zZ AZ BZ CZ e, ,[ KB =A DZ EZ FZ GZ HZ IZ JZ KZ LZ MZ NZ OZ PZ QZ RZ L2 SZ x@ ql TZ h! UZ VZ WZ XZ YZ ZZ `Z ZW u[ G7 H_  ` z- ]X SN wp .` ",
"+` @` #` $` %` &` *` =` -` ;` >` ,` '` )` !` p- ~` {` ]` ^` /` (` _` :` a1 IW <` [` $F IQ }` 55 so so so }  }  }  }  }  }  yu |` 1` G( zQ k~ 2` 3` 4` 5` 6` 7` 8` 9` 0` a` b` c` d` e` f` g` h` i` j` '* k` l` EW m` *I )# O^ }  }  @) a] n` o` YQ `J 7w DS p` q` tZ qY r` +4 mT `T *$ jN (P q' sY r' te x- rF `2 a^ O' O* O' oo :t ,[ R] 6J s` t` 8p dM u` v` w` x` !X y` z` A` B` C` h+ [W D` :5 E` F` G` H` I` J` Y, ~< V} I8 XL K` L` LV M` ER 0* 8H N` O` P` VO Q` R` v* sO 9~ oj d[ S` 3* -8 T` ks U` Dt }  x@ }  x@ x@ wj j5 $I gB V` ]X ]X W` X` Y` Z` ``   .ZV jN . ._| dS + .@ .=$ # .!G !G !G )G 51 $ .% .& .* .>Z bP = .- .|G ,8 z0 S^ ; .*F > ., .' .) .! .[X ~ .gz a[  . r5 |5 3_ 5, ~i *4 { .b& d! (9 :Z 2( r_ ] .BQ $4 =Z ^ .@K / .( .t2 _ .: .< .[ .} .| .1 .2 .FY 3 .4 .5 .6 .7 .8 .9 .0 .a .b .c .d .0X e .f .Zp g .h .i .'7 j .k .l .m .0X SX 8P uZ n .o .p .q .r .s .t .u .<t v .5$ 9  w .x .y .z .A .B .r( C .D .E .F .OZ G .H .I .B0 J .yu cy )[ R- W} K .L .M .N .O .  .xD P .b] k! Q .u[ R .S .T .U .",
"V .W .X .Y .Z .` . .....+..@..#..$..%..&..*..=..-..;..>..)I ,..'..{S VO )..~Z !..~..{..uO }` 35 so so }  }  }  }  }  }  ql ]..xX :W R_ 4a YO ^../..(.._..:..<..[..}..|..1..2..3..4..5..6..7..8..9..0..a..b..c..EW Q# *I [` tF }  }  }  I8 a, a, R- D, d..e..f..g..h..i..%Z  Q *$ ]P (X FW j..,8 uj KM KW T} 31 ;< k! ZJ ]< }6 Sb k..l..0D m..n..o..-X p..q..8, r..}N s..K; |E (f WO Kp 3( t..3 .u..VQ v..w..x..y..z..V} ~< Z, A..dy B..C..}U r[ m; ^Z D..E..F..G..a1 m' z. {_ |^ 1f ZO :@ 4a H..!1 %) *. I..}  }  }  }  x@ }  I8 =T =Z 4z / .=M BU J..5X K..L..^P ZV M..N..O..JV JV aO MM )U G7 >$ 3( FQ P..b* <5 '# AB A- tV -M ue |G Q .j..Q..R..S..T..U..&J U..V..W..X..B] v3 P^ Y..y- e& 0* v .C* g; [6 6c =I 6- >8 =T z0 $$ <+ Z..~U wN bS Fa |G `..`L  +..+.1 .++.@+.#+.$+.3 .%+.&+.*+.&+.dy dy =+.-+.;+.>+.CS ,+.GY '+.)+.!+.~+.{+.]+.^+./+.-. (+._+.;+.:+.<+.[+.OS }+.|+.1+.2+.3+.4+.u ./Y k; Jo 5+.0P 6+.7+.8+.9+.0+.U^ 6F a+.b+.c+.d+.e+.f+.g+.z* h+.i+.MT Y, 55 2c I  j+.k+.l+.vD m+.!9 ; .eS n+.NY 'h D] B- F  o+.",
"p+.q+.r+.s+.t+.u+.v+.w+.x+.y+.z+.A+.B+.C+.D+.E+.F+.G+.H+.I+.J+.=[ Z^ v' K+.L+.#Z YT :z nT [5 M+.so }  ay }  }  }  }  }  N+.O+.j[ AN PQ '| oG OR P+.Q+.R+.S+.T+.U+.V+.W+.X+.Y+.Z+.`+. @..@.+@.@@.#@.$@.L$ %@.&@.J[ Q# M  3U !P x@ }  }  }  }  }  }  /+ *@.d..=@.-@.;@.d..eX cX >@.,@.lY [X .U )P '@.)@.z2 R3 a[ j..eS B] B, B] o` !@.ix ^Z ^Z ~@.{@.]@.bx mm #+ 7H &+ O- =I {_ 8p @k S| iz ^V Y..!P S..>8 P* @) Z, 1( W} YJ R- T^ ^@.@4 *$ aO Co /@.{@.{@.(@.(n _@.N` S| 15 k; 2_ 2- 1_ 9p }^ +l 8f =G [T :@.x@ x@ x@ }  x@ x@ Y, <x ^9 AU - .BU <|  Z <@.;< LM LM #4 &Z JV [@.*$ sV !P J  vf #$ cB cB Ao #~ U} WU FR >8 o5 jx o5 !9 o5 >8 q( }@.eS &Z )v NY &J |@.V..1@.2@.3@.x@ }  x@ x@ @) '[ '@.o( O# h; tm :  aB l; x@ }  }  }  x@ pi wD %4 xD U^ 7P tZ 4@.5@.6@.7@.7Z 6Z 8@.9@.0@.Y2 a@.nA TZ b@.c@.d@.e@.g..t..JV aO f@.g@.h@.i@.j@.k@.l@.m@.n@.o@.K` '+.p@.q@.r@.s@.t@.u@.v@.w@.x@.y@.B, |X I_ z@.[  B, A@.w2 :+.E` !+.D6 mm B@.C@.D@.E@.F@.G@.H@.I@.J@.pi K@.:x L@.M@.S- N@.O@.P@.(P z0 `q Q@.Sb !v <@.> .'h ER )P R@.",
"S@.T@.U@.V@.W@.X@.Y@.Z@.`@. #..#.+#.@#.##.$#.%#.J< &#.}J *#.e7 =#.-#.:z ;#.>#.MY ,#.2@.vO oo '#.so so }  }  }  }  }  V} g! i! )#.5e EM pP !#.~#.{#.]#.^#./#.(#._#.:#.<#.[#.}#.|#.1#.2#.3#.4#.>3 5#.6#.8n 7#.8#.+: l( 9#.0#.y- x@ }  }  }  }  }  }  a, a#.b#.eX ;@.c#.e..bX c#.d#.lY &Z }X t[ Tb R3 R3 a[ b] G. G. r[ FW e#.LM eS p' )P /@.A^ f#.g#..U c* uj ~9 Qq `s  . A0 h; o~ C* P' I@ h#.i#.iR vj $$ Vb T- ~< R- *G ;8 X} WU J  y- Co m; A^ u3 Io Io xO (n j#.0p 2_ v .a! *) <- Ov KB RL k#.jm }  }  }  }  }  }  }  }  }  }  S- H_ l#.;g r' lT lT F, j..!U e#.&Z _| *$ m#.y- iz S..n#.Ao o#.o#.p#.1, aw A. *G X} X} pi {< km {< X} {< hz q#.r#.iZ {9 iZ s#.s#.t#.2@.)h +S }  }  }  }  }  )[ e& b7 rT U' P; 8$ WU }  }  }  }  }  }  u#.v#.w#./X x#.Pb L..FY L` y#.z#.L` ;+.A#.{P m$ Z, @) x@ x@ nS {P u..B#.XQ HQ G  C#.D#.E#.F#.G#.H#.I#.J#.K#.[+.L#.M#.N#.O#.P#.Q#.R#.S#.T#.U#.V#.W#.i+.X#..{  d Y#.qi !h G  v#.>M WQ C#.P .oo Z#.`#. $..$.+$.@$.#$.$$.Et wj K@.X} (m M@.|p Y..&X D6 e& 1( V} %$.&$.&J {x YT > .*$.x3 P^ ",
"=$.-$.;$.>$.,$.'$.)$.!$.S. 2t ~$.{$.]$.^$./$.lB L- ($.~C _$.pJ :$.rY YT c .`` <$.[$.U..}$.oo {s so }  }  }  }  }  }  l; g! |$.1$.8O ~C f< 2$.3$.4$.5$.6$.7$.8$.9$.0$.a$.b$.c$.d$.e$.f$.g$.h$.i$.j$.k$.l$.m$.8z Mr s$ -# R .iR x@ }  }  }  }  }  }  a, `T cX O..B..n$.c#.bX @ .u.._| sJ G. j..lm YQ A^ YQ YQ )U e#.e#.)U JV C#.)U m; m; /@.o` B] !@.Co R3 G. /m /x Qb KW }5 c] i; uf I. K_ u .o$.o$.<+ DC xj |p 1( wj *G hW hW p$.n5 CZ ]< ZJ I_ Rq _x _x Io 0D >[ v .,[ k; a! *) <- OD 1_ ,4 K. q$.}  }  }  }  x@ l; l; |p V} 0! :x hR [Z r$.ky =M s$.1@.*X r(  W ,+.N..6 .}@.O^ o5 t$.o5 U} p#.u$.AR #t C. C. C. A. *G *G pi T^ T^ ;G T^ T^ !9 eS i& b* n+.d^ d^ ~9 G, v$.y..}  }  }  }  }  )[ w$.r_ (9 't o( l$ #X }  }  }  }  }  }  u#.PX SL x2 /P x#.x$.aX L` y$.:+.z$.>+.A$.x3 '[ l; l; V} V} Z, I! x3 v..B$.5- m5 C$.NX D$.E$.F$.G$.H$.I$.J$.K$.L$.|U O#.M$.N$.Q#.xu O$.P$.Q$.v@.R$.:x /+ *G R- En CR 'g I@ n@.0w ># K_ 0w ++ S$.T$.U$.V$.W$.X$.Y$.Z$.~Q :@.`$.R- YJ 55 S] v3 O^ X#.T^ V} V} I8 f#.;< d .M` qY E, Y..VZ ",
"= . %..%.+%.@%.#%.$%.nU gI %%.*U &%.*%.=%.-%.;%.sA >%.,%.'%.)%.'%.Pb A#.}U !%.A@.d#.*X iZ Tb M+.}  }  }  }  }  }  }  }  ~v ~%.hN {%.]%.^%./%.(%._%.:%.<%.[%.}%.|%.1%.2%.3%.4%.5%.6%.7%.8%.9%.0%.a%.b%.'a c%.d7 iY )6 !D  Z 11 x@ }  }  }  }  }  }  V} jL a@.U| U| P^ d%.P^ P^ I! ^@.q( D, ;G X} pi {< pi {< ,& D, q( 0  ,& (+ e%.ZT T^ {< f%.'[ f%.f%.T^ T^ g%.z0 FR >8 U} $$ $$ [  DC *G R- W} W} 1( |p l; |p Y, T- 1( W} W} *G {< hW WU [  fN DC X} @~ T^ WU FR #~ $$ U} U} Ub &) Dv cB h%.Q- T] |p i%.Y, T- P* u#.u#.lA H  a, g! B, I. U2 Ha j%.k%./X F. #4 CS 7w P^ D. @) 0] P* f& a, R- xj S] S] |p l; |p 1( 1( W} S- 1( lA a, a, m$ /+ /+ q( kY J! FW r( eS G. a< r[ l%.}  }  }  }  }  }  nS X2 n5 n5 k5 U} l; }  }  }  }  }  }  Y, W2 o$.o$.vf ~h A^ `J 3@.3@.h#.3@. Q C$.,& T- V} l; }  }  }  Y, @) u#.lA :@.:@.MT m%.n%.o%.p%.q%.r%.s%.t%.u%.v%.a@.n$ VZ XL mA zw w%.x%.y%.z%.bg lA )[ x@ }  }  l; g! <x `; A%.R^ hW `; 'g j. B%.C%.D%.E%.F%.G%.H%.ro l; x@ }  so so so }  V} }  }  }  }  so I%.!9 J%.K%.!P #) 0  L%.",
"3@.M%.WQ t..B#.N%.%X O%.P%.P%.Q%.R%.S%.T%.U%.V%.W%.v..:+ X%.X%.Y%.XU Z%.`%. &.mT #) >@.*F Co wj }  }  }  }  }  }  V} }  .&.~%.n@.+&.@&./K #&.$&.%&.&&.*&.=&.-&.;&.>&.,&.'&.)&.!&.~&.{&.]&.^&./&.(&._&.{p @R dd Bz S' p; s$.0O x@ }  }  }  }  }  }  }  x@ }  }  }  }  }  }  }  x@ x@ x@ }  }  }  so so l; l; @) I8 I8 Z, Y, x@ x@ x@ x@ }  }  }  }  }  }  }  }  }  }  }  }  }  }  }  }  }  }  }  }  }  }  }  }  }  }  }  }  }  }  }  }  }  so }  }  }  }  }  }  }  x@ x@ x@ x@ x@ x@ l; l; T- 1( hW ZJ j5 o$.yB =T :&.O^ O^ =T n5 W2 n5 =T n5 O^ iR h#./9 <&._| [&.}&.^Y }  }  }  }  }  x@ V} so }  }  }  x@ V} V} |p Y, ~< ~< T- ~< T- T- I8 I8 a, a, /+ /+ |6 pY hz (+ D, A..}  }  }  }  x@ }  }  }  x@ }  V} }  }  }  }  }  }  }  so }  0! V} V} so 0! Wb 0! V} V} V} V} x@ x@ }  }  }  }  }  }  }  }  }  }  x@ |&.l; |&.ql 1&.2&.3&.4&.5&.6&.7&.i%.x@ }  }  }  )[ x@ NI 8&.}g 9&.0&.a&.S- )[ }  }  }  }  }  }  x@ }  l; V} l; l; ~< Wb b&.c&.d&.2c 2c }  }  }  }  }  }  }  so }  }  }  }  }  so }  }  }  V} V} e&.Z, I8 P* ",
"># f&.PX f&.C#.f&.TQ ~U n@.XJ 9P 5- g&.h&.|$.n#.o$.O^ w$.h! h! |6 hz pY ~P pY |6 i&.j&.`T kd 1( }  }  l; }  x@ x@ x@ Dt S- Z..0w uV k&.}| u( ^2 l&.m&.n&.o&.p&.q&.r&.s&.t&.u&.v&.w&.x&.y&.z&.A&.B&.C&.D&.dv f! b~ E| s' vD x3 x@ }  }  }  }  }  }  }  }  }  }  }  }  }  }  }  }  }  }  }  }  }  }  }  }  }  T- Y, Y, V} V} x@ x@ }  }  }  }  }  }  }  }  }  }  }  }  }  }  }  }  }  }  }  }  }  }  }  }  }  }  }  }  }  }  }  }  }  }  }  }  }  }  }  }  }  }  }  }  }  }  }  }  }  }  }  }  }  @~ G7 P..T` i#.v..i#.iR i#.x3 x3 p[ 0  h! m$ =G 0  mT G_ ^V E&.@4 I  }  }  }  }  }  }  }  }  }  }  }  }  }  }  }  }  }  }  }  }  }  }  }  }  }  }  }  }  }  x@ }  x@ x@ Y, x@ x@ }  x@ }  }  }  }  }  x@ }  }  }  }  }  }  }  }  }  }  }  }  }  }  }  so }  }  }  }  }  }  }  }  }  }  }  }  }  }  }  }  }  }  }  }  }  }  x@ ql i%.F&.G&.H&.I&.J&.|p x@ x@ }  }  x@ )[ by K&.L&.M&.N&.O&.S- x@ }  }  }  }  }  }  }  }  }  }  }  }  }  }  }  }  }  }  }  }  }  }  }  }  }  }  }  }  }  }  }  }  }  }  }  }  }  }  x@ x@ V} x@ ",
"% .1G # .S; jz P&.4( N: Q&.T* Q&.&9 R&..4 #l 1f T' T' Hm v .e, <9 9* I_ I_ CZ ]< kd 4_ |6 {< l; so }  }  }  }  }  so so :- S&... YK || T&.D0 U&.V&.W&.X&.Y&.Z&.`&. *..*.+*.@*.#*.$*.%*.&*.z&.**.=*.-*.;*.>*.f! 7, y& ~| ,*.!U Y, }  }  }  }  }  }  }  }  }  }  }  }  }  }  }  }  }  }  }  }  }  }  }  }  }  so so }  }  }  }  }  }  }  }  }  }  }  }  }  }  }  }  }  }  }  }  }  }  }  }  }  }  }  }  }  }  }  }  }  }  }  }  }  }  }  }  }  }  }  }  }  }  }  }  }  }  }  }  }  }  }  }  }  so  d BQ FQ /Y yo tF !U !P H! iz o$.,# a] /| P* 0] a] J  x3 C6 ,# D, @) }  }  }  }  }  }  }  }  }  }  }  }  }  }  }  }  }  }  }  }  }  }  }  }  }  }  }  }  }  }  }  }  }  }  }  }  }  }  }  }  }  }  }  }  }  }  }  }  }  }  }  }  }  }  }  }  }  }  so }  }  }  }  }  }  }  }  }  }  }  }  }  }  }  }  }  }  }  }  }  }  l; Dt cy '*.)*.!*.~*.{*.o .]*.x@ }  }  }  x@ x@ ay ^*./*.(*._*.:*..&.Y, }  }  }  }  }  }  }  }  }  }  }  }  }  }  }  }  }  }  }  }  }  }  }  }  }  }  }  }  }  }  }  }  }  }  }  }  }  }  }  }  }  }  ",
"s2 4P <*.UN [*.}*.|*.1*.@] 2*.3*.4*.5*.6*.`) 7*.8*.9*.0*.f! 3M y} nN d* A& A2 s[ a*.V} }  Y, 45 En 2c to b*.O7 c*.wo Vq d*.W, 3k T; g] v0 >* e*.rQ f*.g*.h*.i*.j*.k*.l*.m*.n*.o*.p*.q*.r*.s*.t*.u*.v*.uL ba ][ ;a P; wB ,*. Q V} }  V} so by }  }  }  0! 2, 2, 0! ~Q {s En so }  }  }  }  }  }  }  }  }  }  so '#.w*.x*.y*._m _m 2, 2, by so so so }  so so so so by by  f 2, rk rk 35 rk 2, 2, 2, rk <T <T :m :m Bn :m :m rk  f by by so by so  f  f z*._m <m <m x*._m to rk z*.2, z*.rk to A*.}$ l8 Ot [6 B*.sm a! v .+& 2_ k. :t ]Y id Ao CZ s[ 0B r5 T} 2( /Y CZ C*.}  }  }  }  }  }  }  }  }  }  }  }  }  V} ~< '#. k ve D*.E*.F*.G*.H*.I*.J*.K*.Aj _l L*.M*.N*.O*.zj P*.Q*.R*.S*.`e zR 3m 3m 1m b*.T*.Vq U*.V*.W*.X*.Y*.Z*.Z*.Z*.`*. =..=.`*.+=.+=.@=.#=.$=.y*.<T rk  f 2c so }  }  }  }   f 0! 45 |p l; }  l; 0! %=.|&.]..g! &=.*=.==.-=.;=.i+.Y, Y, Y, |p a, P* %=.>=.,=.'=.)=.jC m$ C, W} ~< l; by xj !=.~=.~=.{=.L@.{s ]=.B. yj ^=./=.yj /=.3m 1m (=.rk 2, <T _=.b*.(=.2, 0! xj jm (m :=.N7 75 <=.L7 Xq xR SB [=.}=.",
">| |=.1=.2=.3=.4=.5=.6=.7=.8=.9=.0=.a=.b=.c=.,3 23 d=.e=.y[ f=.u( g=.!B dA |5  t Q..}  }  V} fN %t <=.h=.G: i=.j=.r6 2S k=.l=.m=.)C l^ !4 A3 *P X_ n=.o=.p=.q=.r=.s=.t=.u=.v=.w=.x=.y=.z=.A=.B=.C=.zf 6n u} 5E m( !B #K P@./9 lA R-  d Y} o#.CR <T D=.E=.Wz fQ q. sz 6k px F=.G=. f }  }  }  }  }  }  }  so to H=.(d fv I=.5i J=.K=.L=.M=.N=. >  > O=.P=.P=.N=.N=.3k N=.Q=.[9 R=.H( Km 7* Km 7* gt ^< %f /r %f b; {8 jh 1^ S=.T=.=t *t U=.U=.V=.W=.X=.Y=.(f at uz :* &y Z=.`=./l F2 /l  -..-.+-.@-.#-.$-.%-.M^ =N &-.*-.Lr Lr M^ D^ pt K6 E! x~ =-.--.6  5x ST x[ N! 3_ C.  f 55 qi $$ 8f 1, CR A. 0S A. *G X} ;8 ;-.T, >-.LB  ) ,-.'-.)-.!-.~-.F< {-.]-.Bx ^-.0v /-.M| (-._-.rQ :-.n=.eP Af <-.[-.}-.|-.|-.1-.2-.3-.4-.5-.6-.No Y< Ro 7-.Iz Iz 8-.Bx 9-.Iz k# &| W# J| 0-.a-.H*.b-.GF GF N=.c-.e5 d-.a# 2X e-.nI fN I( f-.W2 B$.n` g-.Gn h-.i-.j-.nG k-.l-.wR /Y uA wR m-.n-.o-.p-.q-.WE m%.r-.xo %$ s-.t-.-t h, /r /r #[ H*.u-.CU 1^ y* x* #[ v-.N' e3 q8 w-.x-.y-.z-.A-.l# (4 )T B-.1  O# 9, |_ &T ~+ g| C-.D-. ^ ]' E-.F-.",
"G-.H-.)5 I-.J-.K-.L-.M-.N-.O-.P-.Q-.R-.S-.T-.aN U-.oO V-.W-.*#.X-.HV v' o; |5 ^+ jx }  }  Z, .{ $E GF *6 V/ Y-.Z-.`-.P$ i. 4$ '$ oN 5x a' !'  ;..;.m[ '3 aN +;.@;.#;.$;.%;.&;.*;.=;.-;.;;.>;.C% ,;.';.);.5X !;.JM k& ~;.P@.>M T^ FR d, ^x H7 Y} rk {;.9H ];.5k P. ^;./;.`P (;._;.kA by }  }  }  }  }  }  }  A*.rf IF :;.<;.M5 Z] f| [;.N: 7O };.|;.JQ };.w[ oN h+ Zw 4( Ez r} 2| PN a_ uC Pl 8< w( mt ^A ot *; M- w; ,a .: kn 1;.v5 @Q 9A Hh x* Zt 2;.gH W- 3;.F+.u% d. 5t 4;.$f [@ &p bf }1 5;.6;.^# 7;.8;.9;.0;.a;.:%.wL b;.c;.d;.EL ]' e;.f;.g;.h;.i;.j;.k;.l;.]%.T; 1$.o#.id m;.r$ ,$ y2 Dv zo jd 'g jd gz #~ 15 kn 0t n;.o;.p;.q;.r;.s;.t;.u;.v;.w;.x;.y;.6+ z;.A;.B;.C;.D;.E;.F;.G;.H;.H;.I;.J;.K;.L;.M;.N;.O;.O;.O;.P;.Q;.R;.S;.w< w< T;.w< U;.E< V;.W;.X;.Y;.Z;.`;.T[  >.mI u5 Y  $z {%.1C .>.+>.@>.};.#>.*T qk Q- K_ WY LM <+ l; @t ~Q $>.Tb %>.&>.*>.'B =>.->.;>.>>.,>.'>.)>.!>.b, ~>.qV ]v {>.]>.^>.K; +a !~ Dh />.I2 (>.pr TO Qh t$ $f _>.0t :>.5. <>.[>.m* }>.|>.gP ^8 1>.2>.{%.8J 3>.r# N0 h- 4>.5>.]` dc E< 6>.",
"7>.8>.9>.0>.a>.b>.IN c>.d>.e>.f>.g>.h>.i>.j>.k>.B  l>.m>.pG X-./%.n>.v' o; B- tH z0 }  }  T- ZJ Ja t< ^C o>.') p>.q>.r>.s>.5$ _9 sA k&.RQ +y nj t>.u>.v>.w>.x>.y>.Ix z>.A>.B>.C>.D>.E>.F>.G>.H>.I>.J>.K>.L>.M>.N>.~| O>.P>.Z2 e%.g%.q_ k! [5 cB '#.2m ,4 Q>.i, R>.ez S>.Jv F& T>.U>.V>.}  }  }  }  }  so l; W>.X>.Y>.{f Z>.`>. ,..,.Kx  0 !| tb qN tb &M 12 12 c7 v~ x' @3 M: GV 3P Or 0F 7M V4 +,.-h @,.[# 1I QQ w; >g IB Ot iy .3 iy z3 v5 7c nd #,.@= $,.r- %,.&,.E: *,.dI <N k( PM s. K, =,.=h -,.;,.~` >,.,,.',.',.'r ),.!,.Y] ~,.{,.],.{{ ^,./,.(,._,.:,.<,.8< Z  9  9* 9* T2 31 I. y2 BI Dv Ao CZ vf jd #~ 5$ +$ Hz rQ [,.},.|,.1,.2,.3,.4,.88 5,.6,.7,.8,.D;.9,.0,.a,.b,.c,.d,.e,.f,.g,.h,.i,.j,.k,.l,.m,.n,.o,.p,.q,.r,.s,.t,.S;.S< Z* Q;.s,.u,.t,.v,.w,.x,.|e `;.[C y,.hy z,.@z i^ ~G qN A,.tG az RQ qK B,.gx 3, ix j..[X >8 }  }  45 xo ^x C,.9w 1X D,.E,.oC F,.Fy G,.H,.I,.J,.b, `; K$.]Y K,.L,.^>.$[ M,.N,.O,.P,.Wo 4| D0 u0 9c @-.E0 Q,.R,.l3 S,.T,.K| U,.V,.W,.X,.Y,.J2 r; h+ vS @a Z,.`,. '..'.K0 O5 +'.@'.#'.",
"$'.%'.{H &'.*'.='.-'.;'.>'.,'.''.)'.!'.~'.{'.u. ]'.^'./'.('._'.7x _$.OF |5 sH G7 ;G }  }  P* d, l$ O] :'.<'.['.}'.|'.1'.t* |1 }x 2'.3'.4'._G 5'.6'.7'.8'.9'.0'.a'.b'.@^ c'.d'.e'.f'.g'.h'.ch i'.j'.k'.l'.m'.n'.IV wB o'.p'._| jL e%.]< ^x [5 q'.|  r'.|, NW m< s'.t'.u'.jn ri 'C -G &) T- }  }  }  l; CR T] /t v'.5Y w'.x'.y'.z'.n| &p a# ;H gS tJ C7 %0 SQ }| -# oN a# FU A'.v~  A ^5 JT /K B'.[S FD Gt qO 5r !g 3* X  Nt z3 &4 rT r; sT Xr 4  k$ #0 C'.D'.E'.F'.G'.H'.=6 I6 PB I'.IB wS #3 7< J'.K'.L'.M'.N'.O'.P'.k, Q'.R'.w$ S'.cP T'.U'.V'.W'.X'.N, Y'.#,.PF %{ pA R; >& 6- r_ tH G7 |X -G Yq ,< b^ q_ ,< -G 5, f! b. >0 $@.Z'.`'. )..).+).@).#).$).%).JN &).*).=).-).a,.K;.;).;).>).,).').)).!).~).{).]).^)./).().n,._).:).<).[).}).Q;.t,.|).1).2).3).4).5). 4 6).w; %8 6D Ww 1X 2z f* # ._X 7).8)._I %k `O Uo &6 9A s_ 9).0).FR 1( (m y0 e, oo a^ A* U' N- &8 a).b).c).d).e).f).J,.Q#.6q g).}p =t h).i).UF j).k).l).m).(l '' Ma Q,.n).o).9c 9c p).*p .a LJ 5. Ix q).E-.r).s).H( h^ 81 i1 m7 Qo t).u).v).gT w).x).y).z).",
"A).rx B).C).D).E).F).G).H).I).J).K).L).M).N).O).P).Q).R).S).T).U).V` o6 O; s[ r_ ,& x@ }  m$ r_ ^w 0x V).W).X).X).Y).Z).`).^v yn  !.x6 O2  w .!.+!.@!.#!.$!.%!.aW &!.*!.=!.-!.;!.>!.,!.'!.)!.!!.~!.{!.]!.^!._ ./!.;Z w .(!.dS (+ e%.YQ <5 >$ 9* BI 25 wQ ]n _!.:!.<!.[!.x] Gp gW G! 3( u .pi R- [  _x y@ A0 y] ^..}!.W;.|!.1!.^~ AO nL 2!.3!.^ .4!.5!. !.UT }| oN oN 6!.7!.a).8!.pP f< /K JT 5_ Lb .x 9!.p| 0!.F0 M- *; qv b6 DU A, w[ 9#.cd &K [( qb 5; Pg J+.a!.b!.ok EF c!.l7 o! 5r bf $f d!.e!.f!.g!.h!.i!.Hj E( .| j!.k!.l!.m!.n!.o!.p!.q!.aN j] .^ r!.N* s!.R# 91 ;& _9 <t t!.}W KW (9 uf i; qJ o( q5 B- |5 u!.qv &p SF %, v!.w!.x!.y!.z!.A!.B!.C!.A' D!.(M E!.F!.G!.H!.I!.J!.K!.L!.M!.N!.N!.O!.P!.(D Q!.,] R!.S!.T!.U!.V!.W!.X!.Y!.Z!.Y!.`!. ~..~.+~.@~.w,.#~.$~.D0 T[ :2 $z d-.^u VT # .%~.F* &~.*~.;; f| :{ =~.-~.;~.Q; K7 8* O' 9$ B[ v5 6c G& L2 (>.x& >~.,~.'~.)~.!~.~~.{~.]~.B_ ^~./~.(~._~.:~.7; <~.[~.cP }~.|~.1~.2~.3~.4~.5~.6~.U-.7~.>; x# 8~.uk 9~.D# 0~.'A a~.b~.pp eK wp c~.:{ d~.e~.R< f~.g~.h~.2,.i~.j~.",
"k~.Uf E: l~.m~.n~.o~.p~.q~.r~.s~.t~.u~.v~.=f w~.x~.y~.z~.A~.B~.m$.C~.KW >< [5 P .hz x@ }  hz 31 )D !_ Yh D~.E~.F~.#! M' `).G~.9S uV H~.V' V~ ]5 I~.J~.K~.K~.v+.L~.M~.N~.O~.P~.Q~.R~.S~.T~.U~.V~.W~.X~.Y~.^!.Z~.`~.:U  {..{.A@.jL hz !U '# 3( ^x vj #~ +{.@{.#{.${.PY %{.&{.*{.={.&R ZY SL y- n#.2( 3( 61 .1 -{.;{.>{.2) ,{.'{.QR ){.PN %~._A !{.~{.bP mL xS 8< Y^ [d |9 pp Eh |# j^ {{.]{.IM eI ^{./{.({._{.tk 5a n! $M M$ T' 1  o; kP :{.<{.[{.^{.0n }{.Y5 |{.1{.2{.l~ 8*.3{.4{.5{.6{.7{.A( ;* 8{.9{.0{.a{.o!.)1 0p k. #9 HH b{.c{.,-.d{.e{.f{.g{.h{.h] i{.>* sz 7B j{.{U d* -G k5 WY E6 _U VT ,H sY T4 ,Z !Y !Y gi  A :2 K8 dk k{.l{.m{.n{.P;.o{.p{.#d q{.r{.s{.t{.zW y).u{.v{.w{.x{.y{.z{.A{.B{.C{.D{.E{.F{.G{.H{.I{.J{.K{.L{.W!.M{.N{.O{.P{.Q{..~.R{.S{.4).T{.U{.$~.Y! T[ Uu 7O 6!.jz ;g tV ky F* V{.*m 5@ W{.X{.Y{.Z{.`{. ].B* O- 9$ VJ 9, *4 Yr y& E| x] .].yU +].@].#].$].%].&].*].=].1x -].;].>].,].2@ '].)].!].~].{].]].0j :# ^]./].(].W= _].:].<].:].[].}].|].N( 1].2].3].4].5].6].X'.&,.7].8].U0 9].0].a].b].c].d].",
"@6 Sf e].f].:Q g].h].i].j].k].l].m].n].o].p].q].r].s].t].U).zV |P u].l#.b7 O; I. ,& x@ }  n#.- .rA y. 7. v].w].E~.gC b3 =) 7u hs vV H~.x].y].z].A].B].C].D].E].F].G].H].I].J].K].L].M].N].O].P].Q].R].S].T].Z~.U].V].W].X].Z2 v3 v3 YQ b* AB I. J. #$ <  Y].Z].`]. ^..^.+^.@^.N>.E* ZY -$ h#.#^.$^.O; d-.;4 8] %^.&^.*^.=^.-^./{ fL 6r Zw s; 5_ ;^.-U >^.oG ,^.5].!$.yU '^./o Kx j* )^.!^.~^.,K {^.G$ z  ]^.E% ^^./^.}2 N] Jp n' 9< (^._^.nP :^.{$ <^.o| O  %-.[^.#a }^.|^.1^.2^.3^.4^.5^.6^.Q. 7^.8^.9^.0^.a^.&G 3_ #& $& ed &k U= b^.,..%^ c^._; h{._; [t 0!.k1 n} [( V| R; e, k5 d^.41 =Z ;g AU ZY >%.]X e^.[` `p g< pP K: A-.^-.j8 f^.g^.h^.i^.[a j^.k^.l^.Rt m^.n^.o^.p^.[~ q^.r^.s^.t^.u^.v^.w^.x^.y^.z^.A^.B^.C^.D^.E^.+~.S{.F^.v!.>k G^.H^.I^.J^.#'.K^.L^.M^.j, E_ Kt N^.,I $z V' &u T4 uV O^./'.V! }d P^.Q^.R^.S^.T^._z o6 uf >& 9$ e; Fx .Q +: N] HM 5].U^.V^.W^.X^.Y^.Z^.`^. /../.W$ +/.A-.@/.U{.=f #/.$/.%/.&/.=^ )@ */.=/.-/.;/.>/.,/.'/.)/.K= !/.~/.{/.]/.^/.//.(/._/.4. :/.GM </.[/.}/.|/.l| 1/.2/.3/.4/.5/.6/.",
"@E SY Kc 7/.8/.9/./0 0/.a/.b/.c/.d/.e/.f/.g/.h/.w~.i/.j/.k/.*g l/.m/.jY k& G! k! T^ x@ }  lm 5z mS M. :$ |< n/.o/.)r bk p/.gy q/.vV %0 `9 r/.|I s/.t/.u/.&C v/.w/.`u x/.y/.z/.A/.B/.C/.D/.E/.2D F/.G/.H/.I/.J/.}Z K/.P>.L/.r` h! pY B] p5 I. }6 gz Y} B* M/.N/.O/.P/.Q/.NT 'v v' R/.L! e#.tF J  q_ ID H..5* y, S/.T/.U/.V/.W/.X/.Y/._{ Z/.R! `/.c$  (..(.+(.@(.+$ 3>.#(.$(.%(.&(.e=.Uk fK *(.H] =(.-(.Ve I# ;(.`/ M- 3M %{ 3x >(.,(.-{.OK <^.~~ '(.)(./{ !(.~(.{(.](.o} ^(./(.((._(.%#.:(.<(.B).H- 2) ;..[(.}(.|_ n' ^u q; |(.1(.2(.3(.,m :c H< E# a. P} OB 4(.<^.j1 E  p; A0 O* CZ WJ wD :| ;# ey ;# xB NY K! D] +U V` /K 5(.6(.[t 7(.8(.9(.0(.a(.b(.c(.d(.e(.f(.8; g(. a 53 h(.i(.j(.k(.l(.>k m(.n(.o(.p(.p(.)F q(.~  r(.v{.s(.a8 t(.u(.u(.v(.)^ #'.w(.2).x(.y(.z(.R. ^^.1I Lt Uu y} g7 e< SQ A(.-w B(.C(.$= D(.E(.F(.G(.+^.H(.I(.I7 b^ -G 0[ h+ J(.K(.^2 L(.|L uC M(.N(.O(.P(.Q(.R(.S(.T(.U(.V(.]' W(.]].X(.Y(.Z(.`(.n]  _.._.+_.@_.#_.$_.%_.&_.#] *_.=_.-_.;_.>_.&] H/ //.,_.'_.)_.0~ !_.GD ~_.{_.]_.^_.U> /_.(_.__.:_.<_.",
"=n U7 P$ B).[_.}_.|_.1_.2_.3_.4_.5_.6_.7_.8_.9_.0_.a_.b_.c_.|P d_.e_.SQ f_.Ia ;$ e%.x@ x@ j! uB g_.Q_ fh b{.h_.i_.j_.6k @$ (9 <I 4!.pS k_.l_.m_.,; n_.o_.p_.q_.r_.s_.t_.u_.v_.w_.x_.y_.z_.A_.B_.C_.D_.E_.F_.9d %g v[ G_.Ob TQ N+./+ Q..[+ b! gx N*.l=.v' H_.I_.PY J_.K_.L_.M_.$+ [z I7 lm yB o5 9* ov M. N_.%-.O_.P_.Q_.R_.S_.T_.U_.dj /N V_.W_.X_.Y_.Z_.`_.3* Em  :..:.+:.@:.+N I& #:.$:.%:.&:.*:.,+ == =:.-:.z6 <N mI m( ;:.>:.,:.E! }^.2e ':.):.!:.~:.`g {:.]:.^:.}V 0+ /:.(:._:._:.h( 'n ::.<:.[:.X/.k] 6~.nd 81 [S ^I }:.R, |:.N= 8. 1:.H< 2:.:; 3:.(; 4:.$-.5:.$0 q; 31 aS GQ ;$ ]9 & .AU &u !G z- dS E, r( A- u].%U 9e Cs 6:.7:.8:.9:.0:.a:.b:.c:.AL :@ &: [r d:.e:.f:.g:.T= h:.i:.68 j:.k:.l:.m:.#_ -^ n:.o:.p:.+~.N{.q:.Q5 r:.r:.s:.&_ t:.u:.v:.w:.x:.y:.W,.); z:.@8 A:.7< u( T .B:.uN sb (G C:.D:.E:.}{ F:.() G:.6] H:.~D 3( I:.'g J:.;%.K:.L:.M:.N:.Mv '| O:.Sa P:.Q:.R:.S:.T:.U:.V:.W:.X:.)( Y:.M( Z:.`:. <..<.u;.+<.@<.#<.$<.%<.z;.&<.*<.he =<.-<.;<.><.,<.'<.,_.)<.gc t# :/.4k a' *,.{a !<.b| E(.~<.Yu O. {<.GN ",
"]<.^<./<.l~ >* E^ (<._<.:<.<<.[<.}<.|<.1<.2<.3<.7/.4<.5<.,G PK 6<.7<.RV 8<.!B P' '[ }  }   d sT X^ 9_ 9<.h. 0<.a<.Ym Ip WT V2 b<.v[ ~G z3 c<.}* d<.e<.f<.g<.h<.i<.j<.k<.l<.m<.n<.o<.p<.q<.r<.s<.t<.u<.v<.w<.x<.>Z s$.BU [W lm lA 45 40 6t y<.([ TB *6 z<.A<.B<.]t C<.D<.E<.F<.G<.H<.oo ]< !9 ;G $E Kk I<.J<.K<.L<.M<.N<./,.O<.P<.Q<.R<.S<.T<.U<./# V<.W<.X<.~4 #l Y<.Z<.`<. [.J& i} .[.3{.+[.@[.>m H- #[.$[.d;.%[.&[.*: L. *[.=[.-[.;h ;[.*[ >[.ic ,[.L= '[.)[.![.~[.{[.][.eT ^[./[.([._[.*] [_ Z,.W5 :[.<[.^a [[.}[.Zk G^ ST j1 c1 'a uz U. |[.:[.ck ~+ 1[.F:._(.l&.2[.G! -$ Ha bd tV sF AU ~G 3[.;# {9 LM 4[.5[.D] 6[.#U 7[.O^.8[.9[.[C |F pr 0[.v5 Hm #{ a[.b[.mI /< D5 c[.E# d[.e[.'! f[.v~.g[.h[.i[.j[.k[.l[.x;.Z!..~.'@ m[.u,.n[.'@ o[.p[.q[.r[.s[.t[.u[.N& =/ }. v[.w[.w_ Wj j* +(.8Q x[.y[.z[.[A `_.L(.{^.A[.B[.C[.%K D[.`s T} d, Y} +~ 3X E[.F[.G[.H[.9J I[.J[.K[.P:.L[.M[.N[.O[.P[.Q[.R[.-/.S[.T[.:> U[.S0 H/ V[.W[.X[.Y[.Z[.`[. }..}.+}.@}.#}.@}.@}.cj *<.cj $}.%}.&}.*}.,= 3; An I| =}.-}.^G ;}.,+ >}.HM K: 7t ,}.",
"'}.)}.)1 e(.!}.9c ~}.{}.]}.]J ^}./}.(}._}.:}.<}.*| [}.}}.aF |}.=$.1}.eB !# @z 9* V} }  }  rk 2- Fh 2}..[ kV 3}.4}.1- 3_ 11 3@.5}.6}.U' p. xe 7}.8}.9}.0}.a}.b}.c}.d}.e}.f}.g}.h}.i}.j}.k}.l}.m}.M:.n}.o}.p}.( .-# q; ;# A- d, 45  f q}.ZB r}.s}.t}.1N u}.v}.w}.x}.y}.z}.ia uY 2v A}.y3 ]< !h >8 3, 9_ I<.B}._8 C}.D}.I, E}.F}.G}.H}.I}.q;.J}.K}.L}.J$ M}.,/ N}..$ 8S O}.P}.T> Q}.%u R}.S}.fe T}.U}.V}.yf W}.X}.5Y Y}.#~.e;.Z}.dz FS .$ ,* `}. |.@< .|.+|.@|.#|.$|.%|.&|.*|.=|.-|.;|.>|.,|.'|.)|.!|.KL 06 |N &G ~4 ~|.-[.Y^ H..t8 #k Kc {|.NJ ~~ E- ]|.M^ ^|.H>./|.Y_.+(.R; I. TL c] o( o( Ia 0< JQ =M (P LM `J Co /V vB :K (|._|.}o pq qq :|.PQ rA <|.'G [|.}|.||.@z Jp rK 1|.k>.2|.3|.4|.5|.6|.7|.8|.9|.0|.a|.:a $@.b|.c|.M{.X!.d|.e|.f|.g|.h|.i|.j|.k|.l|.m|.n|.U( R0 L0 o|.J& 7{.p|.q|.]%.B'.lU r|.s|.2j t|. y u|.v|.]2 f_.}$.21 tH b^ %$ ;n pP w|.x|.y|.go :|.z|.A|.B|.C|.D|.E|.F|.G|.H|.0W I|.J|.K|.L|.J# N'.6~ M|.J# s] N|.O|.P|.Q|.R|.S|.T|.U|.#}.@}.., @}.V|.V|.W|.X|.Y|.Z|.u# yJ UJ DJ `|.|~.e*. 1.=~.R, eE X  kq m* ",
".1.+1.e(.r8 Bh >* -~.@1.#1.$1.%1.&1.*1.=1.-1.;1.>1.qe ,1.E@ g< S .eB u' u' n' Yq }  }  }  ro *r %& v@ +[ `j '1..^.)1.,U !1.~1.$) u[ U' {1.xe ]1.^1./1.(1._1.:1.<1.[1.}1.|1.11.21.31.41.51.61.71.81.91.01.a1.V` pS ;# VT b1.y2 |p  f E*.(C (~ c1.d1.e1.f1.g1.#{.h1.i1.j1..& j#.:t k1.DR e& n` >8 e, M: l1.m1.I& n1.9< w[ g7  S }_ o1.p1.q1.r1.s1.V] t1.P+.u1.v1.w1.x1.y1.z1.X}.b^.A1.nh B1.C1.D1.>m /A _{.E1.F1.G1.;3 H1.A1.I1.K] J1.af 8*.}; K1.K= L1.M1.N1.O1.P1.P1.Q1.R1.S1.T1.&_.U1.V1.W1.V&.-/ c!..$ R# X1.L[ >/ c~.8r >a Y1.(* i{.cQ ^.._o @f A5 ,9 v& Z1.`1. 2.f=.H8 Y. +l gy B0 g; z& :V 0< &w x2 VQ 5[.5[.~[ r|..2.+2.sN @2.#2.$2.%2.6B !C &2. 5 *2.=2.-2.VT }+ >-.B| ;2.>2.,2.'2.)2.!2.~2.6>.{2.]2.^2./2.(2._2.:2.<2.:).[2.M;.}2.|2.12.12.22.32.42.52.62.72.@; 82.92.02.a2.b2.gE GV pN s|.c2.d2.S4 tb (G iB e2.`R f2.~9 ~[ ^+ I:.Y} g2.rb h2.i2.j2.3B  A k2.l2.m2.n2.o2.p2.q2.{~.r2.s2.t2.u2.v2.6) 1. w2.o/.x2.y2.z2.A2.B2.C2.D2.E2.F2.r| _[.G2.*<.@}.@}.H2.I2.2*.X|.&}.gc V; J2.v8 .$ Kc uz r! K2.^|.[^.L2.M2.N2.O2.",
"P2.|N TO u_ F# Q2.R2.S2.T2.U2.YR V2.W2.X2.Y2.Z2.`2.lj  3.ba Gp O# 2  2  =4 tm lr }  }  }  ro Z. ,4 H8 l' <6 .3.+3.v' c* !1.@3.$) M! Ef sk Gj #3.1k $3.%3.&3.*3.=3.-3.;3.>3.,3.'3.o  Z( )3.!3.~3.9j {3.]3.^3./3.&M (3.gs _3.k5 |p by :3.)K <3.[3.}3.|3.gf 13.23.-X 33.43.53.0p ++ Tb G. V%.XQ 63.73.:2 83.93.7| rC w~ 8<.sA w} -F )3 03.u2.w% V&.mh @: a3.b3. ..c3.d3.e3.+h f3.r| g3.h3.i3.j3.k3.l3.m3.n3.o3.EH p3.q3.r3.e3.B% -0 +: ]+ s3.t3.s! =~ C-.@N u3.9z v3.w3.GS @L 6~.e| '3 O( l~./Q -/ d[ Lr pt Lr P| B< x3.-; y3.}j z3.:; ,* =] C` A3.T& B3.j* C3.D3.E3.v( *4 F3.r. $p :^.G3.!$ MN )D >H {| U^ H3.I3.aO q5 J3.K3.@2.L3.&A cO M3.N3.6B lS Vl {y O3.XY ~X P3.{r J; 0; H# Q3.-~.Q3.@w R3.)-.S3.T3.U3.V3.W3.X3.K{.Y3.p(.Z3.`3. 4..4.+4.@4.#4.z^.$4.%4.&4.*4.=4.-4.(a (-.]].;4.B  >4.w~ eB ,4.,4.'4.uB lL )4.(|.!4.qF q' {9 Q .'# XJ Ao ;n V' ~4.A7 {4.]4.^4./4.(4._4.:4.<4.[4.}4.|4.14.24.34.]-.N0 'r mx 44.54.64.74.84.94.04.a4.b4.c4.d4.e4.cj G2.#}.f4.H2.g4.h4.M( i4.j4.gc k4.xx h] l4.a^.m4.n4.0:.=* G- ,n fF 6@ o4.",
"8B y, b' !' -* -/ _@ p4.q4.r4.s4.t4._3 y1.u4.BO v4.w4.x4.-a >4 9$ a^ C* 6c o' Jo so }  }  55 >[ :  nm m' Pv ~R y4.z4.H. E. }&.A4.|z 6c B4.C4.D4.E4.F4.GJ [< G4.H4.I4.S2.J4.K4.L4.M4.|/.Kz N4.Jc bc O4.P4.*g Q4.S .@z 1X R4.Ao 0! so S4.Tm T4.U4.V4.EJ mo W4.X4.Y4.Z4.i1.u@ j#. + A^ J! YL A$.F6 (9 Uu |A '9 I& `P w} `4.bP SQ  ' {+  5..5.],.r6 b~ +5.@5.#5./|.$5.%5.&5.*5.=5.o;.4>.D(.-5.8r w; ;5.O_.]y EL M5 3T V0 >5.,5.8{.;/ 9x '5.)5.!5.u$ +a ~5.K6 8, .I =A  ].g] M$ .l 9|  ( ^^.{5.]5.9r ^5.c!./5.(5._5.V. d8 i] _; h] X; )/ qt ~1 8+ k( :5.v~ <5.Wu B@ =4 +1 ;a u3.[5.z  }5.|5.15.[d &E f* u[ A$.I3.O..aO 1@./3.25.VN 35.~B 45.#8 55.,^.cK 65.JT & .75.(K 85.}^.av 95.05.0' md 7B 8*.a5.Z] nc n|.G;.b5.c5.d5.e5.f5.g5.o,.b,.b,.h5.^).T!.C{.i5.j5.k5.l5.m5.n5.o=.FJ e' o5.2; i1  ' 8<.p5.KT z[.d2.@I q5.&g z[.>Z &w X..-$ sJ b] ZJ J_ #$ bK r5.s5.ky t5.&; u5.v5.w5.x5.y5.z5.A5.B5.C5.D5.E5.D4.F5.G5.H5.I5.J5.K5.L5.M5.N5.O5.P5.Q5.R5.S5.T5.ec U5.W{ I2.V5.Y= X{ F[ i:.W5. <.c{.R'.X5.Y5.Z5.`5. 6.X> L^ .6.z% +6.%~ zm ",
"+^.@6.#6.S` 8*.-/ $6.%6.&6.E/.T1.*6.=6.9& fH gF .N 6{.G-.Zr N^ 4  tm B[ n' h; Yq V} }  }  xj ,[ ,4 9$ 7F a1 ~R -6.{D a< h#.}&.5}.iN f; ;6.>6.,6.'6.4K !X ::.)6.!6.~6.{6.]6.^6./6.(6._6.:6.<6.[6.]'  2./'.}6.Wk |6.r; 1X 9S Dv 0! so 16.26.&| <* <* jv 36.46.56.66.<^  & (8 `8 ,[ u3 HQ 76.86.$) _3.65.96.~L 06.`P 12 a6.fB a6.z& @p &p +d Q. um Yr x} ;:.b6.c6.$5.d6.e6.'k f6.g6.Q0 |>.W  M. K, h6.i6.W= j6.1!.k6.<_.]` =^.4@ 4O Ol I, l6.;5.%T m6.sz Kk !< T' 9  VJ qv 8r !n E_ j, n6.o6.kt h1 p! Q: P. 'a U/ p6.]. U/ q6.r6.;{ ]L o).Qh &p rr '| x6 ua s6.Z9 l! &4 Vu t6.u6.v6.w6.x6.y6.QQ e* b7 Q .F. dX H3.<&.|G aV z6./I A6.B6.C6.@N Yu {B D6.X' Vu &u <I E6.F6.Fz q6.G6.B< ni gy 4  7r 2C H6.>~ U( I6.J6.K6.Y!.L6.M6.M{.V!.N6.$x O6.P6.Q6.R6.S6.T6.U6.V6.W6.$).X6.z' Y6.5;.`w i3 t~ UT vV Hw  5 Z6.xV d2.J3.`6.uD :I =$  7.GQ :Z ~h J. nI BI 9! .7.nI +7.@7.#7.$7.%7.&7.*7./e =7.Fd -7.;7.>7.,7.'7.)7.!7.~7.{7.]7.^7./7.(7._7.:7.<7.[7.}7.c5.&}.I6.*<.|7.|7.17..|.8|.27.37.gc 47.57.67.77.87.97.07.:3 -~ ]].gH t4.a7.b7.",
"c7.d7.e7.f7.3C q!.g7.h7.i7.j7.k7.l7.X(.m7. 1.4@ n7.o7.p7.%{ z3 `  tY %+ q7.ID h%.V} }  }  xj ,[ M; H8 A[ Pv r7.)1.0$ z2 y- 0O wD b7 1f s7.t7.<E 3K u7.v7.$u C).w7.x7.y7.z7.A7.B7.C7.D7.`h E7.F7.q# G7.H7._'.I7.J7.K7._9 L7.nI l; }  Vq y* {r oL #: M7.N7.O7.P7.Q7.R7.Yb 90 S7.ON .+ p5 M$.T7.q@.U7.f< V7.W7.Z# Lv !| UT dB KQ e* 7u vS s3.zU 91 n( ya gY X7.>2.E+.d6.f!.Y7.,V Z7.`7.H+. 8.6n Iv p|.>m %Q d| 87..8.+8.9N @8./A #8.y[ r2 l6.$8.MF l[ 3y O: w0 f; ]_ FF wS mt o! h1 Q,.%8.&8.*; n[ n[ u_ +R *8.d- =8.-8.EJ xx vz vz ck 7k ]|.y~ 4r 4n 32 0i ~E `A g5 ky ;8.>8.wa ,8.7^.V= wa |2 d] '8.KW F. . .. .<&.|G ii ^I r2 )8.;u O( !8.z6 k>.~8.H] 8x H~.#F A(.[S .5 {8.[t ,9 =# &4 i^ qT <# ]8.gH ^8./8.(8._8.gc  <.@~.:8.<8.s,.Q;.[H |).|).[8.}8.|8.18.28.38.48.a:.n# 58.^{.ov Ef ~Y 68.^ .M_ -g r|.xV r|.xV 78.+K 88.#4 xD AB P .Q..U} $$ .7.9! 98.08.a8.b8.c8.d8.e8.f8.g8.h8.i8.j8.k8.l8.m8.n8.o8.Uz p8.q8.r8.s8.t8.u8.v8.w8.x8.y8.z8.A8.B8.C8.D8.E8.F8.LO Z= '! G8.H8.,<.I8.t] J8.>Y }!.ec a(.K8.7~ }8 L8.M8.i$.N8.O8.",
"S).P8.Q8.R8.@w u] S8.T8.U8.V8.W8.X8.Y8.Z8.`8. 9..9.+9.@9.5].EW #9.9< o' o' C* h%.0! }  }  X, l..9$ H8 A[ Pv r7.$9.`2 ^x iR iR  7.o( }- ;6.k6 %9.F4.v7.&9.z6 6;.}d *9.=9.-9.;9.>9.,9.Y!.'9.)9.KN *k 4{.!9.!4.SV HV te FQ aS n5 l; }  (m '< h; A[ l' aD .^.P/.~9.{9.+c ]9.^9./9.Ej B[ FQ Z2 F` (9._9.Xu >| c~.wb HM B@ KQ pS KQ q/.#>.w' X' :9.RQ sA <9.[9.}9.]:.|9.W{ M( 2*.H/ 19.P^._{ R, w& 6r h6.29.39.2. 49.Y5.]].4p 1> C'.p7.59.Q! Q! {B R. 69.$[ Zt tc && k#.KB S' w0 tz pp 79.89.99.09.&8 px ^[ K8 9~ Nc a9.b9.c9.p* cA u$ d9.9c n[ A( Kt e9.3j f9.g9.h9.Ly 'G ya J1.N* 2;.;u i9.^|.mt X^ h+ ~| u[ lY @ .J! |G JT 2x j9.}_.(c k9.l9.m9.n9.u# ]D ~B o9.Py Oy /K A5 Kr La }# g^ T4 2j #&.p9.q9.r9.s9.<y t9.u9.v9.w9.x9.[. X- y9.P^.z9.A9.n, 43 B9.C9.6>.D9.ec 4N 9| qr RN g7 &4 y@ 6d E9.Ca F9.)M r|.@I t2 r|.6[.G9.H9.$Z s( u[ p5 jd $$ [  I9.J9.K9.L9.M9.Gs N9.O9.P9.Q9.R9.S9.T9.U9.V9.W9.X9.Y9.Z9.`9. 0..0.+0.@0.#0.$0.%0.&0.*0.=0.-0.;0.>0.,0.'0.)0.!0.T[.~0.*` 77.J= {0.]0.^0.b{. C u% ]0./0.(0.,i aN n3._0.:0.<0.[0.",
"}0.`R |0.)V 10.20.30.40.50.60.70.80.90.00.a0.hJ b0.c0.d0.oO 9T e0.an p~ 9$ #+ i+ 0! }  }  X, k; 8$ &+ f0.f0.g0.sj <V y3 e& iR GQ A, Yr v* 9[ h0.}* Kc E: 06.i0.0j 4^.j0.J).k0.l0.m0.H^.n0.o0.nc d1 #(.bF aH v} -# B- tH p0.<+ l; }  R- q'.a[ q0.r0.s0.t0.u0.F3 Kh +n v0.w0.x0.y0.l( te -2.(9.;s xN &u  y ;/ ~$ wS #R ;E -# UT e* z0.A0.{C 5(.r/.<|.V` ]{.|L mb .6.B0.O0 C0.'A Z@.4(.D0.p|.X' 65.F] &:.(Q E0.T> F0.it G0.rr Mt Iv |L Hv 6p 5p A-.b:.O,.K8 m. +[ m..n..V, +l H0.K2 Hm J9.g&.I0.xo S&.S&.J0.K0.L0.}k M0.N0.8; vm +R !/ u_ @f m# rr ]K 3j O0.!M Fw Ca  Z P0.Q' PD G( p| +N :(.V$ G3.bO v( Q0. W _| *F q' 5_ R0.7p S0.,> T0.U0.&' V0.`7.gF >v Xu Hw W0.M_ ^u a[.r5.ky `..X0.Z6.Y0.!C i* P_ Q! +y 7C Z0.`0. a.4p .a.M2.!$..0 -a [6 K. K. Xx '4 xL +a.8{.D- ~8 uf (9 G7 C6 ^@.LM s( 1G 3!.vF r|.@a.t2 78.#a.Q} #Z $a.C] D] P .p$.wj A. |` tV Nb Nb `9 {R %a.&a.*a.=a.-a.;a.>a.qs ,a.'a.)a.!a.a7.~a.Az {a.]a.^a./a.(a._a.:a.<a.[a.}a.|a.1a.2a.3a.4a.5a.6a.7a.8a.hv WO ]L 9r Dc Lc 2; *< x. k8 k1 9a.[@ y~ 8r +5 <1 Um ",
"0a.aa.ba.3{.ca. ! da.ea.fa.ga.ha.ia.ja.ka.la.ma.na.oa.pa.OR qa.Yk ra.j; 9$ 8$ V, 0! }  }  55 Y. ,4 sa.iV 3] =+ ta.<V /m lm e& 75.d& r; && && @p qP qv 8r H-.ua.|_.va.wa.xa.ya.za.Aa.Ba.%/.Ca.H/ Da.Ea.qI 5E `4.%R q5 b* wD n5 l; }  *G ZJ b] GW YQ ~9 Fa.Ga.Ha.|-.Ia.Ja.Ka.La.Ma.O: r; wD Na.Na.Oa.Pa.]G Qa.X# i1 k$ h+ 9< w[ Ra.Sa.+Q Ta.Ua.9O / .AS f^ h+ n} V/ 13 Va.$' ,~ l3 ]/ 0*.J1.Hv @R l^ [J &z /A sW xx W# Ft Ot i< Wa.s} _[ Xa.Ya.Za.`a.z-. b.@p 9  .b.;G hW +~ k#.+b.(3.@b.#b.$b.nA /| mA a, }m %b.TY &b.*b.qc bt jv b. Xm >* _>.Y! `x ]K e9.8e =b.5!.G_.iZ )P }$ g3 Ll '^.i} W7.-b.;b.>b.pJ ~[ =$ &Z <| g7 3| D0 ,b.'b.:~ Y0 )b.!b.'-.~b.{b.^K 42 ]b.^b.j%.]9 /b.Fa (b._b.a1.PK +2.:b.Pl 'Q <b.`x a_ 'I =,.j3.){.Vg w( 9#./V aO `%.mT J  fm [b.}b.R8.uC CQ ># iR H@ dy |b.@4 /X 1b.Ca 2b.t2 3b.t2 r|.4b.5b.6b.qY x$.7P V%.a] '[ X} (K (5 7b.8b.9b.[W O=.0b.ab.bb.cb.db.eb.fb.gb._~ q^.hb.ib.jb.M[ Bj kb.lb.mb.nb.ob.pb.qb.rb.sb.tb.ub.vb.wb.xb.yb.zb.!* *[ Mc r. `w tc w0 .d QL n< I| 5| &{ u5 hy Ab.Ab.7_ Fv Bb.",
"Cb.A~.Db.Eb.O= Fb.Gb.Hb.5& Ib.Jb.Kb.Lb.s1.Mb.O, Nb.Ob.Pb.4U *#.4M RO )8 #+ _( Yq 0! }  }  45 a! 9$ &+ Qb.Rb.6F ~t ]m Sb.!U ># D6 _A ZY ,H r~ v} zV Tb.Ub.Vb.Wb.Xb.Yb.Zb.`b. c..c.+c.@c.#c.$c.%c.&c.*c.=c.:N V` p5.q' uF wD o5 l; }  Vb A^ a[ eS m; {9 -c.;c._< >c.,c.'c.)c.!c.~c.tz 4  e#.Q* OX {c.P&.Uu >J A( >a `w ;a l( Ex F| ^< -: ED ]c.;E ( .V` 5_ rb j1 ;; ^c.W> m7.t# x3.zs /c.)5.9z Hv r2 c$ 6{.V}.<:.E# sc Gs 1` qA (c.b_ s6 _c.!}.MB :c.<c.w* p. S| [c.}c.|c.&$ 5$ r; uV 1c.2c.3c.WL jL C, 1( ;J ac 4c.5c.]6 6c.c8 ak *8.Ah 8+ 7c.8c QQ PN 8c.5(.22 E9.9c.c#.0c.ac.w@ Y; $f l7 j( B}.bc.-[.3X NY ,+.#4 <@.mL cc.=P dc.ec.fc.d'.gc.C9.#; kD hc.Cs k7 ic.jc.+{ +{ j%.vN kc.O .lc.c_.mc.:|.Vu Pk `x `x `x .A nc.l1.l1.nc.I, oc.0B r` ^V C6 n#.rT pc.mB qc.=u *M vN 8P o$ hV rc.VQ sc.!{.wV tc.Z6.@a.lc.9d 5X @Z uc.&X &X  K M%.X2 '[ '[ 10 vc.wc.xc.yc.zc.g).Ac.Bc.Cc.Dc.Ec.GA Fc.Gc.Hc.Ic.Jc.>{ Kc.#k K0.Lc.Mc.Nc.Oc.Pc.Qc.Rc.Sc.Tc.Uc.Vc.Wc.Xc.Yc.Zc.`c.d3. d.YO Bc L: vS f! 8] .d.>*.l( 8!.Zw jy r/.<W 3[.85.X^ X^ ",
"+d.Q4 @d.#d.$d.!,.u;.%d.&d.*d.=d.-d.;d.>d.,d.%u 'd.)d.!d.@R $g &K `  $+ $+ N; b^ 1( }  }  45 a! C* %+ q7.6F ~d.B* {d.ER !U `J x2 H9.]d.- .KT >G ^d./d.]5 (d._d.:d.<d.[d.}d.|d.1d.2d.3d.4d.5d.6d.7d.8d.4<.9d.tD `4.<| u[ -$ jd l; so C. J. 2( eS lm ,U 0d.ad.bd.{6 cd.dd.ed.fd.gd.I: 4  ># i#.:&.hd.id.PN 6r 6k u8 /<  / b; F| t8 J6 ih }1 %; y} JT <9.{{.jd.:^.kd./_.W1.ld.md.06.wb nd.od.As r2 x_ ~}.pd.qd.O} ~3.,a U& qA rd.`Q pr lI sd.9t td.j).ud.OT =) 2_ aB S^ a, &$ 1  TK 2'.[|.vd.wd.mT o5 T^ xd.B2 E( yd.zd.Ad.*b.Bd.Cd.iv g| 'a ,* !n n! sQ Zf 2x Wu C7 `W H3.Dd.R@. + C[ c_ K; F# Ed.H4.Fd.3X K! x#.CS q~ }S 3o p).Gd.Hd.Id.p].)b.~$.Jd.do Kd.Vl Ld.Md.Nd.Ew Du ,%.CB Od.Pd.,4.Qd.*U 6B +A !K Mv F^ Rd.H& Sd.Td.Ud.R! Lv Vd.r' r[ G_ !P ,< T' f[ Wd.Xd.Yd.5P }P *w Zd.Y%.n%.B..ZL `d. e..e.+e.@e.#e. %.$e.%e.uc.ZV >+.P%.M%.,& g! v3 &e.*e.=e.-e.;e.>e.S[ ,e.'e.)e.!e.~e.{e.]e.^e./e.(e.e~._e.w# {4 :e.<e.[e.}e.|e.1e.2e.3e.4e.5e.6e.7e.8e.9e.0e.ae.be.ce.D'.]|.`w Q# vS g] j{.ht #p Ot Zw :W 85.+&.Xw 85.85.i< M: ",
"w<.@a.de.q+ ee..8.fe.*d.ge.he.ie.je.ke.le.me.!I i( Lq [G 71 ~Y ~Y o; (( )8 ~t !1 X, }  }  ~< O~ B* $+ =A ne.oe.pe.Qq j..B] 11 /P `W qe.]d.re.se.te.ue.+>.ve.we.xe.ye.ze.Ae.Be.Ce.De.Ee.Fe.Ge.T[.He.Ie.Je.Ke.M>.`p <| q5 '# jx l; }  Vb q'.H_ Tb q_ H. r5 Le.Me.Ne.Oe.Pe.Qe.Re.Pf f~ tm ]< =T R^ BI Se.Ez i1 Rm 9K Ej [p JB y* &G 9r fh ,* u_ Nt W' n>.;8.Te.mq Ue.K$ W_.Ve.We.Xe.<o `P Ye.dK I[ k( G3.;| en L] -0 #3 y,.Gv %8 pr nd 9a.|* pz td.Ze.`e.OT )S ,[ 'Z I%.I%.z0 K7 `9 &u  f..f.+f.@f.S..#f.$f.%f.&f.rp *f.=f.zd.-f.M* ;f.;f.;f.r% M^ =S |F Mt -& eI f^ >f.. .,f.'f.l..#9 9K :@ )f.!f.#-.H] w~ ~f.x#.x#.+U ST }# 8c {f.]f.^f.Ic.N& L5 /f.(f.q9.6j lL J3.Gw _f.(3.2>.!G ZY 2'.12 7M O! X' ^{.Lv 6r Jt `;.+w r9.:f.S0.<f.5].Vd.[f.H. B] e& k..~i D0 x_ 7j ;^.5z tD uD }f.YU L%.H3.|f.1f.2f.: .hS @e.#a.3f.4f.P@.5f.^P &X x#.VQ 0  '[ |6 6f.7f.8f.9f.0f.vS :f af.bf.cf.df.ef.ff.gf.hf.if.jf.kf.lf.mf.<r nf.Z*.of.pf.qf.rf.sf.tf.uf.vf.wf.xf.xf.yf.zf.Af.Bf.Cf.Df.sz $6 4* |- 91 f! f! .4 5( Y  TK Xw Xw ~G 85.Xw MN #R ",
"Ef.Ff.Gf.Hf.V&.If.Jf.Kf.Lf.Mf.Nf.Of.Pf..8.%u `& Qf.yU 2* iy Mb 3z G! ~t >< (x !1 W} }  }  45 -G K7 ~t $+ ~d.Rf.pe.)v )U n#.iz D6 Sf.Tf.Da tJ Uf.Vf.Wf.Xf.Yf.Zf.Sj 4Q `f. g..g.+g.@g.#g.$g.%g.'|.&g.^,.*g.aH qF AS q~ _U b* jx l; }  Vb qk ,$ 3c 3c B^ b7 0$ *6 k).=g.9G -g.;g.y^ e~ n' po <x *G (m y0 >g.%y ,g.Ej /< x* Uo !_ K8 7c.:$ 'g.h1 Gv g=.)g.(2 )5.!g.~g.E'.$d.ca.;4.!n Nt 81 Gv fy l( Kk M- Kt jR X  `^ )| *9 ,I RQ rd.T* J6 3y }* {g.]g.'4 `O c; 5, xO .b.`c !1 OF f^ }P ^g./g.}f.cS /m @+ 3_ 2v n~ P2.(g._g.`| Ye 'a z' 'a vz d[ x. n[ >g Lt .0 QQ v~ e^ 'h n+.KM 4  u5 :g.lI E^ !f.<g.[g.ST v$./X $Z -M w[ b_ G0.}g.|g.1g.T{.2g.Z2.9& 3g.4g.5g.:|.6g.)4.g* '| 2| Jr g7 xS %M 7g.lS <2 :9.Lv 7< 8g.Z;.9g. * 0g.~3.7{.Q_ 5x ag.Qq G. ;$ A0 pv Og bg.7C WN F* 82 )M Od.cg.cg.dg.eg.fg.gg.se.hg.Z6.tc.G9.ig.jg.kg.lg. K S} 3@.e%.'[ ;8 }5 mg.ng.og.pg.qg.rg.sg.tg.ug.vg.wg.xg.yg.zg.Ag.Bg.&P Cg.A# <c Dg.Cv Eg.Fg.Gg.Hg.Ig.Jg.Kg.Lg.Mg.Ng.Og.Pg.Qg.Rg.Sg.Tg.#: y<.Y; J: jn ~4 S, qb B( Em Ug.V' 3[.AN KQ UT {%.,I z[ ",
"`Z (b.<|.+: *f Vg.Wg.Xg.Yg.Zg.`g. h.&P JR .h.V& Ph IB 5( ^w i; 31 a[ .b.qo gz Oh 1( }  }  1( `! Rq Io u3 +h.@h.[X #h.tF ^@.$h.sJ Sf.%h.* ./ .&h.*h.=h.-h.;h.>h.,h.,L 'h.)h.d( !h.Fe.~h.{h.]h.^h./h.';.Pr !;.M>.(h.R .H9.=$ q( x@ }  xj id fV ++ 3c >< ~D _h.9K :h.<h.[h.}h.|h.1h.2h.[6 #~ =G }  V} }  2, 2, 3m 3h.9f p< &G 4h.(r |+ ~+ ~+ ih xk 5h.0f.cn 6h.O  0T }@ 7h.8h.9h.K6 -a f]  ' }G Ez r} [d l^ 81 M: Zw U4 U4 !| )| |M Ot Q[ O$ e3 Ih sx Bh {r d! Ef $+ [z (( F  pJ 0h.z6.ah.@e.lc.bh.l& F..)8 7H M_.N` -X ch.8p s8 dh.U3 Mc &N Tg.2h.K6 %p .].eh.L[ g] fh.gh.L  ag.r} .: *; Wj W& hh.W7.ih.pN 'h qY `` > .4c Gm z* T& hc.Ud.!f.Y;.){.l3.jh.@,.vp ~^.~C +A eE Ht kh.lh.k3.U^.6n be j* mh.w( 6r 7< nh.Y' l* gP oh./o Y' 0z h< [` -< D6 x- N! H& {b.ph.qh.op gS Oy 42 d2.rh.sh.th.uh.vh.Uf.wh.fg.xh.yh.ig.zh.`` Ah.Bh./X U^  Q T^ Ch.Dh.Eh.Fh.Gh.Hh.Ih.Jh.Kh.Lh.Mh.Nh.Oh.Ph.Qh.Rh.Sh.d0 Th.Uh.Vh.Wh.Xh.Yh.Zh.`h. i..i.+i.@i.#i.$i.%i.&i.*i.=i.-i.;i.>i.yQ s8 TO 8r 0*.ot 8r WP qO yT ;* I'.,i.Pa.T4 >Z pS qS uC y[ ]+ ",
"(y 1b.'i.Dz G# )i.!i.~i.4-.{i.]i.^i./i. 0.$: N- Qm @$ '$ 2( 2( hR .{ R- R- W} Vb 0! }  }  1( 8f `! `! +) (i._i.:i.!9 e%.e%.<i.r[ [i.}i.p5.f^ |i.1i.2i.3i.`2.4i.5i.6i.Ue 7i.8i.9i.0i.ai.bi.L).ci.0& H-.di.!# M>.vB o'.R .S} a] }  }  En oi }` >& oo O; Aa ei.Uo fi.gi.hi.ii.ji.ki.&: z.  d g! }  x@ }  l; }  '#.%y m` c~ kn <@ CJ v8 %| Um u0 3* gG (^._I -[.li.~' mi.FH s# ni.#p z] S8 ba }G $z i< a_ vb O_ r/. !.|;.u; g* pN oi.$z N- RB Ej pi.%: {4 !g Cz .S _z l& :V $g 0V Xf.qi.tG ri.VX Pr vS m' =A si.ti.ui.f#.R..Jo {_ IL {* yO >6 `O Dm #: j1 mh vi.]/ ~n wi.xi.:N /U )$ Qa.7{.yi.Yu zi.Ai.Bi.mL K! IZ 0X M` q_ Ci.yR +Q `Q Kt s. j* PM be -h 3O Kb Di.Ei.Fi.kh. ;.w# Gi.Hi.Td.5o -h.$y Ii.'I Lt ^A [*.Ji. a.gP Ix sv Ki.9z Vk )h aO C#.l#.8O  x Li.8>.Mi.qN Ni.BB Oi.Pi.Qi.Ri.Si.Ti.Ui.gg.Uf.Vi.9d Wi.Xi.Yi.A@.lg.q` Pb E6 e& km Zi.`i. j..j.+j.@j.#j.$j.%j.&j.*j.=j.-j.;j.>j.,j.'j.)j.!j.~j.{j.]j.^j./j.(j._j.:j.<j.[j.}j.|j.1j.2j.3j.4j.5j.6j.7j.8j.]r ^[ Ph 9*.Yu !g.!g.fL {' ]' .h.[@ Vw cm 9j.pS v} S .oG ,/ s3.",
"8P U7.0j.Ab.dI x` aj.bj.cj.dj.]p ej.fj.'_ iQ Gh N^ s5 9S a< a< ]| u .'[ I%.a, R- 45 V} }  V} A. gz +) gj._i.!@.hj.}@.i&.UZ i&.eS +U p5.ZK -# Vu Wg R! j( ij.x6.jj.,L kj.lj.mj.nj.oj.pj.qj.rj.sj.J<.{^.9z JM IV qF BS tj.b* T^ }  }  _m -T 5$ >& oo O- J7 uj./< vj.wj.xj.yj.bC zj.(< =I Aj.W} }  }  }  ~< l; }m k#.8, iY zn I| DJ I: o).b.  $ +$ Bj.qT Cj.Dj.Ej.l$.{S 2e Fj.Gj.f! t~ h^ E  u~ 4( Zw pP  A B@ i^ AU 4z JT B'.bH }S u~ D3 OD 2$ Ej :@ !4 Hj.nN Ij.o; Ia k& f_.Jj.Kj.Lj.Mj.<F Nj.>b.MW +[ ta.D[.Oj.Pj.MM hj.I_ C* 5* `U kV oa n< r. [[.*# 6; w. ck Qj.;c.Rj.Sj.an I,  x {b.Hs Yu I] Tj.Uj.;%.K! IZ hZ x#.n#.45 Vj.7u 2| #A Wj.Xj.vp VN Pr Yj.35.qh.@,.k3.Zj.a:.;~ `j.yf N2.|A  k.6B 'E PQ .A =F I] q9..k.+k.Hx $~.s. eK N>.Sb.@k.iz  . u~ #k.{b.$k.%2.y[.CB %k. e.&k.*k.=k.Ti.vh.wh.Ui.-k.;k.>k.,k.'k.)k.!k.$) Ah.'%.~k.K_ km {k.]k.^k./k.(k._k.:k.<k.[k.}k.|k.1k.2k.3k.4k.5k.6k.7k.8k.9k.W; 0k.ak.bk.ck.dk.ek.fk.gk.hk.ik.jk.kk.3e.lk.mk.nk.ok.%G v-.pk./u 8r zs qk.9*.rk.E# Z' 7( sk.B6 tI  !.bP -g 5z (2 tk.s3.",
":X Ca 6e a_ {$ T/ 1E Pc uk.Th vk.wk.~. t}.!' 81 ST 8<.AU _U l#.Cu is #~ p$.>8 p$.a, 1( V} 1( Vb WU 8f kd :i.xk.o` :i.i&.~P pY LM -M ,Z ~Y -# l^ 4H [*.Yu yk.~b.V= zk.Ak.Bk.Ck.Dk.Ek.Fk.Gk.>'.Hk.Ik.c$ `P ;& ya -#.`Y 3z G7 '[ }  }  A*.-T >& w@ <  O- z4.9D PD Sf Jk.Kk.Lk.Mk.~c.HL ,4 Nk.~< }  }  }  xj ;8 im 3$ ]* w0 %{ G| t_ ND [@ k, ck B( (Z Ok.Pk.fi Qk.Rk.Sk.Tk.Uk.Vk.uS w- c& .1 Cz 8!.7O || s2 {%.i^ ,H re.Wk.H^ ;%.;%.w[ sT H2 T, 1^ um a' 9x h+ w- C3 JM !D -# pN 7M *U ]4.Xk.Yk.ae w0 Zk.O; {d.d^ lY FW lm I. sT 4k `w pa HL 4a Q# )g 5k A3 `k.x` ak  l.;c..l.$0 :9.+l.@l.#l.nc.$l.p9.%l.4z qX aX FY A#.a] V} :- &l.6D @A =u -U VN pI )^.*l.3O E}.G3.9*.R. =l.hP s}..6.r9.-l.U^.;l.:b.PQ 'E ,K nd.Hs 3i.A< Q2.kt >p dK cd 9$ >l.K7 )B jn %8.,l.#l.'l.Sg )l.!l.~l.{l.]l.^l./l.Ti.Ui.(l.Ti._l.tc.aP :l.k%.Z2 $a.<l.[l.}l.I@ hW |l.1l.2l.3l.4l.5l.6l.7l.8l.9l.0l.al.bl.cl.dl.5k.el.fl.gl.hl.il.Rg $^ jl.kl.ll.ml.nl.ol.pl.ql.rl.sl.tl.ul.vl.wl.xl.zQ *6 yl.Dh y~ }{.mb 'K zl.MF 4t hv %| T* 6D c7 &M vB JT f7 n1.Al.",
"$U Bl.[A (2 Y6.et Cl.Dl.El.z=.-> Fl.Gl.L).Hl.Il.Jl.Kl.@2.1C ]K 8c.09.<- ,< P .j! jd `, ;G C. 45 xj 1( a, %E m#.m#.}@.UZ }c.g& `J ue e^.Ia w[ jd.<o zU ~$ ;/ !g.bc 5< Ll.Ml.Nl.Ol.Pl.Ql.Rl.Sl.({.Tl.c$ Ul.&K Vl.Wl.p5.|z hR T- }  }  :- +q k. (x ++ N; z4.tY V_ [f 4f K~ ;g.Xl.+p Yl.&S Zl.x@ }  }  }  xd.gz Oh k#.l8 |- s$ j3 |v |9 n! Q: bk `l.3; ^U  m._^.9z /Z xk Hj.9x 0H %K wB p; N! #R 7O 4'.c7 3X N_ T4 q~ .m.|G 'M P..0P B- ~| T; u~ P# Q~ j{._[ |# z[ +m.@m./Z %w m` RQ ST  A PN Mt nd D| $R #m.$m.ER (X H. k! qJ |- *# bf %m.{r R_ +$ )' jt &m.*m.+V =m./j. l.j{.3* ot 5o U; {b.K, rr !$ ~C * .L..IZ aX %Z T- }  }  q$.+1 M  3P *U 0h.IT vp !^.$y ae !$.!' 7( T4.&* -m.<(.Y' Q_ #A  w Hr /K kS =u !^.$A 0e ot Wj ~$ PM P_ jd.xS  q j^ Y^ T[ Q,.E^ ;m.$y 3j zN `6.Ui.>m.]l.=k.,m.,m.'m.)m.'m.sh.)M )G Ca = .K/..m.P@.#I a7 lm .k Dh.!m.~m.{m.]m.^m./m.(m._m.:m.<m.[m.}m.|m.1m.d&.2m.3m.4m.5m.6m.r8 q6 7m.8m.9m.0m.am.bm.cm.dm.em.fm.gm.hm.im.jm.km.9t o).ck )f.d!.{$ y3.+d 23 7*.lm.oz ($  ( 1I u( SN mm.Wu 81 sr @(.",
"nm.gL Lj.3O Q2.om.pm.qm.Z: rm.sm.tm.um.vm.wm.dW xm.ym.zm.Am.Bm.Cm.Kr [p 5$ ^+ tH e& !h yB DC 0! 0! 0! W} e%.kY kY }@.~P UZ g& !U 88.R .$K c& Lb ^{.2* *; 8r `# e7.`k Dm.Em.$1.Fm.>'.Gm.Hm.W= t1.Im.,:.Jm.!;.f_.uO &w G7 #^.Y, }  }  xj id k. (x #& N; o; _z FF zL TJ Km.Lm.Mm.Nm.R' ^+ '[ )[ }  }  }  g%.I_ id K. 8w iY %{ zn zn Nt K, y~ $9 {* Om.QY Bc k$ yS gi H, 8D .I _z lT BU >%.-# 8O B@ {C 1M mL %0 ZQ R .s( b] u .<x ]x 2( p5.gB {{.k^ |L qv Gv :5.Hv zs 9*.,9 %k }9 s6 Zr @3 T&.J: HL /  *r >l.p' r( _| H. k! h; 7B {$ &[.+5 US R_ %3 od jP Pm.Qm.Rm.Sm.Tm.vz ed .: y6 Sd.Um.#8 x& Xv .0 s2 v[ x$.Vm.1U *$ }  }  }  l; 9v sT 5_ Wm.*U ;U oG <2 rC P! Wj Kx Xm.xL Ym.@;.Zm.Jv 1| 2o 3n uN -w `m.`m.kS PQ `x QQ Iv HM ,| w( O! fE oq P! 7C *; h1  n.Ht tN op .n.aV +n.@n.#n.#n.Si.=k.$n.%n.'m.&n.~E Ba ^ .*n.1}.x<.E9.2b.-M )P Aj.=n.-n.;n.>n.,n.'n.)n.!n.~n.{n.]n.^n./n.]n.2c }  V} (n._n.:n.<n.[n.}n.|n.1n.2n.3n.4n.ol.5n.6n.7n.8n.9n.0n.an.bt JJ 0t `~ n# X; rv +5 &[.23 l4._c A#  - bn.8. X/ -h cn.&2.9e B3.Gv 6_ ",
"dn.Ri.en.pc.R. fn.gn.hn.in.jn.kn.ln.mn.nn.on.pn.qn.rn.sn.%'.8( b(.tn.un.PW _( P' H! p[ G6 K@.l; by V} S- ; .m#.m#.vn.UZ wn.xn.MM Zp yn.BU ZK Bj.Ol .Q sr 5O zn.An.Bn.DW Cn.Dn.En.Fn.Gn.Hn.)d.In.Jn.dn X-.Kn.sY  t ^+ )P p$.x@ }  }  1( vj #& (x ++ ~t 5F {Y 1S @E Ln.Mn.Nn.On.Pn.Qn.K  |6 )[ }  }  }  X#.q_ I_ &S n( P# %{ zn 8!.fy )$ 1* =N Rn.Sn.Tn.Q` { .oc.oc.za k& )B Un.lT s$.tj.JQ {%.B@ Vn.U4 [| a6.>Z Wn.*X B, #~ p$.2J ~U Da Xn.Yn.fI 5x eI _2 6_ sr >~.Zn.,9 %p ];.4a H..`n.@Q Ft }f I0 gx O~ .U J! LM r( Sb qK tc W& c^.z3.Kr R&.l< od ~1 m^. o..o.+o.@o.k~.Cc Q~ >g Wj #o.$o.}G P# tC u; 51 %o.&o.(+.xk.}  }  }  0! *o.gy o; =o.25.0h.[o :9.Kv Qa.X# 5a B< LH -o.;o.lb a_ Wu ,E 72 xV @I >o./3.^5 Wu GV x~ x~ k^ 65.f7 Wj.T^.5].k* Q! 0*.5r *; ^A ,o.%%.S4 xV se.=k.=k.#n.Q4 l/.$n.|P {E $U 9j.gs *Z *g QO 'o.)o.!o.H9.YQ xd.~o.{o.]o.^o./o.(o._o./n.:o.<o.[o.}o.|o.^n.2c }  V} 1o.2o.3o.4o.5o.6o.7o.8o.9o.0o.ao.bo.co.do.eo.fo.go.pj U3 ]L Lr $a v_ _o Df.u_ ]|.9| Z/ f| ho.O'.,~ /$ 3:.Zm.i* V4 -w 3X y} ov +b.",
"rN A,.io.^A 8. jo.ko.lo.mo.no.oo.po.qo.3d.ro.so.to.Ib L2.S. uo.vo.wo.xo.yo.C* ^+ B, p[ yB K@.by 0! 0! Vb `, y- y- zo.UZ /+ g& y- A- s$.BU %R y} 81 s} L. Ao.Bo.C[.Co.Do.Eo.J- Fo.'5 Go.Ho.W! Uk Io.5M ~C [P x- ,8 r_ CZ hW }  }  }  1( cB #& [5 ++ _( {Y Jo.rm Ko.Lo.Mo.No.Oo.p8 Y  }W hz Z, }  }  x@ `c 3c O* O- 71 }G Ez *4 Dz M: '| (c.y<.AJ Po.Q` }+ E  w~ w} 8<.>H :V q; $K G_.-Z UT U4 *9 *9 Qo.7i a6.(h.$I p0.<+ BI $$ R^ T` vF Z6.z[.tD S .xS pP || Mt {$ %'.3~.D6.M$ I'.8_ !Q A'.Gs px Ro.+l >& [5 c* G7 BQ y@ fm .4 -* L# -* So.b# |9 Ma 7c.9k To.Rr Uo.2t x. S, ht M- Y! Vo.IB Ot }G || W4 -M Ah.FY >s '# 5+.$E ]Y '$ R4.WT >$ `Y !4.8x u( Kv ;/ y3.e[ Q: [;.4(.(A _W Wo.'Q Ok Xo.H^ X4 )M 62 s|.O^.)4.:b.f< a_ 1| 1| QN l^ |F *# /^.Ug /^./^.Yo.Wl Zo.{y 4!.Fw  5 +n._N `o.l/.Qi. p..p..2.%U [0 %~.*M =k.+p.@p.#p.78.ad I@ C. $p.%p.&p.*p.=p.-p.;p.>p.,p.'p.)p.!p.~p.{p.]p.}  Wb ^p./p.(p._p.:p.<p.[p.}p.|p.1p.2p.3p.4p.5p.6p.7p.8p.F: @6 d9.@a Pg _o zl.Y6.>* |+ d9.A).Q( W/ fh 7( [t it D0 || 3X ;%.F* y' H..e5 ",
"ey <P ,I u0 g:.9p.0p.ap.bp.cp.dp.ep.fp.gp.#}.hp.ip.jp.;p ;C kp.lp.e_ mp.np.op.bx iz q( yB i+.by  f 0! S] 4_ !P 11 #) wn.f& A..pp.1@.H9.q' r' ~| t~ 71 3x qp.rp.sp.tp.up.Cj.G(.o7.%m vp.wp.~}.4U ,^.xp.k^ yp.KW A^ d, z0 S- }  }  }  1( Ao H7 [5 H7 _( _z Jo.&f.+9 zp.Ap.Bp.Cp.Dp.K7.b*  U Y, }  }  V} p( ^x O' O- z] u~ ov Y  ,i.Ua.Ep.Fp.y& UJ .d VO }G  ' pN eB 0< >H ~| ~| R .R .- .fS AN r/.Qo.+&.Gp.a6.(h.$I lm *G Y#.!=.{< /9 Hp.Wi.Ip.(h.&M Vd.pP pP Mt R! Jp.Jp.Kp. :.X  |9 3| )Q Lp.cc.J: Mp.Np.iy V' |x Xw TK MN T[ l* +d &[.[N 6:.mP OM [N 7( Op.Af Pp.at nd g] |2 Iv eE 7C Lv ,I h+ cd f^ Qp.1U FY Rp.xB B- d-.gW >U tV )U #^._U <9.)g.jd.s. lh.Sp.n3.-* h1 ;p ,p #k.2P  w Tp.Ld.Up.,%.Vp.,%.zN 5P )4.Wp.Wp.:b.s2 f< jd.k^ {n s$ dd w( Uu %8 kU g* Yw Xp.+{ (K =w Yp.Zp.`p. q.Q4 .q.+q.)4.lL pS T4 KT Ri.@q.#q.$q.#a.+K YQ W} %q.&q.*q.=q.-q.;q.>q.,q.'q.)q.!q.~q.{q.]q.^q.2c so {n./q.(q._q.:q.<q.[q.}q.|q.1q.2q.3q.4q.5q.TY i1 Qj.6q.bk 7q.6; ni.ni.MF A3 (* J6 ~/ P. `~ +5 n[ ]/ j$ &p [C pN u} 4z w} )C Ww 8q.",
"4  gW Dz HH 9q.@C 0q.aq.bq.cq.dq.eq.fq.gq.hq.M, iq.jq.4r _^ kq.lq.mq.nq.oq.pq.KM sV J  G6 K@.by  f 0! 1( X} B, sV vn.}c.A..@) J%.'h L! n; b7 |5 qq.gW b& fE zn.Jn.rq.sq.tq.-5.7/.uq.vq.wq.06.*# ;~.x} pN _z xq.#f.q'.fN W} }  }  }  1( .{ r_ [5 H7 _( _z yq.zq.Aq.Bq.Cq.Dq.Eq._h 1# KW mT a, }  }  W} q_ (x S| ID *4 Fx $z Fq.)D Gq.^~.Hq.<k && y] Q# ,I c7 t} a6.A(.>H 9O 9O #K -Z Iq.&u Jq.Qo.Jq.Qo.|;.a6.v} - .lm jm Kq.<m |  ~U Lq.dV >k.r|.J3.]{.:b.Pk Lv Wd.Mq.Nq.Oq.*l.Zf '| Pk Pq.{K Qq.5n j9.5n Rq.Vl _G _G `x Yo.kt {L Sq.Tq.{B Z0.$8 $8 Ug Z;.P. ^. Uq.n[ PN GV Vq.6j 4H Wq.7j 2| Zw y' <|.Qp.Xq.Yq.Zq.uc.0B qq.gW q; ue r` '& Q .vB 0F QN Jt j3.H4.:(.l1.>J Jv N^.2P `q.`q.<5.Ld.9j.S2 {c.||.h9.52  r.O^.k&..r.f< .r.:b.f< hy qK 6!.oN Xw dm 2X Z9 g5 ||.~U %) O3.^3.+r.@r.l/.#r.$r.Sl Zv O^.F* u} 6z %r.&r.*r.=r.9d Da lm a, Zl.-r.;r.>r.,r.'r.)r.!r.~r.{r.]r.^r./r.(r._r.1o.1o.:r.<r.[r.}r.|r.1r.2r.3r.4r.5r.6r.7r.8r.9r.7c.0r.mh ar.k~.k, Zm r!.r!.br.F- !/ t$ bf Fz Zm n[ S~ |9 )$ Hv ]K &M vB W4 t; :W U- YK ",
"cr.z& v~ %k d- y` dr.er.fr.gr.hr.ir.jr.kr.%/ u. lr.mr.I, 4h.nr.mV or._!.NT o+.pr.sV h& iz @~ by by  f 45 *G !9 J  @k.hz ;G T^ !@. t !v }$.A, d* +3 {R #R 9z In.qr.({. d.j_.z9.n4.rr.sr.+, 5@ L, fR 0V tr.[P |5 uf '8.>$ y2 0! }  }  1( .{ b] [5 R3 >< _z yq.&f.ur.vr.wr.xr.yr.zr.-4 uF C6 ,& Y, l; kd T} }5 &S 2  z] u~ T; a# Ar.0j.L9.Br.Cr.Gm .3  ' ;K w} AN Dr.Xp.AU <P <P Iq.@K * . !.Z3 Jq.W~ Jq.Er.a6.fB -E ^x +~ Fr.Gr.m;.R2 Pd.Hr.Ir.Jr.^3.sI Kr.rq di.V7.Lr.Mr.Nr.Or.Pr.Vn.Cs Zo.Qr.Qq.Rr.Sr.Tr.Tr.Tr.'I 5n {A Ur.Zm.]$ gP Vr.Wr.mr Xr.Yr.Zr.Wo.Jt &8.w; |F GV 9e  A 6j $y U^.7C _2 U- oN #K Qp.`r.0Z Zq.Wn.~| s; nN -# - .K! x2 [i.|Z  s.jd.0z zs D0.;m.P! Iv Vu Ql .s./G OQ Hr Zv s6.+s.ly @s.Iq.52 qN qN uN Wp.)4.Hr -w 7). . wj R^ H! B, Z..<+ W2 r-.<+ #X o5 L_ *n.6<.#s. q.$s.x[.^5 ub k&.u} Vd.#s.%s.&s.*r.*s.r|.X0.#h.f& Zl.=s.=s.-s.;s.>s.,s.'s.)s.!s.~s.{s.]s.^s./s.:r.^n.[o.(s.=i._s.:s.<s.^o.[s.}s.|s.1s.2s.3s.4s.5H $A !S 5s./6 02 j$ Df.6s.Ml #a ]/ .$ G0.pt l7 S, ov H..}G )| eB bP <|.KQ Xw T; 4( jy ",
"&w ZQ hG (^.[# R( |-.7s.8s.9s.0s.as.bs.cs.V0 ds.iT es.lL cr.|S |^ hh D* Rf.' .fs.m#.gs.!P aw by by  f 35 1( g! '[ f%.`c s[ I7 qJ R;  3  3 9< uC w( ]+ ,^.hs.is.|> js.jc =! e>.ks.ls.ms.ns.os.6;.ps.qs.rs.ss.W'  q n>.aH jz &$ }  }  0] n#.2( I. 2( I7 _z .I ts.us.vs.ws.xs.ys.zs.Ef uF C6 w$.pi T^ p5 !G ,H LW *& m( h+ As.YK dm #F Bs.Cs.Ds.*>.N2 {%.t} a6.Es._X Xp.3[.UT UT ZQ vF 68.Z3 [0 W~ 7i W~ Er.%0 fB 2'.i; o[ F_ 3  a[.M_ Fs.Gs.#%.Hs.Is.PK Js.Ks.|I Ls.Ms.Ns.Os.Ps.Ep.x].^K .s.Qs.Ng Ng }e Rs.2P 6j 1| Ss.Ts.5G &[.Us.^$ Vs.6< Ws.nc.=F Xs.Ug /^./^.rr `x Ir 1| [S :9.Ys.Zs.nc.Nt U- s; -E Qp.`r.Yq.`s.x<.k^ w( P_ =u <9.Wk.u]. t.z6.Yd.v( 9z sC 6r Iv .A 'E WN WN }o .t..t.op (G 7e +t.@t.Dr.32 Ld.3j qN V~ )4.s|.,E 82 62 #t.Dt }  x@ x@ ^Y x@ x@ ^Y m$ T^ CZ =Z ^3.oF `p.,G $t.lP 7M Yn.>o.52 z[.%t.&t.*t.F_.=t.@e.,k.LM }c.Zl.-t.;t.>t.(i.,t.'t.)t.!t.~t.{t.]t.^t./t.(t._t./p.:t.<t.)n.[t.}t.|t.1t.2t.3t.4t.5t.6t.7t.8t./c.#y ;p <[.T3 i{.)/ Q: ,g -{ @a pt 7k 8c j1 ;p S, l8 T' u5 Hp Mb =M +U ky @z .3 T; 0< ",
"<l.#Z ZL L+.>f.r' R' s..g' {p 9t.0t.at.i# l4.bt.ct.dt.yn.)U /@.!1 c* d^ et.ft.Bh.gt.'f.y- :x by  f  f 45 |p 1( ~< J8 .b.A2 d] O# @[ 6, Jp +$ :o 9*.6s.f8 W'.R> ht.it.jt.kt.lt.mt.nt.ot.pt.qt.rt.H$ st.tt.--.f=.Cf ut.TN !D gz so so W} n#.R3 I. a[ I7 e] o; ts.)X vt.wt.xt.yt.zt.S_ K  p[ n5 pi R^ ;$ fS 8<.p; At.=# #R As.iy Bt.P2 Ct.Dt.W^ x].r/.UT A(.Ni.Et.Ft.^ .&u w[ UT 2G vF ZQ 2'.W~ |;.7i 7i zN a6.}P &u R4.-8 Im F@ e* ^ .Gt.Ht.It.Jt.Kt.Lt.%n.BV ;^.;l.Mt.Xj.Vu *9 Nt.Jq.Tp.Ds @u Ot.Pt.Qt.Sr.2P ]G Rt.AH Z;.St.xf ,; ^$ A).6< W& x_ 7j 0e ^E Iv rr rr jR Pl vb ,| r2 Tt.Ut.Tt.q} pA t~ AU Ob >s Xq.Vt.Q4.)^.Wt.Vg @y Wm.lP Xt.Yt.Zt.`t.<o v( ,| vb [S Vu 7M }o EM Zo.6g.kS Es Es Es Ok y].y].V~ ,E ub 2j Er.mp vV Dt.'G *Z WY Dt x@ ^Y ^Y Y, Y, yu =G K_ V2 31 ;g J3. u.)m.mU .u.lc.+u.@u.#u.$u.8+.%u.&u.*u.=u.-u.;u.,k.JV xn.>u.,u.'u.)u.!u.~u.{u.]u.^u./u.(u._u.:u.<u.[u.}u.|u.1u.2u.3u.[t._s.4u.5u.6u.2r.7u.8u.9u.0u.au.5O (I bN n8 bu.rS yJ 2h.cu.;h *,.k1 {/ 5p *# n! .: %{ =4 h3 S' cr.G, rJ }5 e* _9 cr.;g ",
"du.0Z Xq.eu.fu.gu.hu.e^.D  X1.<; wz /a 'i XP (V iu.ju.ku.^V q( n` wD lu.ft.;#.qY Pj.aO 3@.@~ so  f  f 2, |p 1( Y, |c.`c uf a^ B[ ~_ E| 1f +$ w] !5.Df.n# %= mu.nu.ou.pu.qu.ru.su.tu.uu.vu.wu.!; E'.xu.yu.zu.#0 Au.GM eK E  _x so V} W} `c R3 a< G. Do rF o; 01 'd Bu.Cu.vr.Du.na 6c ;$ tF n5 hW U} 31 gS SQ <P t~ 8O r} Zw cm uG s6.u6 Eu.Sl )4.)4.%0 DB Vp.Fu.Gu.Hu.&u U4 +&.Iu.Ju.Oy [0 6e Ku.6e 6e Er.%0 k7 ZQ %>.e, P=.>g.J9.,%.Lu.Mu.Nu.Ou.Ui.Pu.1P Ks.Gf.:b.U~ 8c.8c.[| Yw Qu.e9.Ru.Qq.Su.Tu.OM Uu.Sr.Qt.Vu.`;.Ht Wu.x,.Xu.Zj.+k.Wr.Yu.Zu.Z0.,K 5g.Jt Y! Y! Lt :9.vC j* P! 0r.`u. v.B3.7_ TK uV :I '%..v.+v.3G >| @v.#v.6O EM O^.&2.cn.pI oq <o ;l.,| Vu Ql 4P rq |o EM }o rq `q.$v. w kb rq  w Es e9.OQ Tp.7e P2 'i.S2 xX hR :Z #^.MT [T o$.K_ g&.`; 20 0w $ .T4 SQ  !.C7 @Z %v.&v.&v.Vt.*v.=v.-v.;v.>v.,v.'v.)v.!v.~v.{v.]v.<&.b< =s.^v./v.(v._v.:v.<v.[v.}v.|v.1v.2v.3v.4v.5v.6v.7v.8v.9v.0v.av.bv.cv.dv.ev.<t.fv.gv.hv.iv.jv.PM |W Z^ bk sk.HH kv.lV lv.un.[f #k R~ tc /w 46 um >*.3r tc 6* Xr sH ;$ -$ mv.<t nv. ` ",
"9Z 5Z ov.7@.pv.eu.8Z qv.8<.@R 1I W& @N +d F] @a.rv.sv.dg.tv.,& #^.*X tZ 5f.5f.tZ lY JV h#.X} so so  f  f l; |p V} I8 kd ^+ a^ [6 +k F3.}- [[.mh mb R>.6s.</.uv.vv.wv.xv.yv.zv.Av.Bv.Cv.Dv.Ev.Fv.jo Gv.Hv.Iv.Jv.#6.%S f=.C3 *o.so so W} vf R3 k! G. ~9 r' ky c6 t@ Kv.Lv.Mv.{9.Nv.O# Qb tF >8 WU p$.tH >%.>%.~Y -6.8O #R Zw V' 85.Qo.Ov.Xo.(|.iK 6z 4z Fu.Pv.Qv.Rv.Sv.Iq.85.85.2G = .gS [0 Yw Tv.[| [| 6e zN }P * .<5 qk Q*.P*.<9 # .}0 Uv.D7 !l.Vv.BV Wv.Xv.WN ^I e9.kU F6.g* g* Vf Yv.Vq.Qq.Su.Zv.OM Og Rd.Su.`v.ot Yu .k. w.]$ .w.6< Y' x_ H& H& re Lv Y! #f +w.,p Gt wb R! lh.lh.Ji.@w.B3.Ab.z, >U [W Ah.  ..{.#w.3O $w.h6.be jd.s2 s2 TN <2 <o 0z dK QN Vu :b.Ql 6g.7M 4P Ql %w.1C kb _G Pk Pk _G .w }S Hr Xu 85.)D e* /Y yo ]x n5 Rb WJ U7.)G )G <I ks hN %>.AU v} rH [P o; n; s( &J H:.ne.j;  t F, 4@.&w.*w.=w.-w.;w.>w. {.,w.o` %$.'w.b&.1o.)w.!w.~w.{w.]w.^w./w.(w._w.:w.<w.[w.}w.|w.1w.2w.3w.4w.5w.6w.7w.8w.ev.9w.0w.aw.bw.cw.dw.^I ew.fw.q6 $9 rf .c gw.hw.iw.J2.Xs Fj jw..-.PD *{ kw.6N lw..I  t G. LM d, $$ A. <x ",
"mw.nw.ow.pv.pw.qw.rw.sw.3z $z {A tw.Ki.Y' vb uw.-u.vw.ww.xw.=G tF >M *X x#.$a.q` ]P r` 3@.:x so by by @t l; |p x@ Z,  d aS O- 9  qK z* Hh 4a K[ bN S, aQ yw.zw.Aw.Bw.Cw.Dw.Ew.Fw.Gw.Hw.Iw.Jw.Kw.mq Ao.FM Lw.Mw.R8 .l.5  `  30 so 0! I%.B, b] a< G. Qq q~ 3z dA @p %G Nw.Ow.Pw.V_ c6 KW yB p$.WU WU V2 Qw.ky q; u' cd  ' x' Zw Vf ^4.Rw./G Sw.Kr.kE !M O3.Tw.*2.Uw.>e.ZQ :W BN U4 C7 t; [| oi.Vw.x6 !| >9 H~.32 2'.(9 O=.-t Ww.Xw.Z9 _f.Yw.Zw.h9.Zv K3.`w. x..x.Vl Rq.Ir ]K O_ F6.Vf +x.@x.Pk Pt.Uu.#x.Su $x.%x.Rd.Ug &x.*x.=x.-x.]5.Ki.Su ;x.}F .x.h* Mv +w.>x.,x.'x.G- PR )x.C6.*x.!x.nc.2| iy i^ *Z Fa w2 R} kc.5P ;l.$l.{B Ys.Iv Lb jR r2 -F Ll ;p >J HM vb Cs kS .t.4P Ql `q.%w.`q.`q.'E Vl h* Pq.Ir g* Wu x6 x].~x.C,.T2 {x.Yx 6q 9u _3.*M !M Iq.DB ]x.#>.hs vV #z bH $g VT I. k! F..^x./x.(x._x.:x.<x.[x.}x.|x.(L 1x.2x.3x.4x.5x.6x.6x.7x.^p.8x.9x.0x.ax.]w.bx.cx.dx.ex.fx.gx.hx.8v.ix.jx.kx.4w.lx.3w.*i.mx.nx.ox.px.qx.rx.sx.tx.ux.vx.Nt YO n8 !}.wx.xx.yx.zx.Ax.Bx.Hj ap Cx.D5 AL 7, Dx.s'.m< 1# 3( P .)U j!  d En xj ",
"H3.Ex.Ex.Fx.Gx.Hx.Ix.@ .|z d-.8!.l< (c.s6 :W [W Jx.sc.Kx.^| Y, 0] e%.q( C6 `T y- m#.)U !U C. }  by }  by l; }  }  }  S^ q'.Rq 0* 30 +~ Lx.pK f; |f g; dA qS lP U .Mx.Nx.m>.H-.yb Ox.Px.Qx.Rx.F@ |5 jz [Z K  B^ oo [5 3c ~h xj }  l; *G B, b] sJ r[ v$. M tj.ZY  3 4* Sx.oL Tx.e; _h.T} >8 {< pi =G n` V2 wD 75.}5 r~ {%.s~ )C 65.#A Ux.o9.Es k&.]{.Vx.BB [l.Wx.Xx.}0 <|.;K {G Cs )g.~C 6j .x.'I kb mL t; fB bP ZQ {| &E 6!.Hp tI x].2'.A(.Yx.+t.Tp.Zx.~^.pq ~K `x.pq [S Ir || Vf Vn.|M 8[.Rq.Tr.;x.Su Su ;x.!K Wl }F Wo. y.y6 `f D0 .y.'| ^4.kU ai g* rd.rv +y.*k N0 ;(.j_.:(.e[ V& T[ 1;.D,.;$ u[ L_ 6P @y.8X >+.*M fy |F A( D6.u3.zs 5; F- #y.Q( br.Kx >g Lb :b.&2.&2.6g.Ql `q.`q.rq _G Vl Vl h* h* oi.|x jy U4 Bt.hs $y.(9 r$ hN %y.G7 Qw.gS fB JQ &y.9S *y.=y.61 p; g^ h^ o; I. O' -y.;y.>y.,y.'y.)y.!y.~y.{y.]y.^y./y.(y._y.:y.<y.b&.6x.d&.]n.|o.[y.}y.|y.1y.2y.3y.4y.5y.6y.7y.8y.9y.0y.ay.by.cy.4w.}t._s.dy.(m.ey.fy.gy.hy.iy.jy.ky.ly.|f (r e3 Hj my.ny.oy.py.qy.ry.sy..p (d $9 s..ni .d ty.r..tY ,8 0O uy.y- id Dv y0 ",
"d%.U| d%.vy.Dd.bZ wy.6 .lm 15 xy.yy.kr zy.|1 )U d#.r` :&.^Y x@ }  }  }  Y, Y, I%.Ay.p' 63.C. }  by by by }  }  }  x@ I8 xd.W} ax }  }  }  55 P] 's fN !h W%.u..>M 5}.A4.zB By. ` ly Cy.l-.Dy.yu nA jL I  ql Z, }  }  }  }  }  x@ Y, #X iz p0.sJ A@.~[ - .Da 8d 9O m( x] a~ +[ +& K7 Sb ;G '[ pi S- (+ yB tF tF H! VT r; )D || de Ey.Fy.Xv 6D fy xS u} tJ Gy.D7 Hy.Iy.V~ N^.Kx Jy.Xd.Hs *x.Ky.Zu.;x.F6.U4 U4 a6.Es.;H 85.4n ]K Vl `q.6g.<5.Es Es  x.<*.Ly.My.Ny.Oy.cO re _G Zf +x.Py.oi.Zf Qy.Ry.Sy.Tt.Ty.Zr.Xs.~K Uy.5n Vy.pr Wy.:g.4| Np.cm Bt.k_.Bt.Xy.Zn.Yy.Zy.`y.4W u% A% >~.jn !Q 8* vf 3@.wD dS u..~1.$X !+.:I s~ Xv rr jh.m3. z..z.e*.6^ L8.+z.7~.!n Lb 3P kS kS 7M Ql rq rq Zo.rq .s.'E WN 4P Qo.*y.a[.P&.C,.] .is @z.<Z C,.^u ~x.P2 sA u; };.Vw #z.09.Mp.+3 h; 0$ $z.Wl.&w 3_ %z.&z.*z.=z.-z.;z.>z.,z.'z.)z.!z.~z.|y.{z.|y.%p.]z.^v.d&.<o.^z.1u./z.:t.(z._z.:z.<z.[z.}z.|z.1z.[w.2z.3z.4z.Mg.&j.[t.kx.5z.6z.7z.8z.9z.0z.az.bz.cz.dz.ez.fz.gz.cp hz.iz.jz.kz.lz.mz.nz.b0 k8 *f.%9 $6 m. 9f >I e] b] H@ y..G6 >C A0.N^ ",
"U| ZT oz.d%.pz.pz.qz.6 .y- rz.Ja |1 +l 3$ [+ 3@.>@. Q C6 P* V} }  }  }  }  }  ~< !9 `J y- YJ }  by so so }  }  }  }  )[ f& Z, x@ }  }  }  V} `q `q 0] ZT 4 .sz.tz.w..E#.E#.6w y..,& uz.H  yu @) g& f& A..x@ x@ }  }  }  }  }  V} Y, v3 iz r( dS E, ~[ -E AS ( .%K C- vz.,v j1.wz._@.xz.yz.J8 R- a, v3 =T =T J  p( b7 &4 kR }S Il.zz.7{.Y1.P: 9_ .Q Az.kL Bz.Cz.uH _K Pk |e B).Dz.<g.>1.#~.Ez.%'.ot Kk Y  Hp T; Ia Mb 7O PN I, X' /I @y F] <2 9z be =F Fz.Z0.+l.3W q2 7j Lb Uu v; |M RQ 'Q lS 4G Gz.Yr.Xr.Hz.Xs.Iz. y `x Jz. >.NF Lp Lp Mp.As.U- k_.Ar.!Q =x.Kz.Lz.kf.$P +6.b+ Gt X^ s; ;$ >M jN _| r` <&.4 .Mz.dX Zp Ia Fx N] Nz.hT _{ L^ 0v *~ Oz.RR t% Kx |F .r.&2.&2.7M 7M Zo.Zo.4P Zo.Zo.Ql 4P 7M <W e-. > l$ mv.e, ]v t!.Pz.T4 8<.9O ~G U4 =W Zw jK -R cc.N: N- |( :t dA w .K/.)8 Qz.Rz.Sz.Tz.Uz.Vz.Wz.Xz.5u.7w.:t.^z.Yz.!n.!n.Zz.d&.b&.`z.]n.:t.nx. A.{z..A.+A.@A.#A.$A.%A.&A.*A.=A.-A.;A.>A.,A.lx.'A.by.)A.!A.~A.{A.]A.^A./A.(A._A.:A.<A.[A.}A.|A.1A.2A.3A.4A.5A.6A.7A.8A.|+ *< xT Q` 9] r..q..`2 )U #) n$ c, 1z pP )$ ",
"^@.#) `T @4 9A.9A.0A.;@.E, ER  . '8.cr.4  o( xD &X h..jN tv.oS v3 MT S- S- z..{< hj.`J u .C. so so }  so }  }  }  }  )[ /+ |6 *G ~< 0! 0! A. +~ BI gz G  P%.sw.$Z s( yn.>%.=M %~.e* '$ mv.k5 #X  d ~@.p$.pY 0] V} }  }  }  }  ~< ~< *G u .b] ER E, D] [P {[ IM ;& 7, aA.Tn.np.bA.,d (n cA.dA.(m R- a, pi X} >8 q'.'8.gR eA.4n fA.Ea.)8.Kr lI )' (Z :[ Nr gS Ny gA.yV Lv .w.hA.2C kd.iA.'; [1 'y O. 9_ |f f; H| .I `  4( |# R_ +m.O! .` Ye.^{.sC ot Q! PM =,.hc.jA.kA.f[ AH Mt 'I |2 :2 `x ^E lA.mA.vC $y Xs.Xr.7j 7j Q! Jt D0 5p A5 T[ QQ l^ `x Ir =W  >.Kw.rt.nA.oA.pA.u] xu.7j 85.uV ]9 YL qA.Z2 r` 3@.&+.6w I3.  .LW ov wS rA.sA.,n ]' `5 tA.i$.X}.t% E- |F Pl :b.Ql WN G^ }o }o }o }o rq Ql |o 7M |;.L7.1$.mv.mv.m;.|` @z.%~.eB qF dB UT u; 5(.)C U& pr w; cc.X~ GF 0[ b7 qv.uA.D[.Eh.vA.wA.xA.,n.[k.yA.zA.AA.=i.8w.|y.BA.7w.7w.CA.`z.b&.`z.DA.8w.6u.mx.ev.EA.FA.GA.HA.IA.JA.KA.LA.+A.Pg.Mg.>A.MA.MA.NA.OA.PA.QA.RA.SA.TA.UA.VA.WA.XA.YA.ZA.`A. B..B.+B.@B.#B.AM $B.%B.&B.TF ti T* um b~ { .<( z] A, lm ,# 0  i! *B.*A nd.",
"LM #h.#h.Pj.r` @ .=B.]P D6 21 }$.~| w[ H, s~ xB `V 8@.-B.T7.Kx.t..XQ /9 /9 h#.`T gs.iz n5 W} }  so }  }  }  }  }  }  }  |6 t$.-G Jo f, ld N# 7* z@ '$ sF Tf.;B.8d _$.>B.,B.UX iB pI D@ 0h.u} b7 qJ &S a[ r` y- 'B.I%.Y, V} }  so l; *G u .j! r[ FW D] oc.)B.g=.k$ !B.~B.{B.]B.^B.E<.=X /B.`q YJ W} x@ }  }  Y, S^ z2 BQ WT lE Xf.(B._B.=P ~/ 5k :B.uS 8O fS 9j.42 +2.j* A3.<B.kh.){.@N Zj.2;.j( ~$ l< |f b6  3 p; JM .1 )C 8!.$z g7 [B..r.<b.Nv Uu Y^ w( Jt mr ;| #v.}B.}9 [d ,| Nv ,I || jd.'E Gf.3P PQ 6j %A qh.bO |J Wq.|B.|B.+w {B `0.bO Wg <*.=u Jv ;; @8.77.1B.2B.o& $:.QN 3# TL j! C#.VQ jN *$ ^V 3B.|b.4B.O#.:| +3 l8 5M 5B.2C 7*.nz `5 o!.E[ :$ !/ N] 8< _G _G RN Wj.h* Zo.:|.h* WN rq kS |o 5P ;H %~.%~.~x.Pz.q/.iN ky AU fS 9O 0< 5_ S .c7 Gs ]c.T&.]c.Ro.2M 5] A}.SL 6B.k1.7B.8B.9B.0B.aB.@A.bB.cB.dB.eB.fB.nx.gB.4u.hB.iB.`z.d&.d&.jB. A.kB.kB.lB.mB.nB.oB.pB.qB.rB.sB.tB.FA.cy.cy.Ng.cy.Ng.'A.uB.vB.wB.xB.yB.~A.zB.AB.BB.CB.DB.EB.FB.GB.HB.IB.JB.KB.LB.MB.NB.OB.n).@3 :v rT A, x- q; Un.rJ 63.4- n$ O^ (3.PB.QB.",
"n; ;< ;< X..`K RB.SB.iZ lu. t r5 wB TB.$g 5e ad 0X UB.VB.WB.cg.w2 }l.6P K!  W G  ,# Q^ T^ 45 so so so so }  }  }  }  x@ /+ p$.=r RL Zc XB.@> a~ N$ Xr 8<.Z~.YB.4b.Xt.WX ZB.`B. C..C..C.+C.@C./3.2j >H A- <l.K! H. lm J  X} V} l; l; '[ vf j! p5 r` D] #C.k^ Vd.Cz ,6 $C.%C.&C.D<.ia =X Aj.I%.*G g! Z, x@ }  x@ I8 e& 2( 2( sH !| Qt.1I E_ Zm *C.vi.g] D  TK +&..n.=C.+A Wj j, n6.ot ot X# O. Qa.Kv _2 F! Xw 5e Nr Yn.|6.]{.{%.Bt.N_ qF W' 5_ c7 4n IM ,| 7g.=F -C.4H :2 91 -& || Y  +3 z, g7 g< k&.u; *9 ^I Jb ;C.D3.>C.5o yU L2.R! `0.>v  k._I de.,C.6O Um.A% 'C.3(.yp /{.)C.eI >& UL n#.x3 a#.JV *$ ^V !C.~C.{C.7X D6 I7 $+ rb #0 o| 4y ]C.+6 |3.^C.l[ (* j1 /C.Wl 'I #A Iv se }F Ii.:|.(C.4P EM +2.O^.tb }P }P KT 5!.%I *Z _C.BU =M q; N! |6.CV k&.G& :C.<C.tr Ro.XB.Q7.[C.}C.|C.1C.2C.3C.4C.5C.6C.7C.8C.9C.0C.aC.bC.kB.cC.dC.(m.eC.1o.fC.fC.Zz.gC.hC.2w.3u.[t.iC.jC.tb.kC.lC.mC.tB.nC.FA.FA.oC.pC.qC.rC.sC.ev.:t.BA.tC.uC.vC.wC.xC.yC.zC.AC.BC.CC.DC.EC.FC.GC.HC.IC.JC.KC.LC.MC.NC.|X m5 u .lm q_ ># Y..'& OC.Z.._f.PC.m>.",
"oe.QC.tj RC.X..SC.TC.UC.|@.VC.G, nT WC.XC.&I p'.YC.6@.nw.#+.ZC.`C.e .6X <l.,+.3@.e%.'[ lA ~< }  }  }  }  }  }  }  x@ }  )[ V}  D.56..D.+D.@D.s..ni u!.!;.#D.7<.2Z $D.H7.fA.%&.Il.|0.%D._%.&D.7x 6z pS *D.=D.6b.> .@S *$ p$.V} so V} W} o$.hR b] LM -D.JM yS }( '6 $C.;D.>D.,D.Dk F<.'D./B.J8 YJ S- V} }  }  }  Z, ,# iz iz Tb ^u X^ rC ;5.<G )D.+O f! {n T; Xw 2j &2.#A f[ Ll 7C gE X' !D.cK sC P_ .r.B'.lL c%.c%.*E lP Jj.u} A(.ZQ ( .v} v} 4z &M s2 .r.[S ;l.@y X' .Q <( V| )C 9  l..O; {R u' ey LW jz v~ ~D.{D.ds.]D.^D.Xe.#8.s3./D.5U (I (D.('._D.:D.,1.hs.hp./{.[V <D.az 8O P- y@ 2( ># *$ Pj.JV C6 L%.~C.[D.}D.(X B^ ~t p; d7.ZP a<.|D.C8 1D.ak d3 7k o! %S $M PM Lt `;.0e H& $A Ii.h* EM +2.gI %%.7E 7E Xn.6[.@K <X ZY %I =M 'G =M 8<.gI zV =o.e* u$.w*.J0.o. 2D.3D.4D.5D.6D.7D.8D.9D.0D.aD.bD.cD.dD.eD.fD.gD.hD.iD.cC.av.jD.!n.]n.{n.^p.}o.<t.kD.4w.'A.Og.lD.mD.nD.oD.pD.qD.rD.sD.tD.uD.vD.wD.xD.yD.zD.8w.AD.:t.BD.CD.DD.<s.ED.FD.GD.HD.ID.JD.KD.LD.MD.ND.OD.PD.QD.RD.5G t6 e* ~h Q^ p$.o5 >8 yB (| p[ SD.v.._X ;U TD.",
":z !v ]V !..UD.VD.WD.XD.YD.ZD._U ue o'.Kn.eB +K `D.YC. E.kc.`W :I [l.Rp.Rp.A$.n` T^ *G xj 45 0! by by  f Wb V} Z, 0] I8 ~< so 65 66..E.Yc Xs @/ p< y] :[ I7.8F 0f.n1.Ai.`2.+E.%# @E.#E.4o gY I7.2[.xa d< $E.%E.&E.'h =$ H! ~< l; so ~v .{ ~U b] )P z2 cr.1# i3 |^ i. *E.=E.-E.[C.,d >[ Zq `q R- wj 1( lA ~< 1( {< gs.tF ;E.e& 't N_ L3.;| d=.3>.qr z[ fy $z w' 2j EM @A #k.x_ >| qh.$y Wl ^E 6j qq |i.sI $t.#r. t.v} %0 N_ ey VT v[ uD 5!.Iq.* .sA Wu 1C Pk Ii.di.;l.PN =& 5  B@ P- Rq !1 K7 i; [Z 3( c] r/.IT fK >E.w& 4O Ym ,a #p %w Uu || 8w Ia &w ZY Mb Xw w-  ' {%.*I 8<.&E _9 sA W4 & .xD (P D6 UQ VZ XL 6w bX D6 o( LW r~ rH eK YP Z/..^ -* Xm 5;.!n 1I ot 6n eE D6.D6.mr ,E.'E.$A Bs 7M )E.O^.!E.7E >o.nU r|.$I BU [i.- .7d uD $I 5!.(h.4X `p Ha ~E.9! h%.F@ C[ {E.]E.^E./E.(E._E.:E.<E.[E.}E.|E.dD.1E.2E.3E.4E.5E.6E.7E.1w./z.[o.}o.CA.}y.8E.9E.nB.sD.0E.aE.:z.bE.cE.dE.eE.fE.gE.hE.iE.jE.kE.lE.mE.nE.!n.CA.!n.oE.pE.qE.rE.sE.tE.uE.vE.wE.xE.yE.sy.zE.AE.BE.CE.DE.EE.FE.GE.yn |X m5 K_ j! j! j! !U 63.K_ ly ^u tI r; ",
"m#.j..&R HE.IE.JE.KE.LE.ME.NE.)o.[i.OE.PE.;Z QE.RE.Wn.6[.mc.VP 0V -w U..,@.11 i! ># b] H_ /Y I:.5+.y2 y2 +) f%.'[ R..~@.WU 55 SE.TE.~9.UE.;) S` D- VE.WE..(.XE.Hv.-= YE.ZE.`E. F.6a..F.#(.,:.:{.Zt.7z <` +F.@F.#F.jg.1@.)U Y, V} V} W} .{ WJ P .!U hj.I:.v .K. Fo }$ t` (t /n $F.C .k..%F.0] a, '[ T^ jd jd Q..t$.H! =T oS xw.f&.&F.*F.=F.cO /C.3x /U c7 3[.~G <|.-w B'.QN ,^.-F.;F.;U 'E h* Wm.CV >F.,F.'F.)F._$.LW &4 &4 '$ ly YL U^ /P xD xD b1.N_ V~ 4n v; Nv x~ _2 M: /U -#.f* i+ ~ .gj.^x -8 z2 [5 Mb C@ !F.~F.{F.WP %p y<.9A Ef t~ .I >& .b.; .D, {< T^ ;8  d #~ y2 6- m;.A, bD 0V AS :| n; K  63.P^ P^ *+.@ .,U LW Wl.<`  M `p xa RN 0z HM #3 K[ $M Q! Mv Ug H& 7C mr xb *(.qh.]F.qq &2.x[.s|. r.d2.^F.^F.-g _A /F.xB ad qv.]d.+K vD `` Ob K! v#.H@ zo.tF <+ Q@.Dh.(F._F.:F.<F.Jh.[F.}F.|F.1F.2F.3F.4F.5F.6F.7F.8F.-i.9F.fB.0F.|y.aF.bF.ox.cF.dF.eF.fF.fF.gF.mD.hF.iF.jF.kF.fE.lF.mF.hC.nF.oF.^z.:t.!n.iB.pF.qF.rF.sF.tF.uF.vF.wF.xF.yF.zF.AF.BF.CF.DF.EF.FF.GF.HF.Hh S[ IF.1$.!1 GQ ]9 <| 6d |z p5 Tb P' LW s~ iy qJ ",
"~< 0* JF.KF.LF.MF.NF.E* OF.PF.QF.E9.,Z rY Q0.}i.:U !Y 0V RF.)L sA.,1.O# p$.v3 m5 |G )# >%.AU Ia Ia te r' b* Q^ ,& u3 ,[ a! @X SF.TF.UF.VF.p} WF.7n $8.XF.YF.ZF.O1.Ve `F. G..G.+G.@G.m% #G.Bo.%l.=c.$G.%G.&G.*G.=G.'o.W].F. T- l; l; R- vf j! P .iR e%.g! ~v fN cB gy >4 H8 ch.0^ y3 a[ jx H  H  pi n5 :Z r_ H_ t$.X#.D, WL Y2 n$ o$ j7 sD #w.q; A2 3( <Z fV ,$ G7 AB 31 &4 Z   s.SV {{.^I mc.T)._'.[B.Jj.Jj.'F.-G.p~ l! o[ Ja ZJ D#.}&.9@.UQ uy.p0.#K z[.W4 Xw .3 Fq.=4 l& `  oc.;G.3_ `! Sq H7 ^+ >G.>& Ij.C@ ($.Ao.5O 3>.OK *S z. o' l& e] #m.Ay./+ f& @) A..I8 /+ km .{ q'.mv.(3.,G.,G.`4.0B r5 G, J! 4- h& B..@ .,U _P Az.,Z d .*D.)# g^ B@ w~ 81 fE 5U @y !K Q! ,K 'G.55.A6.)G.!G.$2.pq OQ ~G. r.!E.aV yV ah.Gw ]9 wD E6 .K {G.ig.%e.6X e@.]G.C..;s ^G./G.(| I  }  so (G._G.:G.<G.[G.}G.|G.1G.2G.3G.4G.5G.6G.7G.8G.9G.2u.fB.mx. A.nF.0G.aG.7E.1z.Tc.oB.dE.jF.iF.jF.dE.pD.bG.cG.dG.eG.fG.gG.oF.DA.^n.jB.}o.[o.hG.iG.[o.jB.jG.:o.kG.&q.lG.'u.mG.nG.oG.Hf pG.qG.rG.sG.tG.uG.zS BI 9* k! |z &F.`4.t' <| '# P' 2# {{.#&.@&.ey ",
"V} +) vG.wG.xG.$D.yG.`p W` zG.@p.AG. {.tj.Fw Tf.#p.L  Al.BG.Yy.vq.1(.z. ~< P* iR G_.68.KQ fS 9O ~G ey T4 Q .4- 0  lm :t ,[ vY CG.DG.EG.R| FG.GG.x4.GG.HG.YF.IG.JG.F:.KG.LG.MG.Be.NG.OG.PG.J(.8#.QG.RG.SG.TG.JE.UG.VG.J.. 7.0] l; x@ R- .{ d, I@ tF '[ Y, }  l;  d b7 s' WG.K7 VL Sb .U >8 0] P* m$ O^ p5 -$ eS o5 ; .D, D, pY nA '& XG.-W Da J! ^@.~P m$ @) I8 ~P j&. U Q..oo ,Z yG.qF $t.YG.ZG.Zp.Yn._$._$.Vk 9O i; -8 o[ }` e& `G. H. H. H..H.+H.$e.vh. r.-E ^u rT uj.R; |5 @z 7D {d.u3 u3 ,8 T} k1.++ Ij.T .@H._I #H.GM J[ $H.Gp O# o; Aa T} m; !9 ^@.(+ e%.e%.gs.YQ r_ k! b7 p; 5_ u; Ia iN q' {D sJ J  ^@.E. %H.i& ag.&H.)# $Z sw.X].*H.68.v} u} _'.de.Di.be -h @y >| >| =H.de -H.*l.;H.O^. r.aV $r.aV nU d2.vF }W G  p0.xD b .`Z >H.,H.'H.)H.=+.!H.~H.{H.w../+ }  so ]H.^H./H.(H._H.:H.<H.[H.}H.|H.1H.2H.3H.4H.5H.yB.mx.dv.6H.nF.ev.7H.8H.9H.0H.aH.bH.bH.bH.cH.dH.eH.fH.gH.hH.iH.jH.kH.gG.^z.lH.mH.:r.Zz.^n.nH.nH.nH.DA.<o.<o.{n.oH.pH.1o.jG.qH.rH.sH.:y.tH.uH.vH.wH.&q.Q@.&$ )P K  =Z #Z o'.t( 6d Sb.(x -6.('.rs.xH.(h.",
"|p cB fE yu.cF nq [{.an gB Yn.yH.zH.5b.%h.+I Pd.AG.jy {$ AH.BH.CH.(_.Em xj 0] G  ZQ t} E  c& z, iy  3 |x 31 o5 4- )P $R DH.S7.S7.t` Z. *+  q `_.qh.($.EH.^'.FH.#d.E0.GH.HH.IH.JH.^# KH.)d.LH.MH.NH.OH.PH.QH.Y` ME..Z ~;.V2 1( l; }  xj WU .{ jd p$.a, |p l; l; &) l#.t' r' ^x ]< Co A^ g%.0] P* S- >8 b] a< b] B, B] !U 5[.`T +S f&.kc.RH.G_.>M `%.dy h! Y2 jL I! @f.h& iz p5 -M E9.8d ^3.V .SH.TH.C~.#K -Z ,Z tV c* r_ }` !1 C$.UH.VH.WH.XH.YH.ZH.`H. I..I.Es.b1.rJ Qb Do /m s[ Qb Zs +I.@I.uF n; k! ,8 wB #I.$I.az +(.5M %I.:[ $z.t5 o6 KW a[ m; y- h#.y- !U C#.J! b] -$ c* b7 s~ 5e Xw 2# G, j& |G D6 c, 4- B..WQ sJ &I.xi.P>.Pb 0X `Z X0.vF ~{.%g 3G rI de.)^.*A *I.=I.cO -I.;I.>I.,I.*U `m.7[.aV '4.!E.!E.xV 7d x2 ># TQ F6 U^ 'I.ku.!+.)I.!I.~I.{I.g@.f@.4 .'B.7x.{n.]I.^I./I.sb.(I._I.:I.<I.[I.}I.|I.1I.2I.3I.4I.5I.6I.6I.7I.8I.0F.kB.lx.9I.eE.bH.0I.pB.jF.jF.aI.bI.iH.cI.dI.eI.fI.gI.hI.mk.iI.jI./n.iB.iB.Yz.iB.iB.AD.}o.}o.}o.[o.nH.kI.lI.mI.nI.oI.pI.<t.qI.rI.sI.tI.uI.z0 q_ H. $ .xB OE.]V x- Do N; !B 7z S).a$ tj.",
"x@ @X ;* ,d.j6.vI.>i Ym tC 6E O^.xV 6[.re.KT Hu.<X y& wI.xI.yI.zI.AI.rv BI.C. D,.CI.Bi.p|.x_ 1I `;.s. @A DV nG A^ C[ zt.DI.EI.FI.r. R; rJ :V 3x )$ +: od.GI.HI.II.,= JI.KG.KI.LI._(.MI.NI.OI.PI.@H.pI 9< WC.QI.RI.&I.6d d, ~< ~< }  l; 1( W} W} W} ~< 45 l; ~< R^ 31 <| n; A^ t$.gs.J  |6 I8 V} P* |6 #^.YQ WJ e& eS i& D6 r[ a<  7.C] [W %4 ># 0O 4- (+ g& (+ p[ C6 C6 e& R3 AB -< Q .q~ <U SI.tj.n; Qb T} Qb a[ !h T^ hW xd.h! TI.UI.VI.WI.XI.YI.ZI._5 XG.L_  7.b] p' p' GW Tb p' ,8 t[ X..~f.Qq Sb.j..q5 Q0.f_.N! !D <P ~| F  2F 0^ A^ CZ !h S..hj.B] 11 Co m; eS lm q_ p' T} F  <P Mb rT H. LM !U >8 h! I! !1.TQ j..JW Wl.xB dS [&.kZ 7P 6P 7P ;M 5!.5P /5 U4 H~.H~.Xu Hr `I.(|.|o Tp.t; &u 9j.M_ M_ ^ .=w ,%.@s.p0.># 63.)& W%.}f.[&.*+. J..J.+J.@J.#J.4B.gs.$J.%J.&J.lE.*J.=J.-J.;J.>J.,J.'J.)J.!J.~J.{J.]J.^J./J.(J.|o.Yz._J.iB.|o.[r.:J.<J.[J.}J.}J.|J.1J.1J.2J.3J.4J.5J.|k.4J.6J.kH.7J.:t.nH.jB.AD.8J.7v.9J.0J.aJ.bJ.cJ.cJ.dJ.eJ.fJ.cJ.gJ.7z.(r.hJ.iJ.jJ.kJ.lJ.oF.oH.6x.mJ.p( nJ.G. sJ ;< Pq G! o6  t $+ !B 3F +U #4 ",
"x@ oJ.g(.b( pJ.M;.qJ.9; sk.[d Pq.Rl z[.* .Xp.DB 1z ,g.rJ.sJ.tJ.uJ.mj.r! .=.vJ.wJ.xJ.yJ.zJ.m~.O} 3=.J'.AJ.5(.73.a5 BJ.CJ.DJ.EJ.vv E: x' /F.a^ f; m8 |N :o FJ.GJ./{ 8a.HJ.IJ.E+.JJ.ce.]:.ps.KJ.'5.y[ @(.H, LJ.NE.LE.+U |z m5 45 |p V} V} }  0! 0! ax ax 1( 45 S- <+ P .T} G. S..J  #) q( /+ P* Z, P* f& =T H! p5 sJ cS sJ *X sJ K  D6 AB uF x2 V%.63.q( e%.I  hz 4- y..C6 YQ a[ T} G. b] p5 <5 /m ,8 p' }6 A^ ,< .b.a, x@ so so )[ MJ.NJ.OJ.PJ.QJ.RJ.}U O%.F. YL J! J! j! eS )@.DR )@.j..eS ER X..;< Sb.j..a[ [5 z2 (x ^x /m c* tH y3 O* I_ ~h ]< A^ A^ YQ 5[.aO #h.LM `J YQ YQ P' te jy z, d* )P hz Y, Y, @) 4- C#.e#.j! N; A2 ER gt.+S #) p[ D, =T 4- hR 75.%y.{v {v nG XJ ]v hN hN hN UL qV {v 6q ;E.;E.u .u .~%.20 Q^ >8 >8 i! p[ G_ ^V <i.pY SJ.TJ.UJ.VJ.WJ.XJ.YJ.ZJ.`J. K..K.bG.+K.;J.@K.#K.$K.%K.&K.!n.*K.|y.=K.mk.-K.]n.<o.{n.^p.[o.;K.>K.3J.,K.'K.)K.!K.!K.~K.nC.{K.]K.^K./K.(K._K.:K.<K.!n.:r.jB./n.[K.}K.|K.1K.2K.3K.|s.4K.5K.6K.1K.7K.8K.9K.0K.aK.bK.cK.dK.DD.]H.6D.=s.|c.'Z R..o` eK.m; #m.e] k& `2 oo 15 VL m; @4 ",
"}  fK.gK.hK.iK.jK.kK.lK.MJ L[ Mv 7M bh.;g q/.CQ [x 7- mK.nK.oK.pK.uh !r `*.1c qK.rK.sK.j>.tK.uK.:_.vK.K- !g Z! =3 wK.xK.yK.zK.AK.BK.i3 G7 3_ 8p :^ CK.}{.Qr DK.v# H1.u2.;/.EK.JJ.FK.O, GK.HK.@(.5].C  +5.IK.JK.KK.b7 r_ Ub ~< so so l; V} 0! V} ~< Wb 0! 45 '[ D, n` `J m; m#.!P }@.D, a, I8 x@ x@ P* v3 B, ER ,U ;< =$ b* ,U ,U c* tH -$ <5 P .YQ @k./+ A../+ D, q( ,# B] VL ^x H7 H7 Sb ^x O' Sb VL b^ I_ Rq gz S^ I8 ax ~< C, LK.MK.NK.$X M$.<+./P  f.5}.p0.V%.P .Tb R3 R3 a[ p5 ER j..a< ER '# Sb.r_ H_ H_ d, |X d, H_ 2( fV b^ ~h vf p( CZ ~h ]< YQ `J )U )U p' m; e& p( a[ jz i^  3 '8 A^ a, x@ Y, A..h& 63.j! R3 K7 K7 H7 o` iz >8 Q^ T^ <x p$.~h t!.I:.S&.yo Ao J_ Ao S&.Rb Rb p#.OK.AR A. C. ~v xj 45 |p |p ~< ~< 1( J8 c^ {< c^ PK.QK.RK.SK.TK.UK.VK.WK.XK.YK.cv.ZK.`K.eE.+K. L.0H.#K..L.+L.(q.nH.@L.jB.Zz.:r.:o.fC.#L.`z.`z.Zz.$L.%L.&L.*L.=L.-L.-L.-L.{K.;L.kD.>L.9v.6E.,L.'L.)L.!L.}y.:r.^n.Zz.~L.{L.]L.1z.^L./L.(L._L.:L.tB.dB.dB.<L.[L.}L.|L.1L.2L.3L.4L._J.d&.%$.I8 I8 >u.f%.UZ f%.5L.}$.F  4c I_ z0 f%.hz g& ",
"l; 6L.7L.8L.9L.0L.aL.bL.b3 !n mh.&2.w} qq.-. TL 73.cL.dL.eL.fL.gL.hL.iL.h=.jL.kL.lL.mL.nL.oL.pL.qL.3;.rL.CH sL.tL.uL.vL.wL.xL.yL.G5.`w '$ h; 5c u8 JL 5k Y# zL.AL.BL.CL.@x DL.s4.*9.eW EL._I eK pc.sC =# f_.KK.b7 aS k5 DC 0! 0! l; 0! V} l; 0! 0! 0! 0! |p '[ T^ yB iR YQ e& o` hj.q( a, T- Y, T- @) =G yB b] ER -$ wD a< ,8 -$ G7 '# <5 <5 b] YQ D, P* )[ /+ jL D, q( `c q'.b^ q_ b^ b^ !1 )P b^ I_ Rq vj Ao Ub hW {< *G S^ =G XL XU *+.E. VQ TQ TQ /9 63.m5 #^.B, p( p( p( ]< ]< o` B, B] B] ]< S..vf !h jd @& <x hW FR $$ &) fN :x wj :x X} hW ;G p$.X#.J  tF !P iz iz n#.lm FQ S; o( tH .{ H  @) P* a, ,# #^.iR y- lm lm e& tF ,# D, ,& pi pi T^ n5 yo yo Rb Rb Rb xo 'g nI &) f-.1, AR CR CR En @q @t 0! l; l; l; 45 0! 55 :- C. Bo FL.GL.HL.IL.JL.KL.LL.ML.NL.~z.OL.PL.QL.RL.SL.TL.iH.UL.VL.WL.XL.jB.YL.@L.ZL.`L. M.`z.1o.1o.1o.[o..M.+M.@M.#M.$M.%M.&M.*M.=M.3r.-M.;M.;M.>M.5z.>K.,M.'M./z.nH.:r./n.OL.)M.!M.~M.{M.]M.1z.^M./M.(M._M.:M.<M.[M.}M.|M.1M.;z.2M.3M.4M.d&.D. Z, V} x@ Z, Z, Z, I%.}6 I7 Sb FR YJ 1( 0] @) ",
"0! N' 5M.6M.7M.8M.9M.`5 k~.u3.35.]E Ql 1M 7i v[ T2 0M.aM.L'.bM.cM.dM.eM.O] fM.A5 %Q gM.hM.iM.BH.jM.jM.kM.lM.mM.nM.oM.pM.qM.rM.sM.tM.1J Fx w- O` d; .[ oa 9f qO )9 y9.uM.BG.Ik.bc.vM.(<.wM.X-.k^ gE .0 pA tY  t >l.'g C. xj so  f so so so so so so V} V} V} I8 a, {< e%.,# !9 ,# D, {< 0] lA T- Y, x@ I8 |6 =T o5 O^ ,# J  o5 jd n5 n#.q$ o$.o5 ;G yu x@ }  )[ )[ P* f& {< `, WU g%.WU WU FR WU g%.hW `, km *G R- W} 0] 0] 1( 0] P* C, f& m$ =G v3 v3 v3 g! g! '[ {< S^ {< {< {< f%.S^ 0] 0] 1( 1( ~< 0! V} so }  }  }  }  0! |p so }  }  }  }  V} x@ Z, Y, P* H  |6 /+ |6 h! (+ p[ yB O^ G@ /| nS D. f& I  (+ hz jL h! |6 a, H  @) Y, V} x@ }  x@ }  Y, T- 1( 45 W} ~v Vb Vb Vb Vb xj 45 @t by by so }  }  }  }  }  }  }  }  so Wb xM.yM.zM.AM.BM.CM.DM.oH.DM.@L.EM.}o.{z.wB.FM./L.GM.HM.IM.JM.KM.LM.bF.jB.DM.^n.jB.<o.]n.oH.^p.oH.oH.^n.]H.<r./z.BA.BA.BA.0F.0F.0F.BA.0F.0F.7w.(z.MM.NM.OM.6H.{z.Zz.nH.[o..A.sC.6E.=i.6w.(m.PM.iD.3r.9F.1w.QM.RM.SM.TM.'z.;n.UM.VM.WM.{o.so }  }  }  }  }  }  }  }  ~< {< f%.~< V} x@ x@ )[ ",
"M+.T[ XM.YM.ZM.`M.&! N0 -5. N..N.+N.@N.35.#N.np ~X $N.%N.&N.*N.=N.-N.;N.L2 3k _B.>N.HH.,N.'N.)N.5d.!N.~N.Gc {N.]N.^N./N.(N.QP _N.:N. d.<N.[N.l( gx Z} }N.9p -i 7^ %[.1[.br.u_ %k ;~.d7 5x *I m( ;~.w0 z. w@ D..Bo 35 }  so so ro by so so Wb so V} V} l; by 45 |p W} lA lA T- 1( I8 I8 ~< ~< l; l; }  x@ x@ Y, l; I8 Z, Y, Y, ~< l; ~< ~< |p l; x@ }  }  }  }  }  x@ x@ Z, V} V} }  V} }  }  }  }  }  }  }  }  }  }  }  }  }  }  }  }  }  }  x@ x@ }  }  }  }  x@ x@ x@ V} V} V} }  }  }  }  }  }  }  }  }  }  }  }  }  }  }  }  }  }  }  }  }  }  }  }  }  x@ x@ )[ x@ x@ x@ x@ x@ x@ x@ x@ )[ |N.b< m$ N+.=G P* @) x@ )[ x@ x@ x@ x@ }  }  }  }  }  }  }  }  }  }  }  so V} so }  so so so }  }  }  }  }  }  }  }  }  }  so ro Wb 55 /v.1N.:o.2N.3N.4N.oH.DM.4N.@L.DA.Zz.|y.5N.,L.6N.7N.8N.9N.iF.0N.aN.jB.tI.3N.ZL.<o.4N.{n.DA.<o.:o.{n.^n.^n.jB.jB.jB.DA.^n.^n.^n.jB.:r.jB.:r.:r.[o.[o.AD./n.CA./n.iG.[o.nF.'z.ox.nF.ev.ev.7w.nF.nF.BA./z.!n.|y.^z.oF.|o.oF.oF.:t.iB.oH.}  }  }  }  }  }  }  }  }  }  }  x@ x@ ~< Y, Y, V} ",
"q$.Gx bN.cN.dN.eN.fN.d;.-3 |0.gN.hN.iN.Xl jN.|o %>.25 kN.lN.mN.nN.oN.pN..> 1_ nj q~.qN.rN.sN.*x tN.uN.vN.wN.xN.yN.zN.AN.BN.CN.DN.EN.FN.GN.HN.>a j+ YJ &$ l..|_ 8| +N <g.h6.Lb eI u} e< pJ bh.f_.5  s$ >4 (x 'Z so }  }  }  so by so so }  so so }  }  }  }  so }  }  V} V} x@ so }  so so so so so }  }  }  }  }  }  x@ x@ x@ }  }  }  }  so }  }  }  }  }  }  }  }  }  }  }  }  }  }  }  }  }  }  }  }  }  }  }  }  }  }  }  }  }  }  }  }  }  }  }  }  }  }  }  }  }  }  }  }  }  }  }  }  }  }  }  }  }  }  }  }  }  }  }  }  }  }  }  }  }  }  }  }  }  }  }  }  }  }  }  }  }  x@ }  x@ )[ 16 D. 0] S- *G ax l; }  }  }  }  }  }  }  }  }  }  }  }  }  x@ }  }  }  }  }  }  }  }  }  }  }  }  }  }  }  }  }  }  so so so 2c 2c c&.`z.^p.{n.<o.]n.^p.1o.oH.oH.^p.1o.fC.<o.8w.IN.JN.KN.LN.MN.JM.NN.ON.DA.PN.4N.<o.]n.]n.]n.DA.DA.3N.<o.DA.DA.jB.^n.DA.<o.DA.<o.DA.DA.DA.DA.^n.DA.DA.<o.jB.:r.[o.nH.Zz.nH.{z.<t.nx.{z.!n.:t.{z.|y.^z.Yz.|o.AD.}o.[o.Zz.jB.jB.DA.jB.]n.d&.}  }  }  }  }  }  }  }  }  }  }  }  }  }  }  x@ }  ",
"!s >J QN.RN.SN.TN.UN.VN.]' WN.XN.YN.hT m3.ZN.i* kR `N.a.  O..O.+O.@O.#O.6, {i L] $O.%O.&O.*O.=O.-O.;O.>O.e~.,O.'O.)O.!O.~O.{O.]O.^O./O.(O.v, _O.:O.J( wf 15 j3 pt <O.V$ Fd.Yd.EM uB [O.}O.}O.vB O_ ov b6 sH .{ }  }  }  l; 0! @q 0! 0! 45 55 ro ax ax 45 35 En En _m 35 55 2, 55 |O.SE.1O.2O.3O.4O.D=.rk M@. f 2c  f so so }  so 2c 5O.6O.7O.D=.to so }  }  }  }  V} l; 0! 0!  f so so }  }  }  }  }  }  }  }  }  }  }  }  so l; l; l; l; by l; l; V} so so l; l; |p 45 35 :- _m 55 ro }  }  }  }  }  }  }  }  }  }  }  }  }  }  }  }  }  }  }  }  }  }  }  2c }m :- 0! so }  }  }  }  }  V} l; 1( X, L@.`e yR `e 4O.M@.so }  }  so  f M@.M@.2c so }  }  }  }  }  }  }  }  }  }  }  }  }  by }  }  }  }  }  }  }  }  }  2c 2c 8O.9O.1o.{n.:r.[o.}o.nH.^n.{n.]n.<o.<o.]n.]n.jB./z.0O.aO.bO.cO.dO.eO.fO.gO.jB.{n.DA.^n.^n.jB.[o.kI.hO.kI./n.}o.}o.AD.AD.AD./n./n.Zz.Zz.Zz.[o.nH.Zz.:r.Zz.[o.}o.CA.|o.|o.oF.oF.nF.2u.xB.nF.ev.5j.7w.5j.5j. A.0F./z.}y.!n.|y.oF.iO.kI.kI.jO.kO.V} }  }  }  }  }  }  }  }  }  x@ Y, ~< 1( 1( W} xj ",
"lO.mO.nO.oO.pO.qO.rO.Y5.Xe sO.0& Lq n3.;2.j( /C.tO.uO.vO.wO.xO.yO.zO.AO.N^ [- ]D.(F BO.7i.Be.CO.+G.DO.EO.FO.h8 GO.HO.IO.JO.KO.LO.MO.NO.OO.PO.QO.RO..$ M: dA h; Hh S~ ot Ao.pG 0h.uB u].@Z 8d k& z,.2f @[ A0 gz }  }  }  45 55 2, 2, Vj.30 -r *o.sm 3$ Xo />.,'  / SO.F2 TO.h=.7p.UO.VO.8A.WO.XO.YO.ZO.`O. P..P.+P.<e.V*.@P.#P.$P.%P.&P.*P.=P.-P.;P.UU 6O.M@.1m KH N*.>P.,P.'P.)P.!P.2O.y*.x*.<m x*.~P.<m [m <m /=.M7 40 b-.J*.JH {P.]P.^P./P.(P._P.q}.Aj :P.E*.K^ <P.yl.>-.[P._r v-.}P.kh O7 O7 2m rk 35 0! }  }  }  }  }  }  }  }  }  }  }  }  }  }  }  2c H=.CJ |P.L=.K^ u-.1P.1P.1p 2P.1p 1$ 3P.H6 4P.5P.6P.:h.7P.8P.9P.0P.aP.bP.cP.dP.eP.fP.gP.hP.R*.Uq }  }  }  }  }  }  }  }  so so M@.rk yj Ci.yR iP.jP.zR L7 95 t< kP.j6 lP.mP.nP.2u.kB.oP.pP.qP.rP.sP.tP.uP.vP.wP.fJ.xP.yP.zP.GM.AP.BP.CP.+L.DP.EP.FP.GP.HP.IP.JP.KP.LP.MP.NP.OP.PP.tC.QP.tC.PP.RP.SP.TP.!n.!n.8w.}y.BA.5j.UP.dv.VP.2u.WP.XP.kE.9y.YP.ZP.`P. Q..Q.+Q.@Q.#Q.6N.$Q.#Q.%Q.&Q.*Q.=Q.-Q.;Q.>Q.,Q.'Q.)Q.D2 z@.qi xj V} 1( [  +q k; 1  uf A* h; @$ @$ B0 !Q.",
"z..~Q.DK.{Q.]Q.^Q.T|.3(.(A ^{ /Q.(Q.#;.u/.Zj.$M )C _Q.l7 :Q.<Q.[Q.}Q.%l.3c .{ N: |Q.1Q.vK.]/.pL.2Q.3< 5).3Q.4Q.5Q.<Y 6Q.7Q.8Q.9Q.0Q.aQ.bQ.cQ.dQ.eQ.R3.L] 5(.^w OD fQ {r `P oP fQ.-w fS :| Q .3_ +l O] z* 2  vj }  }  }  En M+.:- 35 o#.5$ ,4 Ff z* #p 6< j3.j3.6< ]5.7; {g.gQ.b8 hQ.B` iQ.jQ.kQ.lQ.mQ.nQ.oQ.~M pQ.qQ.:n rQ.mM.Tt sQ.tQ.cf d'.uQ.L| vQ.wQ.16.G*.xQ.0A yQ.sd.F( N[ zQ.c:.JD .-.`=./l AQ.BQ.AQ./l CQ.DQ.EQ.dt >0 FQ.Op.U4.GQ.HQ.IQ.Pp.>0 et JQ.u/.KQ.,w k4.-' LQ.H[ gH .h.^d +| .| tr MQ.&t 's +t }  }  }  }  }  }  }  }  }  }  }  }  }  so NQ.Qh .a.$u hA.OQ.Hx L8 +k.t0 PQ.4~.B).Y6.Rh Cx QQ.RQ.SQ.+- TQ.UQ.VQ.WQ.XQ.YQ.ZQ.12.`Q. R.c[ s6 pK ro }  }  }  }  }  45 Vb CR Bn y*.3O..R.u5 Ex H..`n.gt u5 l( Iv +R.@R.#R.$R.%R.&R.*R.=R.-R.;R.>R.,R.'R.)R.!R.~R.{R.]R.nD.^R.#K./R.dH.(R._R.:R.<R.[R.}R.|R.1R.2R.3R.4R.5R.6R.7R.8R.9R.0R.aR.bR.cR.dR.eR.fR.7w.gR.hR.iR.jR.kR.lR.mR.nR.oR.oR.pR.qR.rR.sR.tR.uR.vR.wR.xR.yR.zR.AR.BR.CR.DR.{t.ER.FR.GR.HR.IR.JR.KR.ak {r 9A Z! >g.5, Y  tC s. P! 4H @,.p|.Yu [*.$w.Hs ",
"/| S&.LR.MR.e6.NR.OR.PR.st.QR.]f RR.SR.B' TR.C}.Te.-a vO.UR.VR.WR.XR.YR.S..%E b6 #,.0& p& @w 10.FK.ZR.`R. S..S.+S.@S.#S.$S.%S.&S.*S.=S.-S.;S.>S.,S.'S.)S.w~ FQ '< CU mI Wj.8z U .Vk )# AB -$ O' 4$ Go Ff 8$ po }  }  }  :- (m _m 2, W, 9  [6 2}.%6 !S.Wd.*~.Ai.5o J0 C-.~S.!X {S.]S.^S.t^./S.(S.g,._S.w{.:S.<S.[S.}S.|S.|S.xc 1S.Uo.2S.3S.`3.4S.5S.6S.7S.8S.c:.Zt h1 9| Y6.G6.rv (k Dh 9S.Lm _r u8 u8 tz (r c_ :f 0S.aS.bS.cS.dS.C=.eS.fS.gS.hS.Y2.9|.iS.JN Q& W0 E8.jS.kS.lS.mS.*<.nS.%| ev #6 p/.`} 3, -G CR }  }  }  }  }  }  }  }  }  }  }  }  }  so @=.UB w7.H6.'3 oS.$; .* _{.uq.,d.B% pS.o# $' k{.qS.rS.sS.tS.uS.vS.wS.xS.yS.zS.AS.BS.CS.Sh g{.7r Gp 55 }  }  }  }  }  R- 8f o#.~=.1m 2O.G2 MN RQ M: Fx 7_ oN (U *l.DS.ES.FS.GS.HS.IS.JS.KS.LS.MS.NS.OS.PS.QS.RS.SS.mD.TS.0B.US.VS.WS.dE.#K.XS.YS.ZS.`S. T..T.+T.@T.#T.$T.%T.&T.*T.=T.-T.;T.>T.,T.'T.)T.fO.5u.(z.!T.~T.dC.{T.]T.^T./T.(T._T.:T.<T.|H.[T.}T.|T.1T.2T.3T.4T.5T.6T.7T.8T.9T.0T.aT.bT.cT.dT.eT.fT.gT.hT.e*.)f.4a g3 .f hd 3* [# Dz.<g.iT.jT.!L kT.}d fH dh ",
"m%.lT.=; mT.nT.oT.Aw.pT.'J c;.EN qT.rT.sT.tT.{B :9.,I ^..uT.vT.wT.xT.u( ,< !h P&.ih.yT.kd.wa zT.wp.AT.Y}.'m Nw.]w BT.CT.DT.ET.FT.GT.HT.IT.JT.KT.LT.MT.~3.v~ C,.7u aK (>.65.NT.!4.v} 'G E6 SL l$ 1_ Go Ov k. gz so }  so Uq L@.'#._m wf h; Gp e; E| ~n p9.OT.PT.[*.l3.QT.&m.nv f- RT.ST.TT.UT.VT.b,.J!.WT.XT.YT.oQ ZT.`T. U..U.+U.@U.#U.$U.%U.K;.&U.*U.=U.-U.B| c. 7c.<; +R ;U.6. >U.K; Lm K=.T# 0A u8 v0 @| ,U.5i 'U.)U.!U.~U.{U.]U.YT.E!.^U./U.(U._U.qQ qQ :U.X|.<U.[U.q:.4).#x M( Kc.(f f(.&: h, E=.-T oi B. 2, @t by 0! by 0! by by by l; l; 45 @t D=.}U.u$ '3 oS.8~.Ez.<(.|U.aN 1U.2U.o|.3U.4U.Sh 5U.6U.7U.8U.9U.0U.aU.bU.cU.dU.eU.fU.gU.hU.Pm.s% -F pA |m 0! 2, 45 C. *G 'g .+ z0.f, }N./8 Km J: Nt l( 5( mI D  Wj.;w iU.UD jU.kU.lU.mU.nU.oU.pU.qU.rU.sU.tU.uU.vU.rD.wU.nD.Vc.xU.pB.vb.eH.yU.zU.AU.BU.CU.DU.EU.FU.GU.HU.IU.}G.JU.KU.LU.MU.NU.OU.PU.QU.RU.SU.TU.hR.(m.6E.4z.UU.VU.oD.WU.XU.YU.ZU.ZU.}H.`U. V..V..V.+V.@V.#V.$V.%V.&V.*V.=V.-V.;V.>V.,V.'V.)V.!V.~V.{V.]V.sk.eQ @> {1. [ :/.F- 0T pS.:{ ^V.'n D$ gH /V.}. ",
"dE Yx zs OR.(V._V.>m zi.k>.:V.<V.[V.}V.|V.4V 1V.Ot 2V.XO 3V.4V.5V.6V.]G CZ a] Pz.`_.7V.V$ 7| .' C1.wp.D(.k!.8V.9V.Kh 0V.aV.bV.cV.dV.eV.fV.gV.hV.iV.jV.P. s; ~x.4  z3 F! ST g=.3X 0< |G  W sJ P' +& s< L7 `! km }  so 2c I( aB Oh T] V, )8 !8 o' :( 7] P_ ;l.P_ >g O. kV.lV.#G mV.nV.oV.+o.pV.qV.rV.sV.tV.dG Hc uV.vV.wV.xV.yV.@G zV.AV.Uh BV.CV.DV.EV.FV.GV.g' HV.r3 IV.JV.MJ WO JV.K; |P.:^ $6 u8 t8 u8 4h.YI }r cI KV.yv ik LV.MV.NV.OV.PV.QV.RV.SV.SV.SV.TV.UV.VV.}).WV.XV.Q;.R0 s}.Z).&N 06 E3 KB b! 5$ YV.@z.z0.8* |1 |1 l! o[ '$ eA.'$ '$ 3  *y. / ZV.Ah :$ 9. )K Ix UB r!.f| `V. W..W.+W.@W.#W.lQ.$W.~).%W.&W.*W.=W.-W.;W.>W.,W.'W.12.)W.hv dI ed &{ B*.'< |1 3_ &S l$ 1  K7 h; z. .f 8p j3 q} i1 MW kn rz +/ !W.~W.{W.]W.^W./W.(W._W.:W.<W.[W.}W.|W.1W.2W.3W.4W.5W.6W.eE.iF.7W.8W.9W.0W.aW.bW.cW.dW.eW.fW.gW.hW.iW.jW.kW.lW.mW.nW.oW.pW.qW.rW.sW.tW.uW.dO.*i.!T.vW.0v.cy.wW.xW.eE.yW.zW.AW.BW.CW.DW.EW.FW.EW.GW.HW.IW.JW.KW.LW.$K.MW.NW.fx.OW.PW.QW.RW.SW.TW.UW.VW.WW.|+ XW.#6 s..]/ )n 7~.YW.e{.e{.LF Q}.t4.k4.Z5.ZW.",
"`W.Yx M$  X.ee.H- .X.M^ +X.@X.#X.$X.%X.&X.*X.=X.-X.;X.>X.,X.'X.)X.!X.fy CZ J  YA *I.~X.,J i3.;b.{X.]X.^X./X.(X.^C.Jc _X.:X.>i.<X.[X.}X.|X.1X.2X.3X.EJ 6p 3[.3[.x' X^  ' #z w- >H jz M! uF 'U rJ $&  ~ 2m 0! I8 V} ~< I%.I_ P' N; (x 3_ &S )8 *+ )8 ;4 _2 O_ s} .4 9a.*8.cI ff 4X.}S._p dG 5X.6X.7X.8X.9X.5K [h 0X.aX.{Q :'._h H; bX.cX.dX.Tm.eX.Hc dP fX.gX.hX.!X ZH iX.jX.kX.lX.d3 3y (r CJ t8 rz Y; Bz iQ e3 mX.Op.nX.oX.pX.qX.rX.sX.tX.uX.vX.wX.qX.xX.-@ yX.zX.AX.BX.o:.CX.BX.DX.<3 EX.d[ v. J[ H| Hm =8 Y  t~ x' u~ #R 8O g7 j^  A GV GV pP <b.wS @f G# LN @5 V/ hA.FX.W/ Q( PQ.*k W{.Q}.43 GX.HX.4-.IX.JX.KX.LX.MX.NX.OX.D= PX.QX.RX.SX.GQ.l~ ni Dz Ip Ip 71 8O E  {%.YK A@ ID Xr }G q} %w M- 6k 7< Nl &p #3 ut.C[.uT TX.UX.VX.WX.XX.2H.YX.ZX.`X. Y..Y.+Y.@Y.#Y.$Y.%Y.&Y.*Y.oB.7W.eH.=Y.-Y.;Y.>Y.,Y.'Y.)Y.!Y.~Y.{Y.]Y.^Y./Y.(Y._Y.:Y.<Y.[Y.}Y.|Y.1Y.2Y.3Y.4Y.5Y.kB.6Y.0v.7Y.8Y.9Y.0Y.aY.bY.[T.cY.dY.GW.eY.fY.gY.hY.iY.jY.kY.lY.mY.nY.oY.pY.qY.rY.sY.tY.uY.vY.%5.wY.xY.yY.Tm 3y *,.8' zY.AY.,8.J= }. I# RR [& pL.1/.jM.jS.",
"BY.CY.dK _@ 9& |*.DY.EY.FY.GY.HY.IY.JY.KY.LY.fP.MY.NY.OY.PY.QY.RY.SY.pv b^ }@.6}.;^.-h.@,.3i.TY.ee 4{.^V.3t UY.VY._< M7.WY.yO XY.MO.YY.ZY.`Y. Z..Z.02 pP >Z AS -# 5e 5e 8<.Ia LW }$.n;  W CS n; P- j. |O.}  x@ x@ x@ a, H_ B- e] |5 #+ <  +& +& b[ !8 7_ $z Kp u8 ev +Z.Uz @Z.#Z.G5.%< $Z.%Z.&Z.^f *Z.)7.2` <6.:p =Z.@E }T Pn.-Z.a; vj.4E HX.:& ;Z.>Z.,Z.'Z.&P dX.&b.)Z.ak sL 69.pz qz T# ^[ t8 m. #l `w ZO !Z.~Z._-.{Z.]Z.d4.^Z./Z.(Z._Z.:Z.<Z.-V [Z.N;.}Z.O;.|Z.r,.}2.1Z.2Z.9M.3Z.4Z.5Z.[< }_ +0 { .h; p~ Ab.l( L: jn Kk 91 qv Y^ |L uC Uu {G It )g Tm _< rt bt hv $^ l4.7~.f| F0.6Z.|< 7Z.bA 8Z.9Z.0Z.aZ.bZ.cZ.dZ.eZ.fZ.gZ.hZ.iZ.jZ.kZ.lZ.mZ.Nf x0 &8 z3 *4 -a vS M: c7 w[ 2# '$ sT 81 QQ S, 4r D- ;p 5H ,9 PM ~F.nZ.oZ.pZ.qZ.rZ.sZ.tZ.uZ.vZ.%R.wZ.xZ.X(.yZ.zZ.AZ.BZ.CZ.DZ.fE.EZ.pB.dH.FZ.%K.GZ.HZ.IZ.JZ.KZ.LZ.MZ.NZ.OZ.PZ.lZ.QZ.RZ.SZ.TZ.UZ.VZ.WZ.XZ.YZ.ZZ.`Z.>L. `.6w.6E..`.+`.@`.#`.$`.BW.wR.%`.&`.*`.=`.-`.;`.>`.,`.'`.)`.!`.~`.{`.]`.^`./`.(`._`.dT ~0.:`.<`.Gn.[`.}`.Lx 0r )4 _< |`.&,.vK.1`.2`.3`.97.S< *! Nf.4`.5`.",
"6`.I@ f7 ^;.V(.Y;.y3.r!.nz 7`.8`.9`.0`.a`.b`.c`.d`.[=.s7.e`.f`.M1.S! 1` hN G6 g`.|o >| mr h`.X! i`.j`.wa 'i k`.l`.k8 iY C3 m`.yJ n`.o`.p`.9X.Z~ 1:.>p f< (h.`Y eB H~.N_ SQ AU ky G! F, (P ,+.K  s[ Lx.jm }  x@ }  I8 4_ a[ r5 z4.D* &+ 8! ]_ (  x0 E| Mp.U- B6 ([ 5S q`.r`.s`.t`.u`.hX.^-.yz 5' z# oz ($ QT !X YH '_ 8j.v`.FI.4i w`.$[ vx x`.pQ.y`.2`.o;.z`.5S.A`.M0.B`.C`.q3 ]Q D`.V). V iQ pa Bz Bz y<.#6 E`.ft T/ F`.G`.H`.I`.J`.K`.L`.eQ.y$ M`.N`.Ca.#).O`.P`.N;.Q`.R`.S`.-).[2.T`.'r U`.yY.:G x[ n' a^ H| +$ y. y. dI dI PF @: J[ )$ Uu S, {/ }^.;[.V`.W`.Ad.uz X`.],.]' Y`.n, 7Z.Z`.') ``.[~.gX.  +Rx . ++ +@ +# +$ +% +& +* += +- +; +> +=3 z. H..Ip G| 6, j3 }G 5  ST ~| i; @z x~ HM L[ 1* ]/ z3.)E , +:G W  ' +) +! +~ +{ +] +^ +/ +( +_ +: +< +[ +} +| +1 +2 +3 +4 +5 +eE.8W.JM.6 +XS.7 +8 +9 +0 +a +b +c +d +e +tW f +)) g +h +i +j +k +l +m +n +o +p +q +=i.~T.3u.;A.r +s +t +u +v +w +x +y +fY.z +A +B +C +D +E +F +rH.G +H +I +J +K +L +gT %,.>! %,.T[.~0.r- _3 /; `] w8 kv M +N +O +P +Q +R +n^.S +T +U +V +W +",
"n%.tF z] /* @f )g n[ =S U. %< X +Y +Z +` + .+TB Z! ..++.+@.+#.+[V Al.o' yB OC.~k.Hr $.+45.%.+p9.~X.&.+{' ^C.*.+=.+AJ z4.>f.L+.yq.-.+;.+>.+6S *f.vi.EW 3X >%.sY sY >H ,H ,H =M BU |G F, *X 11 }@.#~ xd.1( x@ Z, I8 f%.%F.q0.,.+[z sa.H8 S_ y] 7, w0 um .4 J: QB Dx '.+).+xX.]Z.!.+~.+{,.^^.fP z5 {.+@-.u$ h$ [6.].+aX.^.+k~ ^.+/.+(.+I=.EQ.)p Bx._.+/^ k| N& 83 Uz PT P3 =.+ZH :< W`.Z).l~ v8 p< IH Bz IH IH e~ %: !}.:.+<.+[.+}.+|.+1.+2.+3.+n;.K* 4.+U( 5.+Q< iQ.6.+7.+8.+9.+0.+a.+hT.aS.b.+r% 3>.Df d* 9  kn -5.sO.o& '9 L# c.+8S M$ QQ y[ M. N* d3 {|.b.+d.+e.+ev 3y q< f.+q# :C 5Z.g.+h.+i.+&m.!i.j.+k.+l.+m.+n.+o.+p.+q.+r.+s.+t.+u.+v.+D`.[p Ff Gp Yr E| 8p 2f L: 5x .r.ey &S gW QN GS )n )n fh .6. d.w.+q& {S.x.+y.+z.+A.+B.+C.+D.+E.+F.+G.+H.+n/.-3.I.+J.+K.+L.+M.+N.+LM.dG.O.+P.+Q.+R.+S.+T.+U.+V.+W.+X.+Y.+Z.+j(..'.`.+;|. ++.+++++@++#++$++%++&++*++=++-++;++>++>++>A.,++sD.eF..L.}H.'++`U.)++z +!++~++^w.{++]++^++/++(++!d _++*U.:++<++V;.,[.[++L= 1{ +! Zl CL.G+.F'.~z yp jX.h{.,m Y( M +N/ }++i:.|++BW y;.1++2++",
"3++#^.8w v- nd .: qr tv Ws.f| 4++5++$Z.T5 <B.pv 3  3k <6 6++7++8++ra.&S ~%.oS 9++3n .s.>4.!K P_ Wl !D.x. 0++a++b++c++!v Rp.d++~D yO Vx iX.Dc e++f++f=.w} d& |z sH 9w 9w 0B 0B A- F, d .!H oz.Z, l; }  ~< P* ![ !P p' q_ '@.bx )8 7$ +[ y]  1 a' nd E! qP |# qK.g++h++OO.i++j++-V p>.q! k++l++m++n++o++F( {|.> +p++q++r++}k g' wV.g' g' s++t++ki.u++}-.v++2-.1-.9I w++BJ.4i ]' {0.x++q6.IV.sk.U* >a 4a y<.{r tQ KJ y++z++A++B++C++D++Fc E++RF F++D# t4.&' Sh G++Qz H++I++J++K++L++M++N++O++lM.;{ P++-& )B =8 QQ Q++R++KH.#] B: J<.4O w; sQ As G(..z.Vm x`.8-.$w 6s.([ kI #k j] *[ (. S++T++q3 Vx k~ =Z.U++V++W++X++Cq.Y++Z++`++Cq. @+X++.@++@+sO @@+yy.~8 g; Gh RB o. .Q +,.WN 3[.aS 2X ,o.#@+'n $@+~A '-.F+.V5.%@+&@+*@+=@+-@+;@+>@+,@+'@+)@+!@+~@+!z 4.+{@+o/.]@+^@+/@+(@+_@+:@+<@+[@+}@+zU.|@+mY.1@+2@+3@+4@+5@+6@+7@+8@+9@+0@+a@+DX.b@+c@+d@+e@+f@+g@+h@+i@+j@+k@+l@+CZ.m@+n@+o@+,K.[J.p@+q@+'++r@+r@+s@+t@+u@+v@+w@+x@+y@+mJ <'.z@+'<.A@+B@+C@+D@+E@+Zl ;! I2.|7.u2._[.F@+>! G@+B% %| P| 8+ d' h$ H@+%@+!k `{ @@.Z0 I@+w{.",
"J@+O^ :V (Z dd {G [d ,^.>E.G3.D0.8| w_ K@+L@+k7 &>.9* M@+N@+O@+P@+SG.Ha a] (+ p0.<|..r.uC Lb [d [d oA 2; Q@+R@+S@+_!.)h LY L` $Z l. 9<.06 qb T@+!_.SO 5_ &w |z R4.M! B- 6d j& ue xB s( d#.U@+Z, ~< so |p Y, j&.(X {9 k! VL @+ M_.L_.gh =K !i ~4 +$ #p |# MN -R uQ hf V@+W@+X@+Y@+q>.Xm />.'C AR CA sE :@ Z@+`@+ #+*n .#+.#+L~ +#+L~ uc '_ aX.{u j^.fj.YW @#+bL.`T.##+$#+%#+v] K1.v# {8.c. @6 k8 B( dv O: d~ sz 0A &#+*#+=#+S'.-#+;#+gX.)p >#+JJ f| ,#+X> '#+)#+!#+~#+I++r.+{#+]#+^#+/#+1T (#+Dc %S :[ r' 3  HM <J _#+:#+6) <#+J<.O. .: :5.oq P+.X> [#+}#+|#+1#+N* !_ ^_ &: H< 2#+3#+]S 4#+5#+6#+ok g+.Nm O3 7#+8#+9#+0#+a#+b#+c#+d#+e#+f#+g#+h#+=) %y yy..R.Q=.B,.+[ 5  Wm.=C.%I :Z R4.E] ~}.V&.i#+j#+k#+l#+!0.m#+n#+o#+p#+q#+r#+s#+t#+u#+v#+e$ |> w#+x#+y'.y#+z#+A#+B#+C#+D#+E#+F#+G#+H#+I#+J#+K#+L#+M#+N#+O#+P#+Q#+R#+S#+T#+U#+V#+Kz.W#+X#+Y#+Z#+`#+ $+.$++$+@$+#$+$$+%$+&$+*$+,A.<J.1J.=$+-$+;$+>$+,$+'$+cx.)$+<s.!$+~$+{$+]$+^$+/$+._ ($+_$+jM.:$+<$+I8.I2.., ., :8 +h [$+}$+|$+7^.qL qL 1$+'4 gQ.JR ^y 2$+3$+4$+5$+dS.6$+",
"dE #^.i^ g] %8 7$+:2 'I vC )^.3O pc.Z0.8$+Wv.%0 't fV G! 9$+0$+ki @p.a$+<+ a] xX +&.]K ]1 Ss.]1 'Q sQ {/ OL b$+c$+d$+,#.d++>s e$+:V ~4 S, .0 |L dK eK ub 'G 1G 9w 1z # ._A :I 51 |G ;M C#.0  D. T- }  V} Z, q( E, lu.k! '@.>G.7$ 53.f0.f$+dM q} Kk K: |# i< N: _k xz No w].g$+h$+i$+MH 7!.j$+%t Zz kr Dm 8j.k$+l$+Bx.|k m$+Ep |k n$+WO.k).o$+!p Tt p$+9V >c.7K @G q$+V7 r$+s$+#Q +^ t$+r* %| ]L 7k e~ sz d~ Zt 8t u$+v$+w$+x$+D++y$+Sh *b.z$+wz ;2.a5.A$+^-.B$+&a C$+D$+E$+F$+G$+ .+H$+:.+:* bf J[ rb LW EU Jv I$+J$+K$+N).u% n3.:; F( _c.[# ({. 6.L$+M$+N$+O$+&: *6 Ch b. S& zf Z,.=] CH 6i E`.ev [r Tf P$+Q$+1h.R$+e0 S$+ U.T$+U$+2` p++/d D|  / ]_ Xo zy.V$+I*.z* 8J 8x )E._C.t!.&>.Gf.W$+X$+Y$+U@ V;.m] Z$+`$+ %+.%+WL.+%+o +@%+#%+$%+7a.|7.%%+&%+`5.*%+w].hT.=%+-%+;%+>%+,%+'%+)%+!%+~%+{%+]%+^%+/%+(%+_%+:%+<%+[%+}%+|%+1%+2%+3%+'; 4%+5%+6%+7%+8%+9%+0%+a%+b%+c%+WL.d%+3z.lx.e%+f%+EW.q@+g%+h%+i%+j%+k%+dB.l%+m%+n%+o%+w6.p%++; q%+<$+r%+-! ic f4.., I8.%%+., :8 E@+[++3< Fn.== _< WO b3 rc oc s%+t%+u%+Z5.v%+C9.w%+x%+",
"WL n#.dA l8 U- 8w Fx #R rb w~ Vd.x} 5(.7i C7 BU tH 3c o6 y%+z%+L>.o'.<5 T^ '[ k5 1X Ab.5( l( }G X^ 4'.Q# A%+B%+VO.C%+{Z D%+9c.|G o; Ez P#  ' ba 5E w} SQ tV G7 ,$ $^.r_ G7  7.'# a< b] #) b< x@ V} ax '[ |6 h& [@.E%+F%+q0.H<.53.G%+gh ./ H%+L: Ot @3 )C [n X^ i< R&.|* [* 05.k~.`H z( Y; +f I%+zy.y* J%+K%+HR l6 L%+5f {p M%+M%+M%+|k |k |k |k m$+O++N%+Jj zV.O%+q`.ff P8 j=.sd.P%+Q%+;[.E: R%+(* ;h ZO iQ E`.bt Ax j~ gn 3E L$+S%+T%+@o.Y).W; :C U%+V%+=l.zz #;.eX.W%+FN bj.X%+Y%+Z%+:* ]4 #p 8O ey l#.3( @R `%+<# yY.QR '{. &+.&+_$ m7 e| +&+@&+#&+$&+%&+Lc !_ @/ &&+*&+=&+-&+;&+JV._g.#k sz yQ.<r 8t :f >&+,&+}k  0.*b./f &b.'&+)&+9V.l~ .| |^ 1S N$ t8 tz <@ rz ;~.oU /3.sF n` BQ 8x !&+ci.-'.W{ NO ~&+{&+]&+^&+/&+(&+_&+:&+<&+[&+}&+#P p3.|&+1&+I@+eQ.2&+3&+4&+5&+6&+7&+8&+9&+0&+a&+b&+c&+d&+e&+f&+g&+h&+i&+j&+k&+l&+m&+n&+[; {5.Zs.AJ.o&+p&+q&+r&+s&+t&+u&+w +^R.v&+=M.w&+x&+nC.tb.y&+z&+A&+B&+C&+D&+E&+F&+G&+H&+I&+J&+SR Z5.K&+L&+M&+o;.e4. |.gc U5.U5.W{ fc %%+., I2.N&+O&+P&+Q&+<< :C 13 ~,.K* &[ R&+S&+:_ i$.cL T&+",
"~P R..&S @$ @$ O# d-.{R .3 !B s' R/..I ~x.VT }$.Qb ,8 Qq gh.U&+WC.LE.75.WU a, #~ gy Gh 2f o. && +1 n' <6 V&+W&+W&+X&+Y&+~Z L! ~D '8 O# O# 0$ OF Un.e] r' 21 J_ T] fN &$  d FR U} jx kd 4_ I8 x@ V} ;8 ]< YQ lm )U b] Sb Z&+`&+A[ Y]. *+9] k$ L: }G 7O };..*+Tv.Vn.*9 Ot |# J: #p E! $p A5 $: <[ (P.J*.+*+@*+#*+$*+Ln.wc %*+;.+&*+{p **+m$+br br vc At =*+-*+;*+>*+,*+S/ [; 0A '*+;X.[P.~+ C` ~+ E: ~5.TB )*+/.+!*+~*+{*+c1.]*+^*+/*+(*+_*+:*+T0 ,y <*+[*+V/ 7( 0S.}*+b8 |*+qc c8 1*+t$+/C 2*+B6 6!.Q . W j..dA )$ G0.3*+4*+5*+kc 6*+Zy.7*+8*+Z:.9*+0*+a*+b*+~/ Q[ 0n w.+c*+d*+VN.{,.Bh u8 IH e*+e*+Lp f*+g*+$: 5N 9t d3 >U.jX.W`.h*+i*+Ad.[r y*  / /< R# #a +d 4(.&[.>p =u 92 <I j*+9S k*+l*+m*+n*+o*+p*+q*+r*+s*+t*+u*+v*+w*+x*+y*+z*+A*+B*+C*+.G D*+E*+]Z.cT ).+F*+G*+H*+I*+J*+K*+L*+M*+N*+O*+P*+Q*+R*+S*+T*+U*+V*+W*+X*+Y*+Z*+;A `*+Ls. =+.=+Eb.+=+@=+#=+$=+%=+&=+*=+==+-=+fR.EA.;=+>=+,=+'=+)=+!=+6t.~=+{=+]=+^=+/=+(=+_=+J5 2~ :=+<=+'( &^ [=+o;.[=+H8.H8.U5.., G2.cj @}.h4.%,.}=+!-.b^.5>./8.S0 %~ <3 9(.|=+<3 1=+2=+Am ",
"Y2 jx o[ =y.U' jz q; q; ,H 'G yp.jY !B 2>.&w ~D G, Qb /V JK.U&+3=+OE.2( A. W} Y} ID 9A -P o. @[ =y.&4 om 4=+5=+5=+6=+7=+8=+pe.<V 2F d] |5 r5 !v q' 6d rV ~f.U} M+.CR (m A. xd.aw ;8 8f T^ x@ }  }  `, Tb ER i& eS p' VL 9). r nm Y].Z4.T8 m` =# r} 7O O2 W~ Gp.7i [| }| Gp.:W y' xk ]/ (* '4 9=+0=+a=+S4.b=+c=+d=+Ln.`T.%*+e=+f=++G &*+**+**+**+Jj M%+=*+g=+`m h=+FY./X.;{ HL i=+}=.IH /. yx xx hv MJ d:.j=+k=+l=+m=+n=+l{.o=+p=+q=+r=+s=+t=+u=+R&+@^ vk _W x3.d!.[;.@f n[ )g G0.{4 v=+w=+x=+46 rT &Z A$.C#.G, 5_ xS +$ 9n y=+Q{ z=+A=+B=+*! C=+D=+E=+F=+G=+aQ Cz H=+We.I=+J=+V{ !|.E`.}f px Ft Lp (>.K=+e*+>' &9 nd TO 9a.sk.%| L=+M=+Ha.Tg.sk lz N=+=6 `/ x1.j_.Ik.zs G* JQ ||.w$.Ha Kl.O=+fT P=+5/.Q=+R=+S=+T=+U=+V=+W=+X=+Y=+Z=+`=+ -+.-++-+@-+#-+$-+%-+&-+*-+=-+--+;-+>-+,-+7N.'-+)-+!-+~-+{-+]-+^-+/-+(-+_-+:-+<-+EJ.[-+g=+ p K8 >^.}-+|-+j;.1-+2-+3-+6y.4-+5-+6-+7-+8-+/z.ev.-A.9-+0-+a-+b-+c-+d-+e-+f-+g-+h-+i-+j-+g3.6~ k-+72.l-+m-+`X o;.n-+dc w< V;.w< w< ec U5.T;.w< V;.W;.o-+p-+`X  ] q-+`y.r-+j8 s-+@' 1B.t-+!b.",
"/+ o5 P..^u jz f* Un.rF &w 51 <@.{x x- b1.u[ AB Qb -$ K  u-+v-+!..oe.ZJ S] V} aw >& C* =I =I 9$ ^w sH q7.w-+x-+V&+O/.y-+pq.vO p~ s5 o( B- q' :| |G ue 1F -< FR @q xj xj Vb wj A. aw FR T^ @) }  }  ; .LM *F (X z-+[X @h.A}.A-+.r 3v i1.jV k$ D  i< :W .*++&.W~ :d 6e 6e W3 Tv.kU S, Ym Ah ux s@ Dg.50 %b.B-+C-+D-+E-+E4.F-+~u F-+~u G-+G-+G-+H-+I-+ n J-+K-+L-+&< }~.<* P| -6 M-+N-+Qh Hx <B.hv S. )i.O-+WO.Ic )b.P-+Q-+gc.KV.R-+S-+T-+U-+V-+W-+#P m* X/ B6.yi.0r.Jt Pk vb mP jR X-+Y-+Z-+`-+}1 hy  W 8P XQ b1.~G.&2.;K >J ~{ fc x). ;+.;++;+@;+#;+$;+%;+&;+#0 m! C}.w.+Y> *;+=;+FH }^.-;+pp 4| :g.;;+sq 0[.Q&.b# T[ V& @f $f Tm ak 'U.UY.>;+6#+/<.,;+r>.l4.';+{> );+Ml Hj.{R $^.`; q/.!9.c0.!;+~;+{;+];+^;+/;+(;+_;+:;+<;+[;+};+|;+1;+2;+3;+4;+5;+6;+7;+8;+d4.n&.4&+9;+0;+a;+b;+c;+d;+e;+f;+g;+h;+i;+j;+k;+l;+m;+n;+o;+p;+K' eP.q;+}^.Wl r;+)$._^.s;+t;+u;+v;+w;+x;+y;+z;+A;+B;+BA.C;+D;+E;+JA.F;+G;+H;+I;+J;+K;+L;+HJ M;+u%+O< N;+O;+P;+N< <$+Q;+R;+H8.K5 W;.S;+-f >d.%@+)@+R0 .'.Q +oA.T;+U;+V;+x;.X0 h(.86 )! W;+X;+Y;+1< ",
"nS ; .p5 31 rJ ;$ ,8 G. Sb.ER i& (X p5 b] r( eS eS p' Z;+-D.oY )v `;+z0 V} }  T- ~h z2 @+ H<.DR G. (X  >+.>+Y4.+>+K_.@>+#>+mm P- K7 N; KW KM {9 ~[ NY 1@.sJ *G so }  so so so 0! xj YJ km T^ |6 4_ jx ]< 5[.eS Z;+/x _L =+ $>+aD %>+ P Yl.MW vS 7O 1x +&.Iu.!y &>+mp &0 sa 7e g* oA ^5.q* v7.6c.(#+Pn.)*+U7 mV *>+=>+->+;>+yj.yj.yj.~u ~u G-+G-+Jj 1y  n 5f >>+IR ,>+y0.To Rm PB $f B< bQ 5. MB '>+/-.-] )>+!>+~>+O8.[M {>+]>+^>+/>+(>+_>+:>+<>+[>+7( }>+=,.=,.PM ]G ^I Ql _G Yo.|>+1>+2>+3>+ 4  0 rJ /P `J (9 W4 u} Z  Vo 4>+5>+6>+7>+8>+9>+0>+a>+No.b>+c>+d>+QQ mq e>+f>+g>+h>+f{.~/ A5 Ma 6(.AH 6(.6(.i>+i>+i>+6(.5p D0 @f +5 j>+k>+l>+(Q.m>+n>+g:.|3 <. o>+p>+q>+,m r>+o' j5 i+.R4.H7.s>+O&+`* t>+u>+v>+w>+x>+y>+z>+A>+B>+C>+D>+vX.E>+F>+G>+H>+I>+J>+K>+L>+M>+N>+O>+P>+Q>+R>+S>+T>+U>+V>+c&+W>+X>+Y>+Z>+`>+ ,+S-+.,+EI.ar dt iX.]|.1| Wv.BV xp.+,+@,+#,+$,+%,+&,+*,+=,+-,+;,+>,+sE.,,+',+),+!,+,`.~,+{,+],+^,+/,+(,+_,+Q +:,+Y0 9W $}.he =<.tK.*] <,+[,+J* J* J* H1.~3 K1.C% },+|,+'Z.3`.1,+D< 2,+=k ,w `j.3,+P^.<y 4,+_0.",
"g& p$.b] Qb Q .'# Tb m; Z;+Z;+r#.FW )@.Tb j..Z;+Z;+Z;+5,+X..jZ ! .$m.'B.Y, l; P* !P G. E%+$m.r#.E, d#.6,+7,+8,+9,+0,+a,+A}.>G.(x (x /m P' Qb X..n+.{9 a7 a< *G by Dn so  f 0! ro 0! xj xd.^m .U a[ VL ,< o` R3 T} {D R/.%K b& -K 8, ]* 3r z[ 6D V3 b,+}n c,+=b.mp =9 =9  u *u rA dd $a d,+e,+pQ.Ax }* fv F: r>.M' 9I %*+Kk.f,+g,+f,+F-+yj.h,+.n i,+j,+Ep k,+ar Hj l,+>6 v0 c~ bf 5;.`-+7; m,+gp n,+j# z`.o,+XV.q^.p,+q,+/S r,+s,+t,+u,+v,+w,+x,+nc R( kt y,+Ug r2 ]G `q.Ql Vl Uu.z,+A,+B,+C,+D,+IB sH #t.># aS AU r~ sT &3 at `,.W-+E,+E,+g|.F,+G,+H,+T. lb cK Jv zs 0T `-.Q&+aM.+a JJ 5;.-p Kl kq #f I,+]8 X-+19 J,+lI K,+F0 j, C` ;&+L,+M,+N,+!b.cL BW O,+P,+Q,+R,+S,+rS @[ C& K@.g5 T,+_d.U,+V,+W,+[& X,+Y,+Z,+`,+ '+.'++'+@'+#'+$'+%'+&'+*'+='+-'+;'+>'+,'+''+)'+Rg.!'+~'+{'+]'+^'+/'+('+_'+:'+<'+['+}'+|'+1'+2'+3'+4'+vm 4>++5 Y! Qr.1P 3G jd.5'+6'+7'+8'+9'+0'+a'+b'+c'+1o.{n.d'+e'+f'+g'+h'+3M.i'+j'+k'+l'+m'+R/ h$+e4.n'+o'++_ p'+q'+H+.r'+;2.x3.rk.!g.-5.Z/.AO ~3.~8.+y._C p# }8 s'+7-.t'+1A RD.<B.x; E^ A3.Y' Yu.A3.",
"pY ; .lm }W AB  W j..GW 5,+5,+$m.5,+G. a[ G. $m.}X ER &Z X..! .jZ Z;+Nk.}  }  P*  Q (X (X (X _| + .+ .7w u'+JZ v'+-X w'+>G.>G.>& oo y3 ,8 ER ER @S =$ /X >M S- so so so so }  }  }  }  45 f#.DR ,8 x'+]< `c r0.y'+~D bB RO <( x[ <( -a *4 3M y} =W Iw z'+Dt.Jq.=b.t; [| Vw.R0.`Q .$ ak A`.A'+&C B'+^.+F: C'+J2.D'+E'+F'+f,+ G `D G'+~u +G H'+0I `m u++I'+J'+/.+K'+L'+oa t_ .) _k }^.;U.{|.~Z.jW M'+N'+O'+WV.c5.P'+Q'+sQ.R'+S'+T'+U'+V'+W'+X'+^Z.Y'+<1 y6 Ug 0e #A Cs ^I .t.Ds $x.Z'+`'+ )+.)+>~ S, uj zB y- I. AU AN iy Dz !/ +)+m=+H^.u:.t,.Bm p8.uL k1 ]1 Cs 8< jR @f @6 LB $[ K; MH 5;.[;.,].=p A-.S,.5. @)+MB @)+#)+@)+c3 l[ VY.^C.Q/ $)+X).P'+%)+q,.&)+*)+=)+vh -)+P'.|S Q- R- ;)+lL qG Tk.LH >)+,)+')+))+!)+~)+{)+])+^)+F'+/)+()+_)+:)+<)+[)+})+|)+1)+2)+3)+4)+5)+6)+7)+8)+~M.9)+0)+a)+b)+c)+d)+Du.:X.e)+f)+g)+h)+pk Xh [; +5 jR Zo.nJ #s.h< i)+j)+NA.k)+l)+m)+n)+_E.^n.c&.1o.o)+p)+q)+q)+r)+6'+s)+t)+u)+v)+w)+x)+y)+,! z)+<U.A)+Kc.;o.zl.P. )' 46 pA z3 Ww Ip Mp.Zr .4 sc W. 4;.JV.kX.|E 3y ([ B)+C)+(>.Np.l_.1x };.MN ",
"jL e%.I@ GQ x2 D6 )U a* 5[.5[.m+.5[.Co YQ `J m; #h.m; LM z-+*F Z;+rz.xd.so so 1( J  !U !U Co 5[.5[.VQ aO r0..+ a! Y. a! .+ .+ .+ .+ !1 j! J! E, sJ cS ,+.jN `$.@t @t @t 45 so ax xj YJ &$ A^ j..k! 9).b^ )P k! {d.JW z4.5d D)+Df x[ #R Ez M: M: 6D 4'.E)+Vn.[v i< 6D %3 .y.@f d' %> U$+lW F)+G)+H)+].+k~ ]a v'.$G n7 F'+I)+I)+I)+J)+H-+m$+YH j~ j).3^ }r '4 3y l~ >6 cv .) Q[ /w 0A 7; y; :-.K)+Gc d'.L)+M)+f# N)+}' O)+P)+Q)+R)+S)+T)+U)+F!.V)+n&+Hx  y.Tt.Tt.%x.Cs ^I kS _G W)+X)+Y)+Z)+`)+ !+6p '# v#.h#.qC Ba ;H %~.Ua.|9 vk !A .!+/~ +!+5' ^C.i$ m# Ss._G a_ sQ x( Y1.@!+O[ kL.$f +w.#!+$!+%!+&!+*!+om.z; D!.=!+u7.u7.F4.F7.[6.wj.^Q -!+;!+>!+,!+'!+A=.)!+!!+~!++' R>.o~ hd.z..Yz *B.{C .4 *,.0. 3g.A% w.+{!+]!+^!+/!+(!+_!+:!+<!+[!+}!+|!+1!+2!+3!+4!+5!+6!+7!+8!+;[.9!+nY.m@+9)+0!+a!+b!+c!+h6 d!+[^  *+e!+f!+..+K*.g!+~5.bf ]G h!+i!+Vf.~C j!+k!+.`.l!+m!+n!+o!+p!+q!+d&.1o.r!+@,+s!+t!+u!+v!+w!+x!+y!+m'+z!+%< *> _$+A!+B!+C!+D!+E!+{B L, 3* 8!.2X $y.@{ yn kR tO.G& Lp QB tQ Xj `| 3y QB Ft 99.,i.N2 F!+G!++t.[0  !.",
"WL ~P tF !U )U m#.h& H!+i&.f%.f%.UZ '[ YJ S^ f%.mJ.mJ.)Z I!+J!+%E `, 1( so }  so C*.X, 1( W} W} I%./+ c^ I%.Vb '#.Uq jm YJ YJ (m Q@.{< jL (+ ZT ^@.d%.d%.I  x@ Dt |p ~< ~< 1( g%.ZJ a[ j..R3 [X Z;+F%+k! K  D[.vO ~D J7 4F M  Lw.f7 ST s; Zw Zw 6D Uu Ye.e7.Gx ]|.3*+_< xx K!+L!+M!+N!+O!+P!+Q!+R!+vv S!+T!+$> U!+$3.F'+f,+V!+Oe.2'+o$+W!+U# <r  b.{P.Q=.qK +1 && hd |f j3 9, I| |P.Tm X!+Q0 y;.8,.Y!+Z!+Mo 9(.`!+ ~+sx .~++~+@~+yh #~+$~+%~+Fc &~+*~+8g.rC H& }F PQ ^5 OQ :b.2P 6^.=~+-~+;~+>~+l( Co D#.C6 n` U7.% .]9 q/.hy ,a Xm.m* {8.^^.d9.ck =S Y! `x 'Q 'Q `x T[ 5p Qh =P Ph m# p).,~+8k LN Ax '~+CT )~+!~+~~+{~+!~+]~+^~+2` |k |k /~+M$+(~+w{._~+;] :~+<~+Zy.U`.[~+k; 9! T- BZ ^u #z l( e~ NJ /y }~+|~+1~+2~+3~+4~+5~+MD.6~+7~+8~+9~+0~+a~+b~+c~+d~+EX e~+f~+%9 a& g~+h~+{K.i~+KN.j~+k~+l~+m~+Q; {D ei.ta.:  0[ ,P./l n~+y, Wj.*F.o~+@C.p~+q~+r~+lx.s~+t~+u~+v~+w~+x~+`z.1o.y~+z~+A~+ay.B~+C~+D~+E~+F~+G~+H~+I~+J~+K~+L~+M~+N~+O~+%N.#a P~+.0 RQ YK Q~+q/.9w gR Ra.eV Dz 4a :/.HH #: v8 Fv Jp &8 b[.R~+(3.Yx.S~+P3.V' ",
"b, h! a] ,# tF q( pY )[ )[ x@ Z, x@ }  }  }  }  }  }  so V} Wb V} Wb so so so so }  }  }  }  so so }  V} V} so so so so so }  }  }  }  }  x@ x@ x@ }  }  }  }  Y, lA T- u#.u#.J  D6 q5 Q .T} ,8 k! Qb q' ]V KK.F  JW x- v' Vd.[o O! 5x X^ O2 T~+y,.HM e=.O  U~+05.> +_.+V~+W~+X~+Y~+Z~+`~+ {+.{++{+@{+K-+(.+M' q++>>++G yj.Oe..8 #{+LB pi.L=.,' :k Lx.[  'g -G 3, g; )6 ov G| {8 ${++5 3%+%{+z;.&{+*{+N++zV.n,+EQ.={+T# %f ^>.-{+:f :* ft @)+t$+`B `f ;{+^A #k.%x.kb  w 1C Cs F^ l# >{+Z9.,{+4>+pA hj.Y%.y..yB '{++{ R2 ){+61 Uu L, 56 x; E- n! y~ A( k( j9.Ss.Ss.Ss.$3 }B.@f z5 m# $~.Uq.!{+T. ~{+et #{+=g.{{+]{+^{+/{+]{+({+H)+@G _{+WO.W#+Y2.:{+<{+[{+}{+|{+]*+[#+1{+N=+Zq @~ S] f-.tA ^K 3* #k _5.~_.D'.2e 2{+3{+4{+5{+6{+7{+8{+9{+0{+a{+/a.b{+c{+d{+e{+f{+'X m~ RQ  s.g{+h{+i{+j{+k{+l{+m{+n{+o{+D* o+.J7 <V !8 qK T, Hh /u 3* h* p{+q{+r{+s{+t{+u{+|t.v{+w{+x{+y{+z{+A{+(n.B{+C{+D{+A~+E{+F{+G{+H{+I{+J{+K{+L{+$%+qQ M{+N{+O{+x| 4>+>* h1 ;* 2* x~ 5e Xw EB dm 61 z|.MN !g P{+9| F# u0 sc {r Ip A'.+3 61 61 P3.~G w' w' ",
"C, cy mA C, I  P* )[ x@ )[ x@ x@ }  }  }  }  }  }  }  }  V} }  }  }  }  }  }  }  }  }  }  l; so }  l; l; so by  f  f 0! l; }  so so }  x@ x@ x@ x@ }  }  }  }  Y, cy P* P* nS I! ER ~[ `s uj z2 /m [z bB Q{+yp.F  Aa `2 F  oc.tr.8  G* X^ 4'.t6 |M sr s3.R{+S{+T++T{+U{+V{+:N.W{+X{+Y{+>S.Z{+`{+ ]+.]+{w 8[ 1k .#+|S.;.+yj.yj.+]+fn.MJ Fj @]+Hh G2 Jo #~ #$ cB R] 6c Yl.6* )6 ^< yl.P'.Kc.#]+$]+%]+&]+*]+dP.uc 5i n~+q1 px C)+C)+f*+J6 J6 t$ {4 F0 *; +y Q! Ug Tr.PQ ^K 1C Rq.Yo.[;.@5 =]+-]+,* 01 4_ TZ WL jL XQ ;]+/b.Cu k_.]G Ws.kh.=x.Z;.<N &p n! rr j9.j9.Rt.Tu Tu w; @f 5p w; y~ jt e]. ~+>]+d<.*U.,]+']+)]+!]+~]+{]+]]+Uh.^]+uc /]+GQ.(]+#U._]+:]+<]+[]+}]+|]+_f %y `, X} S- w$.*w Hr Gv Rm e.+0<.1]+2V 2]+3]+4]+5]+6]+7]+8]+#*+9]+0]+a]+b]+c]+d]+~_ 1G sF A(.82 R4 e]+f]+g]+S>+7N.h]+m{+i]+=r j]+k]+A] |5 d* D3 +1 j3 |9 91 9e Js.l]+%r.Jm.m]+n]+x&+o]+IA.p]+q]+r]+s]+{n.DA.t]+u]+<s.v]+jE.w]+x]+y]+z]+rB A]+B]+7G C]+D]+E]+:-.+R J6 PB bf }# 6D r/.2'.[0 H~.!| Vq.mP Lt j1 P~+qO lt Cc 9_ Xr a[.NC.1z ~x.,H w[ B@ x' ",
"yu @) yu ^Y yu Y, Y, x@ }  }  }  }  }  }  }  }  }  }  }  }  }  }  }  }  by }  }  }  }  }  }  }  }  }  }  so by }  so by l; l; 0! 0! 0! V} Z, x@ )[ x@ Y, Y, T- :@.MT z..H  P* a] j..q5 ~D }$.F]+ta.=A Le.z4.uO `2 |5 |5 dA p; cd w~ RQ ,I %M <b.Zf T[ >~.G]+S{+H]+I]+J]+T$+K]+L]+M]+N]+O]+`{+P]+Q]+v/.R]+S]+dP.T]+->+;>+;>+e=+H'+U]+M' q8 [P.IH .) Ww.f, .~ Go %y ,6 r. t8 oa y* V]+3y y; #^ W]+X]+aZ.Y]+H'+WO.O,.n~+b8.b8.w5 C)+0[.K,+Ma X-+J,+2~./^.Z;.Ki.Z;.Mv a_ Pl Pk ]G N^.Q,.Z]+vm T. o).*+ I8 )[ nS P* ># wN 'M 0j.k_.mP Cm.@8 ]$ Zm.5r $~.m# Kl j9.Mt j9.Tu #3 AH n! w; #3 m# 7c.e].>]+`]+d<.cr  ^+.^++^+@^+{]+#^+$^+<.+]Q EQ./.+2t %^+#U.&^+_]+*^+p=.Kz EX.-6 gy >8 WU g! :&.CB Ld.:2 )' 96 =^+_; -^+;^+>^+,^+8Y.'^+)^+!^++=.~^+{^+]^+^^+/^+(^+$& _^+:^+<^+[^+@%.}^+|^+1^+2^+2^+3^+4^+5^+0D 6^+pe.e] Un._z O# D3 u5 {n M: 7^+{y )m.=k.|6.8^+9^+TU.0^+a^+b^+c^+=,+r!+<o.^n.d^+e^+f^+g^+h^+w]+w!+i^+j^+|,+k^+Q& m^.l^+m^+n^+YB Q,.)' .: K6 .) `z hs s5.A(.|;.12 :b.r2 Q_ *; W& li.=; Gx R_ o^+hs g5 q/.1z AU ;%.k&.|| ",
"}  }  }  }  }  }  }  }  }  }  }  }  }  }  }  }  }  }  }  }  }  }  }  }  }  }  }  }  }  }  }  }  }  }  }  }  }  by so l; lA {< #X T^ #X v3 hz |6 e%.0  ,& I  a, `$.`$.H  m$ H  hz Co  t p^+q^++5.r^+s^+8! #m.oo @+ >G.bx a^ A* G& G& Mp.s} mh.:9.Jv T[ b' t^+h{.x` &b.u^+v^+k=+Kh w^+x^+^{+y^+z^+A^+B^+~w C^+D^+E^+F^+;>+;>+/#+G^+WO.5S 6i `| .$ 46 H*.0M..~ 1_ 2}.Tx.}- g3 .[ )S I*.7p.na H^+I^+zp.J^+K^+L^+uc DQ.q1 M^+b8.w5 N^+O^+rd.T& pr Wy.K,+6).P^+|e  y.F^ a_ a_ 65.vb ]G .4 Q^+R^+R^+I0 'Z }  x@ x@ x@ 0O wN @s.<I As.mP Yu.Zj.Zj..5 j, 5;.9c I,+AH w; w; #3 .y.$3 w; #3 T& S^+(k 6. T^+U^+V^+$^+J^+W^+X^+Y^+Z^+`^+hr wV.QH QH ^.+lK. /+./++/+^>+@/+bj.)7.]Q -6 ,4 ~@.8f C. 20 Fu.32 Gv yJ #/+$/+9k.%/+&/+*/+=/+#,+-/+;/+p. Im >/+,/+'/+)/+!/+~/+~t {/+]/+^/+//+ I.9' (/+bC._/+:/+</+[/+}/+O~ uj I(.5F |/+9D ID _Q.fm G| -a V' tA Yx.AN nN 1/+B;+.A.2/+3/+4/+5/+=,+-,+<o.DA.!z.6/+<s.7/+8/+9/+0/+a/+b/+h_.R& v].zz OH c/+d/+m1 I'.R_ WB Q# v5 Gm )t &E tA x].7O 81 s. 8r &p e/+Dz.58.y~ Kk G& f/+9S $y.C,.>U 3'. A x~ ",
"}  }  }  }  }  by l; V} so }  }  }  }  }  }  }  }  }  }  }  so }  so so by ay by }  }  }  }  by by l; l; }  so so by Y, =G Q^ O^ J  C6 p[ =T 4- +S 11 0O 4- ,& {< e%.,& D, T^ p$.p( 3( 7D g/+h/+i/+T8 5] Sq .b.ix O* VL >& [- Jm Fh `n.2| -h 7j !K w; !n <^.h{.1N ZH {g.`a.j/+,&+k/+ .+yt l/+m/+n/+o/+p/+q/+r/+s/+t/+f,+F-+ n Tt /]+|E H'.7k bf I'.Xx 'S *) 4, +[ g3 Zj Hh T, H0.tr tr u/+I@.v/+w/+x/+)~+2'+uc eC G0 M^+y/+GU b8.4| cc.cc.od ti x=+E0 o6.`f o6.OM mP Rq.]G 7g.l^ M^+z/+A/+W>.SE.e&.x@ x@ x@ )[ v..B/+'M 1z l_.K, Zn.C/+gP Q2.j, [;.D/+z5 E/+$3 AH D0 }B.Kt Kt nL rd.F/+4].&!+b8 F7.^i.G/+H/+I/+Y^+J/+K/+L/+8[ I=.M/+0; ct `!+N/+O/+/U.@U.P/+Q/+qQ.R/+#: l' Sq 's |  zo S/+T/+I'.U!+U/+V/+W/+X/+Y/+Z/+`/+ (+.(++(+Js.]{.@(+#(+$(+$(+KP.%(+[z &(+*(+=(+-(+;(+>(+,(+'(+5W.)(+!(+~(+{(+k; [z ](+^(+/(+S_ [9 M=.Fm b; j3 )D ((+((+0# Yr _(+/n.BA.:(+<(+[(+c^+}(+-,+jB.^n.|(+1(+2(+3(+4(+5(+6(+7(+8(+vI.S( 9(+0(+<f z-.a(+B)+Kp pv r} Ot eV 8u 9S ~x.|x w' T&.%; ih !n 5;.kN.o| 6s.7k O: Jp z,.A@ P&.b[.As.5(.uC 81 ",
"}  ay b(+b(+0g b(+Dn }  so }  }  }  }  }  }  }  }  }  }  }  }  by }  ay b(+c(+by }  ay }  }  }  by l; V} }  }  }  }  Y, h! 0  oS xw.4- mT Y%.n$ 4- `T  Q tF Q^ q( J  ,# !9 [c.%E ~@.++ d(+e(+f(+@6.]n  ~ g(+jx ~@.Ay..b.Ho k#.T, Xx 9A L: 0z ot n! A5 m# c' h(+Lx qc TF <>.26.O,.B| Bx.r`.i(+j(+k(+l(+m(+n(+o(+p(+q(+V!+[-+S]+r(+s++dC ra %9 ]|.>a )S SB s(+pK {_ rm gQ 36 KB t(+7- NN I*.E*.u(+>6.v(+w(+|S.J'+DQ.:r  b.=: C)+'' -R 7p K,+Kr x(++a y(+@5 Wm z(+it M- Hv .A >4.8< ^< A(+2m Vj.;J B(+x@ x@ }  )[ E. k%.Vp.NC.4( $3 .5 C(+Ix sv l# *p D/+Kl z5 D(+E(+E(+}B.2* 2* ]1 Xv cc.%m.5. 8; F(+@#+^~+G(+]]+H(+I(+J(+,6.K(+;C L(+NH '>+M(+N(+O(+P(+Q(+i,+_{+k~ ]a r>+l' Sq Oh I( Ao a$+G!+y<.yc R(+S(+T(+U(+V(+W(+X(+Y(+Z(+)D.`(+=C. _+._++_+@_+#_+$_+j; %_+;9 [I &_+*_+=_+-_+0l.5 +;_+>_+,_+'_+ + I(.)_+no !_+d; ~_+{_+Q=.kz 9A EU ]_+K9.eA Xr ^_+]n.Yz./_+(_+4/+__+:_+<_+:r.<o.[_+}_+|_+1_+2_+3_+4_+5_+6_+~_.D# br.X# {/ S^+F/+7_+As.<P Ij.Fq.+3 a[.Pz.`9 *9 qA l< W# W. (* *< q< M^ /5.ck bf +$ Gv ,I 6D )C Zw #R Nt q} ",
"1w 8_+9_+0_+a_+b_+c_+V>.V>.@t l; l; by b(+d_+e_+f_+f_+g_+Ni h_+i_+j_+i_+k_+k_+l_+m_+n_+o_+b_+p_+b(+l; V} so so }  so @) N+.h! b, nA ^| dE dE ZU I  |6 J%.lm p' p' eS p' m; f#.~ .26 m..q_+G<.r_+s_+%r fM.%F.'Z z0 jx #~ Jo xy.N- 1^ 0-.-: :g.6| $: n~+WS =N Nc t_+u_+v_+w_+m1 g++Jk t_+x_+y_+z_+<S A_+B_+C_+D_+p(+E_+V!+[-+1y F_+:.+fv yL !}.*,.Xj G_+*3 Xx .f 36 kz Xx Xx N# t< H_+.| q. I_+Ek _Y  U.0I WO./]+TD /C J_+K_+Kr K_+kq .w.l* [*+h| L_+n&+M_+-4.)! x# A( 2* PM }F QQ K2 {=.:- Vb 1( Z, }  x@ x@ @) f&.N_+O_+P_+S* D(+Q_+R_+S_+T_+p).U_+*p E0 Kl D(+D(+$o.$3 Mt Tu Uu 4x x& od 4].{g.^Q V_+<6.QO.W_+'6.6I e0 X_+n7 S!+mX.{g.~a Y_+Z_+k{.nQ `_+ :+.:+EQ.a3 P: !8 .b.o#.vQ J. +:+@:+#:+$:+%:+&:+*:+=:+-:+;:+>:+!T.,:+T3 ':+<5.):+!:+~:+{:+]:+^:+o~ /:+(:+_:+::+<:+[:+}:+|:+5 +dG.1:+2:+3:+l..I(.)_+4:+>h .| }P.2P.sE 5:+kr 6:+Hq.-. s5.)D 7:+1o./n.~m.bx.8:+9:+0:+a:+b:+^n.Zz.*K.c:+d:+e:+s)+f:+g:+h:+X& ,; Yu.Tt.#k.&x.i:+2P 7i _f.DV DV r5.g5 q/.uV };.y,._k 5N 5N !~ j:+Xm k,  ( %N..5 7< $x.Qt.Pk kU [n Zw i< B6 ",
"k:+l:+m:+n:+o:+p:+q:+r:+s:+.&.wj S] t:+u:+v:+9q w:+x:+y:+z:+A:+B:+C:+D:+B:+E:+F:+G:+H:+I:+J:+K:+by }  V} }  }  }  V} Z, nS nS @) )[ 16 16 16 16 16 Z, X#.G. /x /x /x L:+F%+rz.Io M:+N:+O:+j+ P:+Q:+R:+Vj.Ch.mJ.c^ {< {< gz 9  Jp D| E( +*+K^ +*+i' +*+7p.S:+T:+U:+o8..:+V:+W:+g++Sf X:+B$+{>+@C Ur Y:+Z:+`:+ <+.<++<+K~ F'+Ep Ep g' TY [r O,.V# f~ Qv `).Zc G8 }^ 2k 4$ b! V, Lx.Q*.H( Fv ;6 -Z.b0 8[ @<+~c.H; (f Rh #<+@5 wx Ix $<+4~.QT.4U.@' %<+d|.p(.&<+*<++!+0!.bN >p Q! Uu Jm rk so }  }  x@ }  }  }  P* WQ =<+N_+_1 tI [C E^ `-+jP -<+D/+p).D/+#f z5 Y! rr rr ]1 [C 2| || ST RQ  >.qK.;<+.~+Tf nV k/+><+a- ,<+'<+)<+!<+~<+:h.{<+ux t_+Ne.]<+^<+^<+PH }* 3y sz r} |5 f#.gz U} u .h5 /<+6t (<+_<+:<+<<+[<+SP.}<+5u.(z.|<+C'+1<+8J 2<+3<+4<+5<+6<+7<+sa.[l. e.8<+9<+0<+a<+b<+c<+5W.d<+hD.2:+e<+O* VC.f<+b1 1S g<+Ej  -.2P.V$+[9 h<+Hq.i<+_f.~x.j<+`z.jB.rI.k<+l<+3K.m<+b!+n<+jB.c&.2c c&.d&.]n.)w.o<+Z8 pL EY.zl.Q! #k.Fz.Jy.@,.qq zN H9.l#.b1.;$ T2 T2 1z Np.5( u8 V# U# $| 1$+3*+3*+d[ /o %N.E^ k* #A ]G 2| l_.Ua.]c.c<.",
"p<+q<+r<+s<+t<+u<+v<+w<+:T ]*.:@.x<+y<+z<+A<+B<+C<+D<+E<+F<+G<+H<+I<+J<+K<+L<+M<+N<+O<+P<+Q<+R<+b(+l; V} }  so }  so Y, @) )[ @) )[ )[ )[ nS C, @) )[ !9 H. Do ti.y'+ti.L:+@h.}6 $f.S<+T<+U<+65 65 V<+.k J8 J8 0] H  H  U} >& E| sk ^h 0=+W<+X<+Y<+Z<+I@.`<+ [+.[++[+@[+#[+T,.b:.$[+%[+&[+*[+=[+-[+;[+>[+,[+'[+)[+![+|h.~[+H$+{[+)p Nc F: O,.O,.V# Zo G_+JB /< p. Ff |( ]Y vj [  u$.J2 u8 ^C @E ja ][+r{.^[+/[+q;+)7.R'+([+Zh Pp._[+e*.mf.:[+<;.<[+[[+}[+|[+1[+v%+^^.lt D6.7C Mt 2[+ f }  }  }  }  }  }  }  |6 3[+4[+<A ZA z|.Vy.n6.Jx T_+,~+#f p).,].#f z5 &8.K, Yo.`x %M 8c.4n 5(.5(.U& 6( Cr n~+([ f(.2y 8A.5[+4Q.6[+gr 7[+<.+)p ft 8[+;A 9[+Z| mX.g~ tx rx Xj 0[.*9 q5 !P q$ n5 B$.0[+a[+_4 b[+c[+d[+e[+f[+g[+MM.EA.mx.h[+=N i[+m! j[+k[+l[+m[+n[+o[+Zk.v[ p[+q[+r[+<F C}.s[+^J.t[+u[+v[+w[+x[+++ ]m y[+m' gQ sO ,;+z[+A[+B[+S=.l++C[+YK 6e EB D[+fC.^n.A;+E[+F[+G[+H[+I[+J[+iI.2c }  }  }  c&.K[+`! Lx.L[+S{+&[.+y M[+Ug N[+/D.h* Oy Od.iN R4.<5 $^.)#.e* O[+px k3 KJ [f uQ P$ IV.P$ k~.br.{5.E_ 1I F^ Tr.8c.z|.FU P[+^8 ",
"Q[+R[+S[+T[+U[+w%.V[+W[+X[+Y[+Z[+|p t:+`[+w:+ }+.}++}+y:+@}+#}+$}+%}+8_+&}+*}+=}+-}+;}+>}+W#.h_+by V} V} }  }  }  so 0] a, I8 V} x@ V} Y, %$.|c.I8 Z, q#.t[ >G.,}+/m '}+'}+)}+=r OY o..!}+~}+{}+]}+^}+cA.I%.I8 0] {< km Sq 2- JB /}+ P.(}+_}+:}+<}+v/+:}+[}+}}+|}++[+1}+2}+3}+4}+<f 6P.!a 5}+y` 6}+7}+NZ.8}+9}+0}+a}+b}+_{+c}+d}+LJ !~ ~5.3y v8 Dh Fp #[ y* cv F3.x0 !t e, po fN ~=.Xo v0 [f e}+,>+K(+ka Of DI.XO.f}+g}+Ur 6K Lz gn 3.+h}+6^ i}+3Z.j}+V6.k}+l}+m}+%N.8r [# nc.Jt n}+M@.}  so }  }  }  }  }  hz R%.4[+<A g`.Bt.o}+[N p}+ZB -p #f q}+D/+Q,.}B.n! rr Mt jd.3P s2 y].!| )C r}+-R QB QB K8 K8 /d Tf =Z.$3.lk )<+s}+t}+:h.NH }* u}+v}+w}+c3 LJ sd.s!.>a pv x' z- `T i! w$.j*+x}+k2.<c.a- y}+z}+A}+B}+C}+D}+EA.VP.E}+6N F}+dI G}+H}+I}+J}+K}+L}+hQ ~G =E iB 3H hE M}+N}+yB.O}+P}+ Q.Q}+R}+>G.]m Rb.7J G8 S}+*>+T}+U}+V}+4P.W}+X}+7O V~ |x Y}+oH.^n.Z}+`}+ |+.|++|+@|+#|+$|+2c }  }  }  c&.1C.jd Ao QY %|+z3.^{. y ]G Jt Jv || !{.lN M! R4.;$ BQ %>.'B eV C)+&|+/[ eC ([ Ch ev l~ Xh  ( R,.5;.E_ OM Ss.+x.z|.b[.GU -: ",
"*|+=|+-|+;|+>|+,|+'|+)|+!|+~|+{|+]|+^|+/|+J .08.lT.g-.(|+$O _|+a_+:|+n_+<|+[|+}|+||+1|+2|+3|+4|+l; Y, ~< so so so C*.'B.t$.%E ; .4_ `, `, g%.`, km km a*.x'+8v <z +h.5|+6|+7|+=r 8|+`8 9|+0|+0|+bA.a|+-T [  g%.kd ,< '@.8$ Zc TB Z< b|+][+c|+d|+e|+f|+g|+h|+i|+V!+j|+k|+l|+m|+n|+Dh !}.69.a9.o|+p|+PD.xv q|+r|+s|+t|+cp u|+Hj U# v|+*: v0 I: iQ Dh v8 W# sz O: md Jp Hm DU /Y f, -t /w w|+}* Ma.Bx.ej.x|+vc 1y y|+z|+A|+B|+D$+C|+D|+]*+X* '#+E|+F|+G|+^).H|+I|+J|+%N.>p !$.Ht Y' Cr _P.U=.K|+,P +L `, fN hW vf w#.Gu.5C L|+dm '| tw.$~.D/+p).So.#f _>.E0 n! rr mP ]G QN tr.^5 Wu u; [v M|+&9 N|+P: QB QB %: [r Vz }E O|+P|+s}+fn.:h.:* TD Q|+R|+S|+T|+jP @/.`*+s6 Ot As.|z J%.i! <+ k5 U|+V|+W|+X|+Y|+Z|+`|+ 1+.1+NM.6w.+1+@1+W. #1+{1 $1+%1+&1+*1+=1+-1+3* Pl mS =h.nd.jN.2V ;1+>1+,1+u[+'1+)1+!1+~t H(.~1++[ F3._g. #+{1+]1+x0.Hj v=+Ma F^ i* 4k ^1+nH./n./1+(1+_1+:1+<1+[1+}1+|1+`z.}  }  2c 11+!}+J_ Q- kv.7' z3.^{.i* [d {A `^ =W +K G_.-M ;g x- Qw.&w 3[.*9 -R LT >' P[ *: I| u8 @| 21+ih =P X-+rr Tu Zf 31+O2 lE l_.41+",
"51+61+AZ 71+81+91+01+a1+b1+c1+d1+e1+MG m-.f1+g1+f1+h1+i1+j1+k1+l1+m1+n1+o1+p1+q1+r1+s1+t1+u1+d_+}  Y, e&.V} ~< V} J8 hj..U .U r0.rz.rz.ix A^ .b..b.#f.gj.Io v1+D..w1+M:+M:+M:+x1+y1+_- 56.z1+A1+Q7.Ac b! .{ >8 p( -$ qJ ~i 8A (f <.+xj.Lk.B1+C1+4[ D1+E1+#^+F1+g}+G1+H1+I1+Y,.J1+-;+G: QH K1++S.L1+M1+N1+aZ.O1+a#+$c P1+Q1+R1+S1+T1+H( JB G_+s* e3 ~1 F# P. pt -6 4h.1^ Gh 7* jh I: 7c.d. *b.At 2'+U1+V1+W1+X1+Y1+Z1+S*+`1+ 2+.2++2+@2+0Z.#2+eX. i $2+%2+&2+*2+=2+;* Kv !$.Vg qk.{/ ${+J| -;+L; @$ P' P' ,8 V2 /b.TX /b.||.q/.z|.pv N: >' tQ T* `3 7p T[ nL `x a_ 9e V~ JT 82 k7 H~.[v (c.S~ O: NF .4 .4 IH #6 9~ U!+-2+A`.;2+U]+>2+J; ,2+'2+T,.<1 [t ,~+4].y( Ot 8!.iy 21 tF O^ Q^ 08.)2+!2+~2+{2+]2+^2+Wb oH./2+(2+_2+:2+<2+W. [2+}2+|2+12+22+32+42+`u.52+*A %z ,E.`0.62+xY 72+yB.82+lD.hD.)1+92+Do 02+a2+m' S' (g.b2+eP. n 4K c2+:$ X/ s3.tk.d2+e2+f2+g2+8x.^n.h2+c&.pH.i2+j2+k2+]n.so }  d&.l2+m2+yo <t n2+o2+l7 sC RN |F 6(.&9 7O K/.*H.wB ,H >H ZY >Z  r.f< PQ %8 cc.Zr A'.<k Gh gt L; /u p2+:g.N: 6D =W O2 Gp.H~.oi.6D ",
"q2+-e r2+s2+t2+I:+u2+v2+w2+x2+y2+z2+A2+B2+.}+~%.C2+D2+E2+F2+G2+H2+3l I2+J2+K2+4w ds L2+M2+N2+%=.Y, I8 I8 ~< 1( I8 c^ hj.)@.)@.9).q0.0).}6 <z xO >l.5|+O2+P2+v1+D..D..{@.{@.Q2+x1+Y4.R2+z1++.+S2+S2+T2+4$ po Q..A^ '# A0 )6 s..P8 ([+ Z.U2+V2+W2+X2+5[ Y2+Z2+q|+Qx `2+ 3+.3++3+=: u8 V# /d =.+@3++S.#3+$3+%3+&3+*3+=3+zc Dp.S7 -3+;3+]_ p. 7p.JD ,U.rv xf Z/ F- ^a e3 |P.(r O$ $: :* Wm vx Y%+1y 4V >3+q/+,3+'3+)3+!3+~3+{3+]3+^3+/3+(3+}M Vh _3+:3+<3+[3+$2+}3+xL ,9 j* h6.wb Ws.US a(+|3+I: $6 g; L7. . |z E6 13+23+'{+Oa.] .NC.A@ `n.|f Kp q} 3* {G |F PN a_ s2 12 AN 2'.KQ sA B@ {G m# u0 {4 P: 9_ c~ ND QB %: r3 1N 3' b.+bt g++g++^4 ^4 33+Ix 43+53+i>+cc.)C V' P2 %4 +S C6 W2 63+73+83+93+03+a3+6D.^v.{n.b3+c3+4u.d3+e3+6i f3+g3+h3+i3+j3+k3+l3+m3+n3+o3+p|.N[+,l.!g.p3+q3+r3+s3+t3+hD.u3+v3+{9 %F %N t5 Hp MW r>.!p w3+x3+_,+X> ;i u. Qr 8(+y3+z3+A3+B3+fC.so }  ro C3+D3+E3+F3+oH.1o.@L.G3+`8 9u z0.H3+I3+)/ Lb .A .0 y~ {/ Nt `4.w .p5.- .!G *M tJ J3+mc.K3+.A kb :W L3+CI Ka ~8 ^< LT R&.k< Xy.tI x].<W Z3 a6.1M )| ",
"M3+N3+O3+nf.P3+Q3+R3+S3+T3+U3+V3+W3+X3+Y3+w:+xo 0q Z3+`3+ 4+.4++4+@4+#4+$4+W[+Z[+%=.zw b(+b(+}  ~< Z, I8 C*.1( %$.%4+:i.r0.0).x'+&4+6|+O2+<z 5|+*4+=4+U, D..D..-4+g#.;4+>4+,4+5x.9,+e!+P7.'4+)4+!4+~4+ex +q Ho l..N; '8 h3 CK.4#+{4+]4+^4+/4+(4+_4+:4+<4+p=+g}+[4+}4+|4+14+C0 mI t8 K8 (d X>.24+34+=3+44+;.+WH Lv.54+-A 64+@@+74+0M.T, z* {P.[$ q8 k, Tq./o 9r _d w`.4S f(.zQ V).wV.84+lM.94++S.i|+04+a4+b4+c4+d4+e4+f4+g4+h4+i4+j4+k4+l4+m4+n4+bT o4+p4+q4+r4+],.6r  y U^.Vg Y' PB s4+>-.0A <@ z. y@ n; ~[  W 6P @s.||.t4+BQ Pz.1X A@ z3 <( 0H j^ eI )$ k^ 3P g< 12 w[ 3[.3[.U4 =& N}.fh j>+(f e~ 4a l< jn B6 46 U* d[ r% ~+ QF n|+n|+@!+u4+v4+w4+Vo.]8 rd.2| v~ r/.;H S} @f.'& r-.x4+y4+z4+A4+B4+C4+3N.D4+E4+F4+G4+H4+I4+J4+/d K4+L4+M4+N4+O4+P4+Q4+R4+S4+Yj.X<.`0.Yu.w] }2+T4+U4+V4+W4+X4+Y4+v3+b* k]+Z4+<V o; m` 2h.k$+s}+`4+ 5+.5+'(.+5+@5+#5+$5+%5+&5+*5+oH.so }  0! =5+-5+;5+>,+nH.>5+wH.,5+X4.uA %y '5+)5+!5+tC mP 0*.ni.Df.M- {%.t( ZK t( 3z %I = .e_.PK 0h.WN Pl l_.C[+_Q.Jm K2 b; LT .4 B6 Vw )D (3.)G *Z )G V' 4( ",
"~5+{5+z@.]5+^5+/5+(R (5+_5+:5+<5+[5+}5+|5+15+25+35+45++. 55+65+75+2g 85+95+r:+05+a5+b5+xu d_+by |p ~< 1( C*.J8 |c.c5+(i.9).k1.H<.d5+(n E..d5+j#.j#.'D.'D.*4+e5+E..]@.f5+f5+g5+h5+@{.i5+{E.j5+k5+l5+m5+J%+V_ S' S' pA ni p< XW.2y {d n5+o5+p5+q5+r5+s5+t5+u5+Vr eP.v5+w5+x5+y5+<k J2 ,' AL )1 ;6.|T m6 1r 8j.z5+A5+sf NN H0.3$ }N.Q*.Fh 2f kr RB !_ }^.5;.[@ t$ P$ {a lM.> +]6 o|+{6 B5+o$+P$+C5+44+D5+E5+F5+G5+H5+I5+J5+S*+K5+L5+M5+k(.n4+,*+B$ %~+N5+mf O5+5$+'x.mt :9.FD zU E^ x=+H: I: _k Em ~8 uf |z Q .uF 6}.S; 2z NC.gR P&.cr.&4 1X :V ey Xw <P -# rb GV PN O_ {%.U4 1x X^ nd a. 4%+A# RD >#+ND jn @3 Zr 41+q} X  j1 nd :g.#:+P5+Q5+R5+S5+T5+U5+V5+W5+Gp.UT fS -H ~k.^V =T R^ X5+Y5+Z5+`5+ 6+.6++6+@6+#6+$6+%6+^o.&6+*6+km.=6+-6+;6+>6+,6+'6+)6+Yr.!6+~B :G `u.6< M^ ~6+{6+]6+^6+/6+(6+_6+Ck AB !v pq.A& {R >I &: :6+<6+4Y 5%+5Z.[6+Fj.-3 }6+|6+16+26+36+46+so l; _m 56+66+76+86+96+06+a6+b6+R2+D,.+1.c6+d6+e6+wS 'I ;{+tk f6+lb |M UT s~ ZK wB >%.= .c2.*E BV :b.GV BN g6+w5 (>.Ft e*+NF x( :5.1` dm *B.{| # .a$+D,.8u ",
"h6+i6+j6+k6+l6+m6+n6+o6+p6+q6+r6+s6+t6+tX u6+v6+w6+x6+y6+z6+A6+G=.B6+C6+D6+E6+F6+G6+H6+I6+J6+K6+so Y, C*.C*.|c.%4+L6+:i.M6+Rb.N6+F..53.G<.G<.O6+G<._  P6+@>+Q6+_L _L @>+R6+S6+T6+U6+V6+W6+X6+Y6+.Z.M=+WO PB [@ .$ Cc Z6+`6+kv.D[ CF. 7+.7++7+@7+#7+^[+bp $7+Rf *y z^ %7+x4+&7+*7+Xq =7+u/+Dj -7+0=+;7+I*.Ww.|( wf Z} vQ Y} aB I( y0 4, z@ Fh 5, (  |^ F3.V_ $6 Lc .R Kz &a h++>7+T$+~<+(.++p ,7+=*+'7+)7+!7+~7+{7+]7+^7+/7+(7+_7+.V B# H# ~r l4.0:.Z] :7+<7+C< E!+0z P_ +y 7< y6 t$ [7+6| T* jn D3 >$ uF =$ -$ Qw.bh.u} 85.2# 2# &4 H7 q_ r_ a< a< a< O- z3 _2 x& |9 }G }G 7O Kk :/.}7+,*+|7+17+Dx IH Ot $z 85.Xw 85.Qo.Qo.cm t5.`n.]c.k++27+37+C)+eV Ra.qJ 2z 9w M! bd D6 (| X2 9! 47+57+67+77+87+97+07+a7+b7+c7+d7+3z.~:+e7+94+v4+f7+g7+h7+i7+j7+k7+y,+l7+$l.P++W& ~+ m7+n7+o7+p7+q7+r7+s7+'`.t7+{9 !v D[.s5 f* 71 &G d:.Jh u7+v7+O| h. w7+2{.x7+y7+z7+A7+B7+`L.2c so to C7+D7+[K.E7++1+F7+G7+H7+Om.Ex I7+J7+K7+L7+M7+N7+>p V/ ^..c' [( #R Mb i^ wB O>.qe.Ip.7E  r.3X v~ i< a_ Kv 7< 1* PB N|+`3 |9 Fx 61 VT rJ ly hR 3, @l ",
"O7+qi P7+Q7+R7+S7+T7+U7+V7+W7+X7+Y7+Z7+`7+ 8+.8++8+@8+#8+8g  f ~Q $8+|l /|+BK %8+&8+*8+=8+-8+;8+}  ~< 1( C*.I%.c^ UZ a*.{d.WG.U_ >8+;X ,8+gh Y].nm nm gh '8+)8+'8+!8+~8+{8+]8+^8+/8+(8+_8+:8+<8+GQ.FJ {|.~/ )f.]/ {+ v- i1 {r Dm Fj [8+}8+|8+18+R1+L0.28+d:.z5+_^ <P.38+J@.s:+]=.|m B2 48+58+tO H0 fM.p#.]x <+ e%.hz =G T^ km R- CR k. B[ H2 8! N# S| b! w@ ~i 5k <'.;Z.68+78+78+88+F5.j/+=X.98+~p e +08+a8+%]+.i b8+c8+d8+e8+f8+;&+0!.n! 7< ;m.yk.Y( N= 43 o# y3.r2 r2 -F ,9 Wj [@ 21+sz G0.Nt gW }5 AB  7.41 C7 g8+h8+C@ 9< T; &4 O~ o5 S..o` H! `c h%.+Q Kk .: T* :g.ND 9_ I6 _O./f i8+j8+k8+D`.6| l< s; x].Dr.Es.Yx.l8+EB m8+n8+89.K=+ln o8+M2 Ar.Pz.$4 6}.;$ 0P $4 #4 '& l%.p8+q8+r8+s8+t8+u8+v8+w8+x8+y8+z8+A8+B8+C8+D8+E8+F8+G8+H8+I8+J8+K8+L8+o6.M8+_B.#a jt r$+N8+O8+P8+Q8+R8+S8+T8+U8+V8+sH ~D 2F i; cr.-a m~ W8+YO.^]+X8+2N j:+*< Y8+Z8+`8+ 9+.9++9+@9+ro l; #9+$9+%9+&9+*9+E{+=9+-9+x@+&-.RQ ;9+>9+,9+'9+)9+<o O. 7( G6.9| G* y} cm |x T4 68.w .Vx.( .Wk.t} *9 y' :9.=; !9+<N 9a.Y1.`3 q} Mp.&4 '8.G7 H_ CZ oi xR ",
"~9+w*.mG.{9+]9+^9+/9+(9+_9+:9+<9+[9+}9+|9+19+29+39+49+59+69+so so 5O.vA bq 79+89+99+09+a9+b9+Ni }  Y, I8 C*.I%.I%.mJ.26 A[ c9+d9+:!.e9+.1.$C.Z].f9+i1.Z4.43.:6 i1.g9+h9+h9+i9+j9+k9+l9+m9+n9+o9+!<+!X jX.&p XP nt s. S, ht 4a %f ]P.p9+q9+r9+18+s9+d(.[P.TB ZO O$ H( t9+Fr.z@.oi wf gx 2M u9+Zk.[- `! u#.dE `W.v9+xw.I! >8 ;G X} qi 15 :9 %+ )8 a^ mm B^ B^ w9+OK ;&+0k x9+V4.=a w3+*b.Sf y9+z9+qQ.A9+)Y._U.]U.B2.B9+C9+D9+To./-.E9+5r ,| =U 3H Ey.R, i3.P( `& 9*.7r 6r ot Ll Ll k1 %: sz 6p Nt gW }5 uF p0.-$ eB F9+G9+5M [( l8 d* O' po !@.)@.y3 v .1$ 0-.^a 4;.@!+%: $: K8 P$ *.+Tz H9+#^+QO.TJ ev IH $z V' Xp.Es.*M Xp.;H YK X}+px pp P5+P[+(w q/.HQ I9+XQ e#.HQ WY r` p[ ,& C. J9+K9+L9+M9+N9+O9+P9+4S ;-+Q9+R9+S9+T9+U9+<h V9+W9+X9+Y9+Z9+`9+ 0+fP .0+nc.6; <$ +0+@0+#0+$0+%0+&0+*0+=0+-0+;0+a^ }$.=+ i; U' l8 v0 ${+>0+Z< ,0+'0+Az ra I .)0+!0+~0+{0+]0+^0+Wb l; ~P./0+(0+_0+:0+QL.<0+[0+}0+Kk oi.|0+10+20+30+40+sC kt ^. qt E0 sQ y} s; s; 9O fS ~{.;B.C~.u].pS AN {%.uC Gx y~ t$ }^.G( )' {n D3 r$ H7 )P d, I_ 50+ld ",
"60+70+P7 80+90+Lc.m6+00+|g a0+J$.b0+c0+d0+e0+f0+g0+h0+i0+j0+M@.M@.k0+;=.l0+m0+n0+o0+p0+q0+r0+h_+}  l; ~< dA.8f Tq s0+%f.t0+u0+V8 v0+w0+x0+y0+z0+A0+.1.&f.&f.zq.B0+C0+D0+E0+V&+F0+G0+0++H0+I0+J0+bL.K0+Yt qK._[ WB pv ov -a =4 yy.U=.h=.pi.H^+R1+L0+Z=.D| Jp N$ 7c 7* c-.B*.4, qK @k =) )}.M0+n< && Ao |&.|q N0+O0+:&.yB H! p( Yq *) gy B[ :( -I _z e] }$.Qq IW P0+0r v^+B5+17+Uz fj.Jk.Q0+,&+t++)#+e +./+Qc &).Rc R0+S0+T0+U0+L_+U_+7p 'Q  x.>K Xs.+y x_ 3~.E!+k3.M. 7< Wj %N.%N.@-.K; V0+G0.Gv Xr }5 U7.wD <5 !D TN 0z @(.m` R' {R P- Jo <z ~d. ].R` (Y Tf #)+tn.Z%+(#+Dx Dx d}+W0+:N.X0+{]+M!+Y0+av ;h ov Xw A(.vV -E <W TK 4( '' Bb.:r Z0+HB O[+WT jL C, ~P ~P hz {< g%.f%.'[ ~v T>.`0+ a+.a++a+@a+#a+1x $a+%a+&a+*a+=a+-a+;a+>a+,a+'a+}M.)a+!a+~a+56 {a+St.$a pz ]a+^a+/a+(a+4<+_a+:a+<a+[a+}a+|a+1a+vr 1S b; 46 Zt V# P%+w`.w0+Uf ev $9 i=.2a+!0+3a+4a+]0+ZL.Wb Y, <m 5a+6a+7a+8a+9a+0a+aa+ba+kp >9 ca+da+ea+fa+BL m! t$ i=.Mc T* U& MN u~ x' ~G &u ~{.-g S4 u].v} sA r/. 0 >a sc To G( #k t$ l( B0 [+ I:.YQ lm (x a5 +l ",
"ga+ha+OD ia+2c c&.9O.M@.Ni FE ja+ka+la+ma+na+oa+pa+qa+ra+7O. f so sa+ta+ua+va+wa+xa+ya+za+Aa+Ba+}  ay l; T] V, v .Z. (8 %G X>.D'+lM.Ca+q3 HV.Dp.Da+/<.L'+Ea+%G =6 Ch d6 Fa+Ga+Ha+Ia+<8+Ja+Ka+w3+jo.La+Ma+Na+gm 3$ t9+0[ 4$ 2-  ~ b*.Oa+N' Dp.Pa+d(.Qa+pK P- O- 1  Ra+@l |( 9  `j Sa+Sa+t@ Ta+Ua+01 #$ Dt x@ 1&.Va+oS O^ p( ,[ qK :9 7J Ff :9 :( 5F p^+/V uj Wa+b1 2S $#+Xa+Ya+ky.o_ Za+K0+U4.`a+{N. b+.b++b+@b+#b+[3+$b+%b+&b+*b+;U.I'.RQ |M BN kp M|+nL mt Wr.>~.,9 ;p %N.F# Y6.G# K; ;h [@ 3* gW 3( }W WY ,8 f* Z  i3 i3 5c t5 c6 N; Io 5|+D* +^.u}.b2+=b+-b+N%+O++Bx.:.+:h.F5.;1.;b+>b+,b+'b+)b+^C.uQ |v T; P3.A(.`9 A(.TK Ex px -;+&|+v-.Km x0 #& a, @) Y2 g& |c.C*.a, A..lA }  .t !b+~b+{b+]b+^b+/b+(b+_b+:b+<b+[b+}b+|b+1b+rt TP 2b+3b+1z.K8+4b+5b+6b+=x.X; <; IR 7b+8b+9b+0b+ab+bb+cb+db+eb+fb+gb+hb+z5+5i 5t c3 l1 sx _* CH sk.1V.ib+e++jb+kb+4a+lb+8I.^n.e&.Y, ~Q mb+nb+ob+pb+qb+rb+sb+tb+ub+vb+wb+xb+yb+zb+Ab+i< ND W. Bb+_c.Ot @3 Ex T; 3[.JQ 68.Vx.%g V` Nr 9#.#R K: y<.O: oL ^a #: >a jn g; a! I:.Q..ix &S |S c; ",
"Cb+Db+y5+`|+so so so }  so  f y*.Eb+Fb+Gb+Hb+Ib+Ba+Dn G=.M@.z*.G=.Jb+Kb+Lb+Mb+Nb+Ob+Pb+Qb+AA h_+}  }  l; 25 8* 4, 1_ v* <c 95.ff -2+q`.[6.]Q 2y l,+'d )*+Rb+/d /d f(.Sb+w0+Tb+,0+Ub+Vb+Wb+Xb+Yb+x_+ R Zb+`b+ c+xR ;n wf X. `} }N.4m 'P.4h.Tg..c+or.+c+-T gz .b.po @c+Xq .~ c! 5* >X E3 c++Ta+!B.E| wf 45 |p .&.R^ q$ .{ i+ +& |S ]n +[ [- 5, sa.uj.H:.,.+5,+L:+_( ]i #c+$c+$c+%c+St &c+S&+*c+mQ.=c+-c+;c+>c+,c+Z.+'c+)c+!c+~c+{c+8C G0.%8 {C uG ]c+jK ^c+Rd.Z;.|e Ll E- [t m7 [t ;U.uQ W# Ph g] T' (9 ||.xX $^.'$ tO.H2 z@ qK Xz p~ N; u3 O2+<V /c+Y8+]6 0X.(c+_c+:c+m$+X:+<c+[c+}c+|c+1c+2c+g*.%Z.:< N[ px Ab.YK P3.~G 3[.4( Dz ^[ _r s4+0-.H( D3 oo '[ g& pY L6+)Z Q@.mJ.%$.T- l; S] s:+ }+3c+4c+5c+6c+@e.7c+8c+9c+0c+ac+bc+cc+0S.dc+ec+fc+CZ.gc+hc+q).ic+jc+)n sv K| %> kc+lc+mc+nc+oc+pc+qc+rc+sc+tc+uc+vc+;*+wc+Ax xc+yc+=p !/ A( Jt ^{.XP zc+Ac+Bc+Cc+Dc+DA.~< |p z*.Ec+Fc+Gc+Hc+Ic+Jc+Kc+Lc+<v 8!.Mc+Nc+Oc+Pc+Qc+i< Q&.4;.w|+k1 A5 (c.Gs 8!.Xw dB (h.62 u].7).3X bH @R {G !g TO ]U 1J :/.)' z[ ${ '< V, cB i+ sa.+M xk ",
"Rc+Sc+5y ;r.so }  }  }  }  ro Tc+Uc+Vc+Wc+Xc+Yc+Zc+`c+75+ d+.d++d+@d+#d+$d+%d+&d+*d+=d+-d+;d+h_+}  }  V} 8f <9 3_ >d+t0+,d+pH 'd+p3 h*+Ca+$G P3 )_ CF.AQ  V f(.Sg.Sg.)d+7f B%+_X.E-+SJ Vb+!d+~d+aj.0S.eC (;.N=.B,.Q=.2- ,[ 0, -r KH xQ FF pa aA.A0+Mf ;-.&$ {d+Zq Z} L7 ON 9H >h ]t c9+_!.]d+_6 M# Fo h%.oi $E O~ <9 <- S| 23.+k d; qm ia $R 2v ta.D[.y'+)@.)@.<  {i ;P ^d+^d+/d+ar s'+(d+_d+:d+<d+[d+}d+|d+1d+q|+2d+3d+4d+'^ }3 `-+@f nL '| [v Lk U& ^c+5d+tw.#u Fz +5 ,* m7 7( bQ yL ;h y. .Q Gp 3( }W 6d+I@ |X O=.3, P=.P=.G~.(x K7 ix 0* N6+f(+7d+Ub+WH E^+E^+H'+8d+'1 EQ.#G 9d+0d+ad+bd+jk cd+x` !}._r /w |v Ex Z  l8 }+ t8 zL  V @E @1 lz 1S j; F%+dd+&F ed+fd+]@.#f.J8 }  }  }  EQ {X k-.4c+gd+hd+id+jd+kd+ld+md+nd+od+-2+d- pd+qd+rd+sd+td+ud+nx Sq.=x.8r [N #f P'.7m.vd+wd+xd+yd+zd+Ad+Bd+Cd+Dd+Ed+Fd+Gd+zV.hn Hd+-<+R,.!n Mv Pq.=u <2 Id+Jd+Kd+Ld+/2+{n.so l; Dn Md+Nd+Od+z;+Pd+Qd+Rd+Sd+0A Td+Ud+Vd+Wd+Xd+Om.gG ot Xm.F- `~ #u T[ 6( S* U- U4 !;._$.e< Yd+aH 0_ f7 d7 D}.qr ~n Bf 4; I[ yS *& 15 P2+hx hx %+ Zd+`d+",
" e+.e++e+@e+{=._;.#e+Cn  f $e+%e+&e+*e+=e+-e+;e+>e+,e+'e+)e+!e+~e+{e+]e+^e+/e+(e+_e+:e+<e+[e+4|+}  }  }  ;8 a! 15 2_ }e+WY.|e+_O.'0+'m D'+5S 8j.Pm _^ 1e+/d Az 9~ /d p8 7f P3 _X.E-+SJ SJ #Z._.+!X D_ ip 2e+{8 t_ t_ Qm xy.hx id 30 sm `. 4$ <i 3e+9,+S| m..m..j. 0[ 9p p. p. M#  P ]n ~_ d!+-n PD h3 ;a }+ H..D3 D3 B[ ~_ u@ @k Zk.(  k#.$R w@ 9$ A2 I7 ^x /m K7 ]_ `=.kx 4e+e:./]+9q.5e+fn 9V 6e+7e+8e+9e+0e+7e+ae+be+ce+de+ee+U_+US 3o :2 3| fe+b# nR FE.tw.ge+kt  ( [t [; 8:.bQ K; &: z( s} +1 3( /F.zB o$.C. Vb _m CR |  30 V, P- l..`. q7.he+ie+(<+S]+je+ke+PD.8d+I'+mX.}~.le+me+0d+ne+E7.v7.oe+Yt VS @!+o1 _k 46 tc u8 %: V).Z).PH -Z.Nv.5c uj.pr.pe+qe+re+se+M_.k..I%.}  }  }  V>.~E.te+-s ue+%4 ve+we+xe+ye+ze+Ae+Be+LB  l Ce+De+Ee+Fe+Ge+He+/a Ie+-x.}>+Je+Ke+{$ /X.Le+Me+Ne+}t.>M.Oe+Pe+Qe+Re+Se+Te+Ue+1y u_+xc+Ve+A).D6.7g.Fs 5P ^5 We+Xe+Ye+Ze+`e+ f+so by Dn .f++f+@f+#f+$f+%f+&f+*f+a; =f+-f+;f+>f+,f+-) fI =F Wr.%N.fP 'f+)f+-R T&.BN *9 pN 6E =o.Jj.,G.Wm.0V p~+gE fR .Q m. Yl.|- { .dA Ja V, 6-  + o~ /c+w3.",
"!f+~f+<C.38+{f+]f+^f+/f+2m (f+_f+:f+<f+[f+}f+|f+1f+2f+3f+4f+5f+6f+6f+7f+8f+9f+0f+af+bf+!o cf+df+}  }  }  `q aB qo n..8|+]n {B.>P ef+Da+FI.T!+ff+ok Sg.9~ j:+i=.c. _f 1e+K'+F3 )m gf+hf+if+jf+%> Y%+r$+sx s!.k1 Sm ed md (  kf+'Z lf+%F.Zl.uI.-r.mf+nf+of+Q; Pv pm ]C S3 z<.,6 PW <i k#.$R |, #E ts.pf+(Z qf+8B 1- l. b1 iV o{+85 Jo v .,[ k; O* s_ s_ K7 t[ B^ bx N# DH.rf+R^+9[ BJ.sf+P$+'1 o_ Kk.tf+uf+vf+N++)~+wf+{>+xf+yf+SD V0+R&.`^ B3.x& T& b# i>+.y.'f+&8.lb E_ E9+[; [t b. V# k3 P: l( 2  tH xD zB >8 }  }  }  }  }  ro zf+#+ sa.6$ vr Af+Bf+Cf+34+W_+Df+L^+d0 P$+Ik Ef+5}+Ff+Gf+bL.n,+Hf+Ma.#)+vx }*+If+c3 P$ E`.(d V).xV.p3 9V.iw.'}.aD H(.Jf+Kf+Lf+Mf+Nf+Of+'}+'[ }  }  }  }  ]*.Pf+0q &) Qf+Rf+Sf+Tf+Uf+Vf+Wf+Xf+dN (l Yf+Zf+`f+ g+.g+Nc.!}.x=+6).*; r2 f[ 4O +g+@g+#g+$g+mB.2u.%g+&g+*g+=g+-g+;g+W++h|+X:+>g+,g+58.pc.vb 6e zN Hw 'g+)g+iG.!g+:o.c&.so }  so 2, NQ.~g+{g+]g+^g+/g+(g+_g+:g+<g+[g+}g+|g+1g+w} 4x n} sc yQ.jp -R 46 r}+1` *9 #z f^ AS _$.9d.hG 2g+dD 3g+SN {R ld ;-. + +& P- O* .+ O~ O* k. m' -4 ",
"4g+oJ.hP.dN 5g+6g+7g+8g+9g+0g+ag+bg+cg+dg+eg+fg+gg+hg+ig+jg+kg+lg+mg+lg+ng+og+pg+:e Yd b: qg+rg+}  }  }  C*.Zq sg+}C.U, iV 1a+.1.k+  9 #| tg+[c 1$+CH 3*+P| vz 6q.`| =6 EF rO OL ug+an.hf+uL c}+xV.gQ.(f :>.yx :; E- +$ 7J 5x.'B.; .4_ b< xn.xn.>t.vg+wg+xg+'1.lw.Z6+p} yg+8, zg+s0+j. `. N# (  )Y %w C  ~n MW 6* 1- At.P; .+ Vb C. id e, 6- Io l..k. O; ,.+o6 I7 S| 1P.2^ N' Ag+L0.Bg+E; Cg+Dg+Eg+3` g,+K~ {w ;.+zV.Jk.Z%+fv 26.QB P: %; It .y.#3 Ma E(+E(+Fg+Gg+|e E_ Fz F# [t 5a G: HL Kk Ez h; ^+ E6 5}.w$.x@ }  }  }  }  Wb s0+9D Hg+^(+!_+Ig+Jg+c$+Kg+J]+Lg+0X.!p /]+EQ.Bd.zh Mg+!d+vV.OH Ng+sf+z$+Og+%a Pg+Zh d}+MJ (#+r$+_.+}-.Q/ Qg+>P !_+pq.Jf+Rg+Sg+Tg+Ug+Wa++I.`, }  }  }  }  i%.V>.u%.}z Vg+Wg+Xg+Yg+Zg+2u.`g+ h+$t @e+.h++h+@h+^z.#h+$h+b5 ED 3o Iv !$ =F h6.0<.%h+&h+*h+ `.xB.=h+-h+;h+>h+,h+'h+)h+!h+~h+{h+]h+<f.55.Zo.=9 h7 yh.}$.^h+1o.fC.d&.so ~< V} 0! }  z*./h+(h+yB._h+:h+<h+[h+}h+|h+1h+2h+3h+7! cr.+3 F| /< M^+b8.e*+:g.0[.MN {C ~| (x 6- R3 a[  7.SL rJ 21 sH .U %E S^ %F.I_ [5 3c [+ O' k; +q sm `} ",
"4h+5h+6h+k=.7h+8h+9h+[=.A/+0h+ah+bh+ch+dh+eh+fh+gh+hh+ih+jh+]7 gg pg+kh+`d fg+el lh+mh+nh+oh+ph+}  }  }  V} Nk.g(+qh+=r a1 1x.d$+$C.'}.kv.dh.Mc `H U3 7q.P'.q< /5.1V.Ch rh+C'+I .sh+pH th+uh+kX.3N r3 jX.Ah 'a /. %T E! [^ 5L.c5+hz ~P vh+wn.wn.c5+=4+wh+e(+xh+r..r>+/* #6.f$++L Vj.30 0D 2v [^ yh+zh+T@+:B.qf+9f |- -a )B !1 S] S] 'g i+ id qo Jo >& tY 7D 3F d* ,4 RB m~ I6 v8 Ah+Bh+50 Ch+E; Nm 5f {w Dh+Eh+Fh+YH ft )4 Xh U* K6 nd 6p w; ,a 8c 8c D0 D0 Gg+Gg+Lt 1I Wj ;p lb &p :@ <@ l( 8w a^ G7 Ga W%.r-.x@ }  }  }  }  V} sg+Gh+Hh+Ih+xh+Jh+Tn.Kh+FI.{|.M0.8~ #)+0r oj =] 1N !X k8+Lh+#/ vj.|r Mh+A' Nh+Oh+pQ.17+]Q ux '>+[c+Ph+[c+HV.Q| U_ ](+Jf+dd+Qh+Rh+Sh+oe.Zs z0 }  }  }  }  }  ay iI :m Th+Uh+Vh+Wh+Xh+E7+Yh+Zh+`h+ i+.i++i+@i+8x.#i+>n $i+%i+|| oG #y &i+Wq.|D.*i+=i+-i+5u.wB.K}+;i+>i+,i+'i+)i+!i+~i+X:+8C {i+h`.As rq ~y j7 ]i+n; |l.`z.d&.^i+so V} so so }  @t /i+(i+_i+:i+%6+<i+[i+}i+|i+1i+2i+3i+_- `2 d] 4  6c +b.S* N: l< Ot K:  ' dA 30 `q Zl.|c.0] I8 1( 1( *G gs.m+.o` m; Qb }$.^+ O* ,[ '< sm 95 W, ",
"4i+5i+6i+7i+8i+9i+0i+8i+ai+bi+ci+di+ei+fi+gi+hi+ii+ji+ki+li+mi+mi+B+ ou Y1 ni+oi+pi+qi+ri+si+ti+}  }  }  V} I%.{d+g(+S<+f0.yh+ui+ P B0+CK.vi+bu.bu.EV }c r< *C.wi+jQ xi+r>+9' 06 *-.gf ,d+Mc Mc Xh yi+k8 d9.A3 A3 6; Q~ l' {@.I!+@k.^@.d%.U@+zi+!Z <z pq.Ai+ad../ .d dv Bi+9, 85 P] m..v'+f0.d; UJ Ci+T@+={ U] 8B <( nN @z d^.~v S] gz O~ Jo +q `. 8$ Di+%K JM .I && D| @/ u_ {/ `O /  I0 ]P.@]+(d gQ.~Z.$G Ei+8V.=f.>* ~/ dI Sm *# 6k Ph &p y~ <N $p m# k( `;.se 5g.Lv j* 6r Lt 4r x] H| *4 .3 s[ Tb )& G6 uz.x@ }  }  }  V} *G O' gi Fi+Gi+Hi+.q ;4 E| >E TO bf ih bf m# o! E- 9| k~.d}+ft _* O,.Ii+>A  R.Ji+X9.Mx '>+{|.jX.aM.lm.<'.lV.J2.BJ Ki+J7 X..*$. >+Li++I./x ER hW }  }  }  }  }  ay d_+f_+Mi+Ni+Oi+Pi+Qi+Ri+Si+/8 CC W*.~w.Ti+Yz.Ui+Vi+N*.Wi+Xi+6D l^ lS ^E `P Yi+Zi+`i+ j+hR.wB..j++j+@j+#j+$j+%j+&j+c0 4i Kr OM se Pl 12 vV <X *j+P .|O.2c 2c 0! V} V} so Wb }  l; 6O.=j+xB. `.-j+;j+j'+>j+,j+'j+)j+!j+8! iN |z iN |5 >U w' [v qA 7O x' UT 2z Y} km 4_ '[ a, A..P* Y, S- n` sJ -$  W L! -M }5 9* 5$ O# 2  ,4 '< ",
"~j+{j+]j+^j+/j+(j+_j+:j+<j+[j+}j+|j+1j+2j+3j+4j+5j+6j+7j+8j+9j+0j+aj+hi+bj+cj+dj+ej+fj+gj+hj+ij+}  }  }  }  Z, J8 ,u.Zi.:t nm nm L_.:6 X&+!B.>X E3 jV jj+%{..d.Ci+.d ,v jV Q` 9] vz.vz.d9+jV m8 n< E3 #l -[ I6 R~ R~ ]* *+ sg+4_ I!+X#.$h.X#.J  :i.#f.#m.kj+ta.&+ ]_ C[ z. #9 W, +L 2_ 8$ m' 7F c; )Y m` z<.|- Ef 2  uf ly .{ lA S] Ub V, h%.sm >[ 6$ _z )B lj+9D :( FF p< TO z( :^ RB 3$ +l 1_ V_ &6 }- n. An lw.Z6+4k %w Hj.j{.g] ht i1 y. nd A5 !g !g `Q l^ i* _|.7M :b.(U Pl -& At.[6 4  ^w I_ jx Q^ MT T- }  }  }  }  ax ]< 4c !Y &I E* k& q' KW 3( f* <P r/.=W {%.u; ;K F6.fy l( $6 O$ 9K fQ G_+W8+mj+nj+j).{g.6i 6| y<.}1 y~ X# 1* 4* tm A0 KW *F ]P Pj.:i.{< S- S- }  }  }  }  }  }  }  iI b(+oj+<y.pj+g2+qj+rj+sj+fM.tj+uj+vj+oF.^n.d&.b&.+L 1_ 9  g; && Ef f; }- wj+xj+yj+zj+mx.Aj+Bj+Cj+Dj+Ej+Fj+ea 00 UO.wT Hh R[ z,.rT r5.(9 BQ ;)+jd 0! so }  }  }  }  }  }  }  }  so ^q.nx.mx.BA.8x.Tc+C. [m Gj+/n +& ,8 p' sV #^.Co ^9 'G <W YK Mb d& %~.;$ p$.f%.; .{< m$ /+ a, P* =G `T r` JV e#.&Z uF a[ po y@ 5E V4 3X )B ",
"Hj+Ij+Jj+Kj+Lj+Mj+Nj+Oj+Pj+Qj+Rj+Sj+Tj+Uj+Vj+Wj+Xj+Yj+Zj+`j+ k+.k++k+@k+i) #k+pi+$k+%k+&k+*k+=k+ay }  x@ }  Y, x@ e&.;t.xO j#.-k+=X -k+,d ;k+$r .& ;k+f9+i1.:6 f9+3v 9,+ch.>k+,k+F<.uY -k+'k+`8 }$ `8 |$ tf NN 9p I0 KB `. )k+%F.!9 [c.WJ.[c.q#.(i.5L.^Z 26 ^Z sg++L zS wf +q V,  + *+ H8 %+ M; qm :6 `j '6 01 +& -G >8 ;G m$ u#.S- Ao [+ Ja ,[ 0p 0p *+ 8$ $+ sa.m' pm S' P2.*S F3.O] ;-.+q qo _x N:+n..R..#f.xz.b[ N; o' !8 4  Gp S' @> <@ m8 L; cv |f Jp {n c7 4z -E >U LW Mb z, h; 4$ 5, '< Zq 1( u#.x@ }  }  }  }  }  &$ }5 ~D Aa ~D |5 N; ,8 m; lm I. 0P @s.^g._A %~.VT %~.f* p~ RL 1_ B,.B,.!& {P.V]+I_+Ah+g!+p/.}^ 9  U' eV +b.n' A* [5 ^x R3 FW dS LM f%.}  }  }  }  }  }  }  }  }  }  pl pl l; Y, X, (n.!k+~k+58+W, CA {k+]k+^k+:r.`z.dA.+q gy #+ 9$ M; o' C* l' /k+(k+_k+:k+nx.TP.<k+[k+}k+|k+&C.6v f!+7v wQ [- 4, -8 B^ s[ [5 ^x !1 'g ax so }  }  }  }  }  }  }  }  so 1k+2k+3k+0F.F3+45 4k+yu #X WY rJ 75.!9 Y, Y, 0] e& |z 2z qJ qJ }5 $4 k! q( @k.>8 D, a] 0  R^ Q^ G_ aO u... .JV JV r( )P .{ -8 >F.5k+:D.qS ",
"6k+7k+8k+9k+0k+ak+bk+ck+dk+ek+fk+gk+0l ng hk+Wj+ik+jk+kk+lk+mk+nk+ok+pk+_} qk+el rk+sk+tk+uk+vk+ay }  }  }  x@ }  x@ Q@.xz._@.5] >[ uY E<.ia ,k+wk+ch.xk+r_+v@ xk+O6+yk+_  >k+_@.>[ >[ q_+>[ Z. Z. =X Z. 0[ 5] 5] Fo ,[ Ho ~ .R..~ .{@.Ay.a*.a*.gj.gj.vj aB 8f Zq 25 @X _x Rq  + zk+%& >4 !8 %+ +[ +[ 5c l. S_ +& id g%.;G '[ lA W} +) >& 3_ 0p 0p ,k+8! 2v )8 6F A[ pm n~ An ;a FF >d+j. 0* Sq Q..J!+q#. U 0c.J%.m; p' a[ oo 3_ K. }^ 2}.u* Zc gQ 2}.36 7* ${  3 q; o( c] P- A* A& 5, OW wQ 2_ Vj.Wb l; }  }  }  }  }  }  .b.B- sY wB bB o; b7 KW r( P .a< /b.+{ & .&F.'G !G _C.DV cr.B[ Fh Sa.Sa.7u Gh ^< cv D| .> h; a^ c] C,.r5.&E qJ 9S aS aS I. G7 G7 Tb xd.}  }  }  }  }  }  }  }  }  }  }  }  pl Aw 4k+`q ~}+=7+'S Ak+CA i]+/2+Bk+Zz.`z.'u.id l! )8 A* $+ d] d] Q; w-+Ck+Dk+Ek+8w.!n.Fk+Gk+#r nm v@ (  RL %& gy $& o[ uf ^+ BQ is mv.H_ po ax }  }  }  }  }  }  }  }  }  so nH.2k+Hk+Ik+Jk+xj Kk+yu <x V2 31 I. p$.Z, @) H  H! 31 b7 R4.|z /F.u[ D6 q( e%.,# =T O^ p[ #^.iR TQ u..[&.A@.Z2 E, D6 a[ .{ #& Lk+Mk+B:./ .",
"Nk+Nk+Ok+Pk+Qk+Rk+Sk+7f+Tk+Uk+Vk+Wk+Xk+Yk+Zk+`k+ l+.l++l+@l+#l+$l+%l+&l+*l+=d+=l+-l+;l+>l+,l+'l+b(+ay ay }  x@ }  V} &$ #m.+& b! S| +& wQ |, |, xk+xk+7$ M; H8 M; 7$ 6$ 2v _  0p l..)l+(n l..l..zk++{.'< b! 4, 3_ 3_ k. O' u3 u3 I_ q_ u3 O~ ,< !1 VL b^ vf $$ [  Ub cB I_ ,< O* ++ &S )8 j; %+ %+ %+ S_ c6 o~ H7 CZ o5 p$.=G S- wj q'.&S a^ %& k' w@ *+ 9$ o~ o~ :( @[ ]C ]* l( S' xy.ld i+ Yq CZ kd !h #) +S 5[.j..:Z I. [5 r$ gy 9  z@ 2f 2f o. gQ c; o. Yr @z @z A& A* O- o' t5 =I 4, H8 5$ im so 0! }  }  }  }  }  1( 3c LW !G ~| sY q; OF sH a< r_ tH $ .& .^ .Iq.UT r~ ~G ~| Xr g; H2 a5 7u Ka Hm ~8 gt ~8 Gh 9  l! >C &>.FQ 9S >$ >C R* R* ^x WT mv.|X C. }  }  }  }  }  }  }  }  }  }  }  }  Dt Aw !l+S- 1, eN Xq f-.~l+{l+]l+^l+}o.1o.%q.#$ 9* O' k. oo P' aS &S Y]./l+(l+_l+^z.iB.:l+#{.2v w@ <  +& b! k. #& #& #& @z.fV ,$ t!.XJ ~h U} ro }  }  }  }  }  }  }  }  }  so Zz.<l+[l+F4+)w.1( Aw yu i+.b  $^.j5 #X Y, P* =G m5 GQ %>.%>.P..uF ]9 -$ ,# D, ,# =T O^ C6 yB iz h#.!1.VQ VQ aO JV b] j..y2 1$.9O <9.tD & .",
"}l+|l+1l+2l+3l+4l+5l+6l+7l+8l+9l+0l+al+bl+cl+q= dl+el+fl+gl+hl+il+jl+kl+ll+ml+nl+ol+pl+Ln ql+rl+sl+tl+ul+}  }  }  }  Zl.qo Io 0* $f.hx hx m..hx hx 8H Ho Ho 0D `. 0D Io hx ^Z }C.'Z 'Z lf+~@.[c.#~ ~ .qo cB y2 I:.|X ,< I_ ^m ~h ~h I:.ZJ d, ,< |X d, j5 q$ hW wj :x pi hW WU >8 U} vj u3 VL u3 6- <z O* O* 6- po U} D, T^ |6 m$ S- J_ 1  $& gy $& w@ P- _( )8 %+ =A +[ 1S 6* |- 9, gy ld h%.0* vj `, X} hz @k.S..I_ I:.!1 3c #& k. K. a5 =I }^ c! 8p |^ e; +1 4  R; o~ o' 8$ H2 p~ h; 9  h; k. xd.}  }  }  }  }  }  so R- q'.WT '# ;$ <5 P' H_ e& q$ jd ~h b] -$ ;$ ;$ 3( >< (x v .Jo 85 zS Ci.vJ.%$ xR oi ;n ;n h%.@c+'g Ub zo 'g Ao 'g Ub ]x jd gz Ao Ub vQ 55 }  }  }  }  }  }  }  }  }  }  }  }  }  }  x@ x@ 0! 0! |O.45 ~Q vl+wl+xl+nH.c&.b&.Nk.Tq g(+Tq s0+`! #~ qo yl+zl+Al+qF.^n.^p.Bl+^}+)k+vQ 8f Tq T] 8f &$ fN fN [  fN WU hW hW X} R- so }  }  }  }  }  }  }  }  }  }  ^n.Cl+Dl+|y.El+0! ^Y x@ l; g! @~ *G |p Y, T- 0] T^ FR U} FR n5 o5 n#.!h /+ f& '[ '[ g! '[ {< {< T^ e%.![ hz e%.e%.jx vf vj 'g 8* <Z  ` 63.",
"Fl+Gl+Hl+Il+Jl+Kl+:e+Ll+Ml+Nl+Ol+Pl+Ql+Rl+Sl+Tl+Ul+Vl+Wl+Xl+h_+h_+Cn 0g Yl+iI 4|+Zl+`l+ m+.m++m+@m+#m+$m+FE }  }  }  V} W} X, X, 45 X, ax ax ~< ~< ~< 55 X, :- X, W} 1( ~< V} V} }  }  }  }  }  x@ x@ Y, |p lA H  MT S- .&.`$.r-.r-.W2 R^ A%.r-.A%.Dy.K@.z..Y, }  }  }  }  }  }  }  l; ~< T- ~< T- Y, ~< Y, ~< l; Y, x@ @) Y, T- u#.<x @c+50+3, k; I_ -G I_ 6- }6 !1 e, k#.,4 tm gy R] 25 Y} 8f A. l; }  }  Z, 0] {< hW WU 8f Oh BR %$ W, &t W, }N.W, }N.85 g2.+~ cB #$ #$ Y} cB -G 9* O* [+ y2 C. }  }  l; 1( S] wj ~v R- R- .&.R- pi *G S- T- Y, x@ x@ Y, 1( T- W} 0] 1( ax 0! so }  }  }  }  so so 0! ro 2, 2, 45 45 ~< ~< |p l; l; }  }  }  l; }  l; V} V} }  so so 0! so so }  }  }  so }  }  }  }  }  }  }  }  }  }  }  so %m+lH.:r.^p.2c V} J8 xj Wb Wb 2c Wb 0! ax ax 2m.1o.oH.`z.c&.2c so so V} V} so so so }  }  }  so so so so so }  }  }  }  }  }  }  }  }  }  }  }  }  {n.&m+|y.CA.4N.ax |&.x@ }  so l; l; ~< Y, |p l; V} V} V} V} V} x@ V} V} }  }  }  }  }  }  }  }  }  }  ~< 1( ~< ~< 45 45 1( 1( A. (m wj T- ",
"*m+=m+-m+;m+>m+,m+'m+)m+!m+b{ ~m+{m+]m+^m+/m+(m+_m+:m+<m+[m+h_++t +t l; |p ay h_+}m+|m+9s 1m+2m+3m+4m+5m+L2+}  }  }  }  V} l; Y, l; l; V} V} V} V} x@ V} x@ V} Z, ~< Y, Y, x@ x@ x@ x@ }  }  }  x@ x@ ^Y x@ x@ x@ ^Y ^Y yu 6m+7m+8m+9m+0m+am+4k+4k+pl Aw }  }  }  }  }  }  }  }  }  }  }  }  }  x@ }  }  }  }  }  x@ x@ x@ x@ Dt }  |&.lA bm+:x *G lA I8 Y, Y, Y, I8 Y, 1( W} aw R- S] V} l; l; l; }  }  }  x@ }  @) Y, T- lA lA lA ~v S- Vb xj W} S] xj 1( X, 1( 0] T- 0] 1( lA '[ #X v3 ;G pi P* yu lA u#.wj wj *G wj R- S] i%.Y, Y, x@ }  }  }  }  }  }  }  }  }  }  x@ }  }  }  }  }  }  }  }  }  }  }  so by 0! l; l; }  }  }  }  }  }  }  }  }  }  }  so V} 0! l; 0! ro 2, Dn 2, 45 @q @q @q |p |p yu yu l; Dt }  }  }  }  so d&.d&.2c }  }  }  }  so so so so }  so }  so 2c c&.c&.so }  V} x@ l; x@ }  }  }  }  }  }  }  }  }  }  }  }  }  }  }  }  }  }  }  }  so }  }  }  d&.{n.DA.<o.1o.V} }  }  }  }  }  }  }  }  }  }  }  }  }  }  }  }  }  x@ }  }  }  }  }  }  }  }  }  }  }  }  }  }  }  }  }  }  }  }  }  }  ",
"cm+Ua dm+;m+em+fm+gm+hm+im+jm+km+lm+mm+nm+om+pm+qm+rm+sm+I:+g_+0S 1( }  |p l; d_+tm+um+vm+wm+xm+ym+zm+Am+q:+ay }  Y, V} V} x@ }  }  }  }  }  }  }  }  }  }  V} )[ x@ }  }  }  }  }  }  }  }  }  }  }  }  }  }  }  }  ay NI v<+MG Bm+Cm+;e Dm+}q Em+TA TA ay }  }  }  }  }  }  }  }  }  }  }  }  }  }  }  }  }  }  }  }  }  }  }  }  ay Dt Fm+z..S- ^Y x@ }  }  }  }  }  }  }  }  }  x@ }  x@ }  }  }  x@ }  }  }  Y, yu yu ^Y yu yu T- Y, u#.T- l; x@ Y, l; Y, Z, @) @) I8 @) P* P* dE mA dE mA C, cy z..T- T- l; |p l; V} }  }  }  }  }  }  }  }  }  }  }  }  }  }  }  }  }  }  }  }  }  }  }  }  }  }  }  }  }  }  }  }  }  }  }  }  }  }  }  }  }  }  }  }  }  so so so 2c M@.Ib+rk 45 35 1( xj |p yu @) @) x@ }  }  }  }  }  }  }  }  }  }  }  }  }  }  }  }  }  }  }  }  2c 2c d&.c&.2c }  }  }  }  }  }  }  }  }  }  }  }  }  }  }  }  }  }  }  }  }  }  }  }  }  so so }  }  2c 1o.]n.1o.`z.2c l; ay }  }  by ay l; }  }  }  }  }  }  }  l; }  }  }  }  }  }  }  }  }  }  }  }  }  }  }  }  }  }  }  }  }  }  }  x@ x@ ",
"9f+Gm+Hm+Im+Jm+Km+Lm+Mm+Nm+Om+Pm+Qm+Rm+Sm+Tm+Um+Vm+Wm+Xm+5m+Ym+Zm+xj V} }  Y, |p `m+ n+.n++n+J:+}m+@n+#n+$n++t xj :- :- :- :- :- 35 :- 55 55 55 :- 55 35 45 45 Y, 0! ^|+.d+%n+&n+pa+ag }l Yl+NI NI NI Yl+xu *n+FE =n+-n+;n+>n+,n+'n+)n+n2.!n+~n+{n+wn ]n+^n+/n+8_+3+.(n+_n+:n+<n+[n+}n+|n+1n+2n+(n+3n+4n++n+5n+pa+b(+b(+6n+7n+8n+9n+0n+Yl+%=.|&.Y, }  }  }  }  }  }  }  }  }  }  }  }  }  }  }  }  }  }  }  }  }  }  x@ x@ }  Dt }  }  }  }  }  so 0! 2, 35 (m Vb Vb 1( 45 0! ~< Y, T- T- f& T- S- lA .t M+.{=.b*.an+_=._=.A*.rk  f so }  }  }  }  }  }  }  }  }  }  }  }  }  }  }  }  }  }  }  }  }  }  }  }  }  }  }  }  }  }  }  }  }  }  }  }  so by so 0! M@.9O.8O.9O.9O.%m+bn+~P.~P.x*.L@.2m L@.C. S- W} 45 2, Dn  f by  f 2c 2c 2c 2c c&.^i+^i+55 |O.A*.{;.[m <m 1m d*.cn+dn+/n.^n.fC.2c 2c l; @q 45 _m _m 35 2, 0! 0!  f  f  f by 2c  f  f  f  f  f M@.M@.M@.M@.Ib+M@. f by c&.1o.]n.^p.oH.`z.c&.so 2c so so }  }  }  }  }  }  }  }  }  }  }  }  }  }  }  }  }  }  }  }  }  }  }  }  }  }  }  }  }  }  }  }  }  }  }  ",
"nZ en+fn+gn+hn+in+jn+kn+ln+mn+nn+on+pn+qn+rn+sn+tn+un+vn+wn+xn+yn+Vb Y, V} Y, W} AR zn+An+Bn+Cn+Dn+En+Fn+B-.&l.%y a5 a5 yy.T, Gn+yy.qK %y Z! ]_ G2 F@ qK gy gm :C.Hn+In+Jn+Kn+Ln+Mn+Nn+On+Pn+Qn+Rn+Sn+cu Tn+Un+Vn+Wn+Xn+Yn+Zn+`n+ o+.o++o+@o+#o+$o+%o+&o+*o+=o++m+-o+;o+>o+,o+'o+)o+l{ !o+~o+{o+o: 6b ]o+^o+/o+p4 (o+_o+:o+<o+[o+eq }o+|o+ds |&.T- x@ }  }  l; 0! 35 ~Q Bn Bn Kq.Bn Bn Et Kq.{s 1o+/=.yn+Bn Bn  f  f by @q %=.l; }  l; }  l; }  4m [$ Lm yL `B ;U.2o+n|+Y~ 3o+4o+d5 CI bK YV.^v F_ G& Fp.q1 5o+6o+7o+#<+o* 69.8o+9o+0o+ao+x-.BQ.a-.a-.BQ.bo+rf+A[+co+do+eo+eo+$c+fo+we p9+^d+K^ V$+~_+(;.ri P*.N*.0M.N*.go+ho+S*.!s $t ~=.Fr.+l EU g; L2 B0 ~8 v* 3S @9 io+jo+ko+m).G_+x* Eh Q[ 46 N: B3.]K ]1 It `3 lo+x5 qK.7t Ma+Ma+f(.V# 6| sz s6 S~ >a Ya.qz 9<.W# ;h mo+no+oo+po+qo+ro+so+zt.cv Bb.*: 5N P$ @!+yQ.qp n~+v|+^[  b.:1 &|+q1 P5+Z0+to+uo+Z0+vo+vo+wo+Y,.K=.fz.xo+yo+zo+CA.^z.r!+Ao+Bo+Co+Do+`L.5k.`z.so }  }  }  }  }  l; l; l; }  :m ~_+0-.Eo+|4+|4+Fo+Fo+Go+Ho+w-.Io+Io+Io+Io+Io+kI 3o+kI ao+Jo+Ko+Lo+'*+",
"Mo+No+Oo+Po+Qo+Ro+So+To+Uo+Vo+Wo+Xo+w9 Yo+Zo+`+ `o+ p+.p+BE |l qi W} V} x@ x@ %$.;G FR hW Ub #$ h%.<- 7* H| =# P0+a' a& @: aQ K[ I, +: R8 ;~.+p+dK eK Te.Y^ Gv :1 @p+#p+$p+%p+&p+*p+=p+-p+;p+>p+,p+'p+)p+!p+~p+{p+]p+^p+/p+(p+_p+:p+<p+[p+}p+|p+1p+2p+3p+4p+5p+6p+7p+8p+9p+0p+ap+bp+cp+dp+ep+fp+gp+gp+hp+ip+jp+kp+lp+mp+np+op+pp+qp+rp+sp+tp+X[+lT.XJ e-.#{ (w jn V& it E9+^. ,~+K_+Kr up+vp+Y1.wp+B)+b8.u5 B0 *t xp+so Cn +t .t ~v V>.}  so so yp+bn.zp+x:.pJ.l  Ap+Bp+Cp+//.Dp+Ep+j3.cK Lb >4.w& }J <O.PQ.,y +; Fp+m[.Gp+X|.j| 4T Hp+Ip+0~.Jp+4U.+* Kp+:[+:[+$' 6a jV.fX.3E Cm VN.Lp+|].G+.W= Mp+Np+Op+q+ qO l`.Vb+Pp+Qp+Ee PH [7+e*+6D vp rG Dm.Rp+tq Xg Sp+Tp+'(.Up+QT u^+tn.Lx r!.O  L<.1(.Vp+PR.Wp+Xp+Yp+Zp+`p+`p+ q+.q+cJ dJ H>.+q+M1..9.%#..9./_.@q+#q+$q+%q+DK.A  /Q.&q+*q+=q+-q+;q+>q+,q+'q+)q+!q+oh 5>.:. ~q+q| vq.$,.{q+]q+t& t& ^q+t& dh O} /q+(q+_q+gF }d kT.D(.QR a5.:q+<q+.A.kE.[q+}q+|q+1q+2q+e:+y~+dn+c&.}  }  }  }  so l; by 0! so _l 3~.t& 6@ j| j| 3q+V( 4q+5q+Q0 T{.19.x% 19.-' 19.#* #* 6q+m}+7q+8q+9q+",
"0q+aq+bq+cq+dq+eq+fq+gq+hq+iq+jq+kq+lq+j/ mq+nq+oq+pq+qq+rq+xn+]=.Vb V} V} x@ a, yB YQ )P s[ i; rT =4  ' uC 9z n1.5O FS sq+`/.,/ WE.tq++m.@m.[{.pI (D.G] Ul.u( uq+vq+wq+xq+yq+zq+Aq+Bq+Cq+Dq+Eq+Fq+Gq+Hq+Iq+Jq+Kq+Lq+Mq+Nq+Oq+Pq+Qq+Rq+Sq+Tq+Uq+Vq+Wq+N1 Xq+Yq+Zq+`q+ r+.r++r+@r+#r+$r+%r+&r+*r+=r+-r+;r+>r+,r+'r+)r+!r+~r+{r+]r+^r+/r+(r+_r+:r+Np.k^ *A Xd.Vj ~6.<r+[r+}r+|r+v6.1r+2r+W! Q, 3r+4r+`u.8g.0e PQ L2 5r+Ib+{s p#.J:.Dv J@.45 2c c&.6r+7r+8r+9r+0r+ar+br+cr+y/.dr+er+fr+)L p9.4H  x c$ gr+~L hr+ir+%}.jr+>k p[.v,.D< kr+lr+u# gH |>.mr+~{ u# nr+uM.o|.N0 or+:7+|&+<_.F@+bL pr+qr+rr+sr+tr+ur+vr+:{ Vh.wr+xr+yr+zr+y` D/+6:.]F.:0 Ar+Br+Cr+Dr+Er+Fr++[.B! ;(.<'.zh p* 8. ;; S! #d.st.Gr+Hr+Ir+Jr+0/.Kr+Lr+Mr+Nr+Or+Pr+3#.hJ |Q Qr+Rr+Sr+uv.Tr+2|.`p+AT.S}.Qs G$ Ur+Vr+Wr+Xr+>J.Yr+Zr+`r+ s+.s+17.+s+K< @s+#s+N|.$s+%s+&s+*s+((.=s+[r+*h s4.-s+;s+&Q n~.>s+,s+'s+`) )s+(/ !s+~s+!T.4r.{s+qY.]s+^s+/s+(s+VM._J.d&.}  }  }  }  l; @q @t 35 <T JH O)._s+V1.:s+:s+<s+[s+[s+`.+}s+g4.)@ U1.|s+V|.f4.1s+2s+he .= 3s+4s+5s+",
"6s+dm+7s+8s+9s+0s+as+bs+cs+ds+es+cj+fs+gs+hs+is+js+ks+*B ls+ms+CR xj }  }  }  a, 0O _| &Z ]Z e^ L  ns+N>.)B.d7 J1.[{. m.`k GM GS <,.xp.f] f] 0H os+0f.ss.ps+4M w0 qs+rs+ss+ts+us+vs+ws+xs+ys+zs+As+Bs+Cs+Ds+Es+Fs+Gs+Hs+Is+Js+Js+Ks+Ls+Ms+Ns+Os+Ps+Qs+Rs+Ss+Ts+Us+Vs+Ws+Xs+Ys+Zs+`s+`s+ t+.t++t+@t+#t+$t+%t+&t+*t+=t+0% -t+;t+>t+,t+'t+)t+!t+~t+`x Kb Xg f;.V! .9.{t+]t+^t+f`./t+is.(t+zw.)5 _t+w4.Uk P! =F Cs `n.*7+2, B. lr P=.@l oi :- so so m6 .C M)+:t+<t+[t+}t+|t+1t+2t+3t+%m 4t+>v Xj.<2 >b.5t+I& ]' or+5~ S< ,V <U.+] Jd.uq.6t+wa 7t+8t+or zL.ij.3@ 6;.9t+G4.N= X> h>+|].|9..q+0t+1^.at+bt+ct+dt+st.xL &]+et+ft+gt+ht+it++a .y.Bs jt+kt+lt+mt+nt+ot+pt+#(.kD C$ ;&+gv Lx ~+ 58.G(.4o qt+rt+N1.st+tt+ut+vt+wt+xt+yt+zt+At+Bt+Ct+Dt+Dt+Et+Ft+Gt+Ht+>2.It+Jt+Kt+Lt+Mt+Nt+Ot+Pt+Qt+bI.Rt+St+Tt+K1.HJ.Zl LO Ut+Vt+>! 4|.}$+>! wq ((.AT.H>.zk.Wt+V  *9.+9.Xt+Yt+Zt+Qs +9.!3 #q+v9.`t+~p. u+.u++u+@u+#u+$u+%u+zA.5w.{z.d&.}  }  }  }  so 2, 2, :- _m T, yu.&u+DL.Sl.Sl.*u+17.=u+-u+;u+>u+,u+&c.V> ge &c.'u+'u+V,+ld.)u+!u+j>.",
"~u+{u+]u+^u+/u+8s+(u+_u+:u+<u+[u+Wd }u+1|+|u+1u+2u+Mu 3u+4u+5u+En M+.1( xj 1( `, +S 6u+7u+8u+JK.9u+Jo.$z.C- &d Hj./Z aa !_.yg+ m.EW nN ID )8 dA !D 0u+N>.ra.5h.F! au+bu+cu+du+eu+fu+gu+hu+iu+ju+'n+h) ku+lu+mu+nu+ou+pu+qu+ru+ru+su+tu+uu+vu+wu+xu+yu+zu+Au+Bu+Cu+Du+Eu+Fu+Gu+Hu+Iu+Ju+Ku+Lu+Mu+Lu+Nu+Ou+Pu+Qu+Ru+Su+Tu+Uu+Vu+Wu+Wd Xu+Yu+Zu+`u+[N 8r 4O pV  v+ES.|9..v++v+U$ F:.E$  N @E.@v+qc.sn.~F.0z cK 1| H..*t w*.Xq ;T G~.&l.'C xj so }  #v+ho.]3 (d+$v+%v+V#+3s+=<.K1./q+Jp.55.Vu f<  A =u ^{.zU X; mf._3 #]+[8 >..o|.N2.!f._W Yu Vg mr Jy.@,.<f.5< 06.Dz.l3.E- k1 P| I+.&v+v4.iN.AJ.*v+=v+-v+;v+e=.0S.>v+,v+'v+)v+!v+~v+Z< B6 =W V4 8z es.{v+]v+^v+/v+ps.QR _c jv P$ K; 21+!g dd sC ,^.;5.5< w~.yT.i0.y6.KR (v+_v+:v+<v+rK.[v+U! KR KR }v+|v+|v++9.1v+T! O_.L] [^.G< 2v+3v+4v+5v+4J.{=+6v+e{.u% (c oh 7v+Q^.__.Ve {q+$# nh I- 8v+o7.&z  N 9v+n7.0v+av+6{.bv+i0.i0.d$ cv+'3 dv+9/+Y(+ev+fv+gv+hv+iv+jv+kv+lv+0F.d&.}  }  }  }  ro /=.1o+'s jP.I2 L(.&:.&z mv+(f.2p wq.zJ.Qs U! Eq D1.Q++nv+ov+|Q.Q++(Q |Q.J'..N pv+6;.",
"qv+rv+sv+tv+uv+vv+wv+xv+yv+zv+Av+3s Bv+c(+i_+}|+Cv+yC Dv+Ev+t:+En @c+e, 9* }6 O' p' p' GW P0.Fv+#S mN =# m` j{.a' OK Gv+%S H=+{F.@m.h3 2_ l..8$ o~ c6 n( f] D)+*& *3 Hv+Iv+Jv+Kv+Lv+Mv+Nv+Ov+Pv+lC Qv+7: Rv+Sv+Tv+Uv+Vv+Wv+Xv+Yv+Zv+`v+ w+.w++w+@w+#w+$w+%w+&w+*w+=w+-w+;w+>w+,w+'w+)w+!w+~w+{w+]w+^w+/w+(w+_w+:w+<w+[w+}w+au |w+1w+2w+3w+4w+FX.-* mh P~+*C.5w+6w+O +t] 7w+F'.8w+3g.#-.5< ]D.h6.Io.eE 5].6n l6.q} 9w+0w+0M.'S P=.ld [  }  }  }  ^i+S7 +| *6 G0.ae %z /D./D.Kv Mt xS *I ;E ey Mb x' h+ s} Rm 8' kV.ho.f6+aw+@a bf T* #p 9_ b_ pv b_ z[ M$ mb pO bw+`# l8 <- |$ b~ 7r q|.v( v( 9J ^I cw+81 ND =Z.dw+ew+fw+gw+hw+iw+jw++f R~+-# ya hG Xt._D.[9.kw+-~.r'+q! JJ I:  b.{8 y& z,..3 K7.Hp |- QQ >g ot L, 58.;m.]D.wb @w.1I 5r >J P! `# .x 9*.Vg , +s3.2* tC b_ 91 lw+~6+mw+nw+ow+&$+pw+qw+Xs rw+*f [6+[6+6~.bc =; !9+qO mq `# Gx *# Hv .0 *# ,a ,a ot %z od.Io.Io.)5.|e qc sw+qI.hR.Xz.8H.tw+uw+vw+g'+ww+xw+ev.d&.}  }  }  }   i+yw+R[ Ip eV H..$0 4M zw+Aw+=R Bw+@L ^D.e=.%z 5O nP `k `k 4U `k X<.Cw+G] .` :9.cK 4r ",
"Dw+Ew+Fw+Gw+Hw+Iw+Jw+Kw+Lw+Mw+Nw+Ow+Pw+%=.X[+Qw+Rw+Sw+Tw+DE Yl+.t <t e* 2X d] 1X }5 ^+ O; %K Uw+cn @m.Y^ L. @: J, 8S 3>.>/ FS p|./C.Pt Z. X. 2_ >& 8! q7.=A 9D 01 #9 38+Vw+Ww+Xw+p#..7.&) S&.,C Yw+@4+Zw+`w+ x+.x++x+@x+#x+$x+>w+%x+&x+*x+=x+-x+;x+>x+,x+'x+)x+!x+~x+{x+]x+^x+]x+/x+(x+_x+:x+<x+[x+}x+|x+1x+2x+3x+4x+ty p#.T^ OK.5x+6x+7x+8x+9x+U&.7n 9n bc )(.g. 0x+ax+EK.bx+1Q.cx+zT.~L >w  8. 8.p7.}J dx+ex+D0.F( wT {P.ri zj :=.Vb }  }  }  xM.8H ,[ 15 Un.qS qF u} fx+5E w} dB -G.[P 0< u' w- h^ D  m` 4; 8' rw+Lr {+ 0' jn }+ }+ i3 *4 ]* s$ %{ I[ WF.u1.uT gx+Z  jd 8f B[ Bj.|(.-& IM  q pN *I 8O x] hx+ix+jx+kx+lx+mx+nx+^9.,' YK N_ ;%.x[.*E eD ox+$&.px+^|.5b+jt }^.N|+B6 S* .3 q; o( ^w O# Zw 8O x~ ]+ >p Q! <2 X' P_ |2 Gv s} 3x tC Uu /Z )$ Bj.[( l8 dA 9w 1X m' z0+qx+rx+sx+tx+ux+vx+vr }( L. f++={ !_.D}.+p+L. I[ +m.zw+ba C- At.8w .S pA 7_ 6_ I, [o RN d7 wx+:2 pH xx+.A.nF.!T.>L.yx+zx+Ax+Bx+Cx+Dx+nx.`z.}  }  }  ~P.JB }B.k* -h RN || $g -G.!Y Kn.h< 6U fR fR eK +m..l..l.Bj.5  rb  q 0_ J7.h< IM cd {%.c& ",
"Q:.Ex+Fx+Gx+Hx+Ix+Jx+Kx+Lx+Mx+Nx+Ox+Px+S] bm+Qx+Rx+GE Sx+b5+%=.~< y2 't r5.'8.&E b7 `2 0$ D)+}:.Ye.J[ |L ;~.]+ Tx+[G {F.;5.GS G] d7 =4 15 k. K7 a^ O; =A =+ 4  tm && z. Xo Q=.{_+Vw+Ux+Vx+Wx+Xx+Yx+Zx+`x+ y+.y+Gu++y+-t+@y+#y+$y+%y+&y+*y+A) =y+-y+;y+>y+,y+'y+)y+!y+~y+{y+S9.]y+^y+/y+(y+_y+:y+<y+[y+}y+|y+F) 1y+2y+3y+4y+5y+6y+7y+8y+9y+0y+jc+|J ~|.G3., +|^.ay+_#+by+R> Tr+cy+dy+ey++[.rt+fy+Fq b2.iN.^,.gy+Eq H< W. y<.c; s(+Bo so }  }  }  26 F]+|5 2z O>.4b.&g Xn.1Z <9./3.&g hy+9d.:N oc.W' an iy+:[ +p+jy+%S !_.!_.;~.g] ba }( f] <( P# =# i< [{.#g ky+ly+Pk.c& vf jx o6 {[ xp.0_ E@ x~ g< xS -& !4 my+ny+oy+py+py+qy+ry+sy+b; `9 sA Nr Yn.$t.p{+ri.ty+_,.uy+vy+*x.k3.Y' s. Mt xS y}  3 =y.+1 oN s2 #9.fR /D.[2 As /I FM N7+d7 -& x~ f7 u( QN Wj.wy+{{.#z 9O sF VT VJ xy+yy+zy+Ay+By+Cy+Dy+gi ,F.Wm.gE ut.pG T .<{.:{.cn Jm.Ey+0F fx+M  5E #z cd  q n>.@&.mc.Wm.mc.SN U .Fy+Gy+<r.:t.nx.Hy+Iy+Jy+Ky+Ly+xw+My+nx.fC.}  }  }  Ny+t8 `;.f[ be =u f< #C.V` :$.M>.*E p{+|W |W #&.Ey+0V #9.os+HV e< 9d.J3+9F 1Z mm.e< 7).5E ",
"Oy+Py+Qy+Ry+Sy+Ty+Uy+Vy+Wy+Xy+Yy+Zy+`y+~s  z+|&.%=.by b(+}  Y, I8 <x yo j5 d, $^.V2 G7 c* rT s~ s; Z  iy hy U- F! r} fy 81 xS s2 #z B- a[ [5 Qb  . A0 e] z4.r; K7.(>.mI |v .z++z+@z+#z+$z+%z+&z+*z+kg+=z+-z+;z+>z+Vm+,z+'z+Jg )z+!z+~z+{z+]z+^z+/z+(z+_z+:z+<z+[z+}z+|z+1z+2z+3z+4z+5z+fj+6z+7z+=q 8z+9z+0z+$j *k+az+bz+cz+dz+ez+fz+gz+hz+iz+K: |M 5e {%.h+ 3* >/ jz+u&  N #d.kz+lz+mz+nz+oz+Bo.oz+[J wM.pz+qz+Qr ~/ iQ }+ H2 9v :- ax dA.Ch.Zi.#m.`2 Un.r' 68.@p.t2 m/.ii ii [O.rz+e_.1Z <9.Nr gB HV n>.iy+up kT #9.J7.E@ gG eI Vd.aH pN *I ;& y} || Ey+]2 sz+tz+DW N_ tH tH =M Nr uN &M bH g7 x6 w[ D  |- Tb+;g+uz+vz+wz+xz+yz+^h Sa.&>.C,.2z sF BU 5!.KT $t.gE 9g.jc+Kd.q9.zz+=F #A PN rb iy y& 8!.eI |i.@>.<2 [2 As pI !^.oq oG dK 8J Nv wx+dK 8< x~ ST pN !D r' 6}.6}.d] Az+Bz+Cz+ Q.Dz+Ez+Fz+r~ 92 /K 5x  s.Or ,G.bD Gz+|i.SV )g.JT !;.9#.9#.5e 5e dB v} S4 m/.7).m/.u].n'.Hz+Iz+{o.}o.[_+Bj+Jz+Kz+Lz+TM.Mz+Nz+(z.1o.}  }  so l=..) B6 k< ;K 9< 9#.!Y >Z * .}i.Wk.>G ,G.)g.Q4.TV gB pJ u} bh.`Y ( .@I _ .9d @I Oz+6[.`Y ",
"Pz+Qz+Rz+Sz+Tz+Uz+Vz+Wz+Xz+Yz+Zz+`z+ A+l; }  x@ }  }  }  }  x@ }  Z, Y, lA 1( S- lA =G a, X} $$ Ub p#.BR 9! &) &) .{ .{ vj vj ~h n#.D, I  h! hz ;G a] n#.]< 3c 9  b; .| .A++A+@A+#A+$A+%A+&A+*A+=A+-A+;A+>A+,A+'A+)A+!A+~A+{A+]A+^A+/A+(A+_A+:A+<A+[A+}A+|A+1A+2A+3A+4A+5A+6A+7A+8A+9A+0A+aA+bA+cA+dA+eA+fA+gA+hA+iA+jA+kA+lA+mA+nA+oA+DQ |` hR lm Co YQ hj.^m P- 4  T' 1;.i3 h+ h+ 85..3 .3 Mb u~ Z  Zw (U N7+4* t< zf+po g%.(m so ;t.w1+xO pA+xq.{d.Qq ~9 ,*.qA+ig.+K w .w .KT C~.rA+kL kL :$.bh.IV W` 'o.}Z _$.Wk.u].qF sA+eB Q0.O>.%R ag.tA+5d &I hy+uA+vA+wA+hy+t( r' lT ;g lT R . M d< {D tV q5 Qq  t M; xA+yA+zA+{(+AA+c*.Vj.g! z..~v W} a, m$ hz 0  n` *) BA+G0.Mi.Ls.CA+'Q U& Y  iy sT .S DA+0_ mm.6z @&..r.}S }S 5_ 4n 9< c& 6!.d-.)B `  t5 p~ s[ aS )@.YQ G_ m5 e& EA+GP.FA+dy.8E.GA+HA+xq.tH O; 1X f* ;# =M ZY ]X - .f2.p5.q~ r' {D JW {D OF b7 |z )v 'h iZ D6 @ .IA+O^ JA+7x.KA+pH.LA+MA+@=.NA+=K.mB.OA+.A.`z.}  }  M@...+Hh G0  { 1` .1 KQ q~ rV xB j& -M AU ~Y -E %R e^.q~ BU 6d 6d L! 88.uc.`W uc.kN c .e$+C] ",
"PA+QA+RA+SA+TA+UA+VA+WA+XA+YA+ZA+`A+ B+0E x@ }  x@ }  }  }  yu Z, I8 Y, T- I8 T- Y, P* Y, Y, |p 45 |p @q |p T- Y, yu Y, T- ~< Y, x@ )[ x@ x@ }  }  }  x@ V} W} -T 9w+*#+CG .B++B+@B+#B+$B+%B+&B+*B+=B+-B+;B+>B+,B+'B+)B+!B+~B+{B+]B+/A+^B+/B+(B+_B+:B+<B+/%+[B+}B+|B+1B+2B+3B+5z+4B+5B+6B+7B+8B+9B+0B+aB+bB+cB+dB+eB+fB+gB+hB+iB+jB+kB+i+.#X hz e%.pY =G H  /+ o5 po 'g @c+J_ ]v -G J_ @& WU $$ @c+gz -G <9 P- Jo En l; T- l; ~< l; kd 8v >G.#m./m @I.;< K  7P x$.F7 ,+.-< AB bd ;M :| z- ]9 tH 31 {9 -< #4 'U ~[ C]  W ;< Qb }5 21 b7 b7 2z x- Ia >%.<|.E* dB -E 0< lT 6d D[.}5 }X ,U ,U sH (9  ` 2( hR vj +~ P] KH Uq (m xj xj l; l; x@ x@ x@ Dt x@ ^Y )[ @) xj P*.w5 Lp.Tv.Vw R[ FU Xr :V w- }S W' 5_ Ip.6[.L  d& -8 y@ [5 aS fV /Y CZ p( !1 ,$ vj U} `, <x v3 #X 3- [T v3 P] lB+qP.wB.}y.mB+qh+q( U}  d z@.oi /Y 2( I. 75.Ha bd l#.q5 S; M! B- n;  . I7 ,8 m+.`T d%.oz.nB+ZU )[ Z, Z, Z, }  }  x@ |p 55 oB+pB+qB+dv.{n.so 2c rB+sB+~_+tB+c-.Gm L7.BQ r_ p5 J! r( a< rJ M! # .=Z =Z a7 wN /X S} #4 S} &X 8P #4 uB+t..W%.h#.",
"vB+wB+xB+yB+zB+AB+BB+CB+DB+EB+FB+GB+HB+#e+x@ }  }  }  }  x@ Y, I8 a, *G .k .k |  R- R- X, :- qi I( }z Y#.|  |  (m C. Vb (m dA.jm `q 1( x@ }  x@ x@ x@ @) V} +t 8g+x-.IB+JB+KB+LB+MB+NB+OB+PB+QB+RB+SB+TB+UB+VB+WB+XB+YB+Zn ZB+`B+ C+.C++C+@C+#C+$C+%C+&C+*C+=C+-C+;C+>C+,C+'C+)C+!C+~C+{C+]C+^C+!n+/C+(C+_C+1u :C+<C+[C+}C+|C+1C+2C+3C+V>.m$ H  h! g& f& P* f& UZ %E z0 U} jx gz #~ FR R- a, R- hW mJ.{d+%F.~ .;8 xj l; Y, }  x@ }  hj.,}+xq.t[ @I.&F ,U i& #4 ^P uB+dS r[ J! r( P .j...U lm e& '@.H. i& FW *F n+.X..j..R3 VL '@.Tb O' VL !1 Tb r_ wD uF  t rJ Do [z ]m ~D s0.Sb !U o$ 3@.~h .{ xo X} En 0! ro ro ro 0! l; so l; V} x@ }  }  }  }  }  }  x@ x@ 0! Vj.9v 4C+OD gm +l 4  s; *I eB ]{.W' O>.[U K/.<@.a< =T >8 z0 FR WU WU ;G a] p$.<x {< {< I  H  @) @) @) P* nS R-  1+Yz.Yz.DA.}  }  }  }  }  so ro Vb 45 Vb *G p$.%E B, G7 $ .|z [Z jz LW |5 sH a[ iz  U ~P g& Y2 nS nS Z, )[ x@ Y, x@ |&.%=.q!+5C+6C+5u.nH.so 2c rB+BI.oj+2m :- Bo YJ R- I8 I8 Z, I8 I8 {< ;8 WU p$.Q^ Q^ G@ 0  xw.mT G_ G_  Q {P x3 (| p[ Q^ ",
"_b 7C+8C+9C+0C+aC+t:+3w bC+cC+dC+eC+==.fC+z..lA *G Aj.$$ U} kd #~ <t qK }^ @k 36 c! T, ]P.@@+sk Zj 8p.Ah+=}.=}.Q3 w* Q3 gC+pi.=}..| 2k yR 55 |p S] Y, xj rk hC+iC+jC+N9+kC+lC+mC+nC+oC+pC+qC+rC+sC+tC+uC+vC+wC+xC+yC+zC+>=.p:+AC+BC+CC+DC+EC+FC+GC+HC+IC+JC+KC+LC+MC+NC+<C+OC+PC+QC+RC+SC+TC+NC UC+~+.VC+WC+XC+YC+ZC+`C+ D+.D++D+@D+#D+}w+Yw+$t [  8f vQ ;8 Oh 26 0D $D+zg+gx <- ,[ Y. _x 30 *o.R] Y. Fo |$ {i  | 05 40 @X }m 0! 0! O2+[z  t @I.KM KM {9 @S lu.xB vD l#.|z [5 B^ P' T} k! [5 a[ ~9 <| lT 6d ]V f2.IQ 3( (x O' Ja 0^ k. k; V, Tq X, Y, lA I%.8f Rq &+ Ef }+ j3 8* 0] C, a, '[ 1( S] by rB+ i+%D+&D+/i+to *D+|O._m 45 0! l; so so so V} so 0! xj Vj.H0 K^ d5 H*.F2 =) H| P# V| M  iy+{[ 8<.e^.O>.yp. ` X2 pY |6 g! H  m$ H  /+ f& C, x@ )[ )[ x@ x@ )[ )[ ^Y x@ Y, fC.:r.^n.fC.}  x@ }  }  }  so so V} Wb 0! }  }  }  Y, {< Co T} FQ )8 gW P; '8 ++ Q..|6 }c.A..Y, )[ x@ x@ }  }  }  }  }  by Ui+2k+=D+Hk+/n.d&.{;.-D+Vq rk En 0! ~< Y, T- V} Z, x@ x@ x@ Y, V} l; V} x@ }  }  }  x@ }  Y, P* hz hz (+ ~P =G |6 ",
"v{ ;D+>D+,D+'D+AC+}  }  xu )D+!D+~D+{D+6n+#X A^ ]D+^D+#+ K7 oo Y. 1S ed N* G6./. V. h(+VY.=8.O| (Q./D+aT FY.mV.e1.b>+aS.(D+)U._D+:D+^C.Rv hP.{=./=.8g <D+[D+}D+|D+1D+2D+3D+4D+5D+6D+7D+8D+9D+0D+aD+bD+cD+p<+dD+c(+ay }  }  }  }  }  }  so eD+fD+gD+hD+iD+jD+kD+lD+mD+nD+oD+pD+qD+rD+sD+<w+>>.tD+uD+vD+wD+xD+yD+zD+AD+BD+CD+DD+ED+FD+GD+HD+ID+JD+KD+$: LD+%: MD+V8 +Z.~<+l^+VB ND+e8 Z5 u_ -i TO Lr OD+PD+QD+|t 9|.RD+Y'+#^ MJ AQ.H0 k' =+ [z I7 KM )v {9 -$ 0B 5z /%.F] [d l8 $z.-6.r~ jY jY BU SD+3b.p}.TD+OF.UD+V` wB 3z LW r; sT =4 O# a^ Z} so }  }  so |O.]}+}e+e~ qL %9 _t }  x@ x@ }  }  }  so =) n# VD+~<+Ne./]+#/ W. V0+K8  b.WD+aK kz CU Ff H0.9H M# D[ 6o+XD+z(.q! 8:.B<  ( b' Z^ y[  m.jy+dK Jm.YD+>(.s; J_ ;G U} Rb U} jd jd .{ FR T] xj X, W} R- 1( ~< x@ yu ^Y 0! oH.[o.<o.fC.}  }  x@ }  }  }  }  1( 45 by }  }  }  }  }  p( gR =8 01 >E #> s..C| ZD+o< o< t(+dN >P.kh `D+#9+ E+/i+&D+vo .E++E+ A.5u.nx.Zz.fC.@E+#E+$E+8O.c&.2c 2c 2c 2c 2c ro ro ro 0! 0! 2c so }  }  }  }  }  }  }  I( J0.C2 >P.=7+40 N*.}N.",
"%E+&E+*E+=E+-E+;E+}  x@ }  c(+$}+$}+>E+t:+FR Sb 6F _L [z (( s_ KB 9f 3C ~a.[~.Oo ,E+,E+'E+)E+!E+~E+{E+eQ.]E+eQ.]E+^E+dL /E+(E+_E+:E+<E+ar co+>n [E+}E+|E+1E+2E+3E+4E+5E+6E+7E+8E+9E+0E+aE+bE+cE+dE+eE+fE+gE+^Y }  }  }  }  }  }  }  }  }  so 7O.vo hE+iE+6k.fC.kD+jE+kE+lE+mE+PC+nE+oE+pE+qE+rE+05+sE+tE+uE+vE+wE+xE+yE+zE+AE+BE+CE+DE+EE+FE+GE+HE+O& IE+~. JE+KE+LE+ME+NE+OE+PE+QE+/O.$d.B: RE+I* SE+TE+UE+VE+WE+,( XE+YE+qL.S& V# DJ c6 D* A2 o6 ~9 ~f.31 wB %l.ZE+4@ 1> 5;.P{+]+ 9z xp.aH pS Xn.`E+ F+.F++F+@F+7x Q4.#F+!4.Wm.0_ j^ rb 8O a5 xj }  0! $F+%F+&F+L%+#! {@+*F+&#+so }  }  }  }  }   f &G $] :$+|.+$]+t-+N/ KF O2.y1.%u ~8.fL f8 mb '/ 6; wi+;{ L,+=' =F+!f -F+*}.!{ #* #Q /{ Cf.;F+s$+>F+,F+'F+)F+^D.F| z@ 4  +b.Ww 7_ Z  Dz Dz rz g3 ni vS $0 { .m=.gz kd +) !F+~F+gC. A.AD.c&.@) |q P* ax z*.Cn aw q$.u$.|p }  }  }  }  +~ K2 l< _>.Z@.{F+Y{ eG nX.gK.]F+^F+^2.7X./F+C^+(F+_F+:F+<F+*]+w^+[F+BA.{z.oF.jB.kG.}F+|F+F~ 1F+2F+3F+4F+5F+6F+7F+8F+7A 5#+J%+Z<+&D+4O.an+L@.so }  }  }  ro g<+j>+VD+(X.Q/ B`.g' Dx ",
"9F+0F+aF+bF+cF+0g }  x@ }  x@ dF+/n+eF+Zm+~ .x'+fF+gF+y'+JZ 0^ PW xT QT.m4.]k ). Bm hF+fC iF+jF+L$+kF+H`.lF+mF+nF+oF+NO.pF+qF+rF+sF+C!.17+T7 /8 tF+uF+vF+wF+xF+yF+zF+AF+BF+CF+DF+EF+FF+GF+HF+IF+JF+KF+LF+Aw ql ^Y Dt }  }  }  }  }  }  }  }  so 5O.MF+NF+OF+PF+QF+RF+SF+TF+UF+VF+UF+WF+XF+t:+|&.2J 8q.K4+n} YF+J,+Y1.Q5+ZF+`F+ G+.G++G+@G+#G+$G+%G+&G+*G+w+.Lo.X7 =G+-G+;G+>G+,G+'G+r| )G+|{ !G+S}.[) ~G+P{.{G+]G+^G+/G+=;.Q{ (G+oj u8 e; '8 {d. . KM uF |z -G._I _G+Y;+:G+lK.&9.R. rk.XP vb S4 hG <G+W .[G+SH.}G+|G+1G+2G+OI.@H.%I.@(.D}.nt To 3G+ f 4G+kk 5G+6G+7G+m5.8G+9G+B5+^i+}  }  }  }  }  so %f F:. |.{f ~].)-.0G+/0.@8.ee.aG+/{ }(.(A DY.bG+pV cG+)_.dG+eG+fG+gG+hG+iG+jG+N< g3.R3.+)+!<.kG+)-.lG+mG+Z> me.ck Sm >p D6.4O N_.N_.l3.C'.Z/.*f Y& ({.J'.v& oA h; O; nG+oG+pG+qG+/o.rG+sG+g! tG+=T U<+1m z*.qi BI o#.jm 0! }  }  }  _m >d+Ma <C uG+c1.vG+wG+/S.J{.xG+yG+zG+AG+BG+CG+DG+EG+FG+GG+HG+IG+JG+!n.Zz.[o.<o.KG+~v+LG+MG+NG+OG+PG+QG+RG+SG+TG+UG+VG+WG+M +D; XG+YG+Em x0 fN }  }  }  x*.c1 .! ZG+VG+%)+`G+dS.gC ",
" H+.H++H+@H+<9+xu }  }  }  x@ #H+$H+%H++~ O~ )l+A-+&H+M_.>G.+& 7v xi+f6+=~ 5^ *H+<& s}.hP E|+]k FO.)W.9|.9|.}3+]U.YT.=H+-H+;H+oF+k(.x$+'p #[ @l >H+,H+'H+)H+!H+~H+{H+]H+^H+/H+(H+_H+:H+<H+[H+}H+|H+1H+2H+!l+|q ql ^Y x@ x@ }  }  }  }  }  }  }  5O.3H+4H+5H+6H+7H+8H+9H+0H+aH+bH+cH+dH+eH+fH+i%.jd +b.gH+*; &8.k( o! >g /^.A:.hH++z.iH+jH+kH+lH+mH+ /+nH+y_+oH+v8+pH+qH+rH+sH+M5+tH+uH+nh vH+W<.wH+zb xH+ <.yH+zH+AH+BH+CH+DH+EH+c[ u8 hh A& [z ~D M! S; tV -w FH+GH+). HH+IH+JH+KH+lm.k~.]|.m` $0 9F g8+aa.LH+2G+MH+rp.tt.NH+OH+PH+4; Q: [y QH+RH+SH+TH+UH+VH+WH+XH+YH+ZH+`H+ I+6F+D5 .I+;X.En by so 0-.3g.+I+@I+ ,.=:.,d.'* 6;.&v+#I+$I+B}.LH 5< pb pb :[.9. ]-.%I+&I++g.l].*I+=I+iM.-I+(/ ^` ,E+v].'Z.;I+>I+E8.-:.$<+zl.5< u>.J] ,I+ z.W7.2C r9.vk z6 v# F:.'I+sC z,.0$ !_+)I+!I+~I+{I+]I+^I+/I+(I+!P _I+#P.hC+|  T] z@.-r 1>.7* +Q :I+K|+Hh nh.!8.%* ). <I+[I+}I+o].sH+|I+1I+2I+3I+4I+5I+6I+7I+8I+9I+0I+aI+oF.jB.nH.<o.bI+cI+dI+eI+fI+gI+hI+iI+jI+kI+lI+mI+nI+oI+R3.-C pI+u}+Io.fy ~%.x@ }  }  c*.^G 9].qI+Z!.<).D7.1++rI+",
"ay sI+tI+uI+vI+h_+}  }  }  }  V>.wI+xI+0).H<.yI+zI+AI+<  &H+v'+3e+Tx.#k c. BI+&| sv CI+ZB 4. DI+TR.Op.EI+n=.FI+Q)+Pm.2T tA.GI+*P _; Kx .4 &4 G7 xX eA.{5.v%+HI+II+JI+h5.KI+LI+MI+NI+OI+PI+QI+RI+SI+TI+UI+VI+WI+XI+/9 I@ hR O~ aB C*.}  }  }  }  5O.jD+YI+ZI+`I+ J+.J++J+@J+#J+$J+%J+&J+*J+J9+T- q#.R; qv J, sC +m.hY =J+-J+KJ.$T ;J+4(._$ /a Op.&9.tn.>J+,J+'J+Pe.)J+!J+~J+{J+]J+:S.20.^J+ (./J+(J+>+ _J+:J+<J+[J+}J+|J+{; <y hh.!' Rk.9z g< k& IQ %R -E - .pJ Q_ ND+@U.1J+2J+3J+4J+5J+Av .U.=>+6J+7J+}j 8J+9T 9J+(D.|W b$ Jb 6U c& PD )i.J!.0J+aJ+bJ+cJ+dJ+eJ+fJ+gJ+hJ+iJ+jJ+kJ+lJ+iS.O0 {8.a-.Bn 2, h, W  jo }(.$I+^/ mJ+nJ+%D.;v+Nz.$w.Ht o} !S %p Nl D^ oJ+:C ]` pJ+qJ+rJ+sJ+tJ+mL.{'.s- V; :3 N,++8.G2.uJ+g3._C Y6.'K |J Hs #v.L2.Sd.vJ+l1.Z/ ^^.`& wJ+xJ++E.8S f; o' ,h yJ+zJ+AJ+BJ+CJ+DJ+EJ+FJ+*+.GJ+HJ+,j.JA+~< qi IJ+JJ+KJ+l*+LJ+s!.$f N_.;2.-m.n;.__ MJ+NJ+OJ+PJ+QJ+RJ+|I+SJ+TJ+UJ+VJ+WJ+XJ+YJ+ZJ+`J+CA.:r.:r.<o. K+.K++K+@K+#K+$K+%K+&K+*K+=K+-K+;K+>K+,K+'K+TJ )K+!K+I] Mb o%.u#.jd vJ.go.<'.R;.+'.1).~K+{K+]K+^K+",
"rE+/K+(K+_K+:K+b5+}  }  }  }  wj <K+3, Z&+wO [K+=4+}K+v'+7$ C* nm UJ v0 #6 e~ T* &9 x5 sq |K+n1 x(+{g.1K+2K+3K+n>+DI+<; o).P: Zr  3 Xr '8.iN (P 8P ;]+AN sr u0 ~{+R)+X@+4K+5K+6K+7K+8K+9K+0K+J2+aK+bK+cK+dK+sa T/+eK+%w.Mt.kT T' $$ V} }  l; }  <T ]a.fK+gK+hK+iK+jK+kK+lK+mK+nK+oK+pK+qK+rK+'[ !9 1X Nt )$ )$ /Z @m.e7 -J+m} Vk.sK+S` r6.VD+n* g++tK+c  ,1 +<+uK+vK+wK+xK+yK+zK+AK+*z xb _G -U BK+>+ /q+CK+DK+EK+='.>3 FK+GK+!x.5o HK+IK+;I.}S Q0.V` &M v} /K x~ Xm Ia.no.JK+KK+LK+MK+NK+OK+PK+QK+jr+RK+SK+TK+UK+Qn.s; Wu JM f; f, Z<+9q.VK+WK+XK+YK+ZK+`K+ L+.L++L+@L+m:.#L+$L+%L+&L+*L+=L+uQ P*.o#.N- 8S D! -L+;L+ :.gE 7z #w.u} jy Zw m! 4; Z6+`w Rm /* q< P} y: >L+,L+'L+)L+!L+3. 1> Ep+~L+X> }8 }t %[.6t+.6.)n It ]1 _G 7g..A Lv +y .x qk.^^.^. `& rL. [.(f.58.M^+{L+5, ]L+^L+/L+(L+$L._L+:L+<L+{P [L+8]+}L+(m Y, 0S |L+1L+2L+3L+&Q w7.4L+5L+::.{,.T/ 6L+4^ Lo KZ.7L+8L+9L+RJ+0L+aL+bL+cL+dL+eL+fL+gL+hL+!m.nH.nH.DA.iL+jL+kL+lL+mL+nL+Oj oL+pL+qL+rL+sL+tL+uL+>_.[c+vL+q6.hc.Ra.+t 9* wL+3>.Rh g8 Jc.dL xL+yL+zL+%^+hT.",
"}  AL+BL+CL+DL+EL+}  }  }  }  W} +~ .+ fd+FL+GL+HL+IL+A-+F]+Rb.Pv C- iY Kk w0 U& V3 M|+T&.U5+p1 JL+}* N,.KL+LL+k>+z' o).}9 -a i^ Aa q' {9 $Z q` F7 F7 Qp.|G _9 -[ ML+NL+OL+PL+QL+9E RL+SL+TL+Bm+UL+VL+Du hG aF =U E}.@L WL+}J %{ -r ~< x@ |p V} M@.XL+YL+ZL+`L+ M+.M++M+@M+#M+$M+%M+&M+*M+8g a, jx A2 *4 @6.@(.@(.J1.=J+=M+-M+Vk.;M+!S ;{ d8 _$ /[ ~Q z*.=X. h.>M+,M+'M+)M+!M+~M+{M+3|.$3 eA.w} ]M+^M+J'.^q+/M+C).,b..a.Um.G3.bO 2i.dx+ee H7.e< o'.@p.@I ( .tb `4.+$ [h N!.(M+SJ+_M+:M+<M+[M+}M+|M+1M+2M+3M+4M+Oq nm r5 t' pq.G~.2m K0.;~ 5M+6M+7M+8M+9M+0M+aM+Ub+(.+.a 7o+vx ~a bM+cM+dM+'3 6| pK #& Hp d>+eM+fM+gM+hM+iM+re+`J >8 W} <t  q aa %w x] y, {+ *C.h. jM+kM+lM+mM+Ht ~I nM+=x.oM+QT.sW o3.#~.w] mq >p Hv !| 6e AN Ku.Qo.Yw 'Q  x !g.+k.W/ pM+qM+rM+B1.-5.Uo *t 9v sM+tM+uM+|r.vM+wM+xM+yM+)U zM+AM+BM+55 }  0] C,.CM+DM+EM+Aw.dJ MI.do <:.FM+ ) (-.GM+  +=H+HM+IM+JM+KM+LM+MM+NM+D_+OM+42.PM+QM+RM+SM+<o.^n.]p.TM+UM+VM+WM+XM+YM+ZM+`M+ N+.N++N+@N+#N+$N+X{.%N+Ow.4t l3.K2 ~Q T' &N+$(.*N+5>+t).=m.s`.kW r`.=N+-N+",
";N+>N+,N+'N+)N+!N+x@ }  x@ x@ C. Sq  + yI+~N+6|+w1+;4+fF+ta.{N+of++^.=& 2| i< jK Np.V5+]N+^N+p1 /4 m,+Ef+/N+Bx 6^ H# {4 9_ oN #z Q0.%R M! Q .%4 Fa .K XG.Pb fV &3 5>+(N+_N+ib.:N+9E <N+[N+}N+:r+|N+1N+Ba 0F vp X' Vg 1e C-.:; iQ tO B. lA :x |p z*.2N+3N+4N+5N+6N+7N+8N+9N+0N+aN+bN+cN+dN+eN+z..H! jz )C }( I[ hY `k Jv.fN+gN++0 hN+w] A3 r!.7( |3+2,  f iN+jN+kN+lN+mN+nN+oN+pN+qN+rN+sN+IJ+|| tN+Mq.KR 2p uN+vN+y>.$w.]D.2i.>| Wg V7.nz+wN+JT Da $e.+e.6[.52 &u s6 v7.%U.xN+yN+zN+AN+BN+CN+DN+EN+FN+GN+HN+IN+;) S' k& !;._P JN+dN v5+KN+LN+MN+NN+ON+PN+QN+S;+ht u~ 6D Xv %w PB 7k [*+>; E^ G| D,.9w !D I, 4U  m._^.[o gi /@.l; }  }  /Y gI Wj.x~ xk M- +O kN.c1 B).RN+ic+SN+h`.`u.TN+UN+5^.G4.[:.y< VN+Wo.P_ >4.3P /5 .n.Er.Yv WN+P3.e9.[g.#@+XN+YN+ZN+`N+ O+.O+ * O,.CQ.+O+@O+#O+$O+%O+&O+*O+=O+-O+,8 ;O+>O+,O+,j.2c  k `n.'O+)O+!O+sK.~O+}r+ [.{O+i#+!A %* ]O+[3.^O+/O+(O+_O+:O+<O+[O+}O+|O+1O+2O+3O+y;.'&+4O+pH.5O+kO.6O+,7+7O+8O+9O+0O+aO+bO+cO+dO+eO+fO+gO+hO+iO+Q$ 'm )_.va .) g, i1 E:.K# jO+kO+lO+yh 2` &b.[-.~i.)U.",
"4k+BP mO+Nu nO+oO+pi D, $h.U@+~@.26 Ho f5+pO+pA+qO+;4+H<.JZ M_.7H )1.!# c7 s; N2 Ar.99.C)+rO+p1 sO+fi.]g.)a *P 9~.$~.|v ^u & .4!.qe.tO+[W -< 1b..K LV uO+vO+#^.~8 wO+xO+(N+`y.yO+UA zO+97 AO+g6+P_+S/+Yw 9J i* cK :o d8 <~.S/ LB Qa+Xq #X `$.u#.Cn BO+CO+DO+EO+FO+GO+HO+IO+JO+KO+LO+MO+NO+OO+X} o` M! *B.rT Yr Bi+PO+QO+>/ Vk.@0 RO+:o nd Kp J| SO+S4.TO+UO+jf.VO+WO+XO+YO+ZO+`O+ P+.P++P+7/.T! @P+#P+$P+%P+uN+Hi.&P+#8 $8.*P+WE.6O %z x4.=P+RV e$+`Z ig.Sv.C7 T4 8w qz <a -P+4I+;P+>P+,P+'P+)P+!P+~P+{P+ZG+j^+]P+e~ )B -Z zn ^P+/P+(P+_P+:P+<P+[P+}P+|P+1P+__.^%.oc.uN Tp.5E 8O -6.-a Ez U- o( G, q5 wB aH v3.4M |i.Yn.#K I_ @t @t xj ,8 !{.~G >U r' jy H, z[ U* kN.2P+3P+4P+{f.7) XN+fW 5P+^X.v# 6P+!x.Tr.Vu :|.Wm.|o (|. r..n.Jq.Iw .w ;C.O).7P+8P+9P+Ey.0P+aP+bP+C0.cP+L* dP+eP+fP+gP+hP+gh iP+jP+vg+kP+lP+kz.mP+nP+5N {r it A3 PQ.oP+>/.#] ,8.pP+0~.uG+dG+s-+P& d|.qP+rP+sP+tP+uP+vP+wP+xP+yP+zP+AP+68 BP+CP+]z.KL.2m.fM.DP+EP+FP+GP+HP+IP+JP+KP+LP+df MP+L1.FK.DK.F- #/ g| ;o.$a ^5.w1.<#+X:.NP+Fb.OP+z' 0r Dc fh 4' 2.+",
"PP+QP+RP+SP+TP+UP+q'.VP+r#.WP+XP+v1+'D.*4+]@.pA+pA+YP+'D.w1+26 D..b[ {Y !# w- $z Ug.89.=: ;<+VS '~ TD ZP+)p rL VF v0 4$ vf y- v#.dS x2 sJ 'h qv.Sv.ku.10 `P+w$.~8 >.. Q+.Q++Q+@7.@Q+#Q+$Q+%Q+1M t} }P kS ,o.di.Lv mb 13 &Q+jN+** zL 9v @& uz.z..0E *Q+=Q+-Q+;Q+>Q+,Q+'Q+)Q+!Q+~Q+{Q+]Q+^Q+/Q+t-.q'.q'.qk AR jP..| ;L+Q3.GD <G Xe.4(.o! JN+!s _m (Q+3' zp }~ _Q+@- :Q+<Q+[Q+Z: }Q+|Q+1Q+ht.2Q+3Q+;: =P Rd.=| rL.4Q+UN+`u.3i.p9.Bw+Ao.55.[g.5Q+OE.d#.&X 6Q+7Q+H9.u[ -8 9v 8Q+9Q+0Q+aQ+bQ+cQ+dQ+eQ+fQ+gQ+hQ+iQ+jQ+kQ+ff+>d+#f.lQ+mQ+nQ+oQ+pQ+qQ+rQ+sQ+tQ+uQ+vQ+{> O! Nr 5z -w 4z SQ ;# x- B- x- !v _U _U 3z &I wQ+0_ 0< '# n5 (m 2[+E(+[d F_ i! Q^ =T I! C6 zo.e& $E c~ W$+xQ+yQ+zQ+AQ+BQ+CQ+Ed.C(+[; Xm.*; 8c.]K Cs :|. x.Gf.Kr.]I Ps.+x.Zf >v i3.x,.,; DQ+ >.EQ+FQ+GQ+HQ+IQ+JQ+KQ+LQ+MQ+NQ+OQ+Pv PQ+QQ+RQ+SQ+TQ+UQ+VQ+WQ+@_ ~a XQ+pk 9~ X!+M|.YQ+/k wz oz h=+5}+r`.ZQ+TV.`Q+ R+.R++R+@R+#R+$R+%R+<2.&R++).S;.M=+uj+b&.*R+to BR ^l =R+-R+;R+>R+,R+'R+)R+!R+~R+{R+ak Lx !~ (d -Z.uz QT.;S ,)+]R+^R+/R+VN.5Z.cQ :/.Q[ Dz |9 |* (#+",
"~>.(R+_R+:R+<R+[R+]< }R+|R+1R+2R+xO =r *4+xz.pA+pA+pA+^m %F..k /B.a! s5 !D t~ 4( !Q B)+Zb+)~ D`.LB 3R+Rf 8F+1'.rO 3a $D+mJ.f%.p$.%E vf S..fs.4R+$q.s( M%.VZ S- Xx .C 5R+6R++8.y/+~E.7R+8R+9R+qS pJ tD &2.O! 9z 6r W/ O0 j:.v! u%+EQ.u/+X} .&.T- zn+0R+aR+bR+cR+dR+eR+fR+gR+hR+zA iR+jR+kR+lR+$N.$N.CR +t by 0! Aj !' Ue.DF eh -* *C.t$ mR+@t so nR+'= r;.oR+pR+qR+rR+j&+F{.sR+}[+tR+uR+vR+wR+xR+)-. P.yR+U_+J& iA.<O.h`.hc.G3. k.($.UN ;w PO >f.I3.3 .R%.zR+#4 O..Q^ T- 0! AR+BR+CR+DR+ER+FR+GR+HR+IR+JR+Jc KR+LR+v0+Mf {k.A/+B9+MR+NR+OR+PR+KM+QR+RR+SR+5) TR+<{.fS e^.tO+>%.AU 3z 3z lT jY UR+tV G! <| ag.6u d7.l' 55 }  _m Ez.VR+v6.Mp ~v /+ v3 WL WR+b@.Y2 I8 _9 XR+YR+Jp.BQ+ZR+`R+}>.;i 9| HH nd 4x c7 x6 u; 9e PQ Gf.~^.K3+Ql pP %8 Wo.lq ^$ <(.Ll Km |p <m Cx  S+^] .S++S+@S+#S+$S+%S+si.&S+*S+=S+(G.-S+;S+>S+,S+'S+ZT.DI.yp+Ag+@^ ') [3 )S+rc b8 !S+R'+~S+{S+]S+^S+/S+9G X1+P/+.E *[+(S+_S+:S+<S+>Z.94+[S+Wb |O.ro #~ }S+|S+1S+2S+3S+4S+5S+6S+7S+8S+9S+fP.0S+Ek A5+zs.}k We ca.t] aS+Y(.0^.>Y ]C.1V.}+ 1X '8.U' /r Zo ",
"bS+cS+dS+eS+fS+^f+~h VP+E%+gS+&$.<z 0D ]@.xz.]@.5|+xO 0* 8f &$ `! 15 3# R~+sT U- j< P[ in EQ.8!+q3 =b+l$+=.+Yh Bb+Yj tO :=.Bo T] hS+Yq xO o6 ~;.iS+0B m5 P* 45 +*+jS+5R+u{.z1.kS+0q lS+mS+*u 3X S .F* V4 9z fR ot W/ ^; T( R;.1< /.+cL.]=.#t 45 !b+nS+oS+pS+qS+rS+sS+tS+uS+vS+wS+xS+yS+zS+AS+`b+BS+CS+DS+2, Ib+ES+FS+dc.GS+U{.XB Xj HS+IS+<m _=.JS+x% KS+pJ.9,.LS+MS+S!.NS+m5.OS+PS+QS+RS+SS+TS+T`.US+VS+SF z< G- i3.L2.+l.,E.3O !^.VP hB #r.bS 9@.dX WS+$X TQ xw.P* l; 0! XS+YS+ZS+`S+ T+.T++T+@T+-V l[.05.u}.#T+Sg.{i ~@.$T+%T+&T+*T+=T+-T+;T+>T+,T+'T+Fn.)T+!T+s~ G! <| %R KQ 8<.!| f^ f^ !D q; LW Fq.71 5  (Z Q3 M@.so ~T+{T+]T+^T+s).55 YJ ;8 4_ e%.nA 3c.Y, TL /T+(T+#v.Ji.{L _T+8P+]= *; R_ Gv ai !| t; H~.e9..s.%2.*l.:T+<T+_G [T+Su nh.5b+}T+Yu.J2 l; 2, |T+1T+2T+3T+4T+5T+}m.6T+7T+A] 8T+9T+0,+0T+aT+bT+cT+dT+eT+T%+KH+q;+f(.z(+1' -]+KL+)i.fT+gT+hT+iT+jT+kT+H)++]+lT+EV.mT+7K nT+O8.*<+oT+M& `5 zr.$e+0! dA.1( U} /  7A.pT+qT+rT+sT+|V.tT+uT+vT+wT+C; '7.xT+)d yT+]<+2' W> ]/.<$+R;+zT+AT+BT+:/.Ex ^u |z S; Kp K8 ",
"CT+DT+ET+FT+JE :r+p( GT+VP+HT+&$.=r =X e5+f5+]@.=4+7|+~ .*G S^ 8f i+ 15 |1 5$ ~8 IH 3y (.+l$+e)+IT+,0+g+.VO.}L a~ c; j. |l.|O.Aj. + ~t y'+4c )h KK.{d.h%.@t 2, gP.JT+KT+LT+MT+kS+NT+lS+CB /5 g=.aH an  s.PH+Al.mt 6s.7. Zh /f wV.OT+PT+58+ri M7 QT+CG RT+ST+TT+UT+VT+WT+XT+YT+ZT+[5+`T+ U+.U++U+@U+9i+#U+Jb+$U+%U+c8.&U+*U+=U+-U+d`.;U+>U+,U+!}.oz 'U+%}.)U+'w 6X.qQ !U+~U+HH+{U+|2..;+]U+^U+/U+F^.fS.J~+`,.FM+l1.l3.$'.(U+!^.'E F* pJ /3.-g YL |b.dy OC.XL h! P* V} b*.OT _U+:U+<U+]! [U+!{ ,3 h| <* F( 4* |N }U+e3 9p v1+|U+v^+1U+2U+3U+4U+0N ._ v2.5U+6U+7U+8U+gG T; JQ !;.=o.c7.g=.5_ $g c& i^  3 7_ *& Xr @[ k=.9U+0U+aU+bU+cU+dU+eU+c[.{1.%y V, po f& C, @) 0O 9j.6e x].]c+U& F^ j* se ,I u~ .1 AN ~| >U ~G 4n h* ]F.6O >^.(C.kb Zf +y lh.2;.$u !9+Fh l; by fU+gU+hU+iU+jU+kU+lU+mU+nU+]m oU+pU+qU+[_+rU+sU+tU+uU+vU+S: wU+A$ {g.QB x(+}* 'p cI xU+bM+yU+/S zU+AU+->+><+BU+JQ.IQ.lK.=a }]+]f _,+v++CU+bi+^i+ax }m ~< <x F2 DU+EU+FU+GU+HU+IU+JU+KU+LU+G++%a ,r HQ.xc C*+H-+>J+!*+kG+l=+MU+NU+S/ WO $6 d-.Ha T` FQ g] Qh ",
">j OU+PU+QU+RU+SU+~h #h.TU+UU+)}+'D. + E..xz.*4+'D.u3 U} ~< x@ ~< xd.#$ -r g2.7* Xa.M[ J; =Z.VU+WU+XU+zt.S7.2M OW _x S^ `q X, g%.B^ nT q' `s eS tH fF+z. H=.YU+r{.^E+ZU+1).P^.`U+Yx  V+_X 9e 3P .r.{{.O! tq+[2 P! [b.8+ <c.tK+.V++V+L3 !Z.;U.@V+#V+$V+%V+&V+*V+=V+-V+;V+>V+,V+'V+)V+!V+~V+{V+]V+^V+/V+(V+_V+:V+<V+[V+}V+|V+1V+2V+3V+4V+5V+Z2.#; 6V+7V+8V+9V+h++Ne.zj.0V+}}+2'+aV+bV+cV+OE+dV+eV+fV+gV+hV+&R+KQ.S^+7p [N #k.QN o9.vV A(.A(.51 iV+|N.)[ )[ x@ @) V}  f jV+Y@+kV+lV+mV+ /+}*+.R.DC nV+KH %t ,C b^ Z. *3 tr '< l=.6L.eo+oV+pV+2k Ex Jt J1.G^ [S e0.qV+rV+3O )^.Jm.>^.vp =u ^K c7 x' MN @3 Ez c! Lx.<m 5O.sV+tV+(! uV+vV+wV+xV+yV+zV+GQ+qz Yo 0[ Dv #X ,& K@.AV++t g! d^.}| mL 1M r/.jy JQ AN (3.'i.tA u; pP vb <b.a_ F6.%M `x  x ]= BQ+Ed.Ht :k l; by BV+CV+DV+EV+FV+GV+HV+IV+X8 Qb 8T+JV+KV+[_+LV+MV+NV+OV+PV+QV+RV+(~+SV+H*.{P.E( *,.LL+TV+UV+VV+B'+Xb++E -C Om /.+1*+<* NB vx +Z.av $G ux WV+XV+b&.xM.45 ~v bm+T7 YV+ZV+`V+ W+.W++W+@W+#W+$W+z| %W+&W+Z!+OZ.'6.+G 6A Qf *W+=W+-W+!d ;W+_n t* b! CZ r-.%y.m! ih ",
"9E >W+,W+'W+)W+!W+B, #h.VP+~W+GL+e5+E..{W+xz.<z <z ix FR Y, }  }  lA $$ +~ wf fm s6 F( dC zO ]W+^W+/W+A1+m2+T<+Zq aw ~< V} V} $h.d^ :z ' .NY gt.iz (n Cc G6.=]+8a ^U.(W+_W+%u 09.;E.:W+=w ]{.*#.NT.C@ (D.G] L(.Ao.-l.9r c:.3O.<W+/i+80 _< [W+}W+|W+1W+2W+3W+4W+5W+6W+7W+8W+9W+0W+aW+bW+cW+dW+eW+fW+gW+hW+j8.iW+jW+kW+lW+mW+nW+oW+G=.pW+7o+l] qW+6,.rW+sW+tW+uW+VU+vW+wW+wW+%#+xW+yW+B!.N;.zW+AW+BW+CW+DW+EW+hf r9+w* kL.7r eK pP 0< AU ;g :| n` D. x@ x@ x@ )[ }  2c FW+GW+HW+IW+I-+xz 6t W} }  }  so ~< I8 c^ Bo JW+OW N# 4$ -T hS+gz >8 zo.A@.lT bB te @z U .KW+LW+S>.GI.V-.p|.pc.fE f< || =# K: 3r >E {P.MW+M@.M@.,7.sJ.NW+OW+PW+vV+QW+RW+SW+TW+=!+cC s@ UW+VW+S^ l; l; }  Y, 63.Ju.WW+ZQ 5!.Iq.C7 #K Qw.sF %I ub 4P lS 65.Ir g7 Cs ;l.5U !d.v>.83.Ws.Fh }  so pc XW+YW+iU+ZW+`W+y~+ X+{E.H. oU+'%..X+]H.LV++X+@X+#X+$X+%X+&X+*X+9I I@.&f u/+6| _$ 2' FQ.}~.Y%+o3 ]6 km.[r |* QF >* 9c ih #k y<.ZO &N l9+=X+d&.]z.c&.dA.xd.=n -X+ht+;X+>X+,X+'X+pm.)X+!X+,_ ~X+{X+9|.]X+^X+3K /X+EI.xx.(X+_X+:X+$*+<X+Q7 *) 'g =G hN {G dI ",
"[X+}X+|X+1X+2X+3X+J. LM r#.4X+)}+E..l..)l+)l+>l.u3 A^ <+ Y, }  }  S- Ao ]v 3k Qm s6 PB 6i Xs .E.s3 ,v >4 Rq 'g jx FR 0] T- 0] S..lu.,*.) .> .5[.gz ON B).5X+R)+6X+7X+qV.8X+Ik.&; k-.9X+Yw.x[.:{.PI.p~+D@ q|.vp 9z Q_ Y1.BQ.0X+aX+bX+cX+Eh+dX+eX+fX+Kk.gX+hX+iX+jX+kX+lX+mX+nX+oX+pX+qX+rX+sX+tX+uX+vX+wX+xX+yX+zX+AX+BX+CX+DX+EX+FX+GX+HX+u! 78 IX+4Y .6 :& a9.)d+Q3 _P._P.>a '> U{ JX+r,.W6.KX+i}.LX+MX+NX+OX+/[+u}+!' $8.v( Es H~.AN AU tV m5 @) )[ x@ }  45 [m iE+PX+QX+RX+#G+SX+>t j[ h! )[ ~< 45 wj `$.p$.'s ;3+.R.g; Fh <9 p( H! #^.D#.Kx.G_.* .N_ qS /%.TX+>+ O}.UX+VX+G3.%z l6.RN ]G i1 La y<.$: WX+XX+YX+ZX+`X+ Y+.Y++Y+@Y+#Y+$Y+%Y+&Y+*Y+=Y+-Y+;Y+3R+>Y+}m W} x<+1( g! HQ Hu.,Y+Oy 7d 2b.Ip.vF 1G $4 Qw.82 6g.Kr.^I  w 2x PQ Bs 0P+Xd.X! yU Vg K2 l; so P)+'Y+)Y+!Y+~Y+{Y+]Y+^Y+/Y+S} &e.c .(Y+~z._Y+:Y+<Y+[Y+}Y+|Y+1Y+2Y+uV.3Y+4Y+c:.>' #f gP 1N KL+e' Wm 6. c[ Kr =P 2~.z5 D0 D0 od R&.{r MH 5Y+6Y+{n.{n.^p.7Y+8Y+9Y+0Y+aY+bY+9R cY+dY+eY+fY+2A gY+hY+2g.[3 {i.iY+7K @Z.Z< jY+kY+>6.lY+mY++p S7 ,P.}N.$$ YV.x& k1 ",
"1n+nY+oY+pY+qY+rY+h%.GW sY+tY+GL+8|+>[ )l+xz.}6 O~ I_ R^ l; }  }  @~ ,$ o[ =I y& J: O: s..E3 3x.;X a1 (x X#.hz e%.>8 p$.q$ Q..j! uY+;M lu.Qq 8v l=.$c+m, {K+vY+wY+[3+^U.jS+xY+Ab.k-.N@.:l.x[.yY+zY+AY+BY+uS TK +1 =y.!t S*.4m <X+cC F-+CY+DY+EY+FY+GY+HY+@1 +a+IY+JY+KY+LY+MY+NY+OY+PY+QY+RY+SY+TY+l0+UY+VY+WY+XY+YY+b).ZY+{l `Y+ Z+.Z++Z+@Z+O'+~*+QJ 2N ra ZO M# 36 !t 1$.a^ @R P++sW .] #Z+$Z+%Z+&Z+*Z+=Z+F^.K&+-Z+;Z+Hs Vw.Gp.8e WW+<X l#.m5 Z, x@ }  so xy.~+ >Z+,Z+'Z+)Z+Af 1m x@ TZ J@+OC.yo id {x.T` D6 BQ !Z+'B 4  =y.R* t$.p[ 4- a  6B.~Z+h7 7).1Z az c$ {Z+oO -u ]Z+^Z+gE O! Ii.6j dd b# Cr /Z+(Z+xf+#/._Z+:Z+<Z+[Z+}Z+|Z+1Z+2Z+3Z+4Z+5Z+6Z+7Z+8Z+`G+Cv W>.^x Cu /F.(K _A @K = .Fw !{.Da 78.`W TQ n` V2 )G AN t; N_ x6 mL B'.|i.>^.3O ,K }2 !n fQ 0! 2c CT 9Z+0Z+aZ+bZ+cZ+dZ+eZ+fZ+qX gZ+V..hZ+!z.iZ+jZ+kZ+lZ+mZ+nZ+oZ+pZ+qZ+rZ+sZ+tZ+uZ+]_+GU vp+8C l3 ~+ bQ 9c }1 K,+i>+6(.i>+[C 3o %8 `Q V& vZ+wZ+Zz.CA.}o.CA.xZ+o[+yZ+zZ+AZ+BZ+CZ+DZ+Ia.EZ+FZ+Vm GZ+[*+aM.+Z.k~ k~ zQ )1 Bg+s7.HZ+IZ+=3+JZ+KZ+i' d5 Fh ${ T* qx ",
"LZ+e0+MZ+NZ+OZ+PZ+9v fd+QZ+QZ+RZ+=X Z. 0D k..0D  + O~ [  so }  so y0 1  n' Gp T' F| f; d; :6 r_+O6+kj+VL a, Z, @) ,# j! (9 (9 3( p' )U Co _( I| D`.t}+lQ.SZ+TZ+UZ+VZ+WZ+XZ+Z/.A'.b  v#.<X TV (2 qT Aw+Aw+mN ${ ]Y @& |p |p L@.BI+R;.G!.YZ+ZZ+`Z+ `+.`++`+@`+M+.~v OK.#`+$`+%`+&`+*`+=`+-`+;`+>`+,`+'`+)`+!`+~`+{`+]`+6n+^`+4# /`+(`+_`+:`+u).Bm W]+$d L'+f9+RL 4$ S| 0D I_ Q..BI R] O: Ab <`+[`+7L+}`+|`+1`+2`+pu.3`+4`+5`+6`+*B.~y  5 7d % .b  @) Z, }  l; 4r ~!+7`+8`+9`+0`+a`+En }  ql b`+76.'i.@z @t.c`+]d.- .V' |x :W Fq.'$ Q..p$.v3 I! D#.d`+7Q+7d `Y vp -[.hs.nO e`+gK =h.Jm.E] f`+Wp.u~ &3 Q^+g`+h`+i`+j`+k`+l`+m`+n`+o`+p`+q`+r`+s`+t`+u`+v`+w`+x`+U +rQ.y`+rF Nr KT Iu.5!.ZQ @K uD M_ ~{.AG.4C l%.H  n5 tH R~+r/.r/.u; 3'.V4 *U g_.Uu &{ RB Uo d(.@P.z`+A`+B`+C`+D`+E`+F`+(i+G`+P` <@.(b.si.H`+TP.I`+J`+K`+L`+M`+N`+O`+P`+Q`+R`+S`+T`+U`+xj V`+LT  ( ,* `~ it F0 tQ W`+qP cc.rd.nL Tu 7g.0z Wo.0++X`+8w.nx. A.!n.*K.Y`+Z`+``+  @. @+ @@ @#R+# @$ @S,.#f u0 }^.Ch f3 D| z* c! T, sk v`.E8+[E =3+c0 ]d ([ >a {r o1 8t ",
"% @& @* @= @- @; @J0.RZ+> @, @RZ+*4+' @xO u3 u3 O~ Yq [  ay }  }  vQ s[ |5 Q; n' C* gy ]D+d5+f5+f5+) @R..I8 x@ x@ I! r[ q5 0B |z Co ,# %E =X =S &~ I@+! @~ @{ @] @^ @bT Jp+L, A0.;E.lm 3z wQ+tq+4U D}.;~.}( nN 1  0S }  Dt so J'+/ @( @_ @: @< @[ @} @| @{;.l; Y, lA nI 1 @2 @vR 3 @4 @5 @6 @S/+7 @8 @M2 89.9 @0 @Cn so by b5 a @b @c @d @e @f @g @h @JB H0.xy.b! 3_ (x aS b^ V`+i @Ip st.%5.Cp+0`+j @k @l @m @n @o @p @q @r @(w k7 }P ;H @s.b  I8 V} }  l; `~ s @t @u @v @w @yf+|O.}  x@ 3c.lg.9O _2 t; Gw 'o.`Y }| s; Fx 1- p. Ko 40 A(+KH Q@.e%.D, |$.k. -K x @Jn.*g.y @l` 1i.#&.VN Tb.Nr yy.z @vQ.A @B @C @D @l`+E @F @G @H @I @J @K @$  L @M @N @O @P @Q @6m.W>.r5 4z %g bP Iq.5!.*M 9j.*M 2b.R .n@.T- Y, WU @z.)D :W w~ ^K &2.iK 0V fE D  3$ 1m R @S @@)+Rz T @U @V @W @X @Y @Z @`#.` @ .@qA+..@+.@nF.0y.@.@#.@$.@%.@&.@*.@=.@-.@;.@>.@,.@'.@xp+JW+/w k( E_ %T 9c S^+R&.Xa.0[.(c.Xv ).@Qt.+A Lv #k.Ia+!.@(z.!T..A.}y.iB.w!+~.@{.@].@^.@/.@(.@_.@1S.8~ (k G0.w; +$  I Tx.Qm o~ 2  z@ y* :'.94+:.@<.@[.@k/+%#+[r f~ ZV.}.@",
"|.@1.@2.@3.@kg+4.@>H+q0.5.@6.@ed+5|+X. Io i+ i+ O~ 6- f-.l; }  so  d B^ B- _h.o( c] K7 )l+&4+pA+YP+7.@R..f& 0] S- O^ F. _A rF ky 2( U} .k |$ Sq.8.@V< 9.@0.@a.@b.@c.@`5 eh sC d.@e.@d^.ky c7.`d+n1.oA M: u~ -a o[ aw }  }  }  bP.f.@g.@h.@i.@j.@k.@l.@6A 2c @t W} A. 'g .. m.@n.@o.@Bu p.@ D #F q.@l_.r.@Mp.l++s.@t.@u.@v.@w.@x.@y.@z.@A.@G`.B.@C.@D.@tf 3$ Xz =8 d-..3 V' (3.)D tO.Ab.nc.N2.lH+E.@F.@,( G.@H.@I.@J.@K.@L.@z$+kL.F6.M.@Pa.Pz.nG T- Z, }  0! {8.N.@O.@P.@Q.@R.@S.@x*.}  @) Y%./X c& .Q 5_ 0d T.@RV {%.=# #l Zo |r `]+U.@>]+V.@W.@~P. f 2, Vq Zj ~n fN+ip.X.@@d.Y.@Z.@);.*F.x6 `.@ +@^; .+@eL.++@@+@#+@gp.$+@M @%+@oK.&+@*+@=+@-+@g^.4-.i$.%@+;+@>+@D[+sH 4z vB bP ZQ Iq.5!.ZQ 5!.%R Qw.{v S- @~ 'g L7.cm g* pP WN Wm.-U z6.~^.s} 2k -D+,+@W!+H5 '+@)+@!+@~+@{+@I++]+@n<+^+@/+@(+@3f._+@:+@<+@'M.[+@}+@|+@1+@2+@3+@4+@5+@6+@7+@8+@9+@Vt 0+@a+@b+@c+@US 9c E0 S^+d+@e+@i>+Vy.Qt.{K Iz.0e f+@g+@h+@i+@j+@5u.0F.CA.k+@l+@m+@n+@o+@p+@q+@r+@s+@fn.A-.5p AH K6 JL n< 5| b6 gW && Uo :'.t+@u+@e#+v+@w+@x+@q8 0-.gC+T7 ",
"y+@z+@A+@B+@C+@D+@'C E+@UU+F+@G+@pO+xz.+h.x'+O* ++ !1 [  l; }  }  X} lm c* KM n; 31 T} F%+q0.6|+pO+7.@a*.`c p' J! wD a< Ha G! !B 8$ ri H+@I+@-m.J+@K+@L+@M+@N+@xf+O+@;{ $8.p~++&.Cy.H_ o( ba tp P+@7] 7_ >4 B[ *+ ON ;3+Vx+/P.p,+Q+@R+@S+@T+@U+@V+@W+@X+@6O. ~ &S 8! *) *T ]v ]x.Pz.!G %R UT 0< w- .q D  7_ Y+@Z+@`+@L^ $/  @@.@@@'.o,++@@@@@^S P3 S7.OW 8! !8 )B .1 oc.g=.h< g=.:V m=.#@@P,.$@@k.+>).%@@|;+&@@*@@=@@-@@;@@~k |T+N|+V3 Fq.B- nG 0] Z, }   f p6.>@@,@@'@@)@@tH+S|+!@@}  p$.~@@]X rb {@@Yd+'o.]@@Q0.;& um D[ ^@@/@@4d+(@@_@@:@@<@@[@@}@@|@@1@@2@@ P 6] TD.3@@4@@5@@6@@lc.X4 1z fM.7@@8@@9@@0@@a@@b@@c@@.;+d@@OE+|8.e@@f@@g@@h@@mK.W!+/}+^a F- (o ,6 ' @B- AS bh./ .ZQ KQ 5!.T4 AU ~| Z9 9S WT BQ L7.^u s~ )| eI h<  s.+,.8  I, nd 0A i@@j@@k@@l@@m@@n@@o@@p@@q@@r@@s@@t@@u@@v@@w@@x@@y@@z@@pB+A@@TP.B@@C@@>3+D@@E@@=.@F@@G@@H@@I@@J@@K@@L@@M@@T*.N@@v-.4;.Xm $~.Fg+AH Y! 2* Iv #A 6j i* ^E m7+O@@P@@Q@@R@@oF.nH.S@@T@@U@@V@@W@@X@@Y@@Z@@`@@ #@%| [@ .: 7B kv.BJ S' gW 2# T' }- }T a0 .#@+#@@#@##@$#@=3 }S+@]++-.",
"%#@&#@*#@=#@-#@;#@Q- 0).>#@,#@'#@fd+bx wO (( !8 4  ^w BI by l; }  so ~< Zl.-s.t$.n#.eK.)#@a*.!#@~#@(i.~ .z2 UR+q~ sF 75.{#@;$ .S 06 y(+]#@G++$_ ^#@/#@(#@_#@:#@<#@$[+:1 MN 5E SQ $4 r$ rT h+ ba xk m` 7_ OD O=.Ww.t$ q].[#@L( ]T+}#@|#@1#@2#@3#@4#@)J+5#@VB o! m` z,.+l Q=.9  z& Zw 9< 9< w} !# 9< S8 rb S* ;3+6#@7#@)<.8#@9#@N6.0,.}~ K0+)4 /<.B-+k=.|S F! 5  |6.0h.VN 5Q+de.Jm.M  o[ 0#@oJ.Y*.Fk a#@b#@c#@d#@e#@f#@g#@h#@i#@j#@dw.K: s~ S; K_ 0] @) }  0! m7 k#@U @l#@m#@MJ+LN c*.ro fV / .7M ^{.J, |i.4b.kL <|.5(.E! e3 n#@:F+o#@p#@q#@r#@s#@t#@u#@v#@h8 us.D[+2_ w} w#@01.x#@Da ~k.{c.n5 Vb Ci./[ y#@z#@A#@1).v!.u:.B#@pJ.C#@D#@E#@F#@~( G#@<P./=.BI 2- h3 5c O# AU v} v} t; SQ gS -E A(.;H P2 jy 3X /K Tp.u; H#@5(.2x 9e _G vb x~ r} m. H'.We h}++G Oh+T< I#@J#@.Y+K#@L#@M#@N#@O#@P#@Q#@R#@}Z S#@T#@U#@V#@oF.`z.W#@;*+X#@Y#@Z#@`#@ $@.$@+$@@$@#$@$$@%$@&$@*$@=$@Ya.jP  ( Q_+-$@ v.PM +y Rd..x.65.;x.A( h*+;$@>$@,$@'$@)$@R7+!$@~$@{$@]$@^$@/$@sE.($@_$@-f.Q,.T& tc m~ m8 )6 z3 K7.Hp N$ ]u -Z.ur.:$@<$@%F+^h /  .f JB #[ ",
"/Y UL [$@}$@|$@z@.O~ fd+1$@2$@3$@&4+bx 6^+Un.At.l( H..4$@so so }  }  }  }  V} e&.C*.c5+5$@'B.6$@7$@8$@hS+8v <| ]X BU <5 nG yo Fh Z' {*+HH+9$@0$@a$@b$@c$@d$@st 6. Vo ;3+I( .{ hR a[ qJ dA w[ 0u+;& +^.At.<- (m R*.-F e$@f$@g$@h$@hV+i$@j$@k$@l$@m$@n$@o$@p$@=; N# #$ #$ %& q$@r$@N  Bj.s$@t$@u$@D)+D)+{U Z  }N.!@@'~ `{ v$@w$@x$@y$@{6 UU Vj.ro 55 :9 +p+(D.1W -F.iE *g.z$@A$@B$@nP sr |v 36 k=.YU+C$@D$@E$@F$@G$@H$@I$@J$@K$@`!+E! 2| ey S; b  P* @) }  l; F# L$@M$@N$@h5.If.sv @X l; r[ O$@_D.[2 J1.0F 4b.x<.gS Yw M: +> +O+P$@_U.D>+Q$@R$@S$@T$@U$@V$@!].,;+0! km |G `E+ F+3b./X O^ m$ lA I8 45 zR v5+A' _d+%).UV.W$@X$@Y$@Z$@n0.`$@ %@.%@+%@WD+0! x@ 1( Yq A* r' T4 pS RV <|.SQ fS -E A(.!G EB t} eD );.PO +2.x[.bH f< 6E 9J f< Ij..~ uO.m6 3;.@_.[8.WV.:2.TZ+@%@#%@$%@%%@&%@*%@=%@-%@;%@.Z gi >%@,%@'%@)%@CA.c&.=n.Tf n_.!%@~%@{%@]%@^%@/%@(%@_%@:%@<%@[%@}%@ip N-+Y,.qx Bm.Ht |B.x_ f[ Jv `x ]1 'Q 6:.DQ+PQ.7^ yO Vj.I8 Bo |%@1%@2%@3%@4%@5%@6%@7%@8%@9%@5;.n} `w IL @> Yr *& Hp z3 )6 BJ f3 W&+0%@a%@L3 i. RL [6 1f &6 ",
"aS $^.i5 b%@c%@vj @+ d%@yI+,t.e%@(@.k..k1.o~ L; I: -;+U=.2c 2, so so }  V} ~< X, |c.J!+f%@-4+D..g%@h%@`} Ja ^u ;g ,H 9S 'C !=.i%@)S+{K+D>+j%@k%@l%@m%@n%@o%@Wv Q. Gv *T ~< l; ~v I_ e] n( #z t' N! { .x] t* >n C5 W& Rr+p%@q%@r%@s%@t%@u%@v%@w%@x%@y%@z%@A%@h1 45 V} |  5c m& bN 0Q T^. 1 ][ <( B%@N  /Z Cz zj C%@,}.D%@E%@F%@G%@Z>.H%@by }  }  I%.p; 5U G9+G9+G9+rA.C[.BK+Q8.I%@GD R! X  &8 0M.7O.J%@K%@L%@F$@M%@N%@O%@P%@Q%@hP 4r ,| JQ b1.b  P* @) }  0! P. R%@S%@T%@U%@Y;+}>+J:.P* E` V%@W%@*#.J1.fI #q.u].SQ 2'.u~ &8 `=.X%@r-+d>.Y%@Z%@`%@ &@.&@+&@@&@T7 V} a, -< #&@$&@ad TQ v3 a, R- 45 ro rk }!+%&@e,+&&@*&@=&@-&@;&@h@@kQ.>&@rZ+,&@m3 B5 @q x@ T- CZ _3.;g ZY SQ r~ SQ KQ fS fS vV _C._C.v} -%.'&@)&@A,.gI OQ Zo.|i.cn.|i.Ww 2m M@.!&@*}.~&@{&@]&@^&@/&@:S sT.(&@_&@:&@<&@Dh.ur bB [&@$g }&@|&@1&@2&@|o.]9+3&@y++|* -2+4&@5&@6&@7&@8&@9&@0&@a&@b&@c&@d&@e&@5y+f&@g&@h&@.x '^.i&@0r.6:.7p G0./^.`;.yi.|A <# :5.[T yu .&.j&@/a+k&@l&@m&@n&@o&@p&@q&@-f.h1 bf y<.r8 !_ }- Pt ${ T' @p }- !_ 8p.B4.]h S7 C( }^ 6c m8 q8 ",
"G7 GQ WY ;E.~%.ZJ n+.re+r&@s&@t&@]@.:t #m.x0 H: c. *,.u&@so so so Wb V} Wb e&.;t.km 5L.]@.wQ k' }e+}e+T, 1_ ^v CQ [Z h; v&@w&@nR+FZ+x&@[D a +y&@z&@/&@A&@B&@QF s} .3 [+ 8f X} [  '@.lj+0u+JM ~Y |5 >4 e~ ,* {8._$ 2U./N C&@=F+D&@E&@F&@|;+G&@H&@I&@J&@K&@g[.Jp+WD+{L+H2 r..qf+>g %k L&@M7+^* &{. 1 M&@tp D  0[ rB+Q%+S( %_.N&@Y!.O&@P&@16.jm  f /B.Wl.`t.$2.#2.pI fK B$@Bo.Bo.oO >/ Hv 6!.|1 zR Q&@<A.ZT.^E+S: k,.NS+R&@S&@T&@<C dd (U 8<.1G b  f& @) }  0! A3 U&@V&@W&@-V <_ Ll sm I8 + .X&@7  ~F.3>.Y&@Z&@,F.Wu w~ O_ )| j3 /u j>+n;.`&@ *@.*@+*@@*@#*@uk.$*@V} /+ =$ RH.]i+7P p[ g%.3, M=.k=.C5 %*@&*@**@=*@zz -*@MJ+;*@T3.>*@$_ ,*@M{+GQ+Q: Fh +t T- @& b] q5 rF &w wB fS KQ fS KQ T4 T4 !G ky fS '*@nJ cD *E /3.92 V~ /K |i.2[.kn W*./i+)*@o;.qI+'+@!*@~*@{*@<d+]*@Jj ^*@bi+Dh.>r.^D+$F LJ.{[ /*@(*@_*@:*@<*@[*@~4+2k ]Y [$ }*@|*@1*@2*@3*@4*@5*@6*@7*@8*@9*@0*@a*@b*@c*@$[+Kx 4~.vk .w.$~.j, k, -/ Ed.d*@n7.e*@'| r-.yu EQ f*@g*@h*@i*@j*@k*@+1+l*@m*@n*@h1 bf 2h.MD+Nh >6 g3 I| @p }- D| 1f zq. [ o*@lz 3h.(  +[ PD Gj ",
" ` V2 V2 n@.n@.41 {x {..~9 p*@Qq R; Hp U- .y.q*@}>.r*@s*@so so 0! {d+'Z kd :i.a*.B] x'+>G.B[ o. }- ^< ^>.yw+xI+Yx d^.-6.D6.Xe !*+t*@u*@v*@+o.w*@6X+ /+x*@9t  / Jo Ao po O' P' -8 A* u' C3 JM {D }6 >n #)+G8.y*@!!+v(.4~ z*@A*@uk.{  B*@b8+C*@D*@E*@wX.hU.S;.F*@G*@Yp+'^.I:  / |L+PD H*@I*@;M+J*@K*@L*@e7 Df 4, !=.u/+)d+Lx nz *c+wN.M*@:7+}*+N*@k=..S x~ Pl @A u( oq x4.Xg Bo.[J 8S Kp ]Y p#.$T+O*@P*@Q*@R*@S*@T*@O8.hF+t4.F- HL 7* .I ey B- I@ 0] @) }  2, j>+U*@V*@no.W*@X*@Gz tO ~< 3c Y*@mj |A G:.-[.@H.Pr di.Lv +A ,o.G* }+ gQ Z*@`*@ =@b#@.=@+=@@=@a#@#=@0! '[ H. >Z 2b.8P I! -G &9 m* 5e+$=@%=@&=@*=@==@-=@*b+;=@>=@,=@'=@)=@!=@~=@{=@kr qk hW 0w R4.ky 3z >U r$.AU 0< SQ a6.N_ -E uV 2>.d& `9 ]=@^=@^=@sI Wp.5e cm +3 6!.i3 )' %| l^+). /=@(=@_=@:=@<=@[=@}=@:h.={+Fj 7- N:+u3 1G BS U].;8.|=@1=@2=@3=@4=@5=@nq.;n H  J@.Kh+6=@7=@8=@9=@0=@a=@b=@7*@c=@d=@e=@f=@g=@h=@i=@R|+Gz BT+<*+L8 @^ pP+cP+]^.j=@[].@P+Rt.~%.T- 0S k=@l=@m=@n=@o=@p=@q=@r=@s=@t=@pt d9.WO r++=.+4c.xT }^.sz -6 0A T# Dm 8A c++t@ u* 2}.C[ pk u=@",
"H7 P .:Z ~U G7 31 6d <| )v v=@A] Ex qK.Kr w=@x=@y=@z=@A=@}  }  0! q'.Sb I. G. -$ r[ tH N; kR Im B=@C=@D=@Na+*7+EQ `; $z hT E=@p*+F=@G=@H=@I=@78+x9+Oc d- s..2_ 1( T- WU s[ ei.dA R; .I @^.J=@n; FR oj+~<+2,.K=@L=@[`+M=@N=@Q< O=@P=@6X.Q=@yN.B9+QM+R=@S=@P'+T=@U=@V=@9N ,7+j&@W*.W=@1g+X=@HK.Y=@gM+Z=@ut./U #& xj X, N7 `=@*y M| UE+ -@.-@+-@xj.@-@+1.Y; x] {G wx+(2 Cw+ 3.k;.#-@$-@Eh %-@C%@&-@*-@U%@&R+=-@z;.|=+EJ h(+rk.a& 7c o[ f* wB 0B K_ f& I8 }  2, j>+[[+--@;-@+( `0 DI+a=+so Y} up )C.en M] Qk.wp WE.=R 55.F] 6M [B.c] wj En >-@B'+,-@'-@)-@!-@~-@Y*.V} 0] sJ E9.-Z {-@=G R] e[ ]-@6U.^-@/-@(-@_-@:-@<-@[-@be+}-@|-@1-@2-@3-@*b+`=@2, @t 8f Pz.s~ *9 s~ r; (3.,H T4 %0 KT sA vV r$.r5.R4.r$.ub zV [A #w.F* <P z& 9  4-@NY.KJ ^].5-@6-@S{.W< 7-@e8+&b+/-.yL t(+m;.Jo po Ay.dS 6X 5X 8-@Wk 9-@G8+0-@a-@b-@xj+oG.L*..&.5+.Ig+c-@d-@e-@f-@g-@h-@i-@j-@k-@l-@m-@n-@o-@3d+p-@8P.'1 c9.Ec <C q-@r-@s-@2%+t-@rL.u-@`x J_ 1( M+.v-@w-@x-@y-@z-@A-@B-@C-@D-@E-@bk cA ak Lh+(^ ]Q !K+cA +R Z]+<$ >#+2r Nh Kh+z0+$C.F-@kP.#7+G-@",
"fV H_ |` ,$ BQ uf s5 '8 gF+)l+Hp E(+H-@I-@J-@K-@L-@M-@N-@so so 0! oi #& }` '@.a[ mv.Ja Ww.O-@P-@.a+Q-@R-@S-@T-@[l au 99.)S.U-@D++V-@:Z.W-@X-@1E xU+7. ^. kn R* =G H  q$ }5 o; v' P; )1.C3 ;E FQ WU  k }*+Y-@Z-@`-@v^. ;@hb..;@+;@@;@#;@kJ+$;@%;@&;@*;@=;@-;@;;@>;@,;@';@);@!;@~;@{;@$C.C  5M f=.L*@K*@`d+gG K9.:@.:@.jm 8g+ZV.:[+5Q ];@^;@/;@(;@_;@:;@$| %9 ed oA fR C3.Bi.>v pc.fd Lm <;@[!+[;@};@j,.|;@1;@2;@3;@(k 4;@sQ 8O N2 ^u ;H - .l#.I@ '[ 0] so 35 UB #'.5;@6;@hQ+X*@DI+16.so Wq  A Bo.cF !d.7;@!F._I Di.As )^.8;@6z ||.Y, l; yR E++9;@0;@a;@b;@c;@+=.V} H   7.@K uD Ga [T 50+56 d;@e;@f;@g;@LK+h;@i;@j;@k;@l;@bL+m;@n;@$U.q^.Uv NQ.so by X} b7 !D oN w- -6.u' w- 8<.fB 4z 4z &u tA 1z C,.EB 5z Qd.o;@kE 5P Xw Ua.2  t9+p;@q;@1@ Ql.r;@s;@t;@pQ u;@v;@w;@GR L@.P* /+ tF 6u+b .x;@y;@Y0.z;@4O A;@B;@C;@D;@E;@##@'*+F;@Fq.>I T!+G;@H;@PG+I;@J;@K;@L;@M;@N;@O;@@$@P;@Q;@R;@h`+r{.S;@Z~ T;@U;@8~.Kp+V;@Gi.hH+;| Rq.qV xj <m Oa+W;@X;@Y;@Z;@`;@ >@.>@+>@@>@)Z.($ ^C.17+cX.#>@:h.M0.$>@>0 8~ :h.4'+$@@&F+j6 2@@ZD+d(.g|+%>@",
"O- >< WT 9* 3c H7 y3 k..e5+v1+jn &>@*>@=>@->@;>@>>@,>@'>@so }  @t wP )>@!>@~>@{>@]>@^>@/>@(>@_>@iu ;e+:>@<>@[>@}>@{>@|>@1>@63 2>@3>@4>@5>@6>@ak.-/ af |9 +3 a[ >8 ,# lm r5 R/.$z.8D Di+%K s' tH X} r'.n>+7>@8>@9>@0>@a>@JR+48 b>@Q0+c>@d>@e>@@G pQ.f>@g>@h>@)!+Ls i>@j>@k>@I`.gn l>@m>@%{.n>@R8 N  ;c.o>@p>@'$ 0S |p T] Zz Km d[ MU+q>@r>@s>@t>@u>@v>@w>@x>@P++Nt 8< oP 35.(2 tC m~ d:.ct y>@z>@A>@B>@C>@5>+Y}.33 Q&.gm 3, ++ uf f* T4 )# A- I@ '[ 0] V} rk Ah N6.D>@E>@K!.,O.F>@G>@kb.H>@)' ;5.@L ZN.H] Zk _I G] zu.+(.TD.Xt.%>.Y, l; `e oe+X$@I>@J>@K>@L>@@=.so 0] wD >%.%I V2 |6 -r 5a M>@N>@O>@P>@Q>@R>@S>@T>@U>@V>@W>@X>@Y>@Z>@Ef+`>@ ,@oJ.Xq b! w- 0_ 4M wx+wx+gG cw+Yd+uB 5P 5P k7 H~.&u +&.v} =C.}6.^=@3G F* a# e5 ]_ BA+N[ .,@@] +,@@,@,=@%]+:3+#,@#W.[6+S# Vj.~< ~P <&.$a.uA.$,@%,@#n.&,@*,@=,@-,@;,@>,@,,@',@J%+L: -& ),@Ko 9P.!,@~,@{,@],@&W.^,@/,@(,@_,@:,@<,@[,@},@|,@1,@:n 1'.6o+!{+l# Hx Hx l* Ws.@,.4x h%.55 :m C( *N 2,@3,@4,@5,@6,@7,@8,@2<+9,@0,@ff Kh a,@b,@!d F'+aG ~j.#5 D4.c,@d,@e,@f,@g,@un.$#@N3 h,@",
"sT 4  kR  > <t ix j! q_ i,@j,@n} k,@l,@m,@n,@o,@p,@q,@r,@ f }  }l j1+s,@t,@u,@v,@w,@!o+I) x,@y,@o= z,@A,@B,@C,@D,@7> E,@F,@G,@2E H,@@2+I,@gX.V. 4a h; k. q_ Tb j! WY FQ 9O %K ba J,@iM+5E 9O G7 X} {h xU+kt.K,@L,@M,@N,@O,@P,@Q,@u}+R,@S,@T,@{a. P.(.+j# BW H^.U,@V,@W,@X,@Y,@Y$@Dg+50 jj+{@@ht Z,@!S.M. SO Xr 08.:x ]x qk #~ `} G>@Oz AG+`,@ '@.'@+'@@'@#'@U-.|v 7O 8  X-.x~ !Q s* s++$'@8=.%'@&'@D^.*'@U/ ~/ .: r}+50+0S :x Yq &E t' #K _U I@ {< *G ~< _m ]L zX.='@-'@;'@:{+iS.fn %[ >'@ZP+Y~  $ ^D.WL+ 3. k.5U od.oP 6M .>.1z lA l; zR qc ,'@''@)'@{^ !'@~'@so 0] p5 ;H _C.qC 3- Oh c_ -]+^>+~Y+{'@_,@]'@^'@/'@('@_'@:'@<'@['@}'@^=.|'@/[ *# }# 4x /I 1'@2'@3'@;v+iE @H.8Q ^=@.p..p.BV BV kE Qd.25.4'@cD 5'@}I Wp.+b.6'@D*.W!+s- Ck.7'@8'@9'@R.@<=@0'@[-.9(+-* B6 o#.km B, 7P a'@Lu.b'@c'@d'@e'@f;.0v f'@g'@h'@i'@$1 Sf G0.HM i^ J@.5m ><+j'@k'@l'@m'@n'@o'@p'@q'@r'@s'@t'@u'@v'@Tv &P.Q%+N[ J_+4].F8+pd z5 Og Sy.T~ w'@A*.-D+7c !5.xU x'@y'@z'@A'@B'@C'@D'@E'@F'@%9.G'@B; FV.H'@I'@J'@K'@Pe.L'@M'@N'@O'@P'@Q'@Ae R'@S'@T'@",
"*& l& h; 3, cB +) hj.R@.ac.5x.%3 U'@l,@V'@W'@X'@Y'@Z'@`'@by }  Ba+ )@.)@+)@@)@#)@$)@%)@&)@*)@=)@-)@;)@>)@,)@')@))@!)@~)@{)@])@^)@/)@()@_)@:)@qL %y {d+hW T^ ># }X n; 0B %K xa up bn os+mg.t' p5 a, <)@{S.[)@})@|)@1)@TT.2)@dM+3)@e3 %b.z/+3G+A/+4)@JV.R0 5)@6)@7)@8)@9)@0)@a)@b)@0{+c)@d9+P0+he+d)@Tx+e)@PH+t~ 6- [  WU :x T- so M@..,+f)@g)@h)@i)@j)@k)@l)@Zm _Q.&4 c7 g< F! yy.m)@c`.`5.n)@o)@p)@q)@r)@sk.1^ Xz '$ h%.$$ fN UL G! %R )# $ .YQ ;G ;G 1( 55 yJ s)@t)@o#@u)@hT.-+@tH+u,.|/.}4+v)@Zo w& Bo.iq.k;.($.UN (D.w)@B:.(3.R- }  b*.xz x)@y)@z)@A)@[K B)@so ~< H_ ;g Qw.0w H  S^ p/.'a C)@a#@D)@E)@F)@G)@H)@I)@J)@K)@L)@A.@$P.}  !s GV M)@_^.[o ;w LH.N)@O)@O)@P)@Q)@F9+*F.-%.*F.|}.R)@en.S)@T)@IT Ey+U)@VN wy+b; V)@~T+W)@,<.X)@KI+h@@%;@_=@Y)@F7.5S qL pt 3r w@ (x `s (h.7E Z)@(l.`)@ !@.!@Rs rQ +!@@!@h'@#!@$!@8A.Xh L[ l8 >g.cL.94+%!@&!@*!@=!@-!@;!@>!@n'@,!@'!@)!@|-@!!@~!@{!@F; n~+}R v8 $: *: x( B3.]1 LX SB |O.x*.G| ]!@^!@WN.GH /!@(!@_!@:!@<!@[!@X$.}!@|!@a- 1!@2!@3!@4!@5!@6!@7!@8!@9!@0!@b~+a!@Ae un.b!@c!@",
"i3 1# @$ ri 40 !}+O:+qh+d!@s` R&.e!@f!@g!@h!@i!@j!@k!@l!@by }  Ni m!@n!@o!@p!@q!@r!@s!@t!@u!@v!@w!@x!@y!@z!@A!@B!@C!@D!@E!@F!@G!@(7+H!@I!@J!@> +we K!@jm X} b] C] &w ;# AS e< L!@bt.M!@mg.;E r_ W} {h N!@vR+O!@x`+P!@Q!@R!@S!@ a.RB xR g2.P*.o#._l %: X(.T!@U!@V!@W!@X!@Y!@Z!@`!@ ~@.~@h:+i, ];. 1 d>+N7+mh.#R Ja #$ $$ .&.x@ x@  f +~@]).@~@#~@$~@%~@&~@*~@QF h%.l! x' v~ ${ +l ho+s9+y`.=~@-~@;~@').~. ih +Q Dv Ao h%.^v 1  C,.DV fS >%.$ .YQ >8 !h :x '#.Fv |8 >~@,~@'~@C]+)~@!~@~~@{~@]~@z`+^~@rC {D.MH+/~@Wg (~@`t.Xk _~@8<.q$. f ^5+$>@H;.M @:~@<~@[~@$$.so C*.H_ _C.DV d^.N+.MT 73.cK l4.KQ.@d }~@|~@1~@2~@3~@4~@5~@6~@7~@8~@_m c-.[S NT.Pl (U pG ,1.Q8.fi Je.l` 7  9~@o;@0~@nJ |}.a~@b~@c~@IT ~^.~C -U 5M 5].[k d~@e~@f>@f~@g~@h~@i~@i~@d;@s-@+Z.0%@hQ )6 u!.t5 Yr @^.+,..>.j~@sN k~@l~@m~@U; EI+n~@o~@p~@q~@t|+8[ :*  l vS u5 q. a; c|+q@ r~@s~@t~@uW u~@*( v~@w~@x~@ I+y~@I_+go+H*.q1 >' B)+J1+vo+-R qA B@ =>.$N.55 _=.8_ z~@i`.A~@!5.B~@C~@D~@E~@F~@G~@H~@I~@J~@e=+_& K~@L~@M~@N~@O~@P~@Q~@R~@oH 0!@S~@hw.T~@<[ .-.",
")6 G| Hh R7 Ch+U~@U~@V~@;D.W~@w-.X~@Y~@Z~@`~@ {@.{@+{@@{@ay }  FE #{@${@%{@&{@*{@={@-{@;{@>{@,{@'{@){@!{@~{@{{@]{@^{@/{@({@_{@:{@<{@[{@}{@|{@1{@2{@4S TO.=7+B^ ~f.bS 51 68.`4.vB yG.M>.f^ 3z WJ H  Uq 0v 3{@4{@5{@6{@W*+~c+!3.Ke+Ak+W} z0 kd hz g%.=X 02 uH+M`.t^.7{@8{@9{@0{@a{@b{@[c+c{@x1.U* |- d{@P_ l^ u~ |1 `! vQ OK.T- i%.En c[.)9.s*.e{@f{@g{@h{@i{@TB @X #& i^ x' 4  b! P] ^5+j{@k{@l{@T: D)@#d |_ Fh BR i @)t YK N! w- ~| ey >%.u[ ]< ,# H! n5 U} l! 9K Hj ]a+m{@j,+n{@<]+F= o{@p{@q{@r{@dI jR (U QN F] Yj.Jm.fI g=.[( .f pV+Ek b>+s{@t{@:).hq.i~ u{@so C*.Tb ;g 2>.l5 H  cy c, v{@!| 6D JJ [y w{@x{@y{@z{@A{@:t+B{@C{@,}.lI +y As xa z& 85.T).D{@E{@F{@G{@1i.9~@cD gL @n.d_.H{@sD I{@o;@o;@f`+5(.x].h+ i1 pz ]#@ej.J{@K{@L{@M{@IN M_+N{@O( (< ]5+5x.xz.O; &S :( f$+<2 Ei.!6+O{@P{@S4+Q{@@8 **@Kj R{@S{@T{@nM.8[ }* ih a6 &d i3 k[ U{@V{@CT JR+xP+|O+W{@X{@Y{@Z{@`{@ ]@;<+s(+Zq k; .]@X~ C0 r1 Zx Jm L7.CQ 8K +t }  rk ,' {b.Xl PT.=S f)++]@@]@#]@$]@%]@&]@*]@=]@i|+-]@;]@>]@,]@']@)]@!]@~]@{]@]]@^]@/]@(]@_]@@]+I0 ",
"s$ Q[ HL ]u :'.:]@g#+XU+<]@[]@}.@}]@WX+|]@1]@2]@3]@4]@5]@by ay m_+6]@7]@8]@9]@0]@a]@b]@c]@d]@e]@c]@y4 y4 f]@g]@h]@i]@j]@k]@l]@m]@n]@o]@p]@q]@r]@'z c5.n&+_* n' F. 76.E6 7d >Z bP / .`Y T4 iN #^.nS 55 >]+s]@t]@u]@v]@)c+w]@FK+E(+#t C, <x A%.D, hz 0] H*.]a ]6 x]@y]@z]@A]@B]@C]@YJ+D]@E]@kM.}* g3 L: Hv Ol $z m=.+q id zo ]x t .fN N*.H>@F]@G]@H]@I]@J]@K]@Q^+o#.Ja iy };.A@ 3k o#.U*.GF.L]@M]@N]@O]@Gk H0.@l Q- kR !| 0F 5x }S jy 0< ey n; `c >8 I@ 63.{c.o$.1( A*. E+P]@r$+h++Q]@R]@~*@(2.7V+S]@T]@H_+xR H2 !D.-u .` Z  x0 oA Sk.-* 9(+s'+U]@fY+Dp ,r :h.fK. f X, O* Mb R~+nv.wj yu @) 3- r-.]x aK C-.V]@5+ x,+-).!U+W]@.n X]@[$+`8.|r+0| 41+F@ V' Kj.Mx.BY+59.An.-F.~D.cD Y]@Z]@`]@sD 0~@ ^@I{@c~@PK P3.Q- J@.Ff 69..^@  +<M ~=@+^@@^@#^@T. W/ y~ [9 ax |c.$^@/@.f#.'D.vr <o PT.%^@-C.|=.OT.&^@vy+*^@fk =^@-^@;^@;.+S;@@6 y~ 5x g7 1` o++Md+>^@)7.,^@R@ '^@)^@WZ+ I+!^@~^@1~.1P.&t WU id {^@+Q +f Ro.U=.zR `q W} V} }  }  so N=.V& 6k n} ([ Da+]^@^^@/^@(^@H ._^@:^@<^@[^@}^@|^@1^@2^@3^@4^@5^@6^@7^@8^@9^@0^@a^@xe Wx /  ",
"Kp Bz :@ ^d Tf b^@b^@B%+v0+<]@AQ =}.ez.o++c^@d^@e^@f^@g^@ay }  h^@i^@j^@k^@l^@m^@C:+n^@o^@Em+TA p^@TA zw rE+rE+c(+q^@r^@s^@t^@u^@$b+v^@w^@x^@y^@z^@A^@B^@|' Hh G_ VZ C#.Sf.w .2b.tO+RV Ia FQ n5 Y, 0! WO.C^@)J+D^@E^@F^@>*@T> &9 xj Y, :x g! H  /+ C, id 3x..c+l$+:E+G^@H^@I^@J^@K^@L^@M^@)U+1'.f3 *: A5 +$ %{ Fh <9 id cB po CZ jx hW 0! 8O.N^@O^@P^@V!@(d+7p.P] 9* Mb U4 A& <- vQ b*.Q^@R^@S^@T^@U^@<!+jP.i @K9.lL hB T)@]{.12 jy 0< 3z 3( #~ p$.lm P .wD 4- x@ }  }  ON k8 d- Mx V^@W^@X^@Y^@Z^@mX.A*.so yR Xv `^@FD T, S4.)' &(. d.FM+t'+$>@m{@zj.^.+/<.3O.so V} Yq sT +3  > CR S] l; x@ }  x@ 3k zs  /@X0 ./@+/@@/@P$@#/@T&@$/@%/@`.+&/@&|+ri K7.CV 9J }G Nt */@F9+:D.=/@`p.-/@>m.-/@;/@>/@I{@R)@,/@KQ ]x l; L7 1*+|=+'/@U]@)/@{0.l~.p).Dh Xj +> BI V} 0] S^ z0 >t.!/@9p Kv !d.06.w>.@P+~/@{/@]/@^/@//@(/@}d+_/@xc (^ ;[.j$ eI V' px >&+:/@b,@</@6,.Y2.Nh+[/@2.+Ad./_ AQ.}/@KH I( I%.im =t Wo jh JB 74+x*.so }  }  }  }  }  'S P: sc /u tz IH s..|/@1/@>;+2/@Ei+24+ry.3/@4/@5/@6/@7/@8/@9/@0/@a/@b/@c/@d/@e/@f/@pG.g/@F; ",
"kn Kp v0 T# [f pj :]@wj+h/@s3 >6 /< fQ />.79.27+5o+i/@BS+ay }  m_+j/@k/@l/@m/@n/@dF+pl Dt ^Y Dt Dt Dt Dt Dt Dt }  pl tp+o/@p/@q/@r/@s/@t/@u/@v/@w/@x/@y/@z/@7p.~v u#.%) Hu.8d 8d *H.KQ ,H i; .{ 1( rk Tt A/@B/@C/@D/@Y{@:U.E/@LT En a, km hW h! /+ hz b^ Yr :@ (#+>!+F/@G/@H/@I/@J/@K/@eT+sV.Q/ ;[.!/ F0 S~ NF o. Sa.$E ]v q'.y2 U} r-.|&.Bn L/@.#.M/@N/@>y }P.T] e, |x u; 4   > BI J9+O/@Y)@P/@Q/@R/@^9+xp+xR (3.6x h8+#N.OQ !| r~ 5e 9O (9  d p$.j!  7.SL C6 x@ }  so !t US 6. Ax {c+S/@j2 T/@U/@V/@W/@:m X/@*8 Pl IB Uo =3 k1 +d ~8.m[ ^' q* 6. H'.Az Q3 1m }  so Jo z3 i3 Xz $E id fN S] }  ~< 8u 7C t3.Jp+]-.+!+5^ br *Z.L& Y/@Z/@`/@ (@'4 .-.0x rz &3 S=./r BY+.(@8;@sD `]@+(@@(@@(@#(@>/@>/@p{+nJ }P I:.|p J0.[* %, $(@g^.%(@&(@*(@=(@ip k3 .A+vJ.45 jm JA+-(@3m k=@Bh+,p w>.;(@>(@,(@'(@pd.)(@!(@h(.~(@{(@](@EV.]6 BI+@a x& N^ ^(@%a X2./(@((@_(@Fp+9(.:(@z$+<p K*.zS z@.im |  }m Wq Aj pk.]r I_+<(@[(@rk so so 0! }  }  $N.4| }(@ >.r}+qA jn Kp dv %k j$ 6q.|(@1(@2(@3(@4(@5(@6(@7(@8(@9(@0(@a(@b(@c(@d(@e(@(X+f(@g(@",
"zn j3 .) c_ *6 Yc h(@|a+Bk i(@d; 8p {_ ,4 b6 mI `w ^>.j(@}  }  0g k(@l(@m(@n(@Pw+w<+o(@cy mA p(@C, C, P* yu yu Dt %=.q(@r(@s(@t(@u(@'c+v(@w(@x(@y(@z(@in.A(@B(@<m M+.H_ Nb qv.ad 5!.- .;g '8.,$ ~h C(@zr x&@D(@E(@a$@F(@b7.G(@,' @t I8 z0 q_ o$.Q^ ~P (i.l$ ,4 na ~. H(@I(@J(@K(@L(@M(@$<. i {. zf LH l# K8 v0 F3.a5 k. #& f#.o5 ,& g! pi =7+N(@O(@P(@Q(@=~ H6 .k Jo Mb w} 4  ]Y BI w*.(Q+R(@J!.S(@T(@U(@.V+RB -a Wj.8x ~C j^ 12 8<.eB r~ }5  d g%.e#. 7.SL G6 yu |&.45 #& G| ;6 Tf /a V( V(@W(@w]@X(@A++hp Y(@Bj j$+.| D^ Z(@W/ oJ+C` 'a 7( u$ pt _[ Fv }S+.f+35 (m :t z] r} zn ${ ${ 3# Dv l; 0! v'+}+ )Y L; 9K TB zL `(@c9. _@._@pJ.p(.3O++_@`m 7F+w`.@_@[8+#_@qr --.Mk+sD >m.$_@{l.%_@&_@=k. p.*_@'*@/ .,$ &$ }^ 9; =_@u[.|{+s)@-_@;_@>_@K| >U.TD ,_@Wx T7 '_@)_@V}+fP.!_@D6.~_@#P+{_@]_@^_@/_@Is 3p K& (_@{N.~S+U$+(^ 1{+OD+];.NN __@v>@:_@<_@[_@}_@Z:.t4.Um :f kh _m 55 I( |_@@X ho+E*.p9+9S.M~ c[.1_@0w+oj+|O.so so }  }  2_@e5 (w X}++b.TK cm .3 Z  @(.}2 /5.9a 3_@(1.4_@5_@6_@6(@7_@8_@9_@0_@a_@b_@c_@d_@e_@f_@[;@g_@",
"]* Jp 5| /r :^ sk HD u9+7! qm RL N# [- 3_ '$ 9$ l' Ov u%.}  }  }  }l h_@i_@rg+j_@k_@l_@~%.q$ Z..B, !h q$ W2 2J 4+.m_@ty rY+n_@o_@p_@q_@r_@s_@Z=+t_@u_@v_@w_@&a M,.19 t~ Q .x_@ f.v[ fS >U 2>.}x R4.%y y_@z_@A_@B_@C_@^)@D_@O,.L*.l; 0] d, $K 'G @s.Tb ]< n#.#~ 95 TY E_@F_@G_@H_@I_@J_@+/+K_@+; L_@pS.#f Zb+[7+M^+gt qK L7.~h n5 pC <x M_@uq+N_@O_@j&+P_@*^@J*.}z -T Fq. A Y  !t 50+R*.}=.3Y+t/+Q_@R_@S_@ 6 T_@Zn.Su.Cs ~C G^ {{.e< lL v} S; 'g FR P .<5 41 :Z 63.n@.;)+TL *) /8 S4.[f q-@*H+U_@V_@Y* `g.82.=y W_@ f :P.nb X_@gH jM+~+ Y_@G# I: />.gm s(+Ov Im _9 1X !B x[ g] _[ L: O_ h+ 6:+*7+vJ.ld >g.rB+rk 0! _m ~P.B-+d. Z_@~*@`_@cs. :@.:@+:@@:@de+J|+zf NB 0A g7 $s._N #:@$:@c'@%:@&:@.u.`6.%0 bP ;# Tb +q Em 2].:`+*:@*:@=:@<=+-:@;:@de+>:@L.@,:@@b+':@):@!:@~:@{:@M=+V& 5_ }o IT ]:@3H ^:@dH Ud.1]+|' _M >7+Lh+{a RH /:@&T g(@(:@_:@::@<:@[:@W$@}:@BT+;h |:@<=.kA xj q$.zS Z! }f WS !}.VS Mm 1:@rf+H6 s< W, Vb 0! }  }  ~Q g).nv.73.YV.gR 2X rT T; >4.;/ fh cI 2:@3:@4:@5:@6:@7:@8:@9:@0:@h_ a:@b:@c:@d:@e:@f:@g:@h:@",
")Y g3 }- F3.PD Wz i:@ia xk+23.wQ 2_ S| l..8v :t C .+q |p }  }  }  }  }  rE+~s i+.I@ ly ^x [5 a[ y3 oo H7 )P ZJ S&.zo `h+j:@k:@Ji D( D( l:@u7+m:@n:@o:@p:@q:@r:@5,.X:.M$ !h yu ~>.& .fS ,H q; f* Un.o' C(@bn+s:@t:@u:@O8.v:@Dg.35 x@ @) q'.BS w:@yG.sH d, $h.D, S^ x:@`5 WZ+y:@-^@z:@A:@B:@{~@o-+G+.`R+dw.-;+/u .) u5 A* ,8 #^.,& P* ,& 'i.z3.ef R!+C:@D:@g(.lQ+Uq j+ K7.8  v~ o[ <9 Yq I( E:@F:@G:@H:@I:@J:@K:@(0.[N PN TN 8z U .,G.HV e< !G vj 8f )P I. <5 z- A- %I =M P..*G so so ..+ev IQ.L:@ce+D;.M:@N:@).+[D+so O:@1]+zb.P:@0. u$ @6 W. @]+Q:@@t 35 k. 8<.v} qS f^ xS Hj.z[ m( 3M V| H..;n o#.Y#.ro so }  }  }  }  SF.R:@4W S:@M]@T:@U:@V:@W:@X:@q(.Y:@Z:@_C 50 `. e^ `:@ <@.<@+<@@<@#<@Z6.u].KQ UT LW ix j+ Bb+)b.$<@LS+%<@&<@$<@*<@=<@qm.-<@;<@><@,<@'<@)<@T: `!@SV.<8+S# mm LW r~ ]K )$ w( <o [*.(o &m.v:@[-.rL Xm M^ -/ aw+D`.!<@~<@{<@]<@I`.^<@@a J| xy.-t {=.kA 0! L@.'S Jp n} j, 8k .a Az 8t CJ F3.8! Ho ;8 so }  }  so OK.zo lT.j5 mv.>$ uf  3 J1.WP MF lV.aj./<@(<@_<@:<@<<@[<@}<@|<@I>+1<@2<@3<@4<@5<@6<@7<@8<@",
"E| FF FF gQ .[ }e+3e+wQ xk+-X |, wQ N` zk+zk+8v vg+Rq S] }  }  }  x@ @) P* yu (+ lm y@ >< s_ ,}+JZ w'+w'+O' .+ I:.5+.z@.9<@0<@i @[  1, GF +R.a<@-H+b<@c<@d<@tS.e<@f<@bf S- x@ Q#.& .SQ -E Ia ;# yp.A& xR 5O.g<@_.+t*@[3 Wm JD 2, Y, /+ ,< kL h<@i<@R/.uf Tb H_ yo tB+Z]+j<@/F+k<@l<@z8  6 %{+T= <:.CI+p2+46 T* 4a 5( p~ H_ *G A. ~v xo @3 m<@n<@o<@p<@q<@m* 'P.YJ Z} Ab.r<@WN A0.^v d^.uz.2, s<@t<@u<@v<@w<@x<@1].o6.'Q Wm.g_.8x ,G.n>.]{.AU -G  d b^ I. G7 iN &w fS 'G 0P g! }  V} Ak+%f ~a y<@`)+z<@A<@B<@'9.C<@3H+D<@g:.m| Kc.Z' Hz 4;.K8 5:+:l @t M+.^+ 4z vB qS -# rb .Q R_ vS 81 Nv H..'S |m !=.so }  }  }  }  }  nV+:/.g$ W3.E<@F<@G<@v<@H<@I<@J<@K<@L<@g1 Ko :- 3( 9d ,m.Kt.@%.>W mU !E.5z u} 3X ~G *T S*.ev N)+M<@t;@N<@O<@P<@Q<@R<@S<@T<@U<@V<@^,@W<@X<@Y<@Z<@`<@ [@W!+@@+b; u8 .[@x(+5a )f.mb .z.^' bn.`9.9r |F +[@e=.!I e,+@[@#[@$[@%[@R;.4,+.y.&[@u$.%t P] Ak+$t *7+GF t_ J6 +w.,~+`B s!.sz rz Hp 3# [+ @& V} }  }  }  i+.Yz hd.b  ly TL <Z i^ :9.6n !' oJ+lm.*[@P|+=[@-[@;[@>[@,[@'[@)[@![@~[@{[@][@^[@/[@([@_[@",
"2}.9H C[ {i #E 7v wk+3e+wQ ,k+wQ wQ ch.,k+v'+N` P6+X. xj }  }  }  V} I8 1( T- T^ '@.7H nm 4] Y4.G%+:[@,d +{.=X `. R] ld 50+h%.h%.J:. c+z0.Lw..X.n=.<[@[[@uS.}[@|[@1[@5N T- x@ Q#.lN SQ %R 9O lj+s' dA O=.o#.xQ C| K; ;6 G_+M7 Vb ,# P .b7 2[@3[@4[@Kn.~Y 6d d& a< @l Cr C(+@~+5[@ZO.%| 1e (A z< {L y~ A( 4r n! c~ )6 c! Ww.ON 6[@RB ,' W# 7[@<M WZ+l{.$< it 9v 0] z0 P&.PO cn.6!.Ja 9P X2 l; 'j.8[@9[@0[@F<@+4.a[@_>.|M 5x @&.V4 S .bH 5_ !G q'.T] I_ H7 r_ tH |z &w d&  ` <+ pi ]x d^.F@ cv :* b[@a7.c[@d[@e[@f[@g[@cP.R'+**@h[@i{.lI +> H2 m=.l! m;.m;.[Z `4.W4 f^ -# cd Hj.dd tC a6 @(.}G .R.'S -r Vj.X, X, 45 0! }  rk FF Tq.i[@j[@r#@k[@l[@m[@YJ+$U.kM.a| N_.Ov WU '# @Z n[@o[@p[@#u.q[@X4 fB f^ qF f^ >C J:.4h.T'.r[@A @s[@Ze.1K+1K+O)+sQ.t[@ Z.u[@v[@n(+4J+w[@x[@y[@z[@A[@B[@C[@D[@E[@F[@G[@F(+:< RT H[@I[@k`.R~ 2  }5 &G b>+J[@...K[@L[@M[@M,+LR.l( Q*.z*.L@.W, F@ 3  aK fQ HL 21+9a.9c F0 QB Jp d-.rT ^+ Tb ;G x@ }  }  }  lA ~%.;E.m5 I@ r_ P' Un.Wu j^ qv V& w] fz N[@O[@P[@Q[@R[@S[@T[@U[@V[@W[@X[@Y[@Z[@`[@ }@.}@",
"2$ 5] 5] +}@+}@@}@ia wk+3e+N` ch.N` ch._  _  v'+ r X. Vb }  }  }  ax .k aB aB Rq )8 b1  *+:6 3v #}@j1.7v @}@<i }$ |$ Go t9+B*.$}@L,.a8.3c I7 z@ %}@+#+&}@*}@N]@=}@M*@26.T- )[ Q#.51 %0 fS 0< ),@!D )B >C Yq $f.:=.L@.2, 2, l; FR (P >%.bh.,F.$s.zV -}@n>.|6./3.3[.;}@1P.Ro.P,.}]@TB b' :^.>p K, k* zs wb Vg 7C La +> 2^ 3*+t% k9.>}@S]@,}@F7.>c.7K <6.R/+7p.I( Z, `, l! 25.6x Ij.8* {v [T 0] AR+'}@ @.)}@!}@~}@M(+F0 qA eI f< bH w} #z #z ,H O~ Zq vj /Y 3c ,8 tH 2z 2z 't WT %>.'i.tA fV q$.0M.G: W`.Zh {}@]}@qQ eS.^}@>Z+^<+u}+tQ F| xR Vb #$ o( VT ^u 2>.-E r~ 8<.dB xS tC +: Ol eK EW [d px /}@K2 1v |( +l _Q.}p xj so vQ Km 8F+(}@_}@:}@<}@[}@D)@ [@fi.N|+mI 3_ a[ z- uD ic.cV }}@*v.|}@=w %~.}x Un.TB.~| C,.&& n6 1}@kb.2}@rB+|m q$.`e `e 75 75 z/+z/+Y*.3}@4}@D*@5}@6}@7}@8}@9}@0}@a}@b}@c}@a|.[6.La+K0+nv d}@a~ po W} k=.i*+[D e}@f}@g}@h}@=W+!_ C[ >n i}@_=.j}@A'.9_ pr _k ;h uQ sk.`f 8c Fv 7* &S -8 z2 q_ hW V} }  }  }  R- xo j5 nG d, t!.mv.T} G! `2 d] Ex F] k}@5:.l}@m}@n}@o}@p}@3:@q}@r}@s}@t}@u}@v}@W1+Yb+B'+",
"o{+}$ o{+`8 <i Z. E<.uY ,k+,k+,k+5] ch.,k+v'+<  &H+Ho `q }  }  }  1(  d q'.O~ #m.q7.01 Zk..& r_+K_.w}@3e+<i o{+`8 2- Go 4$ B*.]_ |S C* ,< p$.A. iP.Kh+x}@b<@y}@z}@&{+;6 Y, x@ X2 _A f^ 8<._P ZK ;E F  i; }6 #~ l; }  }  }  }  !9 > .(h.4X #F+A}@$s.B}@0h.C}@D}@_'.F! @e+E}@/=.O*.Jp 9z 9z .A uC P_ pc. k.od./D.!g ^< Q3 ]V.m] F}@G}@o{@/P+}-.`a+q`.H}@R^+1c ~< V} 1( i+ 0F I7. 3 '< {v m$ ~< I}@J}@K}@L}@M}@k,.N}@J6 @3 8O }S g< w} eB qS AU 6- jm ~@.,< VL ^x k! qJ _9 &E o( VT ey wB j! l; 0! Ov G( 0r dt [K n<@w]@O}@W#+b2+[f 4h.>4 {s }  CR 6}.=M ;g r' sY ~| UT g^ xS qv @(.+: +p+0z }2 WB r}+@p gt  / Lp 9_ y& |m }  }  M+.k=.><+g*.P}@Q}@K!.(E R}@W*.Ci.zS b^ ER q5 lT *w [l.:X vN ad -Z B- e, m;.k& #C.t' R; <-  k Wb 0! Z, @) Y, Y, Y, Y, Y, Y, V} V} SE.S}@ o.T}@U}@V}@W}@X}@Y}@Z}@`}@ |@# @sL uz ZH '>+.|@l8 yB @) )s ZH I;.+|@@|@#|@$|@=n .~ wf M*..f+S*.K|+X~ jn .: K6 V0+v8 9a.;p M$ s$ z@ -8 3( ,8 ]< a, }  }  }  }  S] ]x xo Ao J. vf ZJ p' ,8 DR ^x z4.%|@&|@1'@!F.nt ra Kg+*|@=|@-|@;|@>|@_&.,|@'|@hQ.;0 jv ",
"$R 5] $R Z. Z. -k+<i uY ,k+,k+$R $R v'+_  <  <  @+ Rq R- }  x@ }  0] >8 H! o` )P )8 iV v@ 23.r_+)|@r_+.& wQ $R <i o{+xQ |( Ov ts.!_+:( Yq FR T^ Oh PD b>+kf !|@;).~|@c_ ~< )[ uz.=Z eB -# t' !D 9#.;E R; z2 +) ax }  }  }  V} !P -M %g <9.{|@]|@PO ^|@ss.U .es.%l.(U N=.Kq.2, /|@2  iy+]%.~C QN ~C oq qG Wg =R ed Jp /< yd.(|@g5._|@:|@<|@nv 3.+fG $9 JN+|  ~< Z, YJ 3, ]{.Wk Xw YV.qV uz.1( [|@}|@||@1|@2|@3|@I5 5p y,.|| j^ O_ 5e !# eB ey |X jm 8f I:.3c WT s[ n' sT DV OF {R Ia !G hR |p S] &l.41+F( Bd.4|@5|@6|@.^@`5 MJ &6 z* Sa.yj 2, Y} b1.'G ;H !G T4 T4 f^ pN $0 )$ .0 Y^ Y^ >4.HM Kk Kp 8_ {8 hd Kk S, md zR }  x@ |p R*.Sf o=.7|@7|@8|@FQ.OT 1m :- aw ]< 5,+Qq 0B Ca *j+Fa =Z ]d.%g ;# I:.qk 2z :$.!Y te mv.$$ 1( 0] I8 P* ~< ~< Y, I8 I8 I8 Y, ~< JA+Ch 9|@0|@a|@b|@c|@d|@e|@a}@f|@g|@/N+@6 qt l[ %| )/ z, v..h|@'s d' @&@T6.i|@j|@uV.RB Yz nI k|@t9+1v I%+JN+5| P: >a U* ^a {/ bN w( 7O gR tH }W p5 n` 0] }  }  }  }  xj X} jd Q..u3 u3 q_ rz.a[ a[ P' 3z 8F l|@m|@D@ y[ @/ 2y ka n|@/!+o|@p|@q|@r|@s|@t|@0<.@a ",
"k' ch.o{+$F.6J Z. ,k+ch.9,+uY ch.2v P6+C .d5+@+ 8v .b.W} }  x@ }  ~< X} R^ D, jx K7 Pv :6 _- K_.)|@j1.;k+3e+,d @}@ia 2$ {i }e+ts.ui+{_ V, }6 a*.8f 0D ^C &b.lv u|@1+ 2[+l; x@ 3- $ .`4.N! N! Wl.={.gi z4.mm [5 }6 0* ;8 0! V} _i.{x / .}Z 8-@MF.v|@w|@0f.0_ =u u( [( 7* !& xR Fr.K. !;.dD $D.SV U .cn.#&.x|@5M 9x T8 ts.[L m>++@@y|@h8 Q/ 7; ~1 z|@Z6+5c id WU ~< Nk.n..z& F* 3[.y@ yo 3- P*  k 2y eG Rr ]F+I5 fh Jz.v~ g< g=.w[ ^u &4 '8.aS FR V} YJ -G [+ #& N; l& >I m( $z.sT P; `2 #& vf 'g 1$.s_ K. Nv.bt 'U.0S.<* )4 )}.$D+vQ f, h%.I:.uf ~| vV ZQ KQ SQ pS Nr B'.^%.qv )$ x~ uC eI z[ Dz L: Uu wS z[ qr N}.R# Bj <m 1, |  KH .| >U.LL+U/ z' sc {P.@X #$ ,< [5 I7 o6 <V &w sF 1G bd & .ZY 9w p( p$.m#.*X cS /x K7 #& I_ Ao jd gz Ub BI BR 'g #$ Oh *G S^ A|@53.tz h0.q_@B|@C|@D|@E|@F|@G|@|~ Tm K6 ed >* (* af u' v..ZU .k (d H|@I|@J|@K|@E'+xQ {< T] OD && g3 D| CJ 0A La L[ /* I6 y<.R_ @R Xr %y.e& 63.iz ,& x@ }  }  so I( id y2 ,$ y3 4c !v Q .)@.GW )@.Sb.{D 7).Jj.Q4.Yd+rb #l Ag+L|@M|@N|@O|@P|@Q|@jL+R|@S|@pb J, ",
"{_ |, 5] *r `. +{.6$ 53.r_+9,+k' H8 &+ ]D+>l.k..O* cB W} }  x@ x@ ~< 1( *G W} aw 3_ VJ %>+#r 3v f9+j1.u@ KB 3e+.& +k n. ni Yl.QL c9+-P c! A& ^x uz.lA fM.Ch+Wx we I0 o#.Y, ql ,& _3.2'.0< 9#.={.T|@U|@V|@3z s' ag.-6.O- #$ &$ k..lT AS u].Xt.W|@X|@Ey+0_ y} Vd.ST RQ Ot Dz Ab.xC _C.7).U).g8+7x aF VP 2$.D@ /I Y^ iY 9, 7, ,d+6S Jc WO d~ x] ;a vS m` S8 te e* O~ -G |m b! 3[.-# 3# j5 l%.h! W} 95 Y|@J@ J*.}S+^< i< /K iK ]{.~G >C 5+.p#.wj }  }  ~< po m;.#& a^ h+ eK [o eI ba n( ~Y r' rF G! >$ g%.|p :- i:@^C f~ (r gQ :=.V} so J. (9 gs >H 22 k7 tD 82 7).s|./3.]{.k^ $0 81 rb O_ _2 MN (>.Yo.mj Xl Kp.Kp.y3.!n -;+.) 4( |1 B. -r ri *3 H_+Ww.f, -r ;n <Z jz ~| Ia k& F  vV uD bd ~U V%.~U vf {< f& nS g& nA m#.L! L  0u+s~ Mb u' At.l8 Z  71 8w EU cB #~ 'B.%F.I( ^i+Z|@>*+ /+Oh+-b+#{+j~ jX.O: b_ It m# u_ N] >H f&.dE :x fQ VD+x3+`|@7I |T  ~ T] %$ +Q qP IB )g ]/ h1 Ll w] WP z( t_ H..z3 5$ B. xj a, I8 V} }  }  }  L@.&l.^u &E gs d& f2.`Y * .K  m; m+.)@.c* G! x- r' rF z3 I| C| f(@ 1@.1@+1@@1@#1@$1@b- ck N}.z[ ",
"M; k' 0p ' @' @:t 7H M_.2v N` 6$ q7.%1@l..^m u3 q_ ~@.xj }  }  x@ V} V} 0! V} YJ s_ aD &1@f9+r_+j1.j1.r_+3e+3e+_- |c 9^ zh+*1@m< >X R` '6 /(+oo T- )[ g! Yq S| ,[ a! $$ lA Y, MT 31 p5.&I 5E =1@-1@-1@;1@IV >1@,1@'1@uj.2_ P2+oo H:.L  qF li )1@!1@3g+^%. q k^ j^  A pP j^ bH pJ vB  t.+r.0$+=$.~1@@r.>B.('.('.SN &d @^.}( @6.8B 9f P# Gh+k& ;# ~| ZK bh.kL `4.A2 `. im  + %R 9O sH I@ l%.K .h! 0] V} V} x@ `q ++ rY uB #F+$t.* .G7 CZ *G }  }  }  x@  d !1 O* C* =& An.{1@]1@kT ra.W' eB AS yp.21 ;G x@ }  )k+Hm Qm {_ k#.`q }  x@ e& iN ;g `4.82 _$.<9.ii mm.mm.mm.HV g=.ST ;K v~ v~ X^ l_.1;.,o.^1@ 2./1@jz+M] 'K n! 5].f7 '$ C. xj xj X, 0! 45 0! Vb 6- 2>.eB :N #C.JM t' `Y = .AB B, Q^ a] v3 A..b< 16 nS TZ *@.[U (1@_1@vG.B}@oU ps+:1@<1@}:.J7.lj+Yq Sq %E |6 x@ }  ]}+N* e- )a 'p 7; w|+Cc D  8O |2 >g N] qv r; [1@dE lA Ov u_ }1@.R $G #[ -r 's  ~ .> I[ $M WP ](.>/ |1@|1@+0 ht Yr +3 2# #& |  45 ~< x@ x@ }  }  }  |  DU ~| wB 3z BU <` .Z 11@d^ m+.xk.Z;+t[ B^ /m B^ mm t5 g3 3a xe 21@di+31@41@51@61@sh+EV 71@y] ",
"l' 6$ N` ' @hx <z 8v <z m..:t F]+J7 _h.++ vj `c o$.hW |p }  x@ x@ l; x@ l; V} Vb k. om pm u@ s_+3v _- _- .& .& j'  P R` E3 -) !B.f{+aA.Q` 81@w@ ~< Y, a] I. 3( P' mv.yo A%.MT 2J P..%R JM &I IK.91@01@a1@a1@#S b1@@^.b1 9$ 8! 9$ d] k& `p c1@d1@*g 6E Vd. q s2 g=.bH 3X F* vB u].x<.J/.e1@f1@Zp.g1@f1@h1@i1@7x [B.-#.&I #C.XC./U !# dB e^.#K - .* .#K %g SI.`p |5 4, *) gy ey V' C,.mv.K_ 63.p[ I! 0] T- Dt {< a< p5.>o.m$.e_.v[ :Z u .g! }  }  }  }  jx e, O* o' -K }[.-J+f=..l.6u  q &I &I jY rJ !h mA Z, a, .{ Yq 0* -G ;8 R- R- hR 9w tV SQ aV Yn.Jj.mm.Jj.|6.Q4.]{.IM g7 ;K y' ;K B@ 7O BN @>._%.j1@|0.GI.2i.zs qr HM =& m=.A. {< '[ '[ P* T- T- ;8 ^x `9 x} Yd+&I ZK wB AS uD }W O^ oS =T ,& C, C, nA k1@`%.dX c .8d IV HV UD+0f.l1@{V zw+kT cw+.I O~ 0* z0 =G x@ }  I( .4 [;. l $f $3 It {G X^ X^ rb m! z[ )| LW :Z Q#.m1@Yq Mp.}9 I'.$6 Fh h%.}p Sa.u5 f! ]+ Tx+ :.{F.5O [2 Y<.91 d-.~x.2# l$ zo aw `q V} V} }  V} }  aw J9.AU rY >%.Nb ,Z <U 11@{9 )@.r0.R3 ^x c* H7 Sb 0^ 6c a~ GR R7.n1@y0+m5+Ha+o1@p1@q1@MW m` 1# ",
"A[ _( 0^ Io sg+'B.'B.I%.Tq @+ ]m e] {D /x o5 N+.MT |&.ay }  x@ }  }  }  l; x@ 1( 'g v .,[ ,[ 2v G%+3v u@ xk+xk+.& #E f!+O] >d+j' 6v r1@1a+ui++& FR Q^ H! P .b] j! lm K_ I@ H! nG TL x- p^+IW Aa 6H 3J *R s1@t1@u1@lj+%+ %+ %+ A* P- O; }$. Z  M ZY rF ky o; F  o; ky VT &w ue :I Zp vD P>.v1@%h.RH.RH.%g sA+AS 9O IQ Un.]V $F ~Y $K q~ E9.8d ;Z }i.,Z p5.;Z Q0.dA A* k#.h; )B 2>.2z Ha sJ r[ *F lm kd '[ S- !9 ER BU gS u].+K '{+n5 #X H  x@ }  }  }  z0 O~ O* o' ;I *{ 3r Qn.q..Hg+%K 5d 3F r5 P' Co !U q( J8 |c.I%.;t.[c.o` b] ]< ix VL k! ,H &g Yn.gI mm.<9.gI TV 0F .r.eI pP g7 rb w~ }| };.E] w1@x1@Nx.G] ^{.HM 91 l( Fq.&l.qo ~h CZ H! Q..'g gz b^ '8.<P *I !# q; |5 O; B- ^9 m5 {< ,& =T ;G h! P^ @4 eX y1@z1@ >+L! bB TB.A1@>1@B1@iM+u$@$g C3 !8 m..qo jx #X T- Y, Nk.8* Z! Xx G& T; |x s~ r; .3 )B .3 d-.A@ c] WY C$.r-.{< $$ Oh Ub hW ~v fN 3_ !8 @[ 9A Yr )6 *4 { .P# m( z] [6 >& (x -8 #& Yq Ao |  V} }  }  so }  35 'C d& >%.>%.q~ C1@>f.F, eS f#.f#.!@.`c `c jx %F.}C.9$ 5*  [ T~@^n  & yk r1@ P 33.m' '8 j; N; ",
"=A )8 s_ Io 6$@I8 Z, V} 'Z  t Un.r' KK.-< l%.x@ Dt }  Dt x@ x@ }  x@ }  l; x@ Y, wj T] Z} 0D 7H D1@A[ M; 7$ 53.-X +& OW gx gx 0[ @}@_- #r nG+q7.4c ~9 }5 a< j! !P y- b] ;< KW 31 FQ b7 <V A] D[.vO uO 9u+E1@91@F1@8D `2 ei.2F (( @+ ++ z2 k! a< '# <5 '# <5 T} P' G7 GQ GQ r[ 5}.F6 r( -$ b* b* E6 AB /F.31 3( B^ y3 z2 P' Sb.P' G7 }5 )# IV _$.n'.AS eB JQ eB !# c& d-.4   3 Ia ;# !G & .:I :| |z Tb vf o$.lm '@.<5 ;$ rJ WY w$.H  '[ S- x@ }  }  x@  d I_ O' o~ Ef b1 Ef b1 _z yq.Hg+5d 7D G, c* ,U Q .H_ g%.c^ I%.J8 g%.G. q5 c* q'.z0 .b.B- U].#w.gI Yn.J3+Yn.Q4.lP fI k^ f< g< g< Wu w~ g* Or cn.E] 5x Nv =# %{ i3 =4 4  3# -8 c] >$ >$ -8 uf 3( A, w- ya 9< c& A& >< Sb /Y U} R- x@ @) f& H  {< )U CS `` G1@^P *X F, $F =< H1@A1@Wl.ns+),@ns+v' s5 .+ }6 A^ vf WU hW g%. d aw 8f O'  .  . b7 sH FQ -8 l! Ja Ja fV GQ G  Z..P* Dt }  }  }  }  hW s5 l& O# %& %& 8$ C* C* h; a^ ,4 2_ Sq Tq qo 6- l$ }` #$ Wb }  }  so }  45 !s qJ #K 68.)# &J 5,+Co t$.%E !Z J!+4_ km '[ I%.{d+<  |S Wz I1@J1@X. =X 6J `. Ho <z u3 )P VL ",
"$+ )8 y3 .b.S^ x@ }  }  z0  t LW r' Nb S} 3- }  }  }  ay }  }  }  }  }  }  x@ Y, :- Y#.Z}  + 7H %+ A[ sa.*+ xk+|, k#.OW 9v l=.3$ #9 2}.Zk.d; =A _h.]m A2 a< e#.YQ )U '# z- b7 b7 |z 9w A2 A0 D[.H(.pq.bB 3F ;G.K1@lj+'8 [z s5 A0  t Do P' <5 '# uF Qb uF x2 x2 D6 -$ GQ wD r[ wD Z2 p0.a< '# b* ;$ b* ;$ T} <5 [5 ,8 r_ H7 Sb #& @z.31 ,Z V` #C.:N aH Wu mL B'.gG x} Fq.Hp x' r/.;E 3[.%R R .-M 0B T} r_ YQ hR R3 fV 3c 2( CZ uz.Y, @) Y, }  }  }  Z,  d q'..+ '8 P; S_ Ef l& !B v' ),@),@R/.q5 {9 ~f.~[ j..R..'B.z0 4_ X#.j..~[ ;< ^m g%.~@.3( yG.=o.]{.gB mm.mm.gI ]{..r.f< IM g< g< mL 3'.w~ ^5 Wp./K #z x' Hp Hp ${ 2# 1X &E qJ '8.b7 o( A0 o( e] ey 9#.5_ 5E N! uj.s5 ^x I:.hW Y, }  x@ }  x@ T^ *X ES L1@&X A@.lg.9B M1@&R `p :$.L  ;G.7D ~Y o; sH a[ a[ r0.~h kd kd jx U} @& jd ,8 iN q/.9w }5 &>.r$ Ja 3, <t hN xX ># O^ u#.}  }  }  }  }  km >< A& h; &S $& O- A* i; i; O; P- O~ &$ Vb aw b^ s[ s[ po V} }  }  }  }  so M+.>$ O>.8d ~;./V p' iz t$.t$.J!+FR g%.;G #X g%.Q..P' h; ,4 S| l..VL O* }6 b^ q_ q_ YQ p' P .",
"I7 /m Sb gz R- }  x@ x@ hW ^x [Z q' u[ :Z 8m+x@ l; ay %=.}  }  }  }  }  }  V} 45 CR iP.W, Y. w@ 7$ k' |, N` +& +{.0[ s< >P.ri Q=.2$ Ov 2$ >d+0^ z2 R3 3c Co !U H! `J 75.P..<5 %>.I. [5 H7 ^x t[ wO bx O- c] d] '8 %+ _( P- K7 ^+ s[ <5 I. G7 -$ D6 a< wD p0.v#.HQ HQ V%.HQ F6 v#.qA.v#.6d+SL '# 41 41 '# G7 I. r_ a[ '@.2( H7 #& uA rJ wB W4 W4 qS f^ #z }| t} v~ 5e YK Fq.jy jy 9O ~G wB $K ue A- Qb I. j! :Z R3 mv.r_ k! H_ n5 H  @) x@ x@ }  x@ I8 U} J_ H7 |5 dA R; c6 dA o; Un.;# <| JW N1@> .d .K! e#.B] B] B] J%.H! p' Q .{9 )P kd +) 3( !;.|Z e< pJ e< e< 5z F* bH  q 3X 5_ mL ;%.t} t; uN )4.92 U4 <P Fq..3 +3 P&.A, 9w 3( tH BQ Qb tH FQ  . rF s' r~ p; Ia A, sH z2 d, <x P* }  ^Y }  Z, ;G  W L1@O1@lg.A@.}U 5f.9B Nb +U s$.j& j& q5 l#.~f.,U E, r( #h.0O ,# jx FR Rb &) xo |X ] .BQ %>.%>.'P @z.O=.f, Ct V`+e.@Z..r-.u#.l; Dt |&.V} V} X} !1 (x l$ >& K7 >< O; uf 3( s[ [5 J. aw Vb &$ b^ ^+  ` CZ ~< }  }  l; V} l; +t ;)+G_.qe.Wn.~f.Co H! S..!9 `, km *G *G *G hW jx b^ @z.}` O* VL q_ q_ A^ ]< p( p( B, H! H! ",
".{ jd n5 pi P* x@ x@ }  Y, R^ j5 YQ b  Dy.|&.x@ l; ay ay ay }  }  }  }  x@ }  ~< C. B. I( aB n..$f.5x.+L `! T<+hS+@X iP.yR )s &t -r 's &$ &$ km T^ |6 '[ /+ ~P ~P q( CZ ZJ vj .{ R^ p$.'B.%E ;G J!+%F.FR @& <+ FR $$ 8f WU WU <+ R^ R^ a] r-.l%.I! 0  0  hz X2 U| ,& a] Q^ >8 c, O^ yB n#.H! CZ CZ u .u .vf o$.!h kd jd Q..#~ BI Ao b^ l! #{ ^w 3# DU DU !t |1 &l.bK P=.3k |1 |1 |1 }` fV ,$ !1 hR ]< J_ Ao J_ CZ I:.6- !1 I:.jd a, }  }  x@ }  x@ I8 ;G jd b^ A2 qJ '$ N; /m K7 /m WT [5 P' Sb.c* ER p0.y- tF S..S..sV B] kY ER ,8 )P kd a*.Sb x- ;# ;g ky ;# BU ;# ky te LW 2>.~x.ky d& gs S; ;g !G r$.1z C,.#{ eA.>C r$ fV l5 CZ Ao .{ vj CZ y2 A^ 3c [5 aS [5 l$ !1 ,< po FR '[ Z, }  }  }  Y, T^ V%.-$ YL TQ aO *$ e#.eS R3 )P lm !P !P tF hj.$h.p[ I! p[ mT OC.b, v3 ,& [T uz.#X uz.[T <x Q^ <+ =T [  y0 Y#.Y#.Vb ~v T- |&.x@ l; }  x@ x@ x@ ~< X} g%.FR  d gz gz cB Ao vj Ao 'g fN `q 45 Bo gz I:.|X U} ~< }  }  V} l; 0! l; DC 63.p0.J! o` !9 n#.S..4_ I8 Z, V} Y, V} ~< 0] *G aw &$ `, ;G T^ T^ {< g! S- a, a, a, 0] ",
"|p yu u#.|&.yu Y, Y, }  ay |&.w<+P1@'*.|&.|&.6m+Q1@|&.;N+%=.%=.l; %=.l; |&.|&.i%.|p x<+wj A. YJ xd.I%.Vb ~v *G R- CR U>.R1@S1@T1@T>.jA lA u#.yu P* @) yu yu u#.u#..&.U1@V1@CA jA %=.T- T- T- yu T- ~< |&.%=.|&.pl |&.|&.|&.|&.yu yu 4k+yu 6m+Aw ql x@ x@ }  }  }  x@ x@ ~< I8 T- yu T- T- lA lA lA T- T- Y, ~< l; V} }  }  }  }  so 1( (m ]=.!=.qi !=.CR M+.M+.'#.M+.En jm (m CR CR A. CR CR (m A. C. C. W} R- *G X} X} fN hW :x ~< }  }  }  }  Y, W} hW FR `c b^ |X -G J. po #~ z0 FR 8f FR FR U}  d z0 T^ T^ %E X#.X#.t$.J%.!U lm o` hj.f#.f#.)P d, d, d, d, I@ d, d, |X ]v UL I:.I:.k5 S&.,C k5 k5 V`+S&.S&.BI BI BR Ub p#.OK.C. R- YJ xd.xd.A. ;8 fN fN [  [   d fN ;8 YJ R- T- Y, x@ l; |p 1( {< .{ B, o$.J  =T p$.p$.g%.fN ;8 X} S- a, lA S- A..6m+Aw 4k+yu !l+|q 4k+4k+!l+cy cy es Aw ^Y yu ql Y, }  by }  so }  }  }  x@ Dt |p l; x@ x@ Y, V} l; l; |p ~< |p 0! 45 |p 45 |p 2, 0! 45 55 :- xj CR 0S R- ~< |p ~< |p Y, |p }  }  l; P* P* a, `, A^ e& ,& Y, V} V} Y, l; Y, }  }  so l; V} Y, Y, l; V} V} V} V} V} x@ x@ ",
"by ay %=.by %=.ay by ay by by b(+b(+b(+b(+%=.c(+ay ay ay ay ay ay ay ay ay ay l; l; %=.Y, S] W} S^ S^ R- z..lA S] kA #q h-.W1@X1@Y1@t:+|&.P* @) ^Y ^Y Dt ^Y ^Y l; Z1@UP++. `1@ 2@b(+by l; Y, Dt l; l; %=.pl pl pl pl pl pl pl pl Dt pl c(+c(+ay Dt }  }  }  }  x@ }  x@ x@ }  x@ x@ x@ V} V} V} x@ }  }  }  }  }  }  }  }  }  }  }  }  so so so  f so so so so so so }  so so so so so so so so 0! so }  }  }  }  }  }  V} V} V} }  }  }  }  }  V} a, ;G X} `, %F.&$ C. W} 1( ~< V} V} V} Wb 0! 0! 0! ~< V} e&.%$.0] |c.UZ i&.$h.$h.J  X#.$h.S..A^ ]< e& ]< m5 u .u .o$.vf 'g 'g Ub $$ DC :x wj @~ A. @~ A. C. Vb Vb En xj S] 45 so V} so so }  }  }  V} }  V} V} V} V} x@ }  }  }  }  }  V} l; 1( 1( S- a, a, T- ~< Z, V} so }  }  }  V} x@ }  Y, V} ay ay c(+ay c(+c(+b(+.2@rE+pl pl ay ay ay ay ay }  }  so }  so }  }  }  }  }  }  }  }  }  }  }  }  }  }  V} so }  }  }  }  }  }  so so }  so }  so so ~< ~< |p l; ~< V} so }  }  }  }  }  ~< Nk.I_ ~h km V} }  so }  }  }  }  }  }  }  V} x@ }  }  x@ l; l; V} V} l; l; ",
"oa++2@R<+@2@#2@#2@pa+b_+o_+o_+$2@%2@&2@*2@=2@=2@-2@-2@;2@|n+>2@,2@,2@'2@^n+u1+)2@K:+D6+!2@#e+{s yn+M+.f_+t:+$n+~2@{2@]2@^2@/2@(2@_2@:2@<2@d_+[2@3w N2+}2@}2@~9+|2@12@22@32@42@52@ij+EE g_+}2@62@v<+eF+72@82@92@02@a2@b2@c2@<n+d2@e2@f2@g2@h2@i2@j:@by }  }  x@ }  x@ Dt Y, T- T- Y, |p Y, l; |p |p l; l; }  }  }  }  }  }  }  }  }  }  }  so by l; so by by by by by }  l; so l; l; l; l; l; l; ~< }  }  }  }  }  x@ }  }  }  }  }  }  }  }  }  W} ;G U} WU X} YJ `q W} W} ~< l; so }  }  l; x@ }  }  }  V} Z, Z, ~< I8 0] %$.'[ f%.4_ /+ f%.e%.>8 o5 !h .{ n#.q$ q$ Rb jd $$ ]x aw #t wj ~v Vb :x C. 0S Vb +t S] xj 45 |p |p |p l; V} }  }  }  }  }  }  }  }  }  x@ x@ x@ x@ x@ }  }  }  ~< l; V} V} }  }  }  }  x@ }  }  }  V} V} l; l; ~< 45 @q by j2@k2@l2@ny A+@m2@n2@o2@p2@q2@r2@Ag s2@t2@u2@v2@w2@x2@y2@z2@B{+%m+^i+0! @t }  }  }  }  }  }  }  x@ l; 0! by }  ay l; by by }  }  so l; so so }  }  }  0! ~< S] |p V} }  V} }  }  }  }  }  ~< ;8 J. CZ km V} so }  }  }  }  }  }  }  }  }  }  }  }  x@ }  }  V} so so V} ",
"oK A2@Kg B2@,q C2@C2@kh+:e D2@E2@F2@E2@E2@G2@H2@I2@~7 J2@K2@L2@M2@N2@O2@P2@Q2@R2@S2@T2@U2@V2@W2@W2@X2@Y2@Z2@`2@ 3@.3@+3@@3@#3@$3@%3@&3@*3@=3@UA+-3@;3@>3@,3@4l+'3@)3@!3@~3@{3@]3@^3@9l >m+/3@(3@_3@:3@Wn+<3@B+ [3@}3@|3@13@23@33@43@53@63@73@83@93@03@}  }  x@ x@ x@ x@ T- 1( 1( S] 1( 45 En 35 45 V} V} }  }  }  }  }  }  }  }  }  }  }  }  }  }  }  }  }  }  }  }  }  }  }  }  }  }  }  }  }  }  }  }  }  }  }  }  }  }  }  }  }  }  }  }  x@ g! FR jd U} g%.*G *G 1( l; x@ }  }  }  }  }  }  }  }  }  }  }  }  }  }  }  x@ x@ }  }  }  }  }  x@ V} Y, Y, T- 0] a, S- S- ~v lA i%.l; x@ l; l; l; l; l; l; }  }  x@ }  }  }  }  }  }  }  }  }  }  }  }  }  }  }  }  }  }  }  }  }  }  }  }  }  }  }  x@ }  x@ }  }  }  }  }  }  }  }  }  }  }  by  f a3@b3@c3@d3@e3@f3@g3@h3@i3@j3@k3@l3@m3@n3@o3@p3@q3@r3@s3@t3@u3@1m.v3@j. +~ aw S] }  }  }  }  }  }  x@ }  }  l; }  ay }  }  }  }  }  }  }  }  }  by by l; l; ~< l; ~< l; l; }  }  }  }  }  V} ~< aw DC T- }  V} V} l; }  }  }  }  }  }  }  }  }  }  }  V} V} l; so 0! l; ",
"w3@x3@y3@z3@A3@A3@A3@B3@C3@D3@E3@F3@F3@G3@H3@I3@J3@K3@L3@M3@N3@O3@P3@Q3@R3@S3@T3@U3@V3@:} W3@X3@Y3@Z3@`3@ 4@.4@+4@@4@#4@$4@%4@&4@*4@=4@-4@;4@>4@,4@'4@)4@!4@~4@{4@]4@^4@/4@(4@_4@:4@<4@[4@}4@|4@14@24@34@ep+44@54@64@74@84@94@04@a4@b4@c4@d4@e4@f4@j0+}  so Y, T- W} R- xd.(m ;8 |   k 2m 1m x*.L@.55 45 V} }  }  }  }  }  }  }  }  }  }  }  }  }  }  }  }  }  }  }  }  so so so }  so so so }  }  }  }  }  }  }  }  }  }  }  }  }  }  }  ~< x@ W} pi WU {< {< I%.`q xj S] l; l; }  }  }  }  }  }  }  }  }  }  }  V} }  }  }  }  }  }  }  }  }  }  }  }  }  x@ x@ x@ x@ l; x@ Dt }  }  x@ l; ay ay }  ay }  }  }  }  }  }  }  }  }  }  }  }  }  }  }  }  }  }  }  }  }  x@ x@ }  }  x@ }  }  }  }  }  }  }  x@ x@ x@ }  }  x@ x@ x@ l; ^Y ^Y }  Dt h_+g4@h4@i4@j4@k4@l4@m4@n4@o4@p4@q4@r4@s4@t4@u4@v4@w4@x4@y4@z4@A4@+E+B4@$F.ld $$ ~v x@ x@ }  l; x@ Dt Dt Dt ay %=.pl pl ay pl Dt pl Dt }  }  }  }  }  }  V} x@ V} x@ x@ x@ x@ }  }  }  }  }  x@ }  l; l; )[ }  }  }  }  }  }  }  }  }  }  }  }  }  }  }  so so so }  so so ",
"C4@D4@`w+E4@F4@G4@H4@I4@J4@J4@K4@L4@L4@M4@N4@O4@P4@Q4@R4@S4@T4@U4@V4@W4@X4@Y4@Z4@`4@ 5@.5@+5@@5@#5@Ya $5@%5@&5@*5@=5@-5@;5@>5@,5@'5@)5@!5@~5@{5@]5@^5@/5@(5@_5@:5@<5@[5@}5@|5@15@25@35@45@55@L4@65@75@85@95@05@05@a5@b5@c5@d5@e5@f5@g5@h5@i5@j5@k5@l5@M@.to '#.;J Uq oj+d*.d*.-D+m5@bX+n5@[!+(Q+ai+Vq M@.so 0! }  }  }  }  }  }  }  }  }  }  }  }  }  }  }  }  }  }  }  }  }  }  }  }  }  }  }  }  }  }  }  }  }  }  }  }  so  f by so }  }  0! CR I( p#.aw km W} xj 2, 0! so }  }  }  }  }  }  }  }  }  so so so so so }  }  so so }  }  }  }  }  }  }  }  }  so l; 0! 0! 0! 0! by so so by by by by by by by so  f  f 2,  f by }  }  }  }  }  so }  }  }  }  }  x@ x@ V} V} l; }  }  so 0! 0! 2, 2, 45 45 45 ~< 0! l; V} so so so }  }  x@ }  so Ib+o5@Iu+p5@q5@r5@s5@t5@u5@v5@w5@x5@y5@y5@z5@A5@B5@C5@D5@E5@F5@G5@H5@I5@b=+J5@fo.<W+rk 2,  f Dn Dn NI iI K5@ H+.2@L5@q^@c(+ay }  }  }  }  }  }  }  }  }  0! ro 55 45 xj 45 0! l; }  }  }  }  so }  by so so }  so by 2, 0!  f }  }  }  }  }  }  so Ib+M@.to 6O.M5@8O.M@.so ",
"N5@O5@P5@Q5@R5@S5@T5@U5@V5@W5@X5@Y5@Z5@`5@ 6@.6@+6@@6@#r+#6@$6@%6@&6@*6@=6@-6@;6@>6@,6@'6@)6@+5@D{ !6@~6@{6@]6@^6@/6@(6@_6@:6@<6@[6@}6@|6@16@26@36@46@56@66@76@86@96@06@a6@b6@c6@d6@e6@f6@d6@g6@h6@i6@j6@k6@l6@m6@n6@o6@p6@q6@r6@s6@t6@u6@v6@w6@x6@y6@1_@/l @]+HD R7 90 io+%F+Ek R}@j^.zV.z6@7a zz A6@B6@M*.$E  d }  }  }  }  so }  so }  }  }  so }  l; 0! |p @~ .{ ~h ~h Ao 'g &) ]x fN fN aw aw Vb |p l; 45 Vb !=.2m Wq 1P.5| v5 CI R*.zR !& !Q _2 <b.y' Fq.(9 Ja lr Lx.T] CR 35 2, ro 2, rk L@./=.nV+@X ;-.W, 85 yR J( s(+G2 1S  / RB H*.1$ ~_+~_+~_+gm gm t9+3k O=.O=.50+>H+Fr.C6@t9+IJ+IJ+L,.BG BG t9+BG mR+d5 D6@nC :k F& /=.so 2c Y#.oi <- -G q$.ro 2c :- T] 25 Y} Z} zS !s Ci.M7 _l (P.F2 F2 6[@I%+2k Ov Go ri l=.s< >P.SB J0.J0.9v E6@v.@F6@G6@H6@I6@J6@K6@L6@M6@N6@O6@P6@Q6@R6@S6@T6@U6@V6@W6@X6@Y6@Z6@`6@ 7@.7@+7@@7@#7@$7@%7@/>@&7@*7@=7@-7@;7@>7@,7@'7@)7@!7@~7@{7@]7@^7@/7@(7@_7@:7@<7@[7@}7@|7@17@27@xE+37@rO+37++3+47@57@67@:k o++N-+77@Ro.:k 2[+.A+87@@O C0 97@:I+~l+ f so  f jP.~_+Ro.n}+B[+07@iN+YG+a7@u&@",
"b7@c7@d7@e7@f7@g7@h7@h7@i7@j7@k7@l7@m7@n7@o7@p7@q7@r7@s7@t7@u7@u7@v7@O5@w7@x7@y7@z7@A7@B7@C7@D7@E7@6% F7@G7@H7@I7@J7@K7@L7@M7@N7@O7@P7@Q7@R7@S7@T7@U7@V7@W7@X7@Y7@Z7@`7@ 8@.8@+8@@8@#8@$8@%8@&8@*8@=8@-8@;8@O7@>8@,8@'8@)8@!8@~8@{8@]8@^8@/8@(8@_8@:8@8[+02 :c <8@V5 [8@B.@&V Th }8@L;.|8@18@28@:8.b>@.~++> 8w y@ |p }  }  }  so }  so }  }  }  }  V} xj +t fN <5 - .:$.* .sY &w # .M! 9w R4.3( 75.ZJ U} :x fN *o.=7+38@~;@j:+W7.U; {B P5+Z*@k1 O).48@58@O1.Q8.Bs Ir y,.$z d-.Xz &l.@l 9v 68@.~ Ww.Xx Gh 4  sT {R gW 2  hh Hj.p|.&# i} `& tk _; Z' OB B).}j s. |2 6D 4( 1;.v5 @Q 1` ]G $A Z0.7C P! Lv F^ Mt Jt ~$ mr Wq.>C.E}.{G N=.rk _=.%y #R g=.c& $& 's L@.Z} [+ &S ID 9$ c! ,g.[p <[ ZV.d3 cQ ;{ B< pt af ~4 E! .4 y<.IH y<.IH 6| y<.n8 LN 78@88@98@08@a8@b8@c8@d8@e8@f8@g8@h8@i8@j8@k8@l8@zm+m8@ez+n8@o8@p8@q8@r8@s8@t8@u8@v8@w8@x8@y8@z8@A8@B8@C8@D8@E8@F8@G8@H8@I8@J8@K8@L8@M8@N8@O8@P8@Q8@R8@S8@'3@T8@U8@V8@j!@W8@X8@Y8@Z8@`8@ 9@.9@+9@A$+}< H6.z< kh.l* @9@VN+v>.#9@$9@Q_ C0 %9@&9@jI a-.j1 qk.E9+.a d. *9@|*+6S.#/ ",
"=9@-9@;9@&2 >9@,9@'9@u/ )9@!9@~9@{9@]9@g3@^9@T6@/9@(9@_9@:9@<9@M9 7b Pu+[9@}9@|9@19@29@39@49@59@69@79@89@99@09@a9@b9@c9@d9@e9@f9@g9@h9@i9@j9@S9.k9@l9@m9@n9@o9@p9@q9@r9@s9@t9@u9@v9@w9@w9@:5@x9@y9@z9@A9@B9@ou+C9@D9@E9@F9@G9@H9@I9@J9@K9@L9@M9@N9@SX+NH ,* {' YW.ak.,*+O9@P9@Q9@R9@6U.S9@T9@OS+U9@V0.K| -;+8!.G~.0! }  }  }  by so so }  }  }  }  xj B. CR Y} [Z vB pJ 9#.9O >H ;g ;g d& ~x.[Z P..ZJ [  A. p#.-T %r B-+ze ak u# ,8.VN+S^+ip $<+V9@>! 3< *_.W9@Ws.~$ $o.x& ov G& Ka _Q.+l .R.[9 G2 9A |v Ij.N! !D ey dA z3 .0 R, 0_.O( pP+t'+=~ t'+m, q).-* D6..A ]K w' U- Qm |f rd.>| X9@dH #l.uq >v ae Q_ 7C Y9@JJ+Z9@!&+`9@vp Ka /=.Xq +3 |i. 0@tr. 3 f, nV+Lx.&S n' gW 6c Jp g3 oa .0@|E BT+ ^ j] -/ Pg ;* $p 7p %; !g T* )' Xj Xj sz Qh ^$ {L |4++0@@0@#0@$n+$0@Yl+d_+d_+Yl+NI d_+0g d_+Cn Cn @t %0@&0@*0@=0@-0@;0@>0@,0@'0@)0@!0@~0@{0@]0@^0@/0@(0@_0@:0@<0@JF+[0@}0@|0@10@20@30@40@50@60@70@80@90@00@a0@b0@c0@d0@e0@f0@g0@h0@i0@ !+j0@D,+k0@l0@m0@n0@o0@]= p0@q0@av+3r+r0@L- od s0@[=.u.@t0@&[.pM+e*.p* LL+6^ UV+'~+8~ ",
"m7@u0@v0@I{ w0@x0@y0@z0@A0@j> B0@C0@D0@E0@F0@G0@H0@I0@J0@K0@g3@L0@M0@N0@O0@P0@Q0@R0@S0@T0@U0@V0@l> W0@X0@Y0@Z0@`0@`0@ a@.a@+a@@a@#a@a% $a@%a@&a@*a@=a@-a@;a@>a@,a@o9@'a@)a@'a@ a@!a@~a@p4@p4@x9@{a@pp+]a@^a@/a@(a@ku+_a@:a@<a@[a@}a@|a@1a@69+2a@3a@Nv.(< Bb+P'.4a@,) 5a@Df+6a@7a@p4+8a@9a@l,.U%@M)+$' |E y* kz zj L@./=.x*.c&.so }  so }  }  }  }  W} Tq &$ gz A2 za JM p; {Y !B F  F  Un.x- b7 ^+ ~h fN (m Z} 0[ x:@0a@aa@U!+5Z.FM+A< sc (d Z' ba@ca@da@O;+ir+ea@fh Dc }^.4h.Xo Ww.|( |( k#.N# c! [6 T' {R f2.ag.~Y f* =4 S, '^.({ fa@$' 1' ga@4^ ga@F-..h.Wj Uu O_ oN z, g; Ro.e*+^A }J I] Io.h6.[2 Kv X  Hv }2 @,.ih.wM.,1.GV Ra+jm Z} R; n>._'.h<  3 3, vQ cB >& a^ o' H8 B[ pm ]n c++2; aw+j] ~~ 4(.;* ,a E! Kk 4k q} 7B R~ R~ R# Bz z( e/+~# +> i @>j 4+.:@.x<+ha@i%.T- P1@P* S] by by so so l; ia@ja@ka@la@ma@na@oa@pa@qa@ra@sa@ta@ua@va@wa@xa@ya@za@Aa@Ba@Ca@Da@Ea@Fa@Ga@Ha@Ia@Ja@Ka@La@Ma@Na@Oa@Pa@Qa@$l+Ra@Sa@Ta@Ua@Va@Hc.Wa@Xa@+;.8@@v%+Ya@f0@O( 7/.C'.1> >w u& &:.fy+@L y( <P.jh Uo V# E9+.z.BT+VB .R #^ ~6 k=+Q0+",
"Za@`a@ b@.b@+b@@b@#b@$b@%b@&b@*b@=b@j> -b@;b@>b@,b@'b@)b@!b@~b@v0@{b@]b@^b@/b@(b@_b@:b@<b@o7@[b@}b@|b@1b@2b@3b@4b@5b@6b@7b@8b@9b@0b@ab@bb@cb@db@eb@#B+fb@gb@]b@U0@hb@ib@jb@kb@z7@lb@mb@nb@ob@pb@qb@rb@sb@tb@ub@vb@wb@xb@yb@)n+zb@Ab@Bb@Cb@2, .f+zy.E| tz e~ c!.Db@UY.U$+Eb@Fb@Gb@Hb@Ib@Jb@Kb@Lb@Mb@q-@[k Nb@AQ.H*.@[ j3 kz ve so }  }  }  }  }  }  X} 6- 6- 9* j; 8D .I u!.1# `  `  :V !B q; cr.A, uf @z.f, }$ Zk.Nf g)+f(@7A h$ 'a 8c 4| -[ X; #; Ob@G|+A>@a8+Pb@z/@UV+h$ Az (r Hh o. z@ c! H2 gW =4 hy :V ZK t' H, ${ Q[ j, ;i ,w W;+73 j<@Qb@(a %~+s%+tk A5 7_ |x R~+Hp Qm M^+T& 4O qk.Ws.D6.[# FD 0*.)g _[ `^ dd tC uC v~ A@ -G aw Y} -8 p; 9#..1  3 O- |1 -8 d* dA P; o~ 9  xy.c! FF a~ e~ =N xT !4 i1 i1 WB L: Kk 3* +$ nd !4 )g !g 6k 3~.qk.l< K9.XY Rb@YQ nG ~%.Rb WU DC *G I( L@.yn+'#.Uq /=.Sb@Tb@Ub@Vb@Wb@Xb@Yb@vb@Zb@`b@ c@.c@+c@@c@#c@$c@%c@&c@*c@=c@-c@;c@>c@,c@'c@)c@!c@~c@{c@0O+]c@^c@/c@(c@_c@:c@<c@[c@}c@|c@y=@1c@2c@3c@,3 .5.u%+4c@~X+Q}.m1.G- pM+XN+@9.5c@6c@p7.9a.PB '/ )E %T fh `& BT+^C.n>+nx p* /]+bX.",
"7c@8c@9c@H{ H{ pa@0c@ac@bc@cc@dc@ec@fc@gc@hc@ic@jc@kc@'2 lc@mc@nc@ac@oc@pc@qc@qb@rc@sc@tc@uc@vc@}b@wc@xc@yc@zc@Ac@Bc@Cc@Dc@Ec@Fc@Gc@Hc@Ic@Jc@Kc@Lc@Mc@Nc@Oc@N1 Pc@Qc@Rc@Sc@Tc@Y0@Uc@Vc@p7@Wc@Y0@!a@Xc@Yc@Zc@`c@ d@.d@+d@@d@#d@$d@%d@&d@V>.}  45 I:.c] eV v5 dv &T cI *d@b#+=d@-d@;d@P*@CN S]@86 i| {<.w`./}+*6 &G a& ~n  / (=.}  }  }  }  }  }  }  jd p~ A, 0$ WG.;I cx U_ ;4 `  K7.K7. 3 K7.6!.iy h+ F! @[ T, M# Q| Kh+U7 z0+Dm pa 1;.cr.Ef -i <& >d@,d@bZ+'d@)d@!d@Z.+78+oc ~1 Ph Hv ST Zw xC LW t~ =# m( _2 4k |_ {/ xf ~d@L_@37.hq.p].{d@U0+]d@^d@a(.w[.<@ V, ZJ y2 !t v5 Lt @L K] lh.,p k* ~$ [G ^{..Q l8 ${ 6!.cr.rT 9S aS ~h WU g%.ix N; _9 A& i^ !D !# oc.IM Vd.x} ),@2X 73.,$ b^ O' *) Go Go c! S' L: z[ ,I b_ g] a' 6k aQ -F $M XP -{ 9| Cc 3M / .tO+P0.A] Do s[ p( :x W} -r Ww.yw+H*.JH S=./d@(d@^8@_d@m4 :d@<d@[d@}d@|d@1d@2d@3d@4d@5d@6d@7d@8d@9d@0d@{9@ad@bd@cd@dd@ed@fd@gd@{c@hd@id@jd@kd@ld@md@nd@od@pd@qd@rd@sd@td@ud@vd@::.#Q !0.K:@wd@xd@x1.$I+^|.,I+M2.}J @L 'K =S o| T! E:.AY.jo yd@%^ z' h$ :< 1N I=.|T ",
"zd@Tc@ad@Ad@v/ Bd@Cd@3: Dd@Ed@dc@Fd@Gd@#@ b: Hd@NA Id@G2@I2@zy Jd@Kd@Ld@Md@Nd@Od@Pd@Fa@Qd@Rd@Sd@Td@Ud@Vd@Wd@Xd@Yd@Zd@`d@@a@ e@.e@+e@@e@#e@$e@%e@&e@*e@=e@-e@;e@>e@,e@=b@'e@)e@C0@!e@~e@{e@0c@]e@,A+^e@pu+/e@(e@_e@:e@pq+<e@jM [e@b%@}e@x@ x@ l; v3 p[ ~h y2 }^ JL |e@L^+1e@2e@3e@4e@=]+03 H-@T. h| gv Z).H'.kN.G]+5e@L; hP. f }  }  }  }  }  }  }  VL ~G t' Di+P~ b& *{ lw.Q` R' .S Ij. 3 .S Y  .1 k^ f7 s$ H( Zc u0+Me. [ Zk.8p z. A@ o( Ww :/.6e@J[@7e@8e@9e@0e@ae@be@ce@'.+W`.:o 8J+p~+{{.Xw a# t~ ba .Q X  >a V0+0(+Hk.de@ee@{) r:.d>.$_ `Q.N`.fe@o*+5@ O$ ;8 v3 R- 'C |v |J L] 06.|B.,p ,9 ,p /D.!$ Gv Fq.1X [Z }5 $4 b* }W r_ n#.T^ q'.O* 8* uf t~ ST x~ 3x k^ yS ba .I D3 YV.<t FR X} `q Uq 2m Q*.[9 u5 l8 pv {n 4k %w ;p Y/ 83.n& |j h(+VF T3 ge@he@ie@je@ke@d(+2F p( S- l; &t C=@37+(r Fv -;+le@me@ne@oe@pe@)} _w+qe@re@se@te@ue@ve@we@xe@ye@ze@Yv+Ae@Be@Ce@De@pa@Ee@Fe@Ge@He@Ie@Je@Ke@Le@Me@Ne@Oe@Pe@Qe@Re@Se@Te@<4+K' Ue@Za+/a .,@s- @_.Ve@L~+We@H+.[{ _0.)S.A< !n lt pt 8' Xe@Ye@.9.wp.Ze@vT -= /. [* +R 05.EQ.Pm ",
"`e@ f@.f@+f@v/ @f@u/ #f@$f@%f@Ec@&f@*f@ni+=f@-f@;f@>f@,f@'f@)f@!f@)2 ~f@{f@]f@^f@/f@(f@_f@:f@<f@[f@}f@|f@1f@2f@3f@4f@5f@*c@6f@7f@8f@9f@0f@af@bf@cf@df@ef@ff@gf@hf@if@jf@kf@lf@mf@nf@{o+of@pf@n/ qf@rf@ a@sf@tf@uf@3= vf@wf@xf@yf@ql ^Y }  }  }  )[ D. m$ g! R] Yj C`..E _S zf@j(+Af@_[+J| BG 2P.1:@Z< +Z.i$+Bf@Cf@z|@50 D=.2c by }  }  }  }  }  l; a[ %R s' l& P~ d{@Df@Ef@<L T8 1- i3  3 1# Hp #R +[@PH+k$ V_ G8 aA.f{+&f.}e+,4 ID te te z& N|+]].lf Ff@Gf@Hf@If@Jf@Kf@NZ.Lf@ZH e/+Mf@Nf@p~+g7 Ab.u5 #R ht :B.U* uQ 0r jb.pL.Of@Pf@;k Qf@Rf@b7.'V Z( ;'.V}.1f Vb 0] *G '< |- ;m.<O. a.)n #a E- ,p /D.<o Nt z3 1X |z '# x2 x2 /X D6 !h =G ; .p( e, oo z, [( {G l( }G R' =4 5c 1- h3 }^ J( _m ^i+VU [S+3O. i+0[ B[ Jp hd F| I| i, va x1.Z,.DH Sf@0,@Tf@o2+Uf@Vf@Wf@Xf@y-+F]+a*.S] so Lx.@Q e*+Bz Q# Q# k< 6[@%U+Yf@Zf@`f@ g@.g@+g@@g@#g@$g@%g@&g@*g@=g@Ed@{w+-g@;g@>g@,g@'} 'g@)g@!g@~g@{g@]g@^g@Mw+/g@(g@_g@:g@<g@[g@}g@|g@3/@1g@2g@FV.VB 3g@/0.~f 4g@5g@hY+D$ nS.#Q pS.-* !/ 5;.k8 Ye OB '* 6g@7g@)d.8g@9g@t$ T# :@ fv :6+|T ",
"s7@0g@ag@bg@r9 cg@dg@x{ eg@L0@fg@G0@gg@hg@ig@jg@>f@kg@lg@mg@ng@/{@og@pg@qg@rg@sg@tg@ug@vg@wg@xg@yg@zg@Ag@Bg@Cg@Dg@Eg@Fg@Gg@6f@Hg@Ig@Jg@Kg@Lg@Mg@Ng@Og@4D+v5.Pg@Qg@Rg@Sg@Tg@Ug@Vg@Wg@Xg@Yg@Zg@`g@ h@.h@kb@+h@@h@#h@$h@%h@+8+&h@*h@ql 16 x@ x@ }  @) C, K@.$$ B,.e(.j~ cG ae+=h@-h@;h@(-.:1 BR q$.nf.a; M=+.&+>h@,h@j:+S4.to 2c  f }  l; so }  }  W} G7 b7 O; ID Qn.'h@)h@!h@r>+1- )6 i3 Y  8w Ez _2 I, dK f! m. I| ~h@Tx.%6 +[ @[ Mb 9< oi.4'.%m.m, p4+{h@]h@^h@/h@(h@_h@_S Uh.S/ 0T L<.c$ ds.(2 z[ ND %3 K[ pb M^ !~ :h@<h@E/@[h@l0@T0.~$.}h@|h@1h@ld.2h@WN.|v Lx.J_ 8* 6* dI t0 3)@PQ.0. q! B).-* D0./D.g] u~ s~ ky ^9 '{+uB+%4 '# n` =G T^ jd I:.1  w- 3x |2 Kk l( f; g; I| ]/ aw+Xm 9[ 3h@+V+jo+zt.4h@W/@$T+9v t9+s(+N=.zy.B( C'.:{ 5h@L,+;2+6h@7h@8h@9h@0h@ah@bh@d(+F]++) S] l; lr X}+r}+%{ Nt Gv @3 1v ch@_2@dh@eh@fh@gh@hh@ih@jh@kh@lh@mh@nh@oh@ph@=t+qh@rh@8b@sh@th@uh@vh@wh@xh@yh@zh@Ah@Bh@Ch@Dh@Eh@Fh@Gh@Hh@Ih@Jh@Kh@Lh@Lh@Mh@6c.O'.U`.MT.B=.Nh@A$+Q}.8h.Oh@t# r# -/ @N Df.05.wx LF Ph@+9.%# !' u8 ^_ 1$ ,g.Ah+}i jw+",
"Qh@Rh@Sh@Th@F> Uh@Vh@Wh@Xh@E4 Yh@Zh@og `h@ i@.i@+i@@i@)n+#i@$i@%i@&i@*i@=i@-i@;i@>i@,i@'i@)i@!i@~i@{i@]i@^i@Fg@/i@(i@+y+_i@:i@ h@<i@z) [i@}i@|i@1i@2i@3i@4i@tm+5i@6i@7i@8i@9i@0i@ai@G2@Td ai@Qe@57 bi@ci@di@ei@fi@gi@hi@ii@ji@Fm+rl ki@3- i+.~v {< K_ &>.EU Hh >+@Lh+A9+A>@z}@li@b,.mi@<r ;n M*.50 H'.ni@/,+UD 7N oi@pi@X*.,+@E:@~P.55 }  so }  X, Sb -8 v .s_ cx qi@ri@)9+>E '6 )6 l8 w- 6_ 3M 91 3x |2 WB L: f$+Q` `j ,S 7F =4 rb 8< Pk g] F( K0+si@ti@ui@vi@wi@1d+#C i(+xi@7r+`}.'* .[.yi@a3.zi@rk.t/.>}.Yl %u j] q6.Ai@F0.3,+Bi@#; x% M0 +^ X# }2 Lt Gv =4 1X 6!.At.~4 ~+ _{.U> Ci@H1.U= y1.4:.9v+TY.mt RN SN pS ^9 >M Z2 /P wD tF a, '[ 8f -G 5$ ;4 qv J, *# 4k Gh 2k :^ N[@j#+Y] Di@:Y H,+Ei@Fi@kX.Gi@XS+oj+L@.En jm }z Z! bf 6s.;{ VB zY $/+Hi@Ii@Ji@Ki@Li@~1+si.#+ ~ .|p l; Q- hy MN |- 6_ ST h+ Mi@Ni@Oi@Pi@Qi@Ri@Si@Ti@Ui@Vi@Wi@Xi@Yi@Zi@O1 `i@ j@I) .j@+j@@j@#j@$j@%j@&j@*j@=j@-j@;j@>j@,j@'j@)j@!j@~j@{j@]j@^j@/j@(j@_j@:j@<j@95.^C.ZT.i8+Ic ~S. ^ _C X!+;(.EL p& $-.IF k>+5' [j@}j@|j@1j@t$ t< .~ 0, B*.R7 2j@3j@",
"4j@5j@6j@7j@8j@9j@0j@aj@un+#j@bj@@@ cj@dj@ej@fj@gj@hj@Gm+ij@jj@kj@lj@c= mj@nj@oj@pj@qj@rj@sj@tj@uj@vj@wj@xj@yj@zj@Aj@ag@Bj@Cj@Dj@Ej@Fj@Gj@Hj@Ij@Jj@Kj@Lj@UA NI Mj@ju+Nj@Oj@Pj@Qj@qu Rj@Sj@Tj@Uj@Vj@Wj@Xj@Yj@Zj@`j@rg  k@.k@+k@}e@@k@Q* Oa.)t #k@is T4 [S `x _k ^d u^+p=.$k@]).^-@/D %k@(k AQ.h=.`|.[; !I &k@<8@*k@]a Qg+)p =k@~!@M~ tO 2c 2c }  YJ ,$ L7.>< )8 Q; -k@;k@NW c9+9, 1- P# @R HM j1 T& Zr Zr vS ht 8B R' <6 E| vr U_ Nt rr rr 6k c[ &[+g*.>k@,k@'k@)k@]<+F_+!E+!k@s| ]` vq.$= rt+I4.~k@x7.)s+ [.{k@fr+u# '3 ]k@Z'+^k@gH /k@(k@_k@ * v5 #& ~Q.DU sT t~ pv kn 21+NH 13 :k@<k@,5 -u+)G+)s++9.]D h6.>E.Nx.x[./F.V%.F6 x2 75.e& g%.z0 0* 8* pK pA QQ :^.0*.%3 |L+Q=.0K !|.a<@[k@}k@|k@1k@2k@w#+43 _n V*.[m 0! }  so }  {s =t kz M~ WO L,+/j.t=@3k@4k@M/.5k@6k@=+ >< #~ |p l; 5+.,i.V3 L: V| y} [v y/+7k@8k@9k@0k@ak@bk@ck@dk@ek@fk@gk@hk@ik@jk@kk@lk@mk@nk@ok@pk@qk@Bd@Ub@rk@sk@tk@uk@vk@q/ wk@xk@yk@zk@Ak@eo.Bk@Ck@l=@Dk@Ek@&%@Fk@1'.d. /X.Gk@kv T. D# 3,+hH p# sW Hk@Ik@+a.2%+{3 |,++! Jk@N1.V& b! e, <9 b! JH XQ+k6 ",
"fg@Kk@x/ Lk@h) Mk@Nk@Ok@^b Pk@+5@Qk@Rk@Sk@Tk@Uk@Vk@Wk@Xk@Yk@Zk@gW+`k@ l@.l@+l@@l@#l@$l@%l@&l@*l@=l@-l@;l@>l@,l@'l@)l@)6@!l@~l@t= {l@'t+]l@^l@/l@(l@_l@:l@4+.~s <l@[l@}l@|l@1l@,2 hg Rj@2l@3l@4l@5l@6l@7l@8l@9l@0l@al@bl@cl@dl@>j tv.{-@&E v5 2f O# pJ qp. :.R~ >+@r++el@n{.fl@{U+[Z.gl@k, v* n6 D[ q< I+.LL `l.hl@I .DH 5X+w>@il@]' &6 'u.so }  `q )P s[ I7 )8 B* sa.[^ m' a1 1# q..3M qv 0n )f.t$ c<.@p m` /Z H%+d! :( om vr cx Kk )' HH >* kX.F5.jl@)7+kl@$2+4-.hp Jk b*+ll@ml@nl@ol@]y </.pl@.F.ql@r- =^.+v+rl@h3.sl@hh.e[ W/ ;o.e!.:].sj.2:.z* h%.DQ r$ {R .3.k$ X1.KJ  p 9q.tl@ul@^[.vl@{'.wl@6g@H4.mq *P+k;.|6.^+ e& j! x2 }W lm o5 A^ s[ o( d* 7O qv ^{.J, !g Gh N=.JB P} @! xl@yl@zl@Al@Bl@Cl@Dl@]u 05 xR 1, l; l; }  }  |p Y#.>P.L[ !(.;F+YO vz.Le.ei.El@re+{d.y3 >8 Y, }  qV YK =W D   ' w[ =W <( Cr Fl@Gl@Hl@Il@Jl@Kl@Ll@Ml@Nl@Ol@Pl@Ql@Rl@Sl@Tl@Ul@Vl@Wl@Xl@Yl@Zl@`l@!8@ m@.m@+m@@m@#m@$m@%m@&m@Hd@*m@=m@-m@;m@>m@,m@^j@'m@=1 )4 0. )m@!m@ft ~m@.6.{m@`V.tk wx ]m@Ik@d3.N'.):.F+.u, ^m@/m@C  *+ 8v ++ :t KB 00 (m@",
" b@_m@:m@<m@]7 [m@}m@Xn |m@Zh@Bj@1m@2m@3m@4m@5m@6m@7m@8m@9m@0m@am@bm@`d cm@dm@em@fm@gm@hm@im@jm@t6+km@lm@mm@nm@om@pm@A> Rd qm@rm@x{ sm@tm@)} um@vm@s,@%D 2J P1@wm@[l@xm@ym@zm@Am@h) *k+Bm@Cm@ic@Dm@Em@Fm@Gm@Hm@Im@wB+Jm@Km@Lm@C2+i#.||.z,.HL 0K ^< [( 5M bN IH N' Sg.)i.7-.B++3T Oz.%[.X# px {8 v0 %p WP ];.b~ t8 R:@0( i4.|).g6.{m@-6 $e+so }  W} CZ 2( G. B^ K7 >< >< A0 uj.z, m( 6_ =& ed w|+j=._d (r WB ^U H%+Ki+S_ :( m' )Y um }^.W. IV.MJ c8 q`.;Z.Mm@Nm@4' P[ up+J= Om@:$+3;.w, n3.D'.PR..F.Ve.HJ._:.|r+I- 'I+Pm@>C.Q_ XB =x.wa kD ,8.Xm.#[ [9 Hm U' 7_ Kp :/.Qm@kv =*+`_+$'@27.c| /V.K2.P^.6t+)9 A< Xe.H] jd.H2 3k c] rF G! V2 m5 b] iN Ia t~ @R g] jR IB IB zn K2 xQ.+w..,@G=+i_.Rm@Sm@9;.Tm@J0 u8 @p z3 7u Dv I( 55 +t Y, lA %t )| [J tk.Nt t~ rY [f.]m ,.+I7 a[ >8 ^Y x@ hd.uV u;  ' )C x].mL Um@x& Vm@Wm@Xm@5n+Ym@Zm@`m@ n@.n@+n@@n@#n@0c@l9@`c@$n@%n@&n@*n@=n@-n@Xl@;n@>n@bg@,n@'n@)n@!n@~n@{n@]n@^n@/n@(n@_n@:n@<n@[n@}n@;W+r6 pb |n@P'.)~ 1n@~{ A1.6t+Q2.$[ qt 2n@3n@,5.4n@I2.5n@6n@7n@I[ o'  t Do I7 8! Bh+8n@",
"9n@C!@W0@0n@an@bn@cn@dn@b: en@fn@gn@hn@JI in@sP jn@kn@ln@mn@nn@on@pn@qn@rn@sn@tn@un@vn@wn@xn@yn@zn@An@Bn@Cn@Dn@En@Fn@Gn@Hn@In@Jn@Kn@Ln@Mn@d= Nn@NA On@Pn@2J P1@ 2@Qn@Rn@Sn@Tn@Un@Vn@Wn@Xn@Yn@@j Zn@8: bi@`n@ o@.o@+o@@o@_H+#o@$o@W%.@{ y& &G 8A Zj Qn.4k Bz cv Wz G8 BJ 9<.,d+7q.7q.@a i1 Dz j3 Ot @R m! ;& z, s; C  ({.%o@Z^@nA.u# tc }m }  }  P* h! v3 e%.R..8v I7 ~t }$.p^+Gh+S8 r$@4k K8 ^.+cI VY qL Cc m& #M &o@iV S_ iV FF ,6 IL D[ BJ GR ;6 XW.9<.Mc ;U.1I 9z )5.#-.M8.o|.0;.c^.)/ ,g x, @w ^c.*o@== =o@@L As /I *U k&.R0.pv *; 6s.[*+l[ >U. $ Qj.4* Q[ (r 2y -o@R)+xX.1O+(~+;o@N'+ ) k# :[+LF L^ j>+f6+eh Zm La x& I, RN v' !1 CZ hR (9 jz Ij.3M m` ND *: 1* 5].!D.|9 Ma ,9 -5.>o@^D.G3.Bw+Pr F6.xC }S [B.9< z@ <- wf y0 X, T- A. l! {%.oN sT 0u+,o@'o@[z bx /m 3c p$.l; }  Ct cm y'  ' )C :W Yd+)o@Ol U5+!o@~o@GE WA+{o@]o@-W.^o@/o@(o@_o@:o@<o@[o@}o@|o@<d@q9 1o@6l@2o@3o@4o@5o@6o@7o@8o@ l+9o@0o@ao@bo@co@do@eo@fo@go@ho@io@us.#> /Z Cf 4k T# d9.H- Ph@nr+7( W_ Jk Xe jo@ko@lo@mo@no@oo@5O Y  `s /V 'h ~9  r Qa+po@",
"qo@ro@Qe@[4.so@to@uo@dn@vo@-2 wo@xo@yo@|m+zo@Ao@Bo@B6+(=.Co@Do@Eo@Fo@Go@Ho@Io@Jo@Ko@Lo@Mo@No@Oo@Po@Qo@Ro@So@To@Uo@A!@ku+Vo@Wo@Xo@'z+>l+Yo@Zo@OA `o@ p@.p@`; :@.&=.+p@@p@#p@Vl+)% Hd@$p@%p@&p@*k+*p@$k+zi =p@|} .e yG @o@_H+-p@uZ 9++E6.7_ sc G( a~ E| F3.JB c; 9$ 2v Y. o{+J1@xQ ;[ hQ md jn Zr [v B@ 12 5e sA !| w( @9.:J+[8 *o@iA.mI Vb }  Y, P* x@ )[ x@ J8 x'+2F '8 |5 Un.0u+;& uS %w Sx.(^ dX.;p@1]+6; m& Ki+Pv q7.a1 iV [6 B[ e; .[ e; l' [6 o' O# 6c Ez _'.!V >p@!d.3~.9r 6N ~h@`j 8, Sk.,p@)I .W.$w Mf@[( N! <|.RH.K/.r' |5 Pt BJ 5t 'p@Va.)p@OB U* y<.D[ 1r 4-.!p@~p@{p@]p@V3.^p@6^ *P fa@y% s! z' i] F0.r# '9 .' %v Ai.{n j. T] id >& 1X *& =# x] ^[ vo+[@ en /p@ds.7C F^ 1| 3M Ez 6!.P&.&E hs A(. q.:D.,G.Z  z* 1_ xR jm W} X, 8f h%.b! o~ C3 (p@Di+%+ w'+s_ O* 8f l; so f, $z F6.y' {C Tv.kP _p@eK y,.89.IY+:p@OO+<p@[p@}p@|p@1p@2p@3p@4p@5p@6p@7p@8p@9p@0p@ap@bp@cp@dp@ep@fp@ep@gp@hp@ip@jp@kp@lp@mp@np@op@pp@qp@rp@lb.sp@Q7.`j T_ C- ./ m. [@ L# tp@!I w8 05.05.'i up@Sm@I=+vp@wp@Z5 m8 9$ pr.W..jZ xp@ r yp@zp@",
"Ap@Bp@B+ so@Cp@fu Dp@Ep@Fp@Gp@6% Hp@Ip@gb 6s+Jp@Kp@}  }  /|@Lp@<R+Mp@Np@Op@Pp@+y+<g Qp@Rp@Sp@Tp@Up@*B Vp@Wp@Xp@Yp@Zp@`p@ q@dg@.q@F> +q@,l+@q@g4@#q@$q@%q@`; :@.&q@*q@ic@<f@=q@0} -q@oh+;q@>q@Qn+,q@)e 'q@B4 )q@!q@~q@{q@]q@^q@/q@]9 Pa.Fx }1 Cc w0 g3 ^< M# |S ^D+g#.q#.; .%4+I%..k 2v R' kn l( [v B@ u; t} 2j 4z .r.@,.z< 1]+`& o! xy.0! }  x@ P* )[ )[ }  ~< r0.2F 2F }$.oe.v' C3 6u 4; ML &b.</@or+{~ (q@71@NT %+ 7H ta.{N+o~ A* p~ o~ t5 '8 s5 '8.'8.9w rY _q@:q@T,+qI {F.ed '6 7F :9 <( `/. v+<q@[q@x1.`/.V| L  Q} 3f.}q@1F G, n' V_ a3 |q@Z`.5$.M* JV._d {Q 2i p,+p(.1q@Z3.2q@#_ &~ _c Z' +y.4N 1A 1N TR.T4.A$+`R.B! 6g@3q@O: 75 }z $E (x c] !8 7_ %{ Em ^[ {/ hs.Z_.mz+;C.!^.pP Mb &4 >$ P.. ` 'M @K Q4 4q@0F *4 >h +k gx X, Z, P* 1( wj 'g (x v' 0u+tY M_.@+ O' O~ &$ l; }  f, BN 8c.81 || g* n>.5q@Gz+w~ MN sE+6q@7q@8q@9q@0q@aq@bq@cq@dq@eq@fq@gq@hq@iq@oC+jq@kq@lq@mq@nq@oq@pq@qq@rq@sq@G8@tq@uq@vq@wq@xq@yq@zq@Aq@Bq@Cq@cL.wQ A& o+.Q{+Dq@{ .#p o).!~ ;U.4t -S  X.LD Eq@2U.Fq@Gq@Hq@H'.^t sa.Iq@RC.v=@p*@&+ C0+Jq@",
"Kq@Lq@pk+Mq@Nq@Oq@Pq@Pq@Qq@Rq@Sq@|m@Ip@Tq@Uq@Vq@ra+by V} Wq@Xq@Yq@Zq@jh+`q@ r@.r@+r@fi@@r@/b #r@$r@%r@&r@*r@=r@-r@;r@>r@,r@'r@)r@!r@~r@{r@]r@g4@^r@/r@(r@20 :x J6+,f@_r@:r@<r@[} [r@}r@5l+|r@1r@2r@sw 7% Zh@3r@4r@5r@Mo+s,@-p@/q@6r@'G )C 7p )g R_ Dz ^[ 5| .> >& .b.![ 7r@8r@'B.n..l' %{ .4 kn 6D u; H#@t; k7 k7 mL !g t$ =N sz jh Xq l; Dt x@ 0] Y, I8 @) a, )P 2F [z }$.`s o; 3F $g *# ar.W* 9r@x'@l}@^U *{.5J 0r@B* %+ j; o~ p~ p~ 2  !8 _h.o( '8.o( &E ey Yn._N %n.0h.wx+r} && H2 z@ 6_ [J H4.'9 r'+Qf./D.gG !;.re.ar@br@Od.bd rT |f =N 4E B9.5' )i.2N _5.cr@88+&b+dr@er@&U.)W.r-+/; Z' C` 'x.]' fr@($ d,+!r A$+zf 'q+gr@]{ bf }P.[9 gW e] c] 9S hy .Q X  G0.m# !$.hr@Bo.>b.;l.]K ~G DV 'i.r$.Qw.-H ZQ %%.~G.&M u~ 7, )6 4$ 55 )[ T- lA lA R^ ZJ ;$ }5 y@ k..}6 ix vj X} l; so ]v };.Zf PN %M rA ,F.8-@4X pJ  q ir@jr@kr@lr@mr@nr@or@pr@qr@rr@sr@tr@ur@vr@wr@xr@i: yr@zr@Ar@r= s= Br@={@h: Cr@C9 y9 _e nq@Dr@Er@Fr@Gr@Hr@; @Ir@Jr@4-@'8.r' ~Y ZK f] K6 k1 JJ jt :c a..Kr@);+)(.9( Lr@Mr@m7+7d+Nr@cx s0.`;+x'+DR 9D Or@Xs ",
"|m@Pr@(b fw Qr@Rr@Sr@Nk@pg+]b Tr@pu Ur@Vr@Wr@Xr@Yr@by }  !b+Lj@Zr@k8@^q `r@ s@.r@.s@pq++s@qn@@s@#s@$s@QA+%s@`g@&s@.d@69@-2 Um+sk+t) q4 Zo@*s@=s@-s@;s@>s@n5 .&.J6+,s@:m@'s@.q@)s@Vn@!s@~s@{s@]s@^s@/s@(s@_s@:s@<s@>f@=m+[s@}s@|s@6r@& .B@ %3 }# @R h+ Zr N$ z. R] Nk.c^ $^@1s@g(+vY ]n p< IH ND M: !| t; fB bP fB N_ w- #l <@ Eh .R.Vb }  x@ }  ~< g! T^ hz g%.u3 bx B* @I.xq.3( oe.&K /Z 2s@3s@4s@5s@Ci+-4 <V {m 6s@A0 j; )8 A* s5 A0 A* A* A0 |5 s5  .  . `2 jz &w ue q' s5 '$ G~.o[ A2 u$@ut.`# N. b' !_.SO Sj.={.7s@8s@aX zR+E, BQ H2 BJ 9s@0s@p3 l$+L,+4>.cc U;+as@[Z.<H t*@s%+X> a5.4(.M^ X; ~r xx F0.L8.}:@C< Kc.me.E'.@= va 5; ^{.vp c& [+ e, gW QN .` )5.Ym ed Nt D  1M oN r/.`9 A(.9j.a6.9j.*Z d& _C.`9 <P { .FV r..k#.ax }  }  x@ x@ I8 S^ FR  d  d {d+%F.{d+&$ ;t.l; }  5+.t6 ).@sQ sQ GV ,G.#D.( .fB w~ bs@cs@aq+ds@es@fs@gs@hs@is@js@ks@ls@ms@nu+ns@os@ps@Qp@qs@rs@Qk@ss@ts@fw us@gq ~j vs@ws@xs@RC+ys@zs@By As@Bs@Cs@Ds@{>.i; x- sY r; 4( lI Y6.W/ 9. c1 )/ 0f .$ o8 AQ U7 SY Es@Fs@Gs@Hs@f0.7$ <  6F /(+#> Pn.",
"Is@Js@Ks@Ls@Ms@Ns@Os@hn@Ps@Qs@*p@Rs@Ss@Ts@=D Us@i-.by }  !b+Vs@Ws@Xs@Ys@Zs@`s@ t@.t@.2 +t@@t@#t@wg $t@%t@Np@&t@*t@No@=t@-t@;t@>t@gn@,t@'t@)t@;7@!t@~t@{t@20 i+.]t@rs ^t@/t@Tn@(t@<7 _t@:t@*q@<t@[t@qw F9@)o+}t@|t@;f@#d@1t@MP 2t@23+&F.Yw 2| %8 O_ B@ 6D Kp 7c }p Q@.=s.)Z lG.3t@4t@.D.Tg.~5.yQ.qP Tv.1M fB sb Er.%0 Xw ov ni }+ Xz :x x@ Y, x@ pi ~h ,$ R3 3c '@._( b[ #m.i+ O~ K7 $z.xk e/+F0.ho.dh.<^ v'+>G.y'+{d.(( $+ ID p~ qJ p~ h; qJ s5 A0 s5 '8.O; &S 5$ ,$ m; Tb )P [+ y@ C,.ky dB 5  L. !4 i1 uS v3.5t@kP / .Ob t..x3 ,# A^ ,[ hQ !_@6t@*n 5[+I5 G8.7t@8t@9t@0t@+; 1].cP+P^.w7.I<.`f sv 8k R( r}.X;.=6.}. E/@(0.)q+at@F(.E:.Y'.Wd. 0 Q*.W, G& ,o.Bi.x4.-h %3 u5 =y.P&.DV T4 JQ %0 Hw tb C7 I^ P..'t [Z Ij.<( aa xk a5 55 }  }  V} V} ~< l; 45 0! 55 xM.X, 45 X, 1( 0! so B-.r.@Vy.AH $3 ]1 G^ Jj.u; bt@ct@dt@et@ft@gt@ht@it@jt@kt@lt@mt@]e@o9 nt@ot@kd@4j+*l@pt@qt@;l+rt@st@tt@ut@vt@wt@xt@0! rk yt@zt@At@Bt@Ct@Dt@Et@Ft@Gt@Ht@Gq.ky >H 61 89.It@X,.E-.S& F( F2 K|+!&  | Jt@i' 8p.:` Kt@Lt@rj >h n. '6 vz.'6 j!./}+",
"Mt@Nt@1f+Ot@aj@Pt@Qt@Rt@St@wI Tt@:t@Ut@YE Vt@Wt@Xt@by }  T>.Yt@Zt@`t@ u@.u@+u@@u@#u@Si .p+~o $u@%u@&u@*u@=u@~7 -u@rs@o{ ;u@>u@,u@'u@_} Qt@gb )u@IE !u@tl oS i+.AZ ~s@~u@{u@]u@^u@/u@_t@5l+(u@]s@_u@qw :u@O1 !b <u@vK ij@[u@}u@2t@w#.F9.N_ o9.5(.12 !| y' }G y& Go iP.|l.|u@1u@=E.D.@yO OL 1'.Az S~ qA B@ sA H~.a6.|;.r/.Fx K: M: O# jm }  x@ }  WU c* sH [z [z (( =A {N+#+ <z _x 0D sa.Cz tT Rg 8' kV uY *4+)l+x'+xq.bx sa.M; C* A* j; o' 3# A* O; N; O- 8$ }^ -n RL :t ,[ 2_ 4, -8 ~x.,H 5e 3x HM 6k >g h< Gz+4M d7 iy+dB A0 b! V, 4$ ,g.Uo da ug+)m iw.!|.7w+K5 2;@S0 2u@4W C< t# V&.wa Xe.t$ F( }* l[ (. == /0.t! #Q #Q 7^.3u@!3 {> 4u@DF J6 74+`N.N- ;l.3H C3.oq `Q 5( +b.Fq.`9 SQ N_ }P pS ( .KT Qw.CQ TT e* {R 8, {@@N  8$ ax }  }  }  }  V} V} ax Wb ax ax Wb Wb ax e&.V} }  Fr.5u@Ts.{.+{.+Ts.Wo.^{.6u@7u@8u@Sn+U1 9u@0u@au@bu@cu@du@T9 !} Xo@eu@fu@uf@gu@hu@iu@ju@ku@lu@mu@cj@nu@ou@pu@[N+|&.}  V} /|@WA+qu@#].ru@su@tu@uu@89+vu@wu@b[.Ep.xu@yu@zu@Au@Bu@Cu@)~ S=.3k _Q.Wz AL !_ &G xT 9' `6+s8 bv 3; 36.lw+GR 9[ _n ",
"Du@1f+Eu@Fu@Qq@h) Gu@Nk@Sr@Hu@pZ Iu@Ju@Ku@Lu@Mu@Nu@by }  T>.Ou@Pu@Qu@@l+Ru@Su@y> Tu@Uu@_e+1= Vu@Kb+Wu@Xu@Yu@Zu@`u@ v@g: 3} 'u@,u@t) .v@+v@@v@#v@.p@$v@0w xw.y@.%v@wK &v@*v@=v@-v@pg+[t@ i@;v@>v@_u@Vd ,v@O1 'v@)v@vK jj@!v@~v@#o k%.Yw.<|.V~ mL k7 t; oi.Py.1` G& Z! Go tf {v@@1 K'+Yh xV.q++#/ F( |9 6D =W #z W4 sA U4 7O r} y} 1X (m so }  }  Ub  . 3z z4.{Y 9D u!.;4 uj.s_ <- `. K. A@ ]v@v- Ci++[ >[ xz.@+ Z&+s_ 9$ l' e; B[ o' o~ h; _9 qJ a^ $& 9$ C[ GR yd.`H >6 3h.+}@O] 5, cr.>H };.rb 8r e[ =,.QN d7 Al.-0 &# Z# }j sk.ev W. 5. 5. |e+Ea+D[ )*+kN.:{ 4N p# D# z(.8. hA.Z/ I& [^.;/ #6 e3 a; vj.C`  5.e|  5.+d E!+>}.&z 4u@QR n| Cf.M^ |P.7p.{8 _2 GV 4n y' X^ 6D t6 };.U4 mL ;%.&M tb z[.fB _X YA 'i.r$.te Ef 9] d! K. Aj.J8 X, X, ax dA.Bo Aj.;8 Bo ;J ;t.1( `q C*.l; }  Vw+^v@/v@(v@_v@:v@<v@[v@}v@|v@=l+1v@2v@3v@4v@5v@6v@7v@8v@9v@0v@av@bv@xB+cv@dv@ev@fv@gv@hv@iv@og jv@2m@kv@pu@lv@^Y }  ~< /f+Mv+mv@nv@ov@pv@qv@rv@sv@tv@uv@vv@wv@xv@yv@zv@Av@Bv@Cv@uP V|+X}+`n.hd +> $6 e~ 1V.TO xT 0~ L[ |V d[  l qz yL >#+",
"@e Dv@Ev@Fv@Gv@Fv@_u@Hv@WT++i@Iv@Jv@Kv@Lv@Mv@Nv@Ov@by }  y<+Pv@Qv@Rv@Sv@Tv@Hg@Uv@~r@to@uo@Vv@Wv@Xv@Yv@Zv@`v@ w@.w@;u@h/ #@ n> +w@@w@#w@$w@%w@&w@C<+j*+B$.4- bm+*w@=w@jg -w@;w@Id@Wn@>w@,w@'w@Kl+o2.{b )w@nc@!w@~w@{w@]w@^w@/w@(w@1G &F.fB Wu mL fB 7i Tv.4'.mO.Mp.|f h, wT Fj )d+PL (^ 4f >>+Bx.4#+K6 _[ X^ B@ !| sA 5e )| f] -# '8.`q }  l; }  <x iN 3z d< o; ei.dA Q' !8 b[ 2_ V, 9* ++ $+ :( o' w'+>G.xq.mm ~t q7.tm ]C om [6 ^w o' d] |5 o6 d] C* 5, UW+4c._w@:w@<w@[w@/t `8 K. A& >H |x F! 0z Y/ 4O |L -& J, i} I= vq.R3.h>+yz 7-.A9.$^ @D.E<.OW s(+H| Q# #l -;+c_ s4+c_ v|+q} sC 5].}# b; JB p9+sL.`o Ih [f ([ HL Y; l( .Q B( c. Nc 4y 2e 33 dI Ft +l oI nI lr .3 c7 #R w' 85.sA W4 sb bP h7 ZQ _X *Z 7d 7d _A oo >[ 5] '< VL '@.u3 q'.gz +) 0* i+ 0* Y} xd.`q C*.C*.C*.x@ }  }w@|w@1w@2w@3w@4w@5w@lm+6w@7w@8w@9w@0w@aw@bw@cw@dw@ew@=b ;t@fw@gw@hw@u= iw@jw@%s@kw@lw@mw@fv@qk+p4 nw@ow@pw@qw@x@ }  V} N*.s2+rw@I2+sw@tw@uw@vw@ww@Ls@'7 xw@yw@zw@Aw@Bw@Cw@Dw@Ew@Fw@Gw@Hw@l_.N^ aK 5| *S Iw@~n Rm B( Ym hN+F- jt Tm l3 B< ",
"CL+Sv@Sv@`h@Jw@Kw@_e+Lw@Mw@As@Nw@Ow@Pw@Qw@Rw@Sw@Tw@by }  kA Uw@Vw@Ww@Xw@#u@Yw@;t@Zw@`w@ x@.x@+x@@x@#x@Ws@$x@%x@&x@Mn@*x@^} Vj+=x@-x@;x@>x@,x@'x@I..oS C$.mT )x@1l !x@~x@Od Cp@og+2r@af+{x@II ]x@^x@]b /x@'0@(x@Uj+_x@:x@<x@[x@C[+b1.*Z W4 s2 3'.sb W~ }x@{C MN !Q v5 V_ sk G; Mm ok Vx $3.R$+Dh+o$+a3 }9 fy =W U4 N_ #z x} ba N_ $y.C. V} V} }  DC AB s$.{D r5 ~t _( s_ 3_ 0^ +& N` b! k; l..l..+& @+ /m y3 bx 6F a1 S_ ui+|S 2  3# d] A& R; f* dA [6 }^ /  |x@1x@2x@3x@S2+mz *r 5$ cr.jy 4( Gs Iv Xe.y3.Jv |2 b' J<.ld.Y= 4n@u%+R& 4x@_3 1]+t@ U<+Aj.po ^w d] 9  }^ RB }S+7p./< l8 [( 9x {n 9A gQ @@+p9+4e+z^ =}./< o. +1 U' d-.v5 HL 6i ^..LF AY.5x@%3 *T P1@|&.t .*B.pP {C w' <W &u 2'.Oy M_ M_ =w Ni.<X @K vF 51 I_ P] 30 k; K7 4c >< z2 I_ ix ix  + <z qo Nk.J8 Z, ~< Z, l; by ~o@6x@7x@8x@9x@0x@ax@bx@cx@dx@ex@fx@gx@hx@ix@jx@kx@lx@mx@<m@D> x= 9% Wm+xo@jw@nx@Nt@ox@px@qx@rx@(} Ns@sx@tx@ux@}  }  V} vx@<p@wx@xx@yx@zx@xm+Ax@Bx@Cx@Dx@Ex@Fx@Gx@Hx@Ix@Jx@Kx@Lx@Mw@Mx@gH+T~+<Z YV.G2 6* qf+^U v- a& >p 'K Zm ;* %T /. Q. ",
"+e qn@`h@Nx@Ox@Px@Qx@Rx@Sx@Tx@Ux@Vx@Wx@Xx@Yx@nO+Zx@}  }  @q `x@ y@.y@+y@@r@@@ o{ Eu@@y@ x@#y@+x@Vw@$y@%y@&y@*y@fw `1 =y@-y@~7 'e ;y@>y@,y@'y@P1@yu h! 4- d%.k_@1l )y@!y@Zo@Rk@hn@jg@~y@{y@]y@^y@pg+Dw@G> /y@(y@_d@_y@:y@<y@oM Ds.b1.*Z t} g< 3'.sb =b.Yw [v 4'.Gs mI Jp Q[ bv !Z.f(.5S W7 e=+44+M%+/.+To 4k r} oN U4 5e $g  ' w[ e* *G }  x@ }  g! GQ Q .4c Do @+ 0^ ,[ 5$ %& FF 6, E| qK N# $R N# 0p (n  + :t |, ~_ :6 +k ~_ z. o' tm !8 b6 gW Xr f; u* sf Dp.[y@}y@k5+yp@i6 *r S| Xr .1 7O k< 1* B).O. IB z( b. (. @] -I+^_.If.|y@or+Va.ar./}+1y@J( V, 3  +1 @[ c; =3 9S.q8 f~ tc 91 91 ;a V_ V_ Nv.OT )*+[f (< v0 md 71 i^ T; Ez TO P| Z' }< k] Ue.M- 3k EQ S- 'g DV O_ [v :W 85.a6.2'.Iq.^ .My Ca Ni.&F.<X 7d $ .po dA.Aj.Rq B^  t M_.0^ hx ^Z ^Z U, IL+w1+6$@yz.;t.X, V} }  }  2y@3y@4y@5y@6y@7y@8y@9y@0y@ay@by@cy@dy@ey@fy@gy@kx@hy@w= iy@jy@jy@ky@ly@lu@Wp@_s 19+my@ny@oZ Ud oy@ig py@qy@ry@}  }  }  jP.sy@Gi EX+ty@uy@vy@wy@L) xy@yy@zy@Ay@By@Cy@Dy@Ey@Fy@Gy@Hy@Iy@f3+Pa.$^.UL |1 =4 r$@/Z Mr ~n HM s. PF N}.D- Ll O. ",
"<3@Jy@=l+Ky@Ly@My@_V+Ny@Oy@Py@Qy@Ry@Sy@Ty@Uy@Yx@Zx@ay }  ~s Vy@+W Wy@<q Xy@Ud@Yy@(b Zy@Jm@`y@g0+ z@.z@+z@@z@#z@ny@$z@Xg@%z@&z@MA *z@=z@-z@d_+Y, @) @) hz ;z@08.>z@_4.,z@'z@Tp@)z@!z@<s 2l@~z@{z@]z@7j@^z@+5@/z@(z@_z@:z@<z@[z@f5 % .*w k7 ^K rA &M 12 F6.R0.(c.}z@Q&.}9 %; Xj 3y $[ gQ.0I _E |z@1z@q$+2z@IH jn }G  ' .1  ' .1 -# S; X} }  x@ }  A. $^.|z Do O; _( 9$ ,4 c; I| X1.Xj O: c<.^< gQ -P @k |$ 6J |$ 3h.N=+Wx E( =) gQ && F| F3.^< V_ S' oa yQ 3z@us.4z@:8+!4+U~@5z@2M H0.7_ Gv !g /u #k !~ x=+P: O: c. U/ M| A# dk yf+9V.L=+6z@Sx.wT (8 8p Hh &{ 5( rz v8 !}.wx _c [*+sd.m. G| f; 36 H( wT pi.)d+'4 (d y<.l( Zw TK s; q} 9| #y.#^ gC 7z@'* 5r Ww.U>..&.V`+em v; F6.,I 5(.y].sA a6.8z@M_ =w =w I^ Ca &F.1G *o.r'.65 hx >& (( b[ +& X. ' @8H 9z@0z@Ho xO <z ^m gz `q }  so az@bz@cz@dq@dz@ez@fz@gz@hz@by@iz@jz@kz@lz@mz@7s nz@Tr@%@ 7% oz@pz@qz@1} rz@sz@mx@tz@uz@hi+vz@Vn wz@67 +i@99+xz@@t V} 0! 5r+yz@zz@bw Az@zG 0B+Bz@Cz@Dz@Ez@Fz@Gz@Hz@Iz@eu Jz@Kz@py@am@Lz@Mz@Nz@d^.XJ mv.dA =# WB >*.Q# q} s} Kk %w 3* $f @f ",
"Oz@ru 'z@Pz@Qz@s^@Rz@Sz@Tz@Uz@Vz@Wz@Xz@_R+Yz@Zz@bq }  }  by `z@ A@g2@.A@+A@@A@#A@gg $A@>v@%A@Fo@&A@*A@=A@-A@;A@>A@Uj@,A@'A@)A@d} !A@~A@{A@}  }  }  }  Y, f& V`+]A@Fl+Qt@^A@/A@(A@_A@/A@:A@<A@ig@[A@}A@mt@|A@1A@2A@3A@4A@5A@6A@f5 b1.$K pN a_ m! 81 81 IB ]|.o).c. d3 i=.k8 r6 IV./.+o$+D!.7A@S-+;^@1y 3i  V -[ 3r f] m( Cz nN !# d& aw }  }  }  W} b] rJ Do )8 c6 ;4 '6 N$ Po.Bh CH 6i l~ Me.@1 or.[i jr Q7 .1.QY yO /<.`|.=3 Zj Sa+Me.BJ.+p 8A@9A@0A@Nm.zr.oG.aA@bA@cA@dA@eA@fA@k+ IH k1 o).Az gA@:6+Jk k3 Ch T!+EQ.Nm jV+sp@y_@hA@yo.i:@t* ~_ Tx.Tx. b.g3 }+ #l [r bt $' FL 13 P$ 4x.-X >d+ON 2$ jr F; @E FI.(d -[ -a c& s~ s; Kk M^ kV.iA@w| N/ jA@o! B,.Vb ~v V`+P&.;K 81 PN || 4n pN pS ZQ 4!.M_ F9._A +{ ]9 31 `. {}+K!@|U+' @0p +{.`8 EA+$F.kA@m2+{}+X.  r (( N; H7 aw }  }  lA@mA@nA@Z3@oA@pA@qA@rA@sA@3B+tA@uA@vA@wA@xA@yA@zA@AA@BA@CA@MA DA@EA@^x@5l FA@`u@'7 Pr@]q GA@HA@<s@oE in@IA@#v@JA@{s '#.q8+KA@LA@Yx+MA@NA@OA@PA@QA@RA@OS SA@)j TA@UA@BC VA@WA@XA@YA@wu@_1 (K lm d, H7 t5 8, w0 .d .d x] Fx ov Cz u~ jn c~ ",
"ZA@`A@ B@.B@77 +B@@B@#B@$B@%B@&B@Ow@*B@=B@-B@;B@>B@}  }  @q 'x@,B@YC+'B@)B@!B@~B@4r@{B@]B@j .^B@/B@Xx@(B@_B@:B@Qq@<B@[B@}B@|B@1B@2B@3B@4B@}  }  }  }  x@ Y, 98.5B@6B@7B@8B@Ct@9B@0B@9B+aB@Jm@,w@bB@cB@dB@eB@fB@gB@3A@hB@iB@jB@/~.hs Mb @R w; [@ [@  l l3 a9.Q/ !S+'.+dt 8; {|.]Q k).m$+kB@A:@ko.EJ.lB@zj.h0.ZO #l {n }G  ' #R #z ky @& x@ }  }  Vb b] iN b7 e] .q FG.Mr Rm WY.=6 6#+/d )d+y0+mB@g+._h nr.9[ BH *-.*-.(d Ih }T (r Me.nB@b}+&B.V!+Gd+u5+N(@8A@R'@oB@80 pB@U~@qB@3z@VO.$| b3 jX.Vx 1T I'+rB@[r JV.D'+/.+T:+sB@l:@$*@P7 {}+P] +q ,4 S' 1f c<.+> G| $6 K; c8 7+ mi@hr+a3 (8 =X Z. l=._t Dj ^d+lR 5#+E`.`w s$ c& !D Zw `^ z3.ho.<~.v].=6.'C.*; !& U>.AR wR eA {C O_ ]K v; .w x6 %0 C7 Hw Ju.tB@Fa 9++Oa._3.d! ,6 3h.05 %f.Z. $F.<i <i Mf ur Z8 vY j#.{m r5 4c ,8 R- }  }  3V+uB@vB@wB@xB@Il+pZ yB@zB@AB@BB@CB@Qw+DB@dl@EB@FB@GB@Dv+5m+HB@IB@JB@Qv+KB@LB@1m@MB@NB@ej@=z@OB@PB@QB@(2@RB@uX+SB@TB@t.@UB@$B yz@VB@E2+;#@&[@WB@XB@YB@ }+w$.bS+ZB@`B@ C@.C@+C@vD+|a@/v tH %>.WY ,$ #& 6c x] /u v0 tz kn }G Zw s; 71 Kp Em ",
"@C@#C@$C@%C@LZ+&C@u:+62@*C@=C@-C@;C@>C@,C@TA ay }  }  }  xt@'C@)C@!C@~C@{C@]C@^C@Xm+/C@(C@_C@:C@<C@[C@}C@|C@1C@Eu@2C@3C@4C@5C@xA@6C@7C@8C@}  }  }  }  }  x@ U1@9C@0C@Hu@aC@bC@;C@zm+A+@cC@dC@cg eC@fC@gC@$k+hC@iC@jC@kC@vB@lC@/~.tO.u5 B( E: cI 0S.p3 Uz mC@nC@nC@W_+xc oC@o|+E8+L~ 1y pC@qC@rC@sC@tC@EI.s@ Pn.a~ e! ][ =& 8O !# r' WU }  x@ }  |p K_ b* 21 Aa Hi+:1@Au.~n WY.Me.l,+4S -A _h iw.%> )Z.JV.=6 &: d~ 4a Bz v8 s..(r G; O3 1K uC@t*.vC@wC@3_@xC@yC@*E.P7 /n |k+zC@)m IT+!S+o3 3Q.AC@2'+bG vV.Ca+0,@0,@Fh+mM.BC@OY.RY C2 CC@|c.%E ++ B[ rm %6 D| Vo :/.6q.Z~  6 DC@M| oi@F-@-X u@ @k Zc N=+`|.a; v`.Xs -[ *4 c& ;E 7O _[ Zm Z' &m.#W.EC@]$+Q,.~_+$N.qV uA i; A0.Yr 1` ,I || *9 ~G &u 2b.4!.^ .1G $^.XJ DV W-.FS FC@r. 66.f9+$r Mf Qf+Qf+h5+E<.P6+si.%F %F v$.G. T- }  }  }  !b+GC@Xw+HC@IC@Qa JC@KC@LC@MC@WG NC@+}+OC@w<+3w iI NI .2@NI Yl+c_+PC@QC@RC@e: fh+SC@TC@bw Ds@UC@VC@WC@XC@YC@ZC@`C@ D@.D@+D@.4+#U+I6+uD+@D@#D@Jw #D@$D@%D@$y.&>.gR eV wJ.uq+19 Q&.Jp O- uf oo 15 5$ E| R# 6i l~ ;6 ND _2 B@ 5e .1 jn n~+",
"&D@a0@*D@rq+=D@~s Dt }  K:+-D@;D@>D@BC xu }  }  }  }  }  lO.,D@'D@)D@!D@%l+fs+~D@{D@]D@^D@/D@(D@_D@:D@<D@[D@+o@}D@jh+|D@1D@2D@Bz@3D@F2+]`+}  }  }  }  }  x@ U1@4D@5D@^s 6D@Jm@7D@8D@sX 9D@sX 0D@aD@bD@]C+cD@dD@eD@fD@=C@gD@Ra xD+97@Eh l1 =*@</@W#+!d+hD@iD@jD@kD@lD@mD@~j.+]+ .+Vr ji.nD@oD@pD@qD@rD@]a+Aq.l,+=6 Q>.d{@Mw.5  u; r$.@& x@ l; }  |p DC CZ p' }$.9Q sD@8J+!_.oL L'+/<.Mm :'.%#+q3 4' T4.<C x. Dh 6t 7c &{ #p R~ ^[ OT tD@uD@vD@wD@xD@(& yD@zD@4)@AD@n..0, k+ pj 0s@lv j<@eX.KV.G/+(p BD@CD@</@h/.kW =!+DD@ED@FD@1'.[p V<+H  e%.!1 }^ h, g!+&#+m# 9!.GD@r-+{d@).+6a rc o*@:6 ,S n< cu.hl@Tf ;C km./d oL l( E  E  )| I'.5a l[ HD@T^+DH X( 5a px FU *B.qq.m=.w'@V=.k[ jn [( Zw Ua.*B.-E 5!.%I _3.uA m;.Mb -h 5:.v. fd BJ rm (8 6v dx `8 'k+gh ID@ag.C1@j& d .k! W} }  }  }  |p g! S- pi ~Q.JD@KD@LD@MD@ND@Vl Vl z|.Cr.wX 4+.|&.%=.%=.Em+jG #H+}2@$m+OD@~B@qn@PD@QD@xo 4C+RD@SD@TD@UD@VD@WD@Kv+Uy+hw XD@Cv+YD@ZD@`D@PI  E@.E@Xy.5u@fy Nv eI g] f! y~ F# Q( A3 >E }^ a^ 8$ KB 3h.r8 r3 rc J'+Sf o1 Xv |M W4 c& f*++E@",
"@E@Wl+#E@$E@%E@Dt ^Y }  Oi &E@[r@Ev@~n+M2+}  }  }  }  }  9! 35+*E@=E@-E@;E@L4 hg >E@yG us@^s@,E@'E@)E@!E@D|.+o@zA _s Os@~E@^B@{E@]E@^E@.d+}  }  }  }  }  x@ u$./E@gb A2@(E@_E@:E@<E@[E@}E@|E@|E@1E@/R Ok@{b .v@'w@2E@9M 3E@1V+4E@,' T# c3 EI+5E@lv Uz .#+f#+6E@%>@Fd+7E@8E@9E@%3+:E 0E@W2+w^ aE@bE@yD@cE@dE@:;@eE@;) fE@P+@gE@pN VT [  }  so so ro Uq P] Sq ~t -#.pT l;.f=.m< C| 'd :'.;C r++&b.o!.s'+e- ~+ #k }f Km *8 {n R~ <@ R^+hE@iE@jE@kE@lE@tT+mE@nE@CP+D[+kf+hx 2k Kh+oE@gX. h.{U.oX.b2 pE@qE@rE@sE@tE@s`.)~+6I uE@vE@wE@g<+-(@f& hz ^m 3$ C( rf+9S.Rk.a2.j6.z@+N=@xE@Ro D'+|a+i1.]n 8A o8 e6 J'+nV nV 5#+e~ m`  ' E  qA La ih 3*+Z%+z$+NB u$ E- .0 1| 3'.`9 #& q$.4m Q=.D  -& ;& .3 qq.*B.LW %~.$4 uA m;.@z Wl yE@nt WB Zj Wz #E PW EA+mz -k+!8+zE@&I.,w.*D.d .@I.I%.}  }  }  ~< g! W} g! <t kp AE@BE@@:+CE@mr L<.fL }>+k++JY+E6+!2@b5+DE@EE@9E ~s $O s6++e _E@FE@GE@e&  . HE@IE@JE@KE@VD@LE@ME@NE@OE@PE@QE@Mp@RE@sv@SE@TE@UE@|# |F eK =-.8++VE@(Z i, 2s@=^+WE@s8 (  l' ,4 O] kP.eE@g+@|S.IZ+s++n|+T~ !| N_ As.zQ.0; ",
"XE@YE@Ju@XE ZE@Dt x@ }  @2@`E@ F@.F@+F@pa+}  }  }  }  }  0<@@F@*E@u2@g0+#F@J2@[A@$F@^y@%F@yo@&F@*F@=F@-F@;F@>F@,F@'F@)F@!F@~F@{F@]F@[a@Jb+}  }  }  }  }  x@ ^F@/F@(F@_F@El :F@<F@[F@}F@|F@1F@2F@3F@@W _t@4F@5F@6F@7F@8F@'~.9F@0F@2e+n~+LJ TR.a2 Rh a3 I: Yc aF@bF@Mo.l.+cF@dF@]( 1e@eF@fF@5[ C' gF@hF@n}@dE@us.iF@:` 3; ^* uS /U te p#.}  so so |O.25 +q Ho )8 dB Y*@8++fI >I 1f C| /d B`.@Z.o3 `5 g- A# 'a qt O: t8 DJ kn X1.pa gC+jF@kF@lF@mF@nF@tT+oF@3}@pF@AD@=r O* %y Qv Z).b>+['.qF@rF@b2 sF@tF@uF@,*+;2+:Y vF@wF@%!@xF@4++EF 0c km X#.a! o< un.yF@e}+P~+zF@$q+9N $'@4x@uG+Ye Sa+'8+om n< XW.2y =Z.k/+ #+AF@e~ {n ba {%.qA Ma j, k, Um 6. e].+5 Wj N7+;l.Hr A(./Y C. zR [9 ;K Lb =& Cz Hp Ua.2# R~+^u 'B *y.6!.q} }# #p }+ c; 2}.j' j' @}@,k+wQ $>+R/.tA+,w.]Z F, B^ YJ }  }  so |p ~v |p 1( Y} X~ BF@CF@a).DF@C/+EF@[q@); Ix FF@6g+GF@GF@HF@IF@JF@i%.KF@LF@MF@NF@Wp OF@V%.6d Ab.PF@QF@RF@SF@TF@UF@VF@WF@XF@YF@ZF@`F@ G@.G@+G@@G@)Q 1| E@ #G@$G@PH.ra.@: Ml <8@P| &6 M; t5 l' 5, @@+v0+%G@O++L' 1T 26.mO.Qo.|;.Ot _* Ad.",
"&G@=d+*G@L2+Aw ^Y )[ }  ag =G@!e ss@SC@-G@}  }  }  }  }  u$.ns ;G@>G@,G@hi@'G@bf+`h@)G@=d+&F@!G@~G@{G@]G@^G@/G@(G@]7 ]y@_G@:G@<G@[G@}G@KA@}  }  }  }  }  ^Y |G@1G@:>@Ps@9j@`w@~n+2G@3G@4G@yf@}  }  Uy 5G@b: 6G@7G@ou@$B@8G@nS+9G@47@Z0+(k 7( V/ p! Fx P&.A* t0+zO 0G@aG@bG@cG@f'@dG@9E@eG@5A |!@tD@P1+wx.]h kP.$C.ts.Gp Hp `  ZK G! fN }  }  }  Uq 15 A0 A0 q' )# %g qF pS Ia n' oa W. l`.M=+N0.a9.V`.<; JJ @a YP  :.R_ J: Bc m. +| fG@gG@hG@dO+iG@jG@x^ kG@lG@;P !8 {R `  1- Az lX.}1@aS.mG@nG@oG@pG@qG@rG@Ln.8#+=[@sG@tG@uG@vG@9s@wG@T<+<z -P Sg.PT Vx y0.K8 Y^ [2 qO 2;.4t G6.9<.`j 'g+aD 5* qa ]d P$+U++k/+km.E`.L: y} 8O  0 K,+5;.d9.Uq.>* 5a bf rr uC ^K 2j %~.k5 xj {h N# z3 U- Ip j3 9, }+ G| Ez #R u~ u5 G| `w jn m. Q[ g3 Yr tm }^ (  ,4 9$ t5 o; d< rV L! q5 s[ YJ }  }  by l; V} x@ Z, I%.CI N^+>' J=.Za.Wm xG@H[@ 9@m* q}+>].yG@(u zG@AG@#Q+T- v<+BG@CG@DG@_R EG@dS FG@wB I[.GG@HG@IG@JG@KG@LG@MG@NG@,|+OG@PG@QG@RG@SG@TG@8c. A aH qF yX *R B1@hY (q@Gj./* u* bx oe._h.8$ `).-A UG@L' XH I=.Dh 6( Iw Yw R_ <* >0 ",
"@C@to@VG@ay ^Y ql cy }  eF+Wr@WG@XG@YG@ZG@}  }  }  }  }  9! *o DT+`G@ H@.H@+H@Gu@@H@#H@$H@;V+%H@@Q+&H@*H@=H@ZG@-H@^A@;H@>H@,H@UC+qy@'H@Nu@by }  x@ }  ^Y P* %#@YY+)H@og+!H@Yu@~H@$E@{H@]H@8m+x@ }  Zc+^H@/H@(H@_H@7F@$B@VY+uB@:H@47@_4 X-+.w.l* Mv H~.sF ;$ z* y0.0G@r_@<H@T{@[H@}H@i|+0G@IZ+Rf W!+C| Wz 0[ m..0D <  (x c] FQ 2z %>.#X x@ V} }  Zq A2 ey jY BU H9.!{.!{.My sF 1X S' dI r% ;f.VY.2N [c ^a La D6.$:.Pb.$w.).@Zr Y;  [ |H@tC@1H@2H@3H@4H@vt @G rB@y++8w -# pN x[ +$ sc 5H@1{+uL XY.6H@7H@8H@_X..S.9H@0H@aH@bH@s_@cH@Jc dH@s< {_ G( eH@2T 2T d}+7p.>& s5 tm oa g<+v* {1.of+yq.;4 N$ ([ }r <n @<+j^.YO.V# r} 8O )| qP sq uq+yQ.o1 P[ /u :g.r.@BN *9 3[.q/.Rb 0S 's 0[ 4$ 3$ =) .) VO MW Q~ K[ FD ,^.Nt l< jn s6 jn qP %3 m! }G T' D3 b6 R; z& te q~ lT L! b7 s[ (m }  }  0! l; |p V} )[ 0] EQ+fH@U[ |>.W,.2{@~p jW T. jM+{5.gH@hH@iH@jH@kH@lH@m$ mH@nH@oH@pH@qH@rH@=$ sH@L  x].+x.6D tH@O^+e+@uH@pw@vH@wH@xH@yH@OG@zH@AH@BH@PQ  A W' #C.3=+IK.CH@jy+eM+Tk.qb +[ z2  t ,.+s_ i:@CF.tL 6A ]w '_ 7t r}+.*+mL 2* H# Og+",
"nz@DH@EH@ay )[ yu ^Y }  ag cg FH@du GH@}n+}  }  }  }  }  9! ns ;G@HH@IH@JH@KH@+t@LH@MH@NH@99+OH@SD.PH@QH@RH@@}+'o bB@SH@TH@UH@VH@WH@XH@OH@%=.}  }  x@ @) H  x4+X9 Fl+Ps@D9 YH@ZH@`H@ I@jU `$.)[ so 2g -f@.I@.v@+I@@I@#I@$I@%I@&I@*I@b8.i>+1I +y =u bP =I@c* ]_ -Z.-I@;I@>I@,I@'I@J(+R$+Ow.T!+hl@iQ hh k. kd X#.hj.j..-$ '# a< t4+n@.S- x@ V} }  Aj.[z wB  M lN 'I.XG.)I@XG.vN iN f; af 33 $^ !m@i$ yJ ^a z( w& AJ.+[.w~.r2 x] Q[ g<+g)+g_@!I@~I@{I@]I@z` hf {g.tz s~ 2G mp sA w}  ' qP &9 .$ C'+g+.:;@B%+Ga+^I@Bq./I@(I@3Y _I@:I@%G@<I@fx 4x.Mc @W.<E+NU+l`.2$ tF 6u+G. ^D+_@.Fo N# 2F JW {R mI Vo L(+YO.-C 2i 8A.%: Fx #R D  pv 6( jp pp e*+c+@8_ Np.tI |x Xw ;H P..WU W} [I@.~ l=.zg+c; qb sK+}I@P++G:.oO L(.Hv N: Dz l< pv <b.,| @A O_ 6!.U' d-.z& q; te 3z lT /V  . y@ L@.}  so  f }  l; x@ x@ ~< J2 %.+|I@1I@2I@3I@~i+4I@Yh Y6.X# 6(.nR 5I@6I@7I@8I@N+.9I@0I@aI@|5+bI@_T dS YD.L  jy pP Df rb 9_ T* cI@dI@eI@i_@fI@N<+gI@hI@:j Qq.,| G^ iy+rH iI@[&@01@jI@Vk.kI@U] nm }6 z2 z2 0^ 7v e{+lI@cC l$+V).&: 1` Qo.bH 7r q! 3' ",
"mI@nI@oI@rE+ql z..Y, Dt b_+pI@qI@rI@ym+>2@}  }  }  }  }  $$ MX *E@Az@IH@JH@sI@tI@uI@xa+vI@wI@i1+xI@yI@zI@1q DB@AI@bB@BI@CI@DI@EI@FI@GI@HI@;8+@t S] lA @~ WU II@rY+JI@KI@Np@ya+LI@MI@ZB@~>.jL g& @t +D@og+NI@Va t: OI@PI@QI@]>@7# *I@y/+cc.$x.se Zo.KT )G qJ .| 4S Lh RI@SI@kD@TI@UI@Bx.Uf 2h.>E md n' @z.o5 >8 n#.P .'# ;$ tH ||.n@.P1@Dt l; so im c] yp.rV :I Rv.VI@WI@WI@*j+<I d-.}# W& f8 a. Xm (* u0 `f Yu e*@XI@o7.3~.]|.#k !Z.YI@g|+!c.ZI@`I@pC@ J@U^+@)+.4 JQ Oy zN zN ;%.y].M.@.J@Ss.nd 0~ !Z.;6 `l.%G@G;@DJ.+J@@J@#J@n`.@c zs.we C| r>..R {S.4++5t t9+yB *$ r[ B^ 3_ 5, %& ~D rF z& |v f*+<f Ik u|+'7.8A.%: Ot  ' )C U& 6( <v V5+V5+Vw LX q.@k_.<W AN >H }x zo [  Sq ld 'S =7+}- $J@#,.#,.bw+zY.hp.~F.Gv Ot 8_ T&.MN uC i* ,o.8c.Ua.2X 2# sT q; )B q; <| b7 qJ 1  Vj.}  so M@.by 0! }  l;  k }- |J y6.I= %J@`5 =k@la r>.5a }B.K4+&J@*J@=J@-J@;J@Dy._R >J@,J@'J@)J@!J@zB u-+r~ g* vb Y^ @R J: S~ sN+~J@.D@{J@]J@^J@/J@WF@(J@_J@;l.v( xp.rH za @^.:J@[{.ZP YP y. d; wQ *+ 3_ 5, @k .E.:h HV.PL yL *: jK :W mL !D.Y6.G6.",
"<J@#r@[J@iI cy yu @) }  @2@_2@hj+}J@|J@&n+}  }  }  }  }  BR 4C+1J@#B@2J@3J@4J@5J@6J@7J@8J@9J@V1@rc.0J@aJ@bJ@cJ@Mu `h@dJ@eJ@fJ@gJ@hJ@iJ@jJ@kJ@Q:@J:.J_ b^ u3 lJ@mJ@nJ@oJ@pJ@qJ@rJ@+t nS Y2 nB+b< @t sJ@*k+tJ@uJ@vJ@wJ@xJ@yJ@zJ@AJ@D6@BJ@tI 8c.x~ g< sA w[ l8 :@ nV CJ@9#+}^@RI@DJ@EJ@M' s..1- *& H| gW ^w ,$ ,$ H7 ^+ A2 f* x- VT aS W} }  l; }  |  P' {D j& e$+Rv.Lq.FJ@Lq.Od.3!.d& #R Hv K[ L[ nd @a U~+ni._o Y& J<.+z.o# [< !I ]C.u7.Oe.GJ@HJ@a}+IJ@ :+Z%+4}+l< H~.=0 0i JJ@DM KJ@Xo.Tg /G _G [d s6 .4 !4 V`.Sz LJ@MJ@{I@NJ@=]@@(+OJ@Dp.Bb+|E M' ug+PJ@f3 ld iz aO r( ,}+^D+&+ $+ ~D 0B ~x.N2 Ot 6| ={+}r 8A.3^ KJ l( #R :W BN W5+BN l_.uG QJ@k_.Yx.+t.vV vV vV %~.TL uA #& lr P] 25 >4 Ul.In.nb RJ@7n Z^ `^ &8 G& G& (w Ww [v rA e9.I[.&y.&E ~x.~x.z& z& ky tV b7 i; 1  Vj.}  so M@.so l; }  V} hS+.3.SJ@u3.,g oJ+TJ@Z@+UJ@(< m~ /w @Q ,B VJ@@B WJ@XJ@0q YJ@ZJ@`J@ K@.K@+K@n@.2@.0u+qv J*@(Z %w #l -[ 0A @K@#K@3y+$K@%K@&K@*K@=K@19 oA 9x D)+K1@sj  ].#M sp wk }c ra BJ Zj g3 F3.1S .[ Sa+8A Ea+Ea+;6 Fv 1` s; 5e rb !4 G( ",
"-K@~D@a&.[2@z..9m+P1@%=.eF+OE@;K@{q@>K@,K@}  }  }  }  V} #$ IF.Ht@'K@)K@3J@!K@Sn+~j WC+~K@oI Q^ {K@]K@^K@/K@(K@_K@:K@Nw@<K@>x@[K@}K@|K@1K@2K@3K@+l <  P- @+ N=.4K@5K@6K@7K@`v@8K@W} TZ 9K@H!+g& Et XF+0K@aK@bK@cK@dK@uK X2@P6 eK@1p xy.2  z3 i3 #R 8O 8J L[ RH qQ.F'+<E TI@Mo.UI@=b+<c a~ !8 ID 6c z3 Hp 6!..3 z3 Y  Fq.V' <P 3[.}x .t }  0! so |  }`  . $ .bS Rv.yD yD fK@gK@&F.Qw.YK 4( %{ 5( +$ l}@J+.G]+h. g| 4U.FL '_./R+n-+~k ~U+m(+`:+r~@hK@iK@dp j/+o1 U& 2j jK@kK@lK@mK@nK@mK@oK@pK@qK@Bs `x Vy.j1 r6.*Z.hD@rK@u5+sK@@3+G3 Qg+yd.OD+j:+Ih 3z@pk f!+i+ !U #h.eS >G.b[ 7F a1 tY l#.'i.QJ@r.@/u 7t O,.}r [k [7+Fx {%.T~+]c+]c+T~+T~+Iw tK@WN+Dt.}n &u [0 =b.a6.vV A(.xC 4-@I( }z +l Aw+Ej.TK+|n@hN+R# o. Jm D,.%D@f/+((+RU YK k_.*B.E6.eA %~.~x.2>.2# LW VT b7 FQ 1  !=.}  so z*.En C. S] I%.O~ *I @m.^* Z6+]U bu.,d+Ua+.| 7- b-.SB SB j}@uK@vK@wK@xK@yK@zK@AK@BK@CK@DK@EK@s5 ),@ 1 FK@GK@9f .d S3 u8 HK@IK@JK@KK@LK@MK@NK@H1+,U+Tx.c9+vr '8+F..,8+C%+cu.}L _f %#+dC CH a3 E`.pa rm u* )S `).`).#[ Y; }G h+ .1 nN |- md ",
"OK@(E@a&.V>.z..`$.P1@Dt K5@PK@QK@RK@SK@#q }  }  }  }  V} Y} e-.TK@UK@ta+VK@Qg@WK@XK@YK@ZK@iR vy.`K@ L@{I..L@.U++L@5l+Sn+@L@#L@$L@%L@&L@*L@gz+SO.k#.:t s_ &H+'< =L@5K@-L@;L@>L@,L@YJ 'L@)L@!L@TZ z*.~L@0K@g/ {L@]L@py@^L@iJ@17@/L@|( +{.b[ $+ o~ 9, r$@M$ R%+c- O++;.+BT.F'+UI@$3.kX.n8 9] 9$ |1 9  H| *4 ov Zr x] l( Ex iy >U `9 TT ~v }  V} so xd.H7 FQ Q .bS kc.Lq.fK@(L@^b.*w Qw.%~.~x.b[.+b.=& @0 =[ O$+b3 ZH &* _L@ZG+:L@<L@`u [L@}L@|L@1L@$C 2L@3L@Br >' U& 3j Zv lK@nK@4L@5L@6L@7L@8L@9L@0L@|I Ii.Iv X# 6. r$+8A.H; h0.Nm.Nm.Dx qL KL z|@#| ^P.-7+aL@v1+gj.O2+xO q_+wk+R2+1g+-I A& 'i.k_.t6 /u KJ 3^ 3i 3^ Ma+Kp Ez 8!.T&.bL@uG As.x].G!+WN+WN+Dr.1x };.r/.)| X^ fy Ez 1P.H%.cL@dL@a& Hf.eL@.X.-{ m~ CU Ka *y.K9.fL@+s.-. Z9 eA d.@eA 'i.Q~+'i.~x.^u ~x.d&  . FQ l$ CR }  by T>.0<@Dv jd `c z2 g^ cw+!i _Z .d.0' gL@rj G8 2M E=.MQ.g2.!P.hL@iL@jL@kL@lL@mL@nL@oL@pL@qL@#`+a^ *& rL@q1@sL@lw.tL@%{.y] B=@uI uL@vL@wL@xL@}j+3f .E..D.1g+43.Y].3] oq.>X Rn.MD+8j.Z< <c+Ad.6S J2.}L zq.+[ wQ 2- }$ c! }+ {n l( m( >I >I l8 ",
"yL@zL@AL@w<+BL@.&.EQ |&.%=.iI D6+Y1@>B@@t 1( I%.Ch.CL@,u.gz fV #k@Ov+DL@Km@+p@EL@FL@GL@gN I@ h& HL@IL@JL@KL@YA@Qx@Ux@;K@LL@ML@NL@OL@PL@QL@)O ^r 0[ Ho 0p ^D+N# RL@SL@TL@UL@&F@VL@Dv ~H WL@-J dy !2@XL@YL@Tr@ZL@Iv@`L@ M@.M@+M@D6@'< zk+mm (( B[ Pt Hj.0n b. D_ >.+~[+5f 5f Jh xV.WO 06 ]* [6 H2 +1 Mp.jn Kp `w 4* |- Ex T; >U Dr.Cu DC l; |p so 8f WT [Z :| *j+Od.^b.@M@My *w Ni.r$.*B.b[.Ww 4( Ol ](.qO ~1 Nc 1N 6Z.o4. <.#M@4c@$M@%M@&M@*M@=M@-M@;M@>M@$l Q&.F6.Hr Ld.1o (|.Wv.,M@'M@)M@!M@~M@l7+Ii. x.Ql Ux.b# tQ f~ H: k3 2h.EF 3y *,.P'.7q.Xs '_@{M@]M@^M@/M@(M@_M@;D.:M@C<.`]. *+m' 2# w' MN qp /_ '7.8d+8d+PH v8 K8 Vo [7+B)+T&.1` l_.x].<M@WN+tK@ !.Qo.w' )C @3 6D Dz !& {;.8O.Z$.B( 62+M] WP 5k -: Wo <k tO.!Z+yn %D@[M@Gq.P_+d.@Q~+eA &y.Q~+'i.eA ~x.S; b7 c] r$ |  }   f ~=.Lx.R] 0D :t $+ <P C3 b& 7] xk f! f! Bc @p }^ Xx .R.Fm }M@|M@1M@2M@3M@4M@5M@6M@7M@o .UC IF.d* K7.R' dv <L 8M@9M@0M@@^.Pz.xn aM@bM@cM@dM@j/+6#+Jg+eM@1a+7F pm iV ,h >X XW.>X.iw.^.+kv K0+n>+pc _f R` S_ #+ (x 2_ B[ s$ jn kn kn 3r 3r Y  ",
"fM@)F@AL@w<+.&.9! &7+#t S] l; @t by 45 I%.gM@hM@hM@iM@jM@R..)P |` ns kM@lM@Wz@mM@FB@nM@2M@WJ q( Dd.oM@JL@pM@,x@qM@,3@rM@sM@tM@uM@vM@wM@xM@yM@.0@gx m..(n xk+>d+Ds@zM@Su+.w@AM@BM@k|@#h.!H NM CM@~Q DM@EM@FM@GM@Ix+HM@IM@kL@4-@4, ]D+A}.s0.=+ H8 <^ |N >(+{1 3N S;@E8+E8+p++gQ.ux 5t *,.c~ s$ zn `w tc v0 -[ IH |N x] -a ov x' t; JM@20 V} V} so p#.qJ q; ;# )G `A Dw Ca -H DB m8+em k_.s; )C L: a' ge@-i _f Sg.v'.OJ So  a !*+ga@@#+_& ![+E_+ut KM@LM@dz.pr Rt.Zf ^K `m.`I.|o Gf.MM@Pq.OQ .t. w NM@M.@qN Vx.Er.lE 4( 8!.0[.|9 .: y. ]|.k1 >* k8 OM@S}+AQ 3z@]<.Z#.z1+]B.PM@QM@RM@#{.}e+C* Xr TK 5u@$: V.@wo.SM@;>+TM@g' V).Sf u}+26.qK.j< LX uG +t.WN+UM@Yx.G!+P2 YK em tI T' Lx.2, so {;.)Y /Z tC iY |v N- Hm *y.F_ f/+(w@TT VM@_1 WM@Z9 eA Q~+Q~+Q~+Q~+~x.eA 2z iN >$ R* !=.}  2c P*.7* f; 01 6, rm Pt P; `  nN =& z[ vS Fx Ez H..|v px '' c+@XM@YM@2 @&w@ZM@`M@ N@.N@+N@@N@a[.ag.At.u5 Yl.#N@%{.$N@%N@9u+R} &N@(T m.@C[+o. oa B0+]d+13.i(@gh A[ F..|S d$+ [ /<.*N@aX.=N@uv Oc oc T!+3a 5c A& O; >& @$ Lp *: ZO IH .d 9] z3 ",
"-N@;N@wu X[+~E.>N@,N@wP f-.R- C. 1( I%.'N@3$@)N@!N@~N@{N@ac.p' mv.5y ]N@^N@/N@(N@_N@:N@U|+1 @]x #) <N@5u XJ@[N@qM@,3@vv+}N@Lg |N@1N@2N@3N@4N@I_+xQ 0D C .L_.{i Q-@;e+5N@6N@uk+wX+KY+SL ^P i..E&..t 7N@8N@9N@gu zI 0N@rE+l; T^ z2 aN@bN@Q6+of+qm Gf f3 Mc yd.kX.Z).(^ Z).{<+5t '~ *,.M[ US A5 PB 9a.N[ 5N &: e~ Sx.e~ `w l( oN mL uV S&.|p l; 35 3, <P }S c7 Qo.F!+Bt.dm Nt.cN@dN@^4.8c.,I B3.I'.oL Sn.E8 5=+e{+eN@wx.Ya+fN@oG.%F+ze gN@hN@iN@jY+jN@YU+b; RN ]F.<T+`w.!C ~^.Mt.]F.6B Ux.M|+t6 BN cm Ab.`9 >%.^ .-H P3.Gp.e9.2P M[+lb d!.`f kq F0 `| [c U3 4c.1e+64+kN@2D.lN@mN@nN@t3 qm sa.2# U- <v oN@pN@!<@qN@rN@F^+vc >.+{6 JQ.D_ JJ tQ O^+uG }n vb+QE sN@l8+PE PE tN@lE A@ Ub |p ~< 55 8! -4 +1 D3 A@ 1X qq.eA P_+yn $y.+:+[M@i<+E6.WM@0# 0# Q~+Q~+&y.~x.'i.# .iN BQ r$ nV+so uN@V|+Ug  x `# :o n8 #l b6 *& P# Nv pP ;K =W )| oN K: |# rd.i>+vN@wN@h5 xN@yN@0F+zN@AN@H:+87 *>.n( z, u5 Yl.tL@BN@9M@CN@M1@D` DN@EN@'& q'.U, wz.FN@GN@HN@IN@X4.-X _@.-X 9H N=+zt..9 .#+x`.%a `a+oc Uf oa 5c Gp )8 w@ 2f Vo 6| ([ =6 bv I| Qm ",
"JN@KN@kl+3w l_@f/+M^+I2 Q- {< J8 %$.|c.LN@MN@ed+, @NN@ON@PN@FW T} &>.QN@Hl RN@SN@TN@UN@VN@73.]x q( @4 ~1.XJ@*Q+WN@wd :x@XN@YN@ZN@`N@WC@ O@.O@Y(@:L q_+xk+Y4.9p +O@@O@#O@6N@2m@$O@vD+b* DS %O@&O@T- *O@=O@-O@;O@|w+%=.}  }  zi+5,+aN@>O@,O@Rb.Y4.z}.]n xi+`l.%9 Bh a3 X| {=@sd.M[ {4 vp+x=+Qh sk.d3 5t !}.E`.2h.9<.M7.*S 3r h+ #z (3.&) |p l; 55 '<  q eK wx+w~ t6 BN jK 'O@Pt.'E.yE@5g.3o (c.Rm <L )O@lN@!O@~O@`].Q7.T2+UW+{O@ | +c+lv./P.p9+;P V=.wo O# _'.UX ]O@Uj.az qG As ~F.)5.nd q1 }f L; g3 .> R; j& ue & .^ .Er.Rl Ii.H& -F O. +5 5;.Y1.;h H'.T3 ^O@d6 64+/O@(O@P7._O@;k+23.53.sa.t5 1;.pp /_ _{+:O@<O@[O@rC@}O@H)+|O@1O@f*.'U.JJ qK.Vw 1x &u Es._X #F E6.r$.tA `9 r5.DC V} l; X, P' d* o( '8.LW !G EB E6.i<+L9.'t L9.2O@WM@eA 0# Q~+0# )D &y.Q~+P&.~x.# .z- BQ r$ )s  f 3O@K,+X! o7.H4.Cf.4O@R# Pt *& P# xS xS pP 12 !| =W ;K _2 nL $3 5n 7e (K 5O@6O@7O@8O@9O@F$.0O@aO@cr.{R Gp UO tL@'1.bO@cO@dO@HY eO@fO@gO@S..w1+hO@iO@GN@jO@kO@lO@mO@8|+-k+]i lz ]h m6 UG@nO@dX.2.+<* l~ %6 Pv :( _( 2_ z* tz l~ zQ Dp.oO@Sa+c; ",
"JN@!H@-n+pO@qO@rO@sO@Wo Q- g%.km I%.|C.I!+3$@RZ+tO@&$.(i.;s.}R+*X '{+uO@vO@wO@xO@yO@zO@AO@BO@V1@>8 h#.CO@DO@EO@FO@GO@%B@HO@IO@JO@KO@LO@MO@NO@TO.mz OO@3v u@ v&@R-@PO@QO@RO@SO@TO@8# AB `V A#.a  ha@UO@VO@WO@Dv+y:+Dt x@ )[ pz. >+ti.k1.bx (( v'+$R hh Q# P0+WB 4a >a s!.qx qx %m.%m.XO@x=+X-+2*+.a pz tx !}.ra yJ @/ tc l( oN c7 @t.,C l; l; 35 &l.k^ vp RN GV |M T~ YO@Rx.Xr.9'.xb Su ZO@i>+X  si Az+Z].`O@1a+nG+om l' C* *+ N# k#.1_ [9 }^ Ff C6@qk C,.*_@@C.r;+r;+5Q+*l.`k /D.}{.PB c_ Zo 4h.BJ V_ Gp /V F, 51 Es.7i Tg 'I 0e ,9 Ll B< Uq.!~ qz Az qL I .yO Nv.T~@ P@.P@_O@6v r_+:  $& O# M^+/[ Ar %'++P@@P@#P@$P@$C %P@{7+&P@*P@%a xz Ya.4| Dr s6.s6.@t.m8+2!.s5.;H 2'.gs @& l; Z, R- 3( LW ^u 1z ky >U P2 m8+2!.-. ((+VM@Q~+tN@Ar.o^+_v RU &y.P&.P&.P&.r$.=Z z- <5 >C *T y*.B6@D(+Ai.O}.~L s# VY n8 Y  i3 )C }S g< s2 3'.2j oi.8c.Zf Qt.Rx.Tu.Sg =P@-P@;P@>P@,P@'P@.y@0O@)P@3# &E O# ;4 Q` iY DA+!P@~P@{P@]P@^P@/P@G. A}.)|@(P@_P@:P@IN@E<.j#.X. uY Wz PD 3S .p q;+VB .R FQ.>U.e3 |^ !8 3# K. B*.~8 IH (d )d+K'+Me.Sa+|^ ",
"=b Uu@ls+y+ g&.#>.<P@1v v .0).VL 7.@gj.[P@&$.aN@j]+tO@[P@ON@}P@-J C6 |P@1P@2P@3P@4P@5P@6P@@D@j(@jd LM YL t4+7P@8P@9P@0P@DF+1t@aP@bP@lC+cP@dP@k=.$F.OO@xk+3v }^ mE eP@fP@gP@hP@iP@EQ+/X jP@[&.c, ~s Oi kP@lP@}m+}$@Dt x@ Y2 mP@ >+}X k1.k1.@+ a! 0D D* &K iM+9< TK h+ R_ %; S~ p2+tQ lI lI 19 %m.LJ 3N Nc oi@4c.}^+vi+9f 3r w- #z tA ]x }  }  so ld cd wy+j^ g* X^ nP@Lk oP@Ry.pP@qP@[j .y.OM Kv (Z `O@y1+rP@sa.F]+F]+Do B^ 3c q'.jx p$.p$.jd vf J. ZJ 31 - ._ .2g+#F+9F fI R8 ^* -i Sx.AQ q8 Pw.or.'}.7F {d.;< 1G *M W~ >9 2| >g 5;.sv 3].wz ;[.ev /d CH mo+sO k+ UW+R| R| z}.+>+r_+u@ *+ z. ^< YI H%@d>@g,+sP@tP@D*+-[+uP@vP@wP@s/+0C z$+X| K8 4| Vw z|.R~+R~+qq.Q~+{| JM@Ha #X Y, Z, f%.AB IQ 2z qJ `2 F  q; )D 0# D,.!Z+$y.DV k_.N2 X}+Ua.R~+61 DV DV VT sF TX %4 p0. ` 9* x*.!P.#3 TY.S! #-.QT.h. R~ i3 Y  x' 12 ub JT 82 /5 2j 2x a_ ,| 5n 2P sb xP@-P@yP@zP@AP@BP@CP@HH@TK@&4 o( c] C* S' 3r .M DP@OE.Yi.EP@FP@/b.b7 ~m GP@HP@IP@JP@IN@'k+KP@9z@E<.X&+AJ D[ _^ z5+EQ.$G pz v8 o. Sb b] p5 H7 k. u5 #l ;6 @E -Z.oO@,S 4x.",
"LP@.2 MP@NP@qO@OP@PP@Q=.A& ag.f2.J7 O; K7 I7 D[.o+.pe.>O@ON@UZ b< C, QP@`D@RP@SP@TP@UP@VP@WP@XP@vj G. U^ 9++9G@YP@ZP@`P@ Q@.Q@+Q@@Q@HS #Q@T=.*r +& v'+:9 nG+[6 $Q@%Q@&Q@*Q@=Q@-Q@NS F. ;Q@dS j*+i6+>Q@,Q@'Q@Q3+y:+4k+|q Y%.z1@lu.d^ /m 8v 3, #$ qo B^ ;# q~ =M ky ;E 3x `Q S~ _c.qp kL.y( 2~.5a R( ~S.Rh 3N J2.)Q@dh.m< b& x' u; @t.k_@x@ Dt }  cB  3 E  oN }| 5e *9 O2 Py.[T+Iz.Zr.Su %x.Z0.55.y[ a1 9,+kj+~d.fF+k1.eS p' B] p$.)[ }  }  }  }  lA y- ,U Q .s$.- .:$.f_.:P { ..d #6 }L Da+UJ@Pw.2a _]@ *+6F Do 2z ~G [| !Q@mO.pr cN T|+~Q@b(.Z~ LB Uf _O.ff+)1 ZD+lz 3h.i:@$r 6v s_+k' RL p. G_+Eo+{Q@'.@]Q@^Q@nD@:F+[-+/Q@tf+pm.(Q@I-+}k Dx H: KJ QB Lp mI Ip sT C,.H_ WJ .{ g! 1( I%.+) e] t' te p~ A& gW K7.T' |f ~8 e5 B0 xC T; Ex u5 eV U' cr.f* ^u A, =Z b .x$.p0.^9 H7 Y#.B-.jR uq [^.L<.|[.P| PB s$ Ez 7O 22 82 Zv 82 ub ub Hr PQ 'I .A _G &0 _Q@~|+:Q@nL@<Q@[Q@Mp@}Q@sE+z& gs >C 1  @[ Qn.h^ :P #K Lq.|Q@1Q@`A )B 2Q@3Q@4Q@5Q@6Q@7Q@8Q@=r 0z@<i zq.eQ q8 @E ,;+s@ XQ+YI h, -G d%.9Q@D$.63./m K7.@p +| _^ 7f qj Sa+Zc ",
"0Q@Dv@aQ@bQ@8q g).cQ@Q=.-6.Sj.ya p; `2 N;  t A] o+.UR+dQ@eQ@B(+Z, @) fQ@GK gQ@hQ@iQ@jQ@kQ@lQ@`x@yo G. lg.#t.mQ@nQ@oQ@pQ@qQ@rQ@sQ@tQ@s0@1p [- 0p 0^ $& q7.uQ@p~ .W z<+H<+E:+vQ@9I@Rb [@.,@.sJ V2 wQ@xQ@6O@yQ@-n+zQ@0m+ZU AQ@]G.x$.! .,U VL -G WU 4_ tF J! _| /P /X e^.g=.m! s6 qp H: QB &9 }B.]5.D# uG+M| wE@BQ@CQ@DQ@`6+z<.<( y} r; $$ }  }  }  Zq A& ~| s' f^ pN sA r/.O2 Vw..s.7g.Tr.H& Xr.Y9@dK 'g+A-+EQ@FQ@GQ@rz.Co !U B, X#.Z, }  }  }  }  Y, y- sJ  W |G ~;.(V sA+N>.+M 7, eQ Me.W&+Xc or.nq.HQ@7! IQ@_( dA #z 2x 31+T&.QB sd.T;@JQ@KQ@9k {a Uf ev /d e(.j!.R` &f.F-@#E #E 3e+k' RL lz D5 CQ.Y(@/d+LQ@W!+ud.W!+=#+Z| Tt 44+Vr |S.L~ I; MQ@V).|* 6i @| @> h3 o' gz T^ f%.{< J8 Nk.+h.R/.%K yq.$>+vr vr >h @> m~ Dm DJ y* hd u5 6, 8p %y S| k. ++ (x P' AB CS S} _|  7.I:.2, S*.Nt H] 5t+7n 33 bk 9a.91 M: Zw Gp.%0 52 .n.NQ@)4.Cs Ir Cs mP Ir =9 OQ@QP+Nw PQ@QQ@Ly@RQ@SQ@TQ@LW [Z ;)+9* =I Y  c& 5d * .Uv.UQ@jc.=w )B UO VQ@WQ@XQ@YQ@hO@ZQ@w1+`Q@g%@u* GR Nh 'd  R@mV L0.OT ON |p x@ )[ )[ n$ kY 3# +Q c<.BH Bb+AJ ~B.o*@",
".R@+R@@R@#R@$R@nv.%R@$}@lj+Vl.qS s' |5 A2 A2 2F z4.IQ Oj.@k.Z, B(+I8 fQ@&R@*R@=R@-R@;R@>R@,R@i1+J. G. /P #t.@B 'R@)R@5A@!R@~R@{R@]R@%R@m=.[- +& s_ )8 sa.]D+]v ~%.v:+9n+^R@hA `[+<+ @4 eX xD bd %q@/R@==.(R@_R@:R@<R@Va+5 .;Q@M` 'h 4c bx [+ `! ; .!9 e& !U e#.@S e^.j^ QQ I'.21+zQ.;].(c.K, A3.@;.[R@}R@^6 |R@ie+1R@sL@z<.-K rb 6!.'s }  }  }  I( i; ky ;# Q0.;%.t} r/.[n 5(.1C Qy.F^ .y Xr.@,.Aw+&o@F..a2+2R@A}.ix e& e& e& kd 0] }  }  }  }  ~< `J uF KW A- ]X V].f_.g^ =K f$+-) RY 3R@Yb W6+W6+[w@/Y+Y].{_ Yr yS uC R0.Gs Vo v=+4>+#' (d+Y_+bt D`.fv [r Pn.r8 kv.'X t0+`).]i ;k+u@ j' {1.OT CQ.*#+V]+q. {8 w5 Ft px -U+.~+OH ]6 p3 ct t++rB@R/+Kc a3 ]u :^ g3 >4 gz pY |6 FR 8f I_ bx J=@4R@y4.Eo ;X ~B.Q| >X.o1@9s@rO r8 s8 n< m8 u* #E =X O~ i+ e, O' Qb CS -< *F iz X} }  [m &8 RN ,^.Gv+~/ i=.@a Gx Uu i< 1x  !.22 qN )4.:b._G 1| @u ).@Rq.t; 5R@6R@BE 7R@8R@pE+9R@0R@ly q5 Ha WJ e, 9   3 r~ Q0.]d.Uv.aR@@M@Ca q; ./ bR@j9+cR@>r.dR@eR@~ .lf+fR@lz GR )_ h' A5+;6.H^+pi.Aj l; }  x@ )[ U| J%.L7.eV ed ^5.]L BH B0+g<+",
"gR@hR@iR@jR@kR@uA &l.b! A0 5d N! k& B- }5 A2 o6 {D o+.X..e%.x@ Z, A..lR@mR@nR@oR@pR@qR@rR@sR@E2+J. G. /P x2 @B tR@uR@vR@wR@xR@yR@68@}p 3k +& :t *+ M_.*+ j. T] [T }$@zR@AR@||+BR@xo a#.,@.-< iN CR@DR@ou@ER@xv@FR@GR@w$.aO ,+.L! UR+v' WG.B[ <- j. O* s[ B^ 3( qJ 8w 3* ,a HH Xh '4 26.N|+*# PF Xm.NJ Ye Xs HR@IR@JR@:9 :( 2  =8 YV.Zm+}  }  }  R- H_ tH -$ q' Q0.UT r~ |;.!| 2x 8c.'Q ]1 Rd.cK /Z NT Qb.6k@ne.8v a*.B] e& S..!h I%.}  }  }  }  '[ eS KW {9 uF T} Qb I7 N; b[ H8 9H jr B-+KR@HQ@LR@]B./k+3v v@ hh RO _2 jK &3 c<./u B< [1 b>@9q.Z).PL }* ok _^ &y Da+MR@+D.]<.NR@|k+ &  & g/@3z@g(@q9+}S+@[ K7.6!.R~+hy Gs u8 %: r>.rc M' 5S Vz AF@F: Ih G; 8p.%6 :  sg+/+ 4_ .{ b^ >G.)8 u!.OR@M/.33.{B.PR@QR@S@+hx+RR@8!+6#+oO@IL UJ .[ RL  + Jo qo Yq O' c* @S #4 y- @) }  }  }  -r 9  B[ =I p. X1.:[.kN.PF |9 l_.1x sA tb ^5 ^K 3P Rq.Uu '| Zf %0 ^g.SR@3|+TR@zC+UR@:T BL@B, ER eS iz q_ c] jz d< %R jg.XG.VR@WR@v{@VT v' XR@@{.!}+!/@YR@26 26 lf+vY N=+Da+zr.s7.f(@BF.Ya+ R@h=._m }  }  jL  Q p' DU 4( 6r F# BI+/d Jq@CF.",
"ZR@`R@=s  S@/g.'{+P' @z.<Z te t' ~Y f* sH }$.A0 ~D N1@,U p$.I8 A..m$ y+ .S@+S@@S@#S@$S@%S@&S@*S@y2 ,8 x2 =S@-S@;S@uR@<y@>S@jB@!o@,S@;n @l k. N` *+ 7$ P- sm  d l%.'S@)S@!S@~S@ZY+|X z1@7w K! b1.{S@]S@Ty+wK >x@^S@/S@~U SL 6d ZK JM yS -K i3 Xx >d+o'  3 z, 8w j3 4a )g p! 9| vz j=. l 1* ]+ OK 5H sS XW.t0+>8+(S@:L Aj.Zq im B. En so }  }  }  l; T^ a] e%.eS lT yp.3z ~Y ;E 5e s; Gs Mp.Gs zn )6 D1@_S@FQ@N6+k...b.H! K_ H! B, `, ~< }  }  x@ [c.Qb M! ~[ H. p( !9 'B.~@.`! 0, xQ _t Cj :S@yp@|k+mN@np.K_.23.}e+aD h3 Yr v5 t_ .) Y1.o5.vm )p Vz T!+r>.ff+;6.d(.zt.xe W6+<S@~9.[S@(O@}S@|S@BF.zs.un.Nb@z* Ef z3 Y  Hp G| N$ @| Pn.)d+)d+MD+mB@#_@G; G; RY A0+,S M; n..>t.hj.3c s[ A0 A2 '8 &+ .r @{.M0+1S@2S@3S@4S@_^@~6+5S@B4.o*@<^ (  N` ^m cB I_ A2 Aa o6 (X *F =T }  }  }  }  jm vQ aB :=.95 3r qO /o b' }# 6D *9 12 F* &2.{{._G 'Q Zf Jr v; t; JM@6S@^n+7S@R<+!2@pi WL J  kY !P tF #h.31 S; |G <| 07 &S+8S@4[+O3.Ba Ia ),@f0.8H T<+O:+YR@j6+]5+wG@U7 >X.BF.9S@(++YX+0S@8A@00 Cj fM. d j..n; >$ 3  Dz h1 Y_@l[ 5#+aS@1a ",
"bS@cS@dS@eS@vO+lg.=$ G. z2 `s yp.jY OF b7 o6 }$.}$.r5 d^ gt.q( i&.I  fS@gS@hS@iS@jS@kS@lS@-D@mS@qk t[ iZ ^9 nS@oS@pS@0m@qS@Lz@s1 GF g2.a! 0^ w'+2v b[ 2v 8|+.b.I! rS@kP@sS@tS@uS@y3 vS@jP@W..iN wS@xS@wK 3A@yS@zS@K9. 7.Q .P0.za J,@6u N  ;a 7J 7v S_ <( ][ Hj.WB v- b' w] w] mb mh 5; J[ EW o>@m} AS@a~ 7F a2+BS@>t.T- I%.dA.{s rk so }  }  }  }  Y, @) Z, sV :z CS@uO ]V ag.[P `  && @[ Gh +k pm 4] R6+_S@Of++h.a*.Q..!h =T !9 g%.z0 jx %F.'B.!@.KM /V {d.Sb..b.'Z )Z {d+[I@j. <- 4$ o{+PW Mf 6v R| DS@ES@#}@x}.i(@ P .> ts.E| G| jn {/ (* $9 rO `H j:+Tg.Yc g/@d(.FS@W6+)4+GS@1S@HS@IS@JS@KS@LS@MS@sf -n e; VJ l. l. l. |c R`  [ 3a g<+t0+XB.h, $C.rm rm 01 :( 7$ P2+[c./@.T} Qb 4c B* ~t #m.]D+9,+P/.NS@Fj+xl.OS@_^@PS@zC@Wx  | $R X. v1+~@. d y3 =1@QS@Q{+t[ Co hW }  }  }  }  ax km {d+Zi.RS@R' YP SS@j$ ed g] yS }S F* ]{.0_ 3P pP 7$+qA y' t; &w wK@&=.$}+TS@US@BZ pY ;z@VS@4- 0@.@4 sJ rJ K  &Z {-@P%.8T+%_+WS@I^ tA k& 'g+L_.$R 5] fx Dj 80 `b XS@YS@(++ZS@`S@dE@7}.S'@ur.W&+A1+L_.#+ A0 O; C* G| t$ lX.3N %#+zO Ha+",
" T@.T@+T@@T@#T@kZ ,+.i& )@.Do o; bB e] b7 /V }$.r5 !v W..Pj.kY q( uz.$T@%T@&T@oR@*T@=T@-T@;T@>T@oI I. b*  . ,T@<y@'T@)T@<y@!T@~T@j$+;n *) <  b[ b[ w@ 8! +{.ix n5 mS@{T@m/@]T@_j+uj ^T@/T@t#.|z (T@_T@lg@:T@<T@[T@D,./F._U IW 3F Hg+V| N  D  Gp 7J =4 8O /U Vd.ST +p+W-..` 5M `k fR N7+V4 |i.(^.=-.e7 3r t5 tY Do ;G P* '[ YJ CR z*.by }  }  }  x@ Z, @) b< 5[.]V e^ d< jY E* 9#.z, +1 Gh D3 e; e; A[ op.Qb.Q6+'}+VL .{ MT l; ~< I%.b^ B^ @I.'@.a[ Do }$.,.+B^ .+ Rq sg+s0+[I@qo 0* 3, Jo ld `. KB s_++>+}T@13.|T@1T@1a+`j .> f; H..r} Uu rr 6p ];.]U )' d~ cv p/.@@+T~@HD Q7.B0+2T@3T@Jg+4T@of.SY nq.+.+A1+u* .[ ,S Sa+Tx.R` m8 @> E| |S e; ,4 c! c! B[ o' p~ A2 >< b^ o` p' <5 tH AB /x tH k! /m  r aD 5T@6T@6m.7T@8T@9T@[~+>h |, ,[ 0* +) Tq gz rJ 0T@i1@E* c* )P hW }  }  }  }  W} #~ ~ .%F.OY !< RO+-{ ^5.L[ .0 f7 f< w[ EB @z TK Zw y,.1` MN 1x DB aT@bT@=n+cT@#q #t hz }@.tF I! jL +4 `T `J iz t$.`J k%.dT@WR@Ft.CB *Z ~| Qn.1- I| DJ G; ;6.0S@Aq.eT@>6.zE.fT@gT@xl.3S@hT@C4.Pa+iT@f9+7$ ~t B* [6 8_ _c.tx {g.LB kX.^O@",
"jT@kT@DP lT@mT@-+.nT@z1@[@.t[ k]+p^+{D }$.}$.vO !v &J [$.}R+O..#) :T oT@pT@qT@rT@sT@tT@uT@vT@wT@UL G7 AB 9w xT@9m@yT@zT@$L@AT@BT@B*.ld v .bx fF+b[ ^D+8! uY i+ zo CT@DT@ET@FT@GT@I7 HT@IT@)h AB JT@VH@Ux@KT@LT@MT@yn Q .6d nT ei.Le.H, )< &d P~ Gp 4  r; k& >U (3.<P 5e 12 ;%.&M eB C7 *H.5b.C~.n'.5E _z j; H:.uj a] cy f& ~< @t by }  }  }  }  T- hz (+ zi+4[.NT@OT@PT@QT@RT@iL H, tm G2 B[ :9 l' Qb.ST@R6+kj+M6+,}+A^ S- }  }  C*..U ]m Qq /x >G.~t (( y'+JZ bx >G.Ho aB Zi..k Q@.aw C. jm -(@<  Y].e!+}T@g1.TT@UT@^t %>+|S |S O#  3 E  9#.i^ d* [6 B0 F@ Ja }p f, -r &t W, OW :9 VJ )Y Dx.vi+Td+o*@yk R2+$C.lz '}.A0+zq.3a R` |c ~i tm O- 1  8$ O; #& I_ ~h p( H! hj.hj.t$.u .H! lm )U wD =$  W H. [z 'g+)Y  [ zQ *N G( 3r Q' 3_ O~ gz gz 8f +) /x VT@Lk+KK.@I.)P km }  }  }  }  W} hj.hj.[c.#f.Jo.w3.0f v- y. D}.wL+iy+x- Lx.@X k; D3 Z  7_ W5+P2 DB 1 @BA -G@pa+Y1@AR =G X#.q#.@k.~P WL nB+nB+A..|6 o` 07 {G.WT@Gu.XT@*Z i^ ;a p6 Ch (d 8F+{d YT@Bu.ZT@`T@~^+)Q.gT@ U@ U@xl..U@h @'4++U@Y4.#>+wO '8 =4 B)+Ma+LJ *< Cc c~ ",
"@U@#U@$U@%U@&U@o@.c#.*U@~H z-+t#.uO Aa r5 r5 k]+%F ]Z )H z1@cX p[ z:+=U@-U@;U@>U@,U@'U@)U@F6+is $4 $ .& .~x.!U@~U@;3@{U@]U@^U@/U@$}@,[ (x 7H kj+7H M_.6$ -X S| >H+uE (U@_U@:U@$O@c] <U@[U@*D.z- (T@Nv@}U@>q@|U@1U@rO@u[ =M IQ `2 _h.$z.Df .l.V| h^ d] #& ~h k5 vf nG d, d^.d^.;)+:Z :Z u..2U@q` ~[ Do Sb wO P0./V J! !1.yB T- }  so }  }  }  x@ a] y- *$ O..r#.VC.3U@Ug+4U@5U@6U@Ai+m' %& %& M; F..4] ST@IQ@7H bx uj R3 o$.S] }  X, r0.4c vO {d.Pq (( (( y'+mm $+ ta.<  _x Bo dA.0! 45 V} so }z b[ G..7U@8U@9U@9U@TT@`O@,8+f0.l' o' |5 x- x- <5 kd C. A. .t wj V>.V>.|p l; l; qi O' A2 |5 &d @(.4k S' E| ts.rm -P PD zq.UJ UJ 5* An d! rT ^w -8 i; 3( CZ W} W} J8 a, 0] f& Y, |p ~< g! p$.r[ 7Q+9c.lg.J! eS K7 5, 2}.@k %& 9* I_ jx p$.p$.vf B, ZJ )P G, JW {..KW 2( WU so }  }  }  S^ B] o` S../@.Wa+Dq@9] r..W| T^.kT wQ+{D Q..`q Z} xy.At.)C ,I r/.S~+]_+Rx+0U@)2@3V+Wq@a, 4_ 'B.hj.K%.aU@nB+nS @) !9 =$ >f.*w VR@CB F9.;H i^ ]* BH ok zc O3 lY+bU@w8+_;@cU@_g+dU@eU@W;@W;@fU@gU@hU@iT@e!+O6+ST@s0.P; Gp {8 iU@~/ I[ <P )t ",
"jU@kU@fs lU@K` mU@,@.nU@oU@pU@2@.qU@H:.H:.%F k]+]Z ) .)H dd+%+.G@ Sx+rU@bD+sU@tU@uU@vU@wU@xU@%4 )G v[ 5!.a# yU@Im+zU@AU@BU@CU@DU@Q=.2_ ~t (( B* (( 8$ &+ v@ |, EU@FU@GU@HU@IU@JU@FQ 8Z KU@:z 0B LU@MU@NU@OU@PU@QU@F_ r5 ]V IQ 2F p~ ;I 6u .l.a6 RU@&+ Zq l; 0! l; ~< 1( lA W} g! g! #X O^ JV H. Do /m O~ 9).{..!..[U jg.CS '[ }  }  }  }  }  x@ X#.FW E%+}R+|R+aN@Nf+SU@TU@UU@VU@|x.f0.qm 7J 53.&+ 4] R6+@>+_L ^D+z2 ,8 WJ R^ a, ;t..b.y'+o6 ,.+,.+2F [z B^ bx [z =+ w'+Sq dA.;J 0! 1( V} }  .k mm uQ@7U@WU@O7.O7.J_.oq.Eo 'g+9D 0$ OF tV ue xD =T T- ~< l; Y, }  }  }  }  }  :x 2( rJ |z -G.E@ rb Z  sT *& 9, S' h3 9, pA d! pA .S K7.jz qJ BQ KW Qb jd Y, V} V} V} x@ x@ }  }  }  V} /+ A@.Vt. +.:+.D#.^V `J H_ }` v .J_ @~ S- ~< lA ,& ># 2( H_ ]< )P T}  . ^+ H_ [  V} }  }  }  S^ o` ui.m#.nJ.RC.si.D* wh+Hz+v3.bt.XU@ M j! T^ &$ |1 s; pP 3P Wu UT yH xz@1n+tl+|l T>.C. g%.%F.eS bU *$.YU@ZT |C.ZU@F, s$.& .XT@Ca <X Mb z, a~ 6#+7A vL+$1 bU@`U@UM+ V@.V@+V@gU@@V@#V@$V@!4+%V@^i iT@&V@${.*V@=V@nG+E| 5| La 0n Pl %I V2 ",
"-V@;V@B_ }D.H3.O..4[.4[.gS+mY v$./V oe.!v %F ' .'H , .;#.>V@O..w$.!N+,V@'V@)V@!V@~V@1q {V@]V@U%.'M bS & .A0.^V@/V@(V@yE _V@:V@<V@)T *) y3 /m @+ @+ 15 +& ia 5] ]R@[V@}V@|V@1V@2V@'P 5@.Rp.A- _3.wS@cq 3V@4V@5V@6V@<P@o( F  _z d] p~ `  0H ^%.gG u$@++ 35 }  so so so }  V} l; l; l; S] :x =T `c A^ I_ po O* lT ~;.W].7s@> .v3 }  }  so }  }  l; !9 ]P RB. >+RC.aN@7V@8V@9V@0V@j]+kj+H8 :9 m' f0.%+ kj+IQ@Q6+s0.@+ u3 e& H! !h ; .S^ +) ^x Pq Pq ]m vO D[.Pq mm B* (( :t `! YJ YJ R- C. 45 W} Y} )8 Q; uQ@aV@2x.46.bV@@r Eo -I 9D _h.iN Q .;M  7.O^ lA lA .&..&.~s l; }  @t @t #t I:.T2 }W AU 5_ }| ~| @z LW LW cr.2# cr.2# 2# P&.~x.2>.S; sH <5 ;$ <5 &) Y, x@ V} V} }  x@ }  }  }  V} g! J! Z` cV@O%.{P +4 G_ o$.nG yo A%.P1@yu Y, T- `$.u .ZJ j5 Rb u .:Z T} I. d, DC l; }  }  }  km Co GW Co GW X..)h !v IW Wl.M>.yG..Z <@.j! T^ aw r$ <P }S .r.&M  !.dV@eV@fV@gV@<2@$n+p#.J. ,< T} F, [$.]P o` B] Z;+{9 ue &F.<X ZY %I Mb z] Po.o8 nB@w+@lY+hV@iV@bU@N3 L|@jV@kV@i5+$C.-n lV@mV@A1+np.8U@8U@nV@oV@*V@~_ E| s$ ;K vV +{ Z2 ",
"IB@&D p8+m$ H  ax J8 pV@I!+WJ.J%.eK.q_ )P n+.) .qV@rV@sV@tV@cX '& m-.'Q@uV@vV@%O %=.x@ x@ cy /| w$.0O ~U %R@kW+lu wV@xV@yV@zV@AV@MY.P] `, km `q R- Vb (m (m Y#.an+BV@CV@DV@EV@)*.Z..FV@GV@By.qC HV@IV@JV@KV@LV@MV@x5+#>.9S >< R* 3c -8 '8.cr.A0 >< [  }  }  }  }  }  }  l; l; l; l; l; V} l; ~< 1( 1( W} YQ 6d  M 1F ,#._| S- }  }  so }  }  V} q( JV E%+ >+ >+RZ+XP+~#@NV@s&@!#@#f.@+ #+ F]+%1@F]+7H 7H @>+s0.@+ `, S] g! H  a, |c.jx q_ Sb xq. t ]m 2F Pq ~t bx O' qo I( ax `q xd.$$ Ub .{ ,< >< &+ 7$ G<.@>+O6+rP@P6+P6+]D+0^ '@.,< n#.!h Q^ |6 lA @& 0w $^.hd.AV+|p l; @t 45 aw FR Q^ y2 |` js XJ XJ k5 yo Ao S&.xo Ao Ao J_ CZ nG m5 vf .{ ZJ ~h pi }  }  }  }  }  }  }  }  so xj A. U} e& 63.Q^ pi a, g! 1( ~v ~v |p Y, T- Y, Y, V} |p S] ~v lA :x T^ FR DC @~ |p so }  so }  S^ o` rz.rz.[X E%+uY+i& ,U K  ~9 -D.d^ eS >8 c^ km O' (3.w- x' R~+0# OV@PV@QV@RV@df+d_+oI r$ [5 Do D] lu.*$.LM kY kY J! s( [i.<X >%.AU iy z] QL Rb+nB@.S.mY++0+c0 JZ+SV@W6+ac Z. Ho  + E..`8 $F.<i TV@UV@VV@WV@XV@YV@j#.Z. sm V, x3 '& 4- ",
"ZV@4B@|p }  }  }  }  so V} V} C*.C*.Ch.g%.z-+XD.`V@ W@.W@%O@cX O^ h-.+W@@W@#W@)2@}  }  }  }  }  Y, P* X} !P.fz+$W@%W@&W@IA *W@gD@=W@ro }  }  }  }  }  }  }  0! Kq.-W@;W@>W@,W@,C@'W@9Q@OX %) B$.)W@eU -d+!W@~W@{W@]W@II@O3+~=.I( `q C. jm CR YJ R- l; }  }  }  }  }  }  }  }  }  V} l; x@ l; l; 0! ~< W} )P <@. Z b* q( m$ Y, l; by l; }  so Y, q( r` dS r#.v=@^W@_i.[c.{N@/W@$^@'Z '@.N; A2 ~t s0.B* Pq y'+]m z2 S^ }  Dt }  l; C*. d ^m }6 '@.}5 A0 }$.[z {d.oo 6- 8f xd.1( R- X} |X ] .P..[5 #& a! .+ <z <z U, U, v1+hx P2+0* qo 'Z R- 0] I8 I8 0] ~%.'M gS %I {#@@& S] @t 0! so l; }  V} so }  }  }  }  }  }  }  }  }  }  l; l; l; l; |p 1( R- R- ~< }  }  }  }  }  }  so 2, 35 B. y0 (m l; V} }  V} }  so }  so }  l; l; l; x@ x@ }  }  }  }  }  l; }  }  }  }  }  so so 0! }  km A^ m; m; Z;+[X #h.!P m#.(W@S..hj.t$.%E f%.I%.Aj.[+ te K7.${ 8q.>t _W@:W@I6+pa+FE $n+rX a[.e* b7 C] $Z @S (X ui.o` p' s( $I 5!.>%.-E t~ { .>E l~ FI.24+Nm xT+`(@24+pj  9 `8 $f.~ .po ~ .$f.h%@J1@8Q@WV@<W@[W@}W@|W@{W+n..Uq ax )[ |N.ZU ",
"B5.z+ [2@}  }  so so so so l; 0! :- dA.g%.*$.1W@2W@3W@4W@5W@%+.<+ h-.QC@6W@7W@8W@}  }  }  }  }  }  x@ S] tF+9W@0W@1z+aW@bW@cW@dW@eW@ f }  }  }  }  }  }  }  so fW@gW@hW@iW@jW@kW@lW@D$.mW@5- ;E.DE@pH@dn@dD@;y@nW@eM *t :C.3m ~Q 45 0! so by so so so }  }  }  }  }  }  }  }  }  }  }  }  }  so so so 45 ZJ 0B &w s[ WU 1( Z, |p so so }  }  V} X#.GW eS [X [X rz.rz..b.kd ; .; .~@.a[ P' P' /m B^ ,}+B^ wO I7 )@.I%.}  }  }  }  V} km `c u3 .U Qb o6  .  t  t /m I:.&$ xj 1( 0! R- H_ R4.|z WT 3c ,< b^ u3 u3 Rq Rq 0* 0* hx Rq Io #~ R- ~< Z, Z, I8 <+ j%.#a.tc.]9 `; l; so  f so V} so }  }  }  }  }  }  }  }  l; l; 0! 0! @t 45 45 xj Vb Vb C. X, by }  }  }  }  }  }  }  2, En CR !=.'#.so so }  so }  }  so so }  }  }  }  }  }  }  l; so 0! so so l; l; }  so }  so }  so so S^ q'.q_ Co q0.[X )U y- o` o` o` p( f#.jx `, J8 {k.O' {R Ij.Ab.+3 Ar.L3+oW@pW@qW@0g $n+5y 8q.e* 9w ~[ -< uY+(X eS m; eS F, >%.*M %R 9O p; -a S3 BH 6#+K'+K'+P3 4S Dp.#| o*@+{.}6 kd ;G %F.n..'D.+{.uY ,d y1+y1+rW@mO@j#.=r .k ~< )[ nS )[ ",
"sW@tW@0E }  }  so so }  l; l; 0! 0! 35 I( p' [$.=D.=D.[U@z1@0O Rb (|++4+uW@vW@^|+}  }  }  }  }  l; x@ |p jP.wW@xW@yW@zW@AW@BW@CW@6q@}  }  }  }  }  }  }  }  so fW@2g DW@YF@EW@BK zu Va+PP+bS+I..yg FW@#r@L9 GW@HW@|7@DA IW@JW@Bn 2, @q @t @t 0! @t so so }  }  }  }  }  }  }  }  }  }  }  }  }  by so 0! aw J_ d, yo C. |p ~< 45 by by }  so 0! WU B, CZ vj p( p( ]< +) z0 I%.a, hW )P P' BQ c* P' ,8 ,8 Sb ^x ZJ wj }  x@ x@ }  V} hW po )P ,8 KW n; |z 3( ;$ I. j5 fN wj 1( |p S] `; ~h j5 J_ J_ vj vj `c `c Sq gz Oh #~ #~ `! aB aw 45 V} V} 0] I8 [T Rb@7Q+*j+6d+y@.|&.}   f 2c 0! so }  ay by }  ay by by by 0! 45 xj xj xj +t M+.(m A. (m CR 35 so }  }  }  }  }  }  }  by  f 2,  f by so so }  }  }  }  }  }  }  }  }  }  }  so }  }  l; l; so by }  so }  }  }  by }  so so YJ q'.b^ p' eS GW YQ iR Co e& e& o` B] kd `, J8 .k ,$ LW i^ |x Ua.Ua.CF@wu@KW@LW@FE MW@MX !Z+eA.R4.iN ~[ ,U ER Tb )P H7 iN $K *M %R 9O s~ 71 8, |N qa XW.Rb+(< ^C #| n< 1S 8! y3 ~h FR hW `! m..=X =X >[ -k+mO@NW@' @Ho Rq  d X} cy ql 16 ",
"^`+}l by }  }  }  so }  }  }  }  }  }  so YJ WJ.R@.}@.J  ;z@^@.pi Fn DS+OW@g_+}  }  }  }  }  }  }  }  x@ ~< PW@QW@RW@(o+4m+m2.SW@t:+}  }  }  }  }  }  }  }  }  }  D6+TW@Mj@UW@w<+@) u#.yu i%.6m+ay `R@VW@Gp@WW@(2@XW@YW@eN yn+Cn by 0! so so so so }  }  }  }  }  }  }  }  }  }  }  }  }  }  }  }  so so 0! xj Vb xj ~< 45 V} 0! 0! l; }  by 0! `q Vb `q X, `q `q R- W} ~< }  }  x@ U} I:.hR q_ d, p( vf jx jx fN 1( }  }  }  x@ V} *G  d CZ ,< 2( Tb H_ d, nG yo &) aw wj |p 1( V} l; 0! 45 0! xj X, :- xj X, X, X, 45 45 ax 45 0! so }  }  V} e&.C*.P* l%.B$.K_ n5 P1@by }  so so }  so so }  }  }  }  }  so }  so l; 0! 0! |p l; 45 45 45 45 |p so }  }  }  }  }  }  }  }  }  }  }  }  }  }  }  }  }  }  }  }  }  }  }  }  }  }  }  }  }  }  }  so so }  }  }  }  }  }  }  so }  Vb q'.b^ q_ )P ]< `c o5 o5 o5 o5 >8 p$.{< a, V} C*.'g [5 -8 o[ r$ >C #k@ZW@m-.q:+g_+>B@j(@`W@I9.mv.c* k! Tb q_ ]< p( I_ <5 9w [Z '8.'8.p~ o~ 7F .[ )}.N=+Ej N=+F-@$C.-n #9 S| ++ I_ Zq 55 }m %q.JA+JA+)u.JA+)u.)u.|_@Zi.;8 ;8 S^ P* @) }  ",
"}  }  }  }  by }  by by }  }  }  }  }  }  }  }  }  }  so V} ~< }  }  }  }  }  }  }  }  }  }  }  }  }  x@ x@ xt@ X@.X@l2@+X@@X@ay }  }  }  }  }  }  }  }  }  }  }  }  ay by }  }  }  }  }  }  }  }  S[+#X@fu@n/ $X@%X@&X@e_+@t 0! l; 0! by by by }  by by }  so so so }  }  }  }  }  }  }  so so so so @t @t 45 0! 45 45 45 |p 45 0! 0! by 45 |p |p so so so l; so so }  }  }  }  }  45 xj R- `q R- lA 1( ~< 0! V} ~< ~< l; }  l; }  so 0! 1( 1( W} S] S] 1( S] T- S] S] |p 45 1( l; l; }  }  }  l; }  so so so so by }  }  }  }  }  }  }  }  V} ~< x@ T- u#.MT g! :@.i%.~s by by so so so so so }  }  so so so so l; l; |p }  }  }  }  }  }  }  }  }  }  }  }  }  }  }  }  }  by }  }  }  by }  so so so }  }  }  by }  }  by so }  }  so l; so l; by by }  }  }  }  }  }  so so }  45 aw 8f &$ &$ xd.R- 1( 0] 1( 1( I8 I8 x@ }  }  x@ J8 ;8 ;8 |  xd.A. 0S y<+t:+jA Z1@Z[+jG +t .t @& FR jx hW A. YJ YJ xd.Y} #$ 'g Oh vQ P] [I@*X@9g+=X@VU VU VU oj+<)@<)@|_@Vj.Zq Bo X, so }  }  }  }  so }  so so so V} ~< ~< C*.0] 1( x@ ",
"}  }  }  }  }  }  }  }  }  }  }  }  }  }  }  }  so }  Wb so }  }  }  }  }  }  }  }  }  }  }  }  }  }  }  }  }  b(+-X@G#.;X@.2@}  }  }  }  }  }  }  }  }  }  }  }  }  }  }  }  }  }  }  }  }  }  }  zC+>X@=t+,X@'X@)X@Ib+by }  by }  }  }  }  }  }  }  }  }  }  }  }  }  }  }  }  }  }  }  }  so so so so so 0! 0! 45 l; l; 0! @t by 0! l; by 0! 0! so l; so so 0! l; }  }  }  }  }  }  }  }  }  }  }  }  }  }  }  Wb so }  }  }  }  }  }  }  }  }  }  }  }  }  }  l; }  l; l; x@ }  }  }  l; l; }  l; @t l; 0! l; by by by }  }  }  }  }  }  x@ V} x@ x@ x@ ^Y x@ Y, l; %=.by }  }  }  }  }  }  }  }  }  }  }  }  l; }  }  }  }  }  }  }  }  }  }  }  }  }  }  }  }  }  }  }  }  }  }  }  }  }  }  }  }  }  }  }  }  }  }  }  }  l; 0! by by }  }  }  }  }  }  }  }  }  }  }  }  }  }  so so so so so so so }  }  }  }  }  }  }  }  x@ e&.ax ~< ax ~< 1( ~< 0! l; T- Y, Y, x@ x@ V} V} Z, ~< V} V} so V} 0! 55 xj xj ax ro 0! Wb so so }  }  }  }  }  }  }  so so so }  }  }  }  }  }  }  }  }  }  x@ V} Z, V} }  Y, Y, V} l; ",
"}  }  }  }  }  }  by so by }  }  }  }  }  }  }  so }  }  V} 1( }  }  }  }  }  }  }  }  }  }  }  }  }  }  }  }  ay !X@~X@{X@b(+}  }  }  }  }  }  }  }  }  }  }  }  }  }  }  }  }  }  }  }  }  }  }  ]X@^X@u) /X@(X@_X@Dn 0! l; l; }  }  }  by so l; so l; l; 0! 0! 0! 0! l; by 0! 0! 0! by 0! 0! 0! 0! @t 0! 45 @q 45 @q 45 |p |p @t 45 @t 2, 0! @t l; l; }  }  }  }  }  }  }  }  }  }  }  }  }  }  }  l; V} ~< 0! 0! so l; }  }  }  }  }  }  }  }  }  }  Dt l; l; }  l; l; }  x@ l; l; }  }  }  l; }  l; l; l; so so by by }  }  }  }  }  }  x@ x@ l; Y, x@ Dt Y, |&.l; %=.}  by }  }  }  }  }  }  }  }  }  by }  so }  l; so l; }  so so so }  so }  }  }  so so so so by }  }  }  by so so by by so by by by by  f by by by 0! so by }  so by l; }  so }  }  }  }  }  }  }  }  }  }  }  }  }  }  }  V} so so so so }  }  }  }  }  }  V} C*.e&.45 0! |p ~< 1( I8 Y, Z, P* @) @) @) I8 Y, Z, l; 0! }  so 0! xj 45 45 0! 0! 0! ~< V} V} }  }  }  }  }  }  x@ l; x@ }  }  l; x@ l; }  }  }  }  }  }  }  }  }  x@ Y, Y, Y, T- |p ",
"}  }  }  }  ay }  }  so by }  }  }  }  }  }  }  }  }  }  l; ~< V} }  }  }  }  }  }  }  }  }  }  }  }  }  }  }  }  ^`+:X@<X@ay }  }  }  }  }  }  }  }  }  }  }  }  }  }  }  }  }  }  }  }  }  }  }  4|+[X@}X@|X@1X@@0@by 0! }  }  }  }  }  }  }  }  }  so }  so so so so so so so so so so  f by  f  f  f by by 0! 0! 0! l; by by by by so by so by }  }  }  }  }  }  }  }  }  }  }  }  }  }  }  }  }  }  }  so so so }  }  }  }  }  }  }  }  }  }  }  }  }  }  }  }  }  }  l; l; }  }  so by }  so V} l; l; by by by so so so so }  }  }  }  }  V} }  }  x@ l; x@ }  }  }  }  }  }  }  }  }  }  }  }  }  }  }  }  }  }  }  }  }  }  }  }  }  }  }  }  }  }  so so so so }  }  }  }  }  }  }  }  }  }  so so so so 2c  f  f by  f  f Ib+ f  f so so }  }  }  }  }  }  }  }  }  }  }  }  }  so }  V} }  }  }  }  }  so }  }  }  }  }  }  }  }  }  }  }  }  }  Z, x@ Z, x@ x@ x@ x@ }  }  }  }  }  so V} 0! }  0! ro En :- 35 0! 0! so so }  }  }  }  }  }  }  }  }  so }  so }  }  }  }  }  }  }  }  }  }  }  x@ }  x@ }  x@ V} ",
"by %=.%=.}  }  by by }  }  }  l; }  }  by by }  }  }  so 45 wj 1( ro En L@.Uq jm En 35 55 ax ro ro 2, e_+W}  z+ha@2X@3X@4X@5X@lA ~v 0S Bn !=.q$.vQ vQ vQ 1, 1, T] 1, 1, p#.BR BI Oh $$ WU *G }  }  b(+LW@>=.Kd @0@K6+|&.|p V} l; so 2, En ~Q ro rk Bn yn+/=.yj yj yj yj !=./=./=./=.!=.yn+Y#.~=.jP.vJ.)s %t &t xR P*.xR &t $N.Xq %t R*.vJ.@e+S*.q$.0! }  so }  }  }  }  }  }  l; }  }  }  }  }  }  }  V} so 2c  f 8O.M@. f }  so  f by }  so }  so by by by by  f 0!  f so so so by so }  }  so ro ro 45 0! 0! 0! by by by by by so }  }  0! l; l; l; l; l; l; 0! |p l; l; }  }  }  }  }  }  }  }  }  by }  so so [m 'S ri u/+:P.J5@3G+fK.16.16.6X@!P.}=.D*.[=.C5 :P.[=.[=.74+}=.7X@vx@tF+N@@8X@JW+go+O*.SB *t =t 6'@}/@T=.j$+u-.1P.~_+-t :C.:m so by |p l; so }  so so so }  }  }  }  }  }  }  }  so |p |p @q 0! 0! 0! |&.}  }  }  }  }  V} x@ so 0! 1( I8 Y, x@ x@ x@ x@ x@ x@ x@ }  }  }  }  }  }  so so ro 2, z*.ro rk 55 :- 55 0! }  }  }  }  }  }  }  so so 2c so so so }  }  }  }  }  }  }  }  so }  }  }  }  }  }  }  ",
"by so %=.|&.|p l; l; l; |p l; l; so by }  }  l; |p l; l; V} S] S] BI D3 w0 8B 4k Ci+>*.9^ 8, m. t8  b.k++hy 97 bI@9X@0X@aX@F$.bX@|X DU Gn+~8 S* {n {n Ot Fx P# {n vS Nt }# tC tC ba !D bB >$ z..}  %=.Y[+Yl+!2@Cn ~s Dt }  }  so 45 v .gW n' N# }^ s$ 81 dd Hv .0 HM M$ qr sr sr sr M- >g 4r K[ D- bN 0*.7< mt M. >~.-F M. >p -F M. -F lb -F #H._2 o#.}  }  }  }  }  }  }  }  }  }  by by |p 35 En En (m '#.1m N*.I*.H*.:C.z*.so  f so }  }  so  f  f 2, 2, rk z*._m :m L@.L@./=.L@.2m <T <T ~P.^i+M@.ro  f 0! so so so so so }  }  }  }  0! ~< }  }  l; l; l; l; l; l; by }  }  }  }  }  }  }  }  }  }  so  f  f S7.eh.L# o>.4' FQ.T'.#G |*+vx }*+Wm <1 [; m7 7( yx yx g| q6.z' xx h[@d. F++at <; G# `B Tm 9r Xm k, jt [;.9c 5a 5;.A( 2* 5( R*. f 55 xj l; R- J:.4C+pK +l s(+J0.}N.W, zS zS o#.W, Xq lr }p k|@z@.L@.45 a, H  Y, }  }  }  x@ }  V} Jo K7 Sb Ao T^ ,& {< '[ H  f& P* I8 I8 I8 45 :- L@.{=.nV+@e+.f+xp+^=.}p ID O# 8$ SB [m M@.M@.rk M@.<m M*.Aj dN dN Aj >P.>n Wq [m  f }  }  so KH `} ON .~ Zz L*.Q*.7X@}=.}=.",
"yn++t @q l; %=.l; |p @t |p Y, |p |p @q @t |p l; l; so 0! |p ~v ~s E& ,I p7.Y& ~3.~8.yY.va 9!.f| uk cX@-x.Mv dX@eX@fX@gX@hX@iX@;#@|1 A@ `n.Ot Jt =,.ot `;.*; >J >J ~$ zU Gt w& /c.[o ^%.ya LW g! }  V>.LG 4w m_@Z1@V>.Dt |p }  l; |  2# 5x ST Jp L: tk.#:.Y'.o7.hT 'I+A  &v++N +N _{ _{ _{ +N /{ QR #[.<:.<:.]$+3@ H- _0.yd@H- @w yd@@w ]$+=~.S}.]D.SB }  }  }  }  }  }  by l; S] DC J. ,$ %>.'t Pz.&4 _9 xy.T, _k 9*.$'.3| Ww+Ib+_m !=.{s 's h%.<9 b! !t &l.5$ OD +l pK Sa.a5 z@ h; @$ a5 ]_ Ff J( rk 2, 0! 0! so by by so }  by by  f 35 xj 45 |p l; |p |p i%.|p i%.|p @t }  l; }  }  }  by so by }  35 KH }N.0w+G; .,.+' cL 7L.xN.df []+<M Qb@KN |' jX@!6 t'+t}.I5 =2+EH 'E+DC@'E+'E+53 Y< o!.kX@`5 `5 `5 <'.L,+0v U4.zz oz U/ V/ -/ j( )g ,P rk jm CR 45 B. Xo Tu Wo.Og T[ y( .4 /u 46 ND ND _k P: (c.(c.(c.X~ :C.!=.#~ q$ ,& @) x@ }  x@ }  Oh .1 !4.rA 7O |x jy 0< t' ~Y wB jY d< lT JW rT v5 &{ 41+-R 6( lX@mX@k[ Xj.X.@`B.sG sr ,g.s< ,P K|+V=.h, 7k ){.83.M2.lh.,p ,a &9 2f go+M@.5O.2O.D| ed 8c ]|.9a.s!.s!.sd.nX@LJ ",
"-T |m _m 0! 0! by  f  f 0! 0! |p 0! rk 35 :- xj En z*.rk 0! @q l; Gr.b# !g.,m ~L+)p@~L+)I FH k# d,+,A hA.PM oX@pX@qX@rX@sX@tX@]R@>& gW u5 Kk :^.9*.!' ,9 tv nt 5; WP [b., +~|.~|.tq+5t@9d.jY W} }  ~s 4w N2+y<+Z1@i%.Dt l; }  ~< Tq lj+Lw.5  ${ 4k Mf@uT uX@({.z% `R..W..W.LF LF (. ]~ ]~ ]~ wL {].'r {].{].vX@vX@8N h>+wX@b;. &+8N *F+xX@(=+yX@J0 zj so }  }  }  }  }  so 45 $$ d^.iN & .5!.gS 4z eB C3 h3 #l [b.=(.T! P! >g.0! jm Ci.)s b! 1X r; K7..3 K7.1# K7. 3 .S t~ nN ;& &d y} #R /U H, 0D ax ~< l; so }  }  so }  }  }  so 0! _m :- 0! l; so so so l; l; l; V} V} }  }  }  }  }  by by }  so y0 ,4 F| E( MD+zX@.8.AX@BX@CX@DX@EX@FX@A` A9+Vh.v++/-.kX@GX@gX.Y< 93 S'+t{.HX@HX@IX@JX@KX@:++LX@MX@NX@{j.NX@m4+%< hf Pp.3' U'.[6+.^  $ k=.to |O.|O. f A*.9A s3.7n y3.>~.N. =S Nl )f.;* P. .5 O. {$ lt ot vS N~ q$.Ao e& !h C, x@ }  x@ V} k..wL+3O n1.dK [o cn cn <,.(D.pG Jm.T .Wm.Wp.g< <b.`x +y zU Lt 27+xo+I'.OX@PX@QX@RX@j;.R_ 2V.T, ^_ h, f~ 6~.J'.SX@Eq ]{ u& {^.55.z[ 1p ~P.~P...+7B !' !9+kN.h] TX@j>+z' ;&++%@",
"{n 4h.*6 Uo yl.g!+Ah+=3 .| 1^ |f }- L; %f G| &{ px 6t (~.R*.kA kA UX@`3 rk.|D.:C mf.v$ `-.|D.'i LL+*9@<C 7< VX@WX@XX@YX@ZX@`X@=L@3_ +3 H..Kk 6n 58.mb >~.}{.:o :^.`# ;5.,/  Y@#-@+(.SV 2g+* .@~ ay t:+EL+.Y@my +Y@.t |&.a, ;G CZ P' ;E ^%.Df Jp WB |1@uT @Y@yd@D(.#Y@y% zf L8.L8.7Z.7Z.7Z.,E+N,+Po h$+mi@h$+]_.$Y@Y] S,+Y] d~.%Y@Y] pA.<7+K{+&Y@'9 *3 ro so }  }  so by ~v A. vj fV 6}.{| $I * .%g eB .1 Qn.um [b.*Y@0& w& CI kA Y#.Ci.zS 8* p~ {R dA z& P; {R l& .I .I $z.-6.C- 71 m( z] &K k& .U e%.=G yu T- V} l; }  }  so l; |p Oh Y. 0[ +q +~ }N.}N.+~ +q sm Yq Yq a! Rq Sq `, *G T- T- Y, S] @q -G u!.P# !_ FI.5$.=Y@-Y@;Y@>Y@,Y@'Y@)Y@!Y@Ib@~Y@@o.jV.mv 2T +_@Tm.{Y@sW+]Y@:I@XD :I@^Y@/Y@(Y@;Y+&V tW+nf _Y@:Y@F`.n_.<Y@Bx :C )p@ ^ u$ pk [Y@:O.%D+ E+`D+ZO 9!.DF 9!.3~.Q. 9| $a 6s.33 X; Q2.Y6.%N.;* :o }# Q=.~=.#$ A^ CZ T^ f%.WU >8 q#.*+ P0+6k L[ aQ nt  :.<o [G  :.[G Ye.fR 9J  A RQ Jr QQ |e E^ }Y@zQ.|Y@Jt 1Y@2Y@3Y@4Y@5Y@)$ t_ p/.^_ ZD+Mm 9. RE+&= =~.A  O}.p9.-h 91 yy.Li Wq 7- #p o} !' $a F- TX@/. iv lm.4' ",
"}>+z' :C 6Y@F< 1B.`,.mx 3;@r'+^V.^V.'n n3.~<.5^.!6.7Y@8Y@vD+9Y@Yw+0Y@Tu .x c^.;2.9( ],.23 eh _; i] aY@$<+Mv bY@cY@dY@eY@fY@gY@hY@(x f* +b.9_ 6n Wq.Ws.[# zs `# /D.:G $8.62+jp.k;.Mx.iY@=E )M <x }  Bn+F2+jY@kY@lY@_;.lA !P F, &R mY@0_ f=.M$ Q~ %k nY@_8 7h.nS.B0.+)+oY@K* oY@:_ &[ <7+FO.<7+5$+*> *> MT. '.iJ iJ pY@qY@n/.qY@rY@sY@rY@tY@{@+uY@jA@)' gt .R.Zz y0 1, Ub I:.,< ,$ r_ ^9 z- 51 $I 68.Q0.t' 9, .d bN J0 >}.Jt CI !=.'s -r _x v .1  p~ '8 t5 !8 _h.t5 c6 c6 9D 9D WG.Ef *& U_ P~ D* RZ+vY@`%.Y2 C, @) x@ Y, @& q_ 3c e, ${ /Z aQ .l Lr wY@u_ c!.xY@r< !S e7.tk.<,.tp Gh+vO a[ i! mA MT a, I_ =4 |- BJ yY@SH `>.zY@AY@BY@CY@DY@r.+EY@{7+tV.IX@93 FY@i!.4Y GY@HY@IY@IY@lH JY@XD G`.KY@:V._Y@nf LY@MY@MY@{Y@x3+'/@9V+DC@s%+B$ -~ _c }7+ak RH $G 9A@4S bQ |U.<(.e[ ;p y~ Ph ]/ 5k Ym )f.m# u_ y~ %k qr Kk .R.W, -G ^m q'.jx m; T} ,U Z;+8$ *S G( `l.wk mh :o L, !' :o :^.Q_ 7r HM Ol {G :2 $p Zm Hz !{+d/+8t ,9 nO NY@OY@PY@hK c7 @[ I0 G_+/}+:'.p6.QY@J< a2.m3.}J RN O_ H..%y s< 2- C[ um :B.5; N. l7 =S ^5.=] ($ ($ ",
"(* EJ 53 RY@SY@TY@cT '/@rQ 3g@1U.M8.E/@Q}.mr+UY@VY@WY@XY@YY@ZY@`Y@^~.Vf Ot.w; <N y~ h1 PF PF d9.it E0 *; 9e  Z@.Z@+Z@@Z@#Z@$Z@k|@xq.6d jz H| It 6r >g dd wS dd qv N] X  .0 .0 jd. q `4.,Z lN r-.l; %Z@&Z@*Z@=Z@&z+-Z@g! jN QE.,W D}@ss._I Hv.;Z@>Z@va sO.7h.`R.-:.^~ ^~ /~ j#+c;. ,.+8.,Z@jS+n/.`5.T;+~].'Z@}++'Z@IX+)Z@!Z@~Z@{Z@w'.];+/R+]Z@^Z@3u@O}.WL+Cw+,| Ww eA. . >U ky sF M! _A |G s$.R .qe.;Z 0< 8D d! tc Cc nd B6 Fh 7u 2  Ef =4 `  .S $z. ].l& Q' VJ P; -4 -4 ;4 T_ Qn.71 Df .l.{U d* 6^+dd+>@.mT  U |6 I%.8f a^ <P i^ 6!.)$ }J ^;.}@ [q@wL W}.b{.,../Z@-o.QY@(Z@_Z@:Z@+/ <Z@RT@75.l%.[T v3 J_ 9  E| t0+>X.K!+[Z@5J+}Z@|Z@1Z@2Z@3Z@t/@'d@4Z@5Z@!i.fG 'U.I[@hQ.A`.Ph+}S.Ux V~+%< 7[+6Z@G5.;2+4X.[c+|]+|]+-o@X* Q'+ 6 -] [y [y s%+7Z@kG+{-.8Z@9Z@0Z@eP n3 YB <; o).>a WB m` k$ $H.oA i1 IB wS iY n~ |S FF !< Di+.I Do ^x Co }X D] C] sJ p~ E! %k /* S` bc fL 6~.Y& fL li.7n Y# -0 /c.`# !$.N_.yY._C 'A +%@S& yk.bO 3P gI 5z W4 &E N# t(+iQ <c k!.`-.jA@aZ@ X.%-.t^+dM %{ 7_ zn 3r W| *# 5].}2 %p ~4 R~ Bz p< IV.P8 UY ",
"zL Lh+.6 bZ@M*@cZ@e8+x]@wo.Bd.q6.y; dZ@U. <C  4 ]k@eZ@,O 9J@rE ZB@VA _1 Gq.=y.eV d-.`n.y& Hp m. x] Kp #R - .fZ@gZ@-e hZ@GE@i6+U@+iZ@5f./V O- Ip kn I| 1f && .> 9A E| hd G| 1- Ij.A* Tb m; >M I! @t MA@jZ@p3@kZ@lZ@mZ@:x *$ 9c.@a.nZ@SV oZ@IG.pZ@qZ@[5.~g.}(.,= V; `7.$< 92.[8 j6.W> rZ@2U.%J@G1.)@+kO+T;.~G+30.sZ@tZ@uZ@vZ@$_.wZ@m] xZ@yZ@zZ@>h@B: *:.AZ@BZ@ip.{%.z0.TL ey -E JM@)G ZY G_.[i.QE.Oz+x<.;Z 7D u!.S' cv y* 2V.G| 3x +m.^{.Al.Y<.EW .l.ba ba f] ;& D)+mN D)+}( ][ a6 wL+Ok.cn -& |5 xp@i..H3.&+.#) @k.X#.q'.~x.v~ T; Hp RN Gt t3.CZ@R&+h$+mi@*3.m!.DZ@Z`.EZ@FZ@GZ@Z5 `6+HZ@IZ@/F.~>.X2 #X gz V, }$ fx hA@VO.Mh JZ@KZ@LZ@cY+MZ@NZ@OZ@PZ@QZ@hE@!;@)_@<p R'@R'@f(@M3 u=@0S@RZ@$@@$@@Ya+;6.;6.H^+3z@g(@S @,>+fn.h~ EI+*H+SZ@mi@a[@)>+Bm %).TZ@6#.}c+UZ@VZ@`9.1{+qz Y; *4 71 C- -a 6_ 6_ tC 5h.WZ@D..XZ@RL Um@YZ@;1@k& b7 k! X..D] lu.(X '8 sp 0n /* M^ DF J<.yp >F+II.II.)S.$I+2C ^;.>w kd._{.uM.c;. 6.1B.7z@b+ ;5.tm ^+ s[ aS I:.zS tr Lr ZZ@a!.=&+G=+')+`Z@ `@bG+o} Kv 7r .`@+`@5c@5c@P+.mq y. Bc )6 1S 1f ^a k~.W`.",
"@`@lM.x3+<S.#`@;H+<[@$`@%`@W!+Sf 3^ Jk y0.[r 4}+/4 le@&`@*`@=`@-`@$R@;`@iG ;$ 't g5 a[.^u q; Ij.nN F! C3 0#.L .>`@1&.p(@ZU ZU vh+,`@V../V O; i3 {n N$  { v5 u5 Yr Jp H..Dz m( c& qJ A^ !P TQ C6 @q F,.'`@lm+)`@!`@~`@p8+0O }f.ad bh.[B.{`@]`@^`@/`@{(.>w Ik.#Q (0.YQ+kr+K-.r-@0~.Y`._; <; ~1 vz :c 9:.q# ~a.wL Z`.F1.F1.R& d~.~-.57.H@+v$ 7*.=] v_ (`@_`@so.a_.Zw Dv Ao [Z ;g &w 51 v[ & .lN W].:`@4b.BS t' w- l. F3.H( 5| 91 `P [G zs M. D6.5].Ol 6_ _2 ST :[ 6u Bj.5  uS /Z EW BY+cn /C. ' ~d.Oj.i..H3.%+.aO 5[.2( (9 3[.;K @3 4( l^ 0r.`/ 4U.a[@<`@-4.x$+x$+Y'+FO.[`@}`@|`@C: Qj.1`@iy+6}.i! l%.,& Ao sm 0[ a|+2`@=i HZ+&j+3`@4`@iG@5`@6`@!3+2Y+ne+7`@i@@^P.;P ^P.lv.8`@L3 L3 L3 L3 9`@#c+#c+Ch+H6 t(+ex Aj H=.]u 8; T5 0`@a`@zV+N& uQ.b`@*> p{.c`@d`@e`@D|+~|@f`@m7 v=+^[ 7_ 1# -a Cz @R [( -& IM IW ac.g(+#+ bn g`@h`@;G.ag.q' ~f.u[ ~[ H. ~D j{.fd @/ Lr &(./A [{ V&.p& +N kd.H4.~L |*.QR _0.V; i`@j`@} +2&+j`@k`@}J ,4 ]< ZJ ~h 'g Z} 9p YP /Q.l`@m`@R$ n`@k]  d.o`@qr.f;.f;.>+ d$ t- I* I4.p`@L[ 1- f; +[ E| v- r% 1:.",
"pk 5S o!.,O.q`@*2+r`@u5+*P.,U.e3 q8 D[ f3 GR zQ.a(+y-.s`@j(@t`@CT+mW@PX 5}.'# @s.Ky s5.;H JQ dB *I #z -G.)o.u`@v`@m%.Y2 Y2 b< vh+w`@ft.D] )8 z] M: 8_ Jp Yr H..H| pA 7_ }G  ' E  [Z ~h !P JV iz |p %Z@x`@Re@y`@z`@A`@1, 0O dS lN [P iy+B`@C`@D`@E`@iU.G(.DF _{ 3(.U= YQ+ !+F`@{<.6. To c; 9$ >4 V_ hQ AL &6 :^ GR f(.F: 1$+1$+#k 9<.21+$6 jh BA+a~ *g.G`@H`@I`@TK y0 BR BQ G! LW 6d BU _U u[ Sf.4Z #q.8d %R p; ;I 01 8p S' L: r2 <o ~$ h1 p! dI K6 4k f! dM  1 uS uS  1 /Z ;~.f=.Y<.[2 !D.vS =+ +I.FW r( wD /F.9w r; U4 Ds 1| V3 Mp.z[ &8.)n T_@i!.3E Gc '/@h8 h8 =3.J`@K`@L`@M`@f++e7 wQ+rJ w$.Va+3- po Ho |$ C2 {O@yQ iw.N`@zp.O`@P`@Q`@R`@S`@T`@KX@Fk@Zb T~@`).@@+T~@Bh+U`@U`@Yb V`@^h ^<.we 0x =) T, H0..R.T, e~ T. W`@X`@x| 19.Y`@z@+ym Z`@``@OO.  #lZ.cZ@X] ^c.r!.To 5( Fx { .=# m` g] xk .Q ST {D ;s.`Q@~d.'1@J,@m`.. #IK.LE.v$.c .M` &Z !v Hz+e! E3 Iw@p`@GJ.^{ AY.uX@H- p& p& /{ 0( |< ') w$ + #@ ## #$ #% #& #Mf@o' )P YQ d, J_ zS #E * #= #>)+- #(=+; #Bf@> #, #' #3{.) #! #RE+J< ~ #&= { #fd T8 Yr c6 ;I @: 4(.P} ",
"D5 <f VD+.( W;+-] #;.] #`o u8 -[ #l t8 5* 1- B6 pp />.LU@8K 7q y..UQ qA.}f.S} =Z ^ .&u &u pS oc.pN #z pN v1@^ #/ #xw.0@.P^ U| zi+nU@2@.6d R; #R 2| ;a Ip Ip 7_ }+ s$ Fx s} @R w~ ^u b^ e& J! iR 45 r2+( #_ #: #< #[ #x4+V2 u[ p5.#C.k^ mr.} #BZ@)C.`/. 8.I& 2C t% uq.| #.G+1 #+%@V/ bf i3 q~ <@.p; lj+Mb q; !B 6!.Ex r} b_ pv i< F! 4( Ww )D A0.As.%A 2 #_%.>b.S* N=.G~.A0.+3 em dA !G d& |z 51 3 # {.OE.$K yp.OF O- N# z@ u5 M: L: /u !~ ^. <; !~ r6  $ Sm ]/ %k qr OK aQ 5H >~.`# Vg :^.j1 rz Gp  r 3_ h; ${ Y  Nt Uu se mP `^ J: pr m# B).T_@73 ^}@4 #5 #Pc Lo !E+!,.yZ@~z 6 ##0 Ok.kP $4 oS l%.uz..{ m..0[ fx f!+wT Pn.x+@ka $`@@W+7 #8 #rF+9 #f- $@@^P.`).T~@k+ %}@g)+oG.R'@0 #b!@a #R'@L0.na G_+M# p/.CU z* 6|  ]@n^+b(.K-.$v+b #48.58 kf.M`.D7.c #d #TY@g3.$-.%T S~ Gv dK ^{.M. >J 7< 1* !g .Q yq.H<.w'+5F $g @^._P ;G.IV o'.1@.c .M` q` ]Z Wl.*4 -4 ]v@e #rV+^/ zY. v+Ik.'9 Y( q# }t iS.).+HX@YF f #g #h #i #, #V-.Xr [5 ,8 y@ 1$.ld =) j # `@a!.k #-S l #m #n #, #o #W'._@ ;S p #10.B: _) L<.sp Qn.*& c6 *& 6p )n oJ+",
"t* /  I: #k Qh r6 <r K=.^< H| R' P~ `  tY dA z& A@ Gm IF.{x.v..*+.|U :+.)%..v.`W }0 WW+t; fB oc.u} <|.4z q #r #/ #y..mT rc.k1@s #t #*D.lT :V 5  I, `Q Nt z[ .Q 91 pv {n 81 eI eI te H7 q_ p5 I@ 45 i1+u #v #&A+w #x #(;.|5 Q0.<9.wQ+r$@!i J[ T@+@: !_.62++`@pb {8.Ip++^@y #A| z #[1 fP Ez IQ !..t( !Y RV p5.-E uV JQ 3'.Wu 12 g* {%.w' lE Xw >H Xw g* ;l.Te.QQ |9 [d N7+mh.MN N^ A& _z dA |5 r5 rV j& 'h N1@{..,}+Q..8f 'g Rq <9 ]Y G*.'~ D# -m.1A @^ ;' Z' -/ n# LR.e/+zl.8| ;; i} ,I+06.9!.Kx nd >E `w nd o! N}.bN %p Nl Nl *; y~ A #Q. +d T_@B #Gc +V Nm@^p@ h.M$+C #h_.g7.9n Cf ps+aH P..G@ Va+v3 jd $f.j. Z8 Dk D2 jr HQ@D #!h+E #F #G #H #D~.sL I #J #yo.yo.T~@'_@21@K #L #fT@(X+xx.M #9S@fN@3z@na wT E( Zc ^C 0; N #O+@7~ x% =k O #R& P #1!.{@+Q #} +'Z.8w+oz+!g Y; @(.Bo.HI.R #pM+ 5.s% Y6.>p &d S #T #J,@bn mN K1@7D `p 3U 'h $a.x#.^P ! .!v 2F #>+a2+DA+s$@FV ^U wi+U #NJ 1N F4.A` IH+V #W #%n X #Y #NL Z #j #cw+p~ y3 T} }5 y@ <- }^ ];.` #S` |V '/ j #H=+ .#,/ ..#Tp+xU I< We 0;.-o.e>+|{.um :( '8 O; o~ ni *,.qL ",
"N# ;-..~ ri Ww.B*.+l $& d] `2 J7 H:.oe.{d. t k! fV ]v fV  ` Zd./P@+.#5Z =v.Lq.W0.2n NQ@@.#8e W4 u} }P KT #.#$.#%.#r@.c, '& xw.J  (X &w Ia h+ >4.4H Ys.7C -h Wg eE 4r {G Uu jd.jd.x' `2 sH 2z #{ $N. a+&.#fg+*.#=.#-.#W}+w[ #C.)g.L!@RO ~i Jp R` d~ 0Q 9T jp.n[ ;.#F`@m}+>.#,.#'.#m, k, $6 _h.G, lT O>.RV ;Z >%.uV 2'.3j 3n x6 [| *9 x].G!+1x Qo.};.Ab.`n.&& s} Cw+:,.^!@).#s. 6t Jm c6 .I R; ei.Un.sH T} ~[ `s q_ P* x@ Y, Y, S] 0! R*.K_+!.#~.#W,.y: {.#r}.w# .,@Ep+Ed.1> iA.^V.7t+].#^.#].#iA.AO 56 oh.Ep+}d :(.<O.+5 -p Fz _W ,I+8t+J& 1[.,i }t %, Z_+uQ./.#@@.X0 4W (.#_.#x. Yl.D)+_P T2 G@ Va+3- n5 Io OY o..h%@o..s< K0.yC@j^.Lz # @N%+w/+:.#{M@<.#Mf u9+kP.sf [.#}.#|.#1.#2.#2.#3.#1.#4.#L|@BF.A5+=n /}+I+@lR 6r+=P.5.#f' #^ g(.$>@oc H]+b.+fG nz lQ 6.#5< O! Ww N^ gG 7.#)d.8.#9.#>3 Oh@!.#0.#nP Ki+l. 9x e7 uS z] ),@f^ E9.;< *X A$.!H r#.>O@5,+TU+fd+.>+F]+Pv ./ a.#b.#c.#sL  n =^@E$+d.#e.#f.#g.#h.#j9+&V@vr '8 O' Tb Tb s[ 1  4, ,4 Gh z* 2f |^ x0 7J {_ ]_ P0+i.#9g@8^ aw+^..We ~_.j.#k.#5* wQ O' }6 O' @k J%+q8 ",
"N# qo y2 y2 e, e, z2 B^ `s r5 02+oe.Rf.{m Pq Tb Q- @c+,$ $4 E6 Z2 kZ l.#m.#+v.n.#~y (G NM@7e N_ t} WW+~{.+v.pU+o.#p.#I..oS J` o5 ^x d& (3.$z Yo.7j  x Bw+q.#V7.Kp.eE IB sr /C.d7 *I p; !B ey )D .R.Wm@r.#I2@s.#t.#kW+=: c7 M>.9d.IZ@.I l' .> E| .d P+@u.#oP jn Lm V/ v.#w.#x.#V^@}3 Ah n< sa.;$ A- +K O>.o'.-Z *M %0 .n.qN 3j sb s6.Qo.+&.AN +&.r/.r; Gm G~.rb I`@y.#w4.w4.*,@5( Ww.Im n' n' A0 `2 Qb G. K  @S tF x@ x@ x@ x@ x@ }  %$ bf z.#3%+=L+Kc..5.O( 'n N2.S0.7Y@S0.S0.8t+q0@wa 8t+A.#=| i3.^$ 8~.!.#rL.wJ+!f.-p 2*+it '^.!L }{ H- w7.H+.C< [y j# #]+nl@I8.5>.Y5.B.#C.#n8 ts.`  {Y I. Q#.`W.3- =T ^m S<+N:+g%@8H j. vY K0.}r FQ.So Mr@'_@7:+D.#$F.,k+#E x:@NR@pG.fT@2.#E.#<n@F.#F.#G.#9]+H.#D #fN@g(@zt.zt.K%+XQ+|T iW ,&+EQ.Tf nr. R@`< sO MR@#| AJ p< f] sY ER H7 t~ An.O1.#q+(c $v+dM+I.#~b.J.#VO oa f! +m.N  .S :V dB O>. W *X A$.%Z z-+5,+r#.VP+VP+z-+Zs $N XC.K.# .#S|@L.#M.#N.#O.#P.#Q.#R.#S.#T.#EQ@Rb.<V o6 Sb q'.A^ |1 +l K. H2 Ka YV.1  l$ P' ^x 3c [+ !;.F{@Io.P++w] MF 23 Cf.|~+GM h3 l..u3 B] /@.#9 v* =}.",
",4 '@.^x #& [5 P' ^+ A2 `2 {D JW uO Z4+vO [z [+ E& O3+]R $y._3.41 7P U.#qA+!{.V.#Eu.eK+8[.W.#Qo.%0 [0 gS F9.X.#Y.#)j $4+Z.#`.#s-.bK gR A0.Mp.Hw@M[+P! >v Bi. +#mj 4H nL [d RN wy+#z s~ s' r~ Pa.h<+^q@.+#[A@++#@+##+#]c.f^ ,s V` [P +3 !8 =4 1- *S R8 */@=u 7_ J| B).3,+$+#%+#&+#fn vm (r m'  . x- 7d *H.QE.@K -E tb ub qN 7e 6e 1x Qo.r/.}|  !.AN YK gR EU Nr qI wM.*+#iN.=+#>p &{ kr T, G2 =I '8 I7 ,8 c* sJ ,# x@ }  }  }  }  Y, OW pt -+#dc.dc.J& ;+#sO.)S.2C  z.Jp.-b.<# >+#W7.PR =| ,+#V$ -5.Y6.V/ 3U..5.>i -; 02 !/ sv hh.H4.A  uT U; ~L :{ z9.n9.~d@1Q.T1.*9.'+#_{ hp.D}.z, gi TB.P..r-.3- 3- o5 Io hx h%@$F.=X `. j. C2 [P.,* +d P~+M# h%@}K+]D+2v v@ u9+(- pG.(X+E.#)+#(j@!+#~+#1g@9]+{+#9S@]+#f(@zs.L0.K%+|T =X.ma e}+e}+Ko.=n S:+F8 XB.4x.t0+]n ]C R; ~f.GT+Co &4 8  Pb.%q+^+#/+#kr+#* Hk.bw+.d.p< !4 af WB }+ z, u} tJ %4 zR+86.@ .(X K  @S E%+lY uY+qe+(+#_+#l1@Vk.RO+2{.VV+}d+dL+:+#w^+<+#[+#|x.I(.I(.oe.}$.++ O~ k; 5, H0.2}.2f +Q K9.&>.P..]9 /F./b.L_ x<._D.Mt.u( N7+y[ -F [G #H.wL+)B B^ ,8 J! G. '8.N$ $6 ",
"{_ 7$ 9  O- A* $+ $+ $+ 4c D[.oe.vO oe.vO A2 z0.TU }+#70+F;@$4 E6 /X |+#Ea ad Es.vJ 1+#2+#3+#lE P3.s5.@t.4+#Xv@5+#6+#7+#-|+ 2@8+#9+#97@FU T&.2| mP QQ ]G ;l.Yj.bO !K :5.fy _2 B@ @z R; |5 rF qJ f, 0+#Ry@`l+a+#b+#c+#@z.`C.d+#{x JW o( p~ 9, m. Yl.y] ba N! tm gQ n8 wz `]+z; zV.m$+'1 AQ >h Pv Un.lT $K & .<X T4 eB S .x6 Gp.Vn.w' As.Ab.U- N2 N2 iy 6!.gW f] Y^ mt )5.9j e+#f+#Ym e~ 0A 6| s$ d! #+ ++ T} Qb e& hz T- T- T- lA WU e; o! @8 P( <O.l1.c~.k}@G:.^D.c~. 8.g+#[^.&# zi.i3.h+#>w i3.7~.VD+/; :3 W;+{].7Z.GX.@W.6.#T_@t3.mb K[ eK fE fR 5].~$ M. |J Kp.p|.]+ +: 9J x} [P /!.yG./F.G@ m%.3- >8 ^m hx 0z@8|+=r m..OY 6J ]i Uo s8 1f Mf 0z@}K+^D+6$ 3v Z].{E.g,@i+#j+#5m.k+#<n@<n@l+#9]+m+#H.#u=@]+#BF.2j@HR 3j@Q1++9 R}@|T BJ.'d >P n+#>P  [ Yj Tx.-) 1# b7 r0.Co N; D)+`k pV O( [. 92./~ i#+_{.X& s% `/ /o j1 9_ m( 3X %g E6 <+.<+.t..}X ~9 -D.&Z *$.~@@)H o+#V].&H.p+#q+#N}.d}+r+#zv s+#Mh _8+}T@~8+s0.Rb.s0.)8 S| Z. ;[ x:@3R@UO.[i BA+J2 Ds.g`.*2.dT@t+#u+##Z ]X ]X q~ jY o; F  _z {Y Aa r5 Qq D] C] a7 ;# P# M: ",
"u* l' B[ :9 l' o~ :( 7H :t x'+@+ z2 /m L:+/m .. v+#CC w+#MX 6}.]9 c< Rv.x+#+K  B y+#z+#A+#B+#Nt.PE C+#C+#D+#E+#F+#G+#H+#I+#yw ,L@J+#K+#)Q Rq.#A @A pP {C [v PN QQ B3.1;.Qm D3 =y.K7 ^x )@./m O' 1, L+#xA@D9 M+#N+#O+#R- P+#Q+#=B.|@.B- _9 Q' l. rm (8 [- (n <z &r m>@<I@8n@$*+R+#kY+S+#f6 Sn.33.l' }$.sF _A v[ 2'.F* 9e 'Q Jr a_ {G Zr |f 9A f; pA z, n( .S *4 s$ _[ a& w& G(.p`@8*.n#  ;.[{ @E.mq Jp 9  d* q; x- A2 P' J9.R* <Z 1X Kk %8..w.br.j( Yu R! $8.,/ -l.W  ){.yU GD zi.VN+i3.83.,I+)9 T+#>Z.3~ Q*@2~ 5.+3`.38 38 Wg.Y5.I< TO Pt F  Q0.8<.!D w- z, x' oN <P d* <V B- ue 1F #p.o'.AB O+.3- =G <+ ]< =r q_+_  0p 5] >[ uY wz.%r P7 U+#V+#W+#X+#A-+G<.43.np.MS@<$@Y+#Z+#`+# @#.@#+@#@@#Du.#@#Of )d ja )d `(@$@#Pf ##+#1 ~c..p 4'+P3 FI.zQ Sg.(d Sx.oL >a pv te ++ ^x 4c g0.2Q@cu.g{.(/ N( j| H[ w9.2@ %@#D$ /Q @N X  rb ]{.( .U^ &@#T7.qA.T} q5 D] lu.(P $a.sZ M` YT {..Gh+wg+8, e(.yT+^1.>i.*@#RM@UV@=@# r 4] 2v k' 7v {O@Z#.-@#EF.4.#D #Z*@;@#=>.ZA >@#,@#VI@'@#u+#,#.c .,#.> .NY d .)h D] D] L! xB vD H9.<X ,H x' c& ",
"M#  *+n~ om om a1 a1 qm =X Ho :t @+ k1.DR ++ Fr.)@#rS@CC !@#fL@/F.e$+`W ig.#K 8z@Yv Yv.~@#{@#xu@R~+3q ]@#Ou@^@#/@#(@#_@#:@#<@#>z@[@#!Q@.s.Yd.VP 8x g< JQ Xw X^ qA MN T' 9  &S O- k1.r0.ui.a[ )P !=.}@#|@##C@1@#2@#Lv+I8 J@+3@#4@#8u+q5 i; t5 ~i rm 7v Ho q#.[c.)k+j6+:O.dA@5@#6@#I3 7@#l9+8@#R2+L_.#+ x- sY `4.u} rq 65.Yo.HM 5].aQ y<.y* h, c; Yr ;4 n( )1.$z..S nN $H.@(.qb i1 |+ D-.E(.)* 9@#bc.v0 Xx 01 z] At..I 6c && 1S 6, 6* :/.5H@;U.u$ z3.zs 6n [G )5.+0 >/ -0 58.Y# W  W  li.l3.83.1[.[8 as@W-+0@#_W+{Z@a@#b@#'Z@a<@c@#;4.Mr A& vD d@#%h.Da = .+I bP C~.gS -M &J *D.H9.[U QV 0#.b* ,& b, nA D, !@.>l.j#._  ,k+uY -k+,k+'k+xQ j,@:L e@#f@#f@#{W+&H+3v nN@g@#K #bU@<.@h@#i@#]M@j@#0a@k@#l@#~d +S.m@#_Y #3.-C Pf mM.:n ky.4'+7A iw.2y zO ok ok _f EF v8 jn n' O' VL B* {N+3] )}.;{ h( 5).+Q+O/ W- U= 2%+/V.gH Z/.$p @R |6.-g 3[+6B.T7.M$.,U q5 u[ NY 7P p` L..L..$a.jZ Pq ~d.'v n~ xe n@#o@#p@#TV@q@#R6+P6+xk+-X #E ^n &C.r@#s@#t@#u@#v@#jw+w@#x@#C+#y@#z@#A@#B@#2 .YC.Rp.kg.kg.5f.C@#,#.L1@kg.xB 1@.vD ad tj.3z q; )B ",
"@| g3 h3 l. h3 ~i -4 {_ `. Ho 0^ bx z2 }6 <t II@|w+}@#i1+D@#E@#Ha L_ `W vF ZQ Py }n >9 F@#G@#t5.dm Nz@%`+H@#ym+I@#J@#K@#L@#M@#y+@N@#W.#`I.mc.sI )g.3'.sA JQ #z )| [v FU #{ y@ c] [5 r0.Co G. d, CR O@#P@#Q@#R@#S@#>z@l; J@+T@#U@#>f.x- &4 d-.Yr oa Zk.v .R@.a*.#~ $f.' @I1@.P@V@#W@#X@#Y@#Z@#d!+RL a^ rF Nb <|.sA Wu pP '| Nt }# WB r. JB p/.|^ Pt l& z, :V p; u' C3 6_ V| 6* 1^ u8 6~.MI.^D $] L$ 9<.v* <@ *S b~ n< g<+Q3 RY +| 8A pz RD 0S.T. r6.!' `# `P `P [G >/ 58.Yu Yu ){.l1. 8.LJ+u>.H4.Q^.n  s:.O'++/@&%+S8.5>.)@+`@#RR Q3./Z G! L/. ##.##Ff.9b.,Y+Vx.6[.+I _A q5 *D.G_.Sf.qA+qv.GQ [T `$.I  p$.u3 k..q_+F<.8|+8|+NW@8|+ur mz %f.:L +##@##f@#8|+q_+3e+yp@U`@`S@~i+###Aq.W~@v1+S<+fx 'd ,>+c0 b[+{d #3._Y Nm :n |i 6r+M/+QH 4#+1'.(#+QH Vz K'+zQ ^d f~ Em && '< oo p~ '8 A[ Zc l7 '> ]^.We@uq.Fv.9& ~d@{O+:{ rk.$p g] fI Vx.-2.(9.$##6B.'# q5 :| K! M` `V   .x$.x#.cS D6 K  {D `  3x.z1+56.z}.X4.=S+rP@G<.O6+r_+j' nN@P7.r@#%##&##*##'m@m+#z[+2e+=##Zw.~Z+-##A@#;##YC.MY LV YC.`` O1@kg.5f.5f.xB [W H9.>%.- .;g f* o( ",
"/u rz 8_ 9, 9, =4 =4 ,4 _x ~ .i+ k..ix kd i @L+#>##Yx+,##'##nv.ly xD e$+G_.#K 9j.l8+.*+)##Mz@ub+Pa.YA !##ul y4 ~##{##]##^##/##i%.wR Dr.62 u].<U (h.>Z `Y SI.F* w~ X^ T' DU 3c P' Sb !@.(W@Co p( En ~9+(##_##:##<##UR@Y, J@+[##}##u-+x- A, gW G| r. 01 (x B] hj.o` 9).k1.@+ >[ <i mN@eM@!B.X&+u@ v'+bx G, C] a7 {| ,H N! {%.F! Y  E| d; C[ RL w@ $& A& k& s' 9O u' ;E N>.*I  3 N^ ni |##</.gr@6P+yY.$a c1 f8 fL ~~ OB 7. hv hv 'U.h}+9(.g# ,_ n;.h$ !' %z G] G] pc.p|.$8.e=.w& 7j rC $A $A Wg c~.'> :. M|.$'@-&+)3 )V ({.V&.1##;+#2i.c7 A- dg.2##3##Wi.=0 X4 Vx.( .= .:| uF iZ xB Jx.4##sc.XQ v3 m$ I  D, 0).@+ nf+9,+j#.j#.-k+E<.'k+<i %f.kA@f@#5##6##0z@=r 5] ^n HQ@[.#0S@0S@%}@`8 /@.R@.' @2a 4'+k6 ~d l@#Nm VU+BJ.7##8##wx.Mm ]u o8 /d |E PL 2y 4S _h zQ _d ND Qm 5, gy A& Q' !8 ts.si LR.-/ tk vk P( 8| xf -* W& y~ I'.6_ ]{.)M A4.`P+$##3 .D6 b7 F, NY $Z x$.Pb Pb x$.cS _| r( s( wB 9D r_+0,+YV@y1+=S+rP@Y4.L_.r_+s_+t3 Z#.9##0##a##b##c##ys.z9+d##e##f##My ZZ g##h##>#.`` >#.`` tZ L..,#.L1@d .s( l#.BU sY !G G! 3( tH ",
"6( 41+$z Hp z3 z3 K7.9  po  d `c p( Q..R^ i @i##j##k##Ov+D@#NS WJ a< S} 51 $K %I Ew XK I[.l##G!+_C.WA m##n##o##p##q##r##s##t##6m+l-.S~+C7 P>.88.s$.tO+W` OF.TV g< kU hy 1  O~ ^x )@.!@.(W@ui.vj L@.d_+u##v##)D+m_+EE u#.dy w##4@.XT VT cr.Ww 5( Kp @p -8 !U y- C#.(X ,8 ,8 r0.^m 0z@9,+'8+om nm S| ix b^ d, ># t!.q/.9O JQ r; qq.9  |1 +q #$  d U} r_ lT %R rY AU r~ #z w} 3[.61 s; J1., +fL P( U-.J0 AY.b+ (_.$# W> }. Y;+^~ v%+`y.:~+v:.I6.S( If+}j jN.*g.Nx.gE mh.HM sC )$ RQ Zw As.Fq.u~ wS l1.QR {m@w;@~1 4k D  tc R# 4a z( =& rY .K l.#x##8b.78.6[.S4 k7 S4 68.M! tH c* C] <$.MY x$./9 v3 /| h! o5 Sb.#+ :  qm k' :  k' {_ }e+(8 _t y##z##A##B##}K+ + -X ;k+mV@C##io+L3 jr 'D._i.q#.$D+2a Nm +0+sK@D##`(@*y `|.[$ ^P.T~@o< Dj Dj ]h 6#+T!+2y ]d y0.f(.~5.S~ Ft 7c v5 z3 Hp l& -4 `U #6 f(.'4 &: N|+>a z( J6 T* P: r} v~ ^5 )M U%.E##F##3 .D6 iN u[ ;M 7P 7P F7 }l.Pb lg.YL B#.lg./X >O@5x.G##H##I##J##rP@Y4.3v r_+j' 6v S$.K##>j+L##M##N##O##P##1:@Q##PE ^ .c`+`Z h##<$.tZ `V $Z pX <$.,#.*D.F, M! 2z ky r; (3.9w <5 ^x ",
"j< BN T; 6!.z,.z3 K7.uf U} `, jx jx 4_ g! i @R##+U+S##Ov+70+oI nG b] =$ u[ q' {| # .)G Pa.QJ@r$.# .T##){+hC U##V##W##X##Y##Aw yu B$.& .)# L!  W D] ,w.=G.Z##UD+h< || z3 ++ ^m b^ 9).rz.eK.3$@J!+M+.d_+`## $#.$#>E+[X+S- +$#eX `V <@.VT qq.Ab.5( Em F| (x sV !P y- r` e#.)U eK.t$.~@.U, 6$ ta.P6+ + qo Sq #~ gz yo tH ;g (3.LW o( oo |X g%.I8 V} Y, #^.[W $K ]X wB -E SQ <|.8<.9O 0< x} L. j1 Ph WP @$#]{ Eq +9.#$#$$#[8 x% %$#&$#8X+r,.w(.Q5 S( 1*+Nl ,1.wN+&|@X-.8< y' y' E  s; ~x.C,.tH sH s~ ^A 83.r'+*f 4a d* A2 4, Ov 1_ B[ jz -M .v.5Z k+.*$#>k.=0 Vx.Vx.k7 fS [Z KW b] 3@.Ix.|U =$#v..uz.b, /| iz Do o' :  u@ k' k' 8! (  Zk.66._t D.#-$#AI+e5+*4+k..v'+ch.PW Q7 /P.Qa+t(+0D {@.g(+;$#3z@)d ]a+c|+][+YI@mB@wT |$ 5] $R *) *o.vY R| 2T@Sb+z5+*y y0.^d K; 21+Em <@ |v H.. 3 .I ;4 )6 ni 8A iQ t8 -a |- =# {n Kk Ot MN w} ]{.~{.&@#>$#,$#7X a< Q .L_ 7P 7P 7P F7 /X '$#}f.76.t..!%.t..)$#C*.,u.!$#~$#J##:[@23.O6+r_+_- t3 nN@{$#]$#L##hm.^$#/$#($#=X.+3+t5.;H My :l.MY qY ,+.ZV x#.jP@sZ `` d .D] iN Pz.~x.2>.eA R4.'# r_ ",
"wJ.]c+cm Ar.+3 Hp Hp o[ #~ T^ p$.g%.hz I  9! ^f+_$#9J@SU+v+#Ct ZJ p5  W q5  . [Z _3.VT S; d.@yn Ha 0[+:$#F6+<$#W##[$#}$#|$#1$#ha@7q $ .{x G, (P L!  M NE.2$#3$#os+eI 6!.[+ vj .+ /m Sb.p*@nJ.f%.35 Dn 4$#5$#6$#7$#8$#u%.(| . .x#.|G VT R~+Ez 4a /u O$ xy.A^ ]< o` lm YQ lm H! n#.jx .b.++ M_. r N` sm -r 30 _x 5+.uf jz 2>.o( FQ ,8 /Y FR T- }  V} yB $ .&F.&F.=M - .fS gS fS -E AU AN oN fy z[ 2* C}.g+ =(.KR ]q+i9.T> MT+cP+v[.L5 `g.3-@i4.E% 5N }# 6M ox+9$# s.}S :W w' YK Pa.M! P..xX (9 85.lS Sd.zQ+.5 qP qq.i; 15 s(+s(+4, [Z |G )%.0$#a$#3##>k.=0 }P k7 t} UT VT G! `J @) 16 WR+k1@p[ r-.pC N+.y- }$.Q' ~_ }e+9H }e+qm ~_ #r lV@b$#aL@D.#c$#X+#xz.r0.8v ,[ Fo NN wT 8p.8p.Wz 2$ d$#pi@sy+Xl.e$#ei+f$#rQ.SY p/.Y.  + O* k; Rq ' @7v >6 p8 _h Pm P3 zQ e~ ND e*+/w 5( i3 Y  1# 1# 1- m. &G v0 tz %{ Cz  ' M: 91 MN qA w~ 0F tc.'$#g$#,$#6B.wD ]9 u[ ;M w#./X 7P E6 Pv.h$#Q%. K 76.o$ i$#j$#e&.k$#l$#m$#Y4.23.r_+_- _- +>+n$#o$#p$#q$#r$#s$#t$#u$#D; 1~.N^+em ;H yn.c .bU A$.ZV $a.p` `` `` qX z- 1G S; ~x.eA qq.M! iN xD ",
"c+@v$#q.@Ar.b[.R~+@z L7.jx |6 m$ I  C, 16 S- w$#`m+'x@CC }+#Ct ,$ Qb {9 |z 3( tH GQ ;$ G7 %y.UL K_ 5- lH@wX x$#y$#L5@z$#A$#.o :@.FR d, 2( c* )h {Z rV P>.)o.(V sA+w[ =y.|X .{ }6 I7 ,.+B$#C$#I8 so }  1w  $#&}+7S@8$#u%.tF JV xD u[ ~x.Ua.Ot sc Zt I: F| A* (9 P' I. lm iR O^ 4- e%.p$.kd )P z2 :t ,[ OD OD K. l! ^w qJ 9w >$ I. r_ s[ t!.]x lA m$ n` E6 1G ^g.=Z =M %I Fw $I &F.& .*M ~G r/.c& 8O 91 Hv C}.V$ I& x3.E9+E9+^. [; Z~ R(@bS.D$#U. Q3 D3 <P Q0.rY rF &4 o[ ^v 1$.)#.XJ ~h J. >$ w[ re 9*. a.Kx Kk 2# e* &l.N=.s(++l }x u[ k%.E$#F$#G$#-g WW+fB W4 t} UT te Aa YQ }  }  x@ 16 (+ l%.m%.N+.H! ~D -4 rm PD %6 c9+`j oa Zj =}.sf f!+rW@q_+f5++h.xk.u3 I_ 15 Wz &G Az }* Uf 2y ja kG@ei+H$#I$#J$#rD@c|+Pa+]i hx 5L.g#.O~ Rq 'D.I1@XB.)1 'd CF.'d 3S &6 .) Lp /w Y; 7_ i3 1# H| )6 md &G I: tz s$ Cz M: M: vS qA qA g* &2.=0 )k.K$#L .L$#F. z- bd %4 %4 E6 U7.=S@23++{ =I@w#.3[+{P VJ.B(+V} CL@M$#N$#:[@23.3v r_+j' 6v nN@Ck *@#O$#P$#^$#Q$#G-@R$#S$#G0 Ug.(3.|G -< *$.u..~@@`V p` d+#`` L..Q .:| 2z 'i.gs gs _A H9.s$.",
"]N+]c+z|.dm Ar.em EB L7.U} '[ m$ @) cy )[ )[ ay iI iI lO.mG |` G7 |z |z 9w >$ fV K_ YQ CZ zo <x R^ R^ ~E.5w q^@ay c(+gE+Aw |&.wj S^ <x jd T} {Z PE.]V >f.> .{..~D d] |1 Yq vj '@.~9 D[.*J 4[.P* so }  1w T$#U$#LW@$H+V$#e& (X rJ q5 )D ,i. >.Y1.rx ~5.y<.i3 Ww =y.c] t!.j*+a] ,& ,& T^ ,& !h Q...+ ,4 H| 8w F! ${ =y.(9 (9 GQ qC 41 lT ;g iN GQ 6d+V2 gN SL ^9 0P _A %I uD Ni.3!.% .Ca *M UT i^ 6!.@$ H( #l )g nd ([ R^+D5 s* R^+8##x0.W$#X$#v`.Y$#j. $E ~h H! Q..po Z} vQ aw DC DC Ao |X &E w} vC nc.9g.5r s} YK eA 4C+f, 'S @l DU # .:I Hp.Z$#Wi.WW+fB H~.fB 22 UT >U (3.H_ x@ }  x@ )[ 3- Q#.3- 3- ZJ OF .S `U |N R# >a I6 #: K8 G: [P.AL Gf ia =r u3 /@.}6 q_ }` c; e~ LB v^+p++E8+`$#Ue+ %#.%#+%#uT+@%##%#m6 -n $f.5L.Io V, k; 0p `8 yo.[i Yc Nf sf I@.u/+kz Fv Em Fv 8_ }+ Ip H..N$ >E tz 6| v0 Zr }G fy 6D s}  0 :5.v; EM xV $%#%%#&%#*%#x2 :| a7 ]9 /b./b.Cu YA Ca ^ .=%#Ft.-%#Y..UZ B(+CL@V} RK.AI+:[@L_.f9+u@ _- u9+ & mV@If ;%#>%#,%#O##'%#Of YI q1 A'.EB l#.uF _| E, A#.L..pX tZ `` 7P Q .$ .l#.S; Z9 VT Nb Tf.;B.",
"wJ.z|.w' iy YK *B.2>.] .>8 H  u#.ql )[ )[ x@ }  Dt Dt :@.yo mv.<5 31 n; }5 oo <t J_ CZ U} BR fN U} &) k_@X[+L5@}  }  }  Dt }  45 Vb DC Q..d^ NT@]V {..&J W..)v I7 K. v .-G .b.'@.~9 QC.)%#!%#Y, }  }  L5@y$#r^@~%#Gn Yx r[ bU G, B- jz 4( s6 J6 5t |E &N bv UJ |S %& a! Ao #X =G /+ '[ '[ '[ f%.30 =I iY j{.xk -a n' y@ ^x H_ V%.'# >%.bP `4.%I ,%.%4 By.HQ GQ U7.*j+[i.gK@& .=Z @s.sF ;g q; z& cr.Xz qK 8_ 3* !g t8 0x RB CU  / G; ;C Ij U!+^C fx qo vf jx X#.!Z g%.Zq }z L@.qi WU Tb n; UT eI P_ Kv 7< 5p ,I jy  3 F@ xR @e+&t r$ VT $I vF {%#bP fB H~.a6.!| }| JQ Ia te p5 Z, }  x@ x@ I  uz.uz.pi ]< _h.1# r. (g.9' ]U G( =N &: G: Ih sO yo.bA.$D+m..t&@m; r0.(x e; s..r3 Y%+$3.hr ]%#X+@9Q+^%#8<@_4+/%##@#VO.Zk.$f.YR@$f.k;  + +{.'k+3h.i5++1.$C.Qa+(%#_%#NN Y; Em k< 8_ 8_ pA G| .) t8 :@ #6 p< K: =# D  M: _2 6D B3.v; |i.z[.$%#:%#<%#[%#=$ F, :| Q .=S@0P YA @t.=b.Z3 8z@Ni.13+G_ A..}  x@ }  }%#|%#RQ+O6+G%+_- _- #{.Z].z1+%V@1%#v@#l+#2%# 1@.9 zL #l Ex >U u[ H. Pj.@ .;Q@GY p` p` tZ M` lu.iN iN q/.q/.d& tj.=r. %.",
"U5+uG T~+|x >H 2>.Q~+] .20 {< '[ H  C, @) T- |p i%.~s .&.{v ly ] .%>.P..(9 #& O=.]v hN ]v xI+>H+@l 3%#4%#XP@`[+tp+rE+}  ^Y x@ 45 Vb f-.]< @I.Q .|z AB Qq ~f.G, c] '$ k. ]Y e, P' A0 {D 5%#ZU@0] X, 35 zw 6%#7%#L2+8%#XJ (P ~f.iN B- jz 4( s6 }^.`| Uf Sg.Rn.u0+PD |^ xy.B*._x &$ *G hW *G {< I%.zf+z. vS ht oA iY +3 &S WT r_ G7 AB $K -E `4.p5.*M $ .'{+wD ^9 Fa ^ .R .M_ 'G tA 2>.>U YK Mb +3 Ab.6!.A@ }G `x |F |# hd eV eV A'.Bz r6 )4 qL -[ 9$ /m c* p5 FW ui.o` ^m h%.Lx.J. ~h <5 rF mL  A Pk a_ QQ `Q ,I v~ oN U' Ra+Q*.68@eA.!G Iq.C7 gS Hw a6.|;.a6.H~.H~.UT q; ;# Qb e%.x@ x@ 16 m$ WU 20 &) e, o~ l. ,6 [L JL R~ R# oL =6 (d @E CF.9%#0%#R| 5] >l..U )@.>< x0 ZO dC b2+wV.XO.ka $1 _U+a%#fd.e$#yT+la AQ +k Y. hx >[ [- %& %& k' }e+:6 ,S <^ o< b%#38@Nb@Fv *: Vo '' Ft j3 j3 c<.-;+0A &: {r r} f]  ' )C 3M qA Hw@a_ Zo.72 Tw.c%#d%#@y.xD l#.G! 6}.a$+<I JM@A(.W~ W~ =b.Xp.sF V2 hj.mJ.Zi./B.e%#d5+G<.O6+43.}e+}e+_- f9+66.S:+[.#@@#fT@`S@f%#Ko.^C 7, z] q; 6}.H. LM E, A$.2U@nT@$a.M` K! ~f.rJ 't yn $y.'i.$I @Z re.",
"y& Hp Hp n' p~ qJ p~ }` I_ hj.Q..X#.%E `, FR [  $$ DC OK.Ao H_ WT aS r_ mv.O=.@l 1  3# Hm +Q Wo Km r1 C=@^l 5g+g%#r:+}  }  }  l; `q hW jx +) t$.!h o5 H! R3 s[ s[ l! |1 y@ K7 qJ vO uO qU@RC.rz.:t 6- h%#z$#rE+@t u%.># #4 'h ~f.21 A, Hp kn #: OM@pj aS@eN@Jq@yQ @D.`U b~ h; z@.A. xd.`, {d+xd._x z. rz 9f w0 6* ${ 1X A, }$.0B q5 rF q; ZK s' wB ue bd ;M F9.]d.uD ZY AU r~ #z rb 3x z[ Kk %{ |- q$@f; %{ m! dd Ot T' A@ cr.)D z3 )6 ,6 N$ f; A2 )h j& > .qX q` (X lm 3c 3c q_ tF m5 <5 wB 5_ rA ;K @R y' 12 W4 sA TK )D gR ;}@2>.~G vV ZQ ZQ C7 gS a6.fS SQ W4 T4 M! bd =$ +S D. )[ )[ I8 Rb H_ 2( (x sa.pm F-@yk t@ Yj 3a f3 L'+Pn.VO.Q1+RZ@aS@64+o*@+& >l.9).B* m' @> r8 p8 p8 -Z.,;+A5+I+@A5+_n Fj RY hQ n~ %+ 0^ zk+s_ 9$ %& 9$ A}.<z P2+'D.23.&f.Nv.RY *6 I: I: Vo /w Q[ ni $6 (r T# c_ e3 #l Ef '8 A& !8 Gp H..pv xk x~ -# xD i%#*%#!%.n+.e] r5 4c 2z ~G W4 t} 7e |;.t; t;  u zN Iq.F  Un.J7 {Y 5F d(+Qb.A[ qm u@ 7v 7v #E ]i  P@j%#-@#jV@W6+yQ &f.hh %+ }5 -$ G. JV @ .^P 7w d#.~@@M` $Z AB 21 # .,H T4 AU lT {x j& ",
"5c l. b1 k' ,[ l..s_ <  #m.x'+k..u3 ix Rq V, V, a! Lx.Dv qk l5 ZJ d, J. J. &t @l D,.6!.&8 &3 %f &|+J| ${+Y,.k%#l%#AI }  }  }  l; W} W} W} R- ~< ~< Y, S- !h ,< Yq <t 3k a^ f* q; d< f2.0d.]Z `s Un.O- m%#Aw Dt }  wj e& @S iZ  W ,U sH z3 s$ JL V8 YS@QR@UE.e{+Kh+6#+xT i1 H| f, |  aw &$ 8f  d 15 Pt rz N$ I| g3 %{ 9< w} za ZK o; {R {R u' !D Q0.- .)G <X -g X4 !{._A ;g 9< 8J af aQ Sm YO n8 3; jV >h 9_ *# Mt s} .3 DV VT DV {R [6 M; H2 )8  t v$.~Z ) .ES $Z  W x2 31 (x )P e%.m$ FR I7 <|./5 !| 1M !| 22 bP fB sA AN 85.Gp.+&.|;.&u 2'.ZQ zN %0 2'.vV gS Hw &w ~U 63.!U mT 16 )[ )[ @) J. (9  . qJ sa.qm ^n  P@mV@.[ o*@g<+8p.)_ Q1+{d {u xV.1'.(< @k S| >& j; c6 }- &6 @| e(.AL {1.}e+RL *+ :  ,4 _( N; N; A2 mm bx  r >4 %& )8 @h.H!+x@ e&.fR@d9+#> 2h.G: 26.$: I: v|+Bb.$6 HL Dm _r Lm W8+DJ M; n%#)l+E..v'+2}.$6 p< WB Z  <5 u..e@.d#.KM R/.lj+e] !D kP E] Ql U~ Fs Tp.,E Rl Rl `m.-w  r.gB -w !;.),@!8 :( pm KB C2 a|+fx 2$ {O@ P@}k+<S@(O@_!.:6 N` >l.Tb J! (X E, A@.A$.[&.t..cS 7P c< E6 ]9 *M s|.Wp.tb BU T} )@."};
