/* XPM */
static char *wall_east[] = {
/* columns rows colors chars-per-pixel */
"64 64 4 1 ",
"  c #5A7A9B",
". c #3A5A7B",
"X c #2A4A6B",
"o c #1A3A5B",
/* pixels */
"oooooooooooooooo  oooooooooooooooo  oooooooooooooooo  oooooooo",
"o              o  o              o  o              o  o        ",
"o              o  o              o  o              o  o        ",
"o              o  o              o  o              o  o        ",
"o              o  o              o  o              o  o        ",
"o              o  o              o  o              o  o        ",
"o              o  o              o  o              o  o        ",
"o              o  o              o  o              o  o        ",
"oooooooooooooooo..oooooooooooooooo..oooooooooooooooo..oooooooo",
"oooooooooooooooo..oooooooooooooooo..oooooooooooooooo..oooooooo",
"                ...              ...              ...          ",
"                ...              ...              ...          ",
"                ...              ...              ...          ",
"                ...              ...              ...          ",
"                ...              ...              ...          ",
"                ...              ...              ...          ",
"ooooooooooooooooXXooooooooooooooooXXooooooooooooooooXXoooooooo",
"ooooooooooooooooXXooooooooooooooooXXooooooooooooooooXXoooooooo",
"o              oXXo              oXXo              oXXo        ",
"o              oXXo              oXXo              oXXo        ",
"o              oXXo              oXXo              oXXo        ",
"o              oXXo              oXXo              oXXo        ",
"o              oXXo              oXXo              oXXo        ",
"o              oXXo              oXXo              oXXo        ",
"oooooooooooooooo  oooooooooooooooo  oooooooooooooooo  oooooooo",
"oooooooooooooooo  oooooooooooooooo  oooooooooooooooo  oooooooo",
"                  o              o  o              o  o        ",
"                  o              o  o              o  o        ",
"                  o              o  o              o  o        ",
"                  o              o  o              o  o        ",
"                  o              o  o              o  o        ",
"                  o              o  o              o  o        ",
"oooooooooooooooo..oooooooooooooooo..oooooooooooooooo..oooooooo",
"oooooooooooooooo..oooooooooooooooo..oooooooooooooooo..oooooooo",
"                ...              ...              ...          ",
"                ...              ...              ...          ",
"                ...              ...              ...          ",
"                ...              ...              ...          ",
"                ...              ...              ...          ",
"                ...              ...              ...          ",
"ooooooooooooooooXXooooooooooooooooXXooooooooooooooooXXoooooooo",
"ooooooooooooooooXXooooooooooooooooXXooooooooooooooooXXoooooooo",
"o              oXXo              oXXo              oXXo        ",
"o              oXXo              oXXo              oXXo        ",
"o              oXXo              oXXo              oXXo        ",
"o              oXXo              oXXo              oXXo        ",
"o              oXXo              oXXo              oXXo        ",
"o              oXXo              oXXo              oXXo        ",
"oooooooooooooooo  oooooooooooooooo  oooooooooooooooo  oooooooo",
"oooooooooooooooo  oooooooooooooooo  oooooooooooooooo  oooooooo",
"                  o              o  o              o  o        ",
"                  o              o  o              o  o        ",
"                  o              o  o              o  o        ",
"                  o              o  o              o  o        ",
"                  o              o  o              o  o        ",
"                  o              o  o              o  o        ",
"oooooooooooooooo..oooooooooooooooo..oooooooooooooooo..oooooooo",
"oooooooooooooooo..oooooooooooooooo..oooooooooooooooo..oooooooo",
"                ...              ...              ...          ",
"                ...              ...              ...          ",
"                ...              ...              ...          ",
"                ...              ...              ...          ",
"                ...              ...              ...          ",
"                ...              ...              ...          "
};

/* pixels */
"...   ...   ...   ...   ...   ...   ...   ...   ...   ...   ...",
"...   ...   ...   ...   ...   ...   ...   ...   ...   ...   ...",
"...   ...   ...   ...   ...   ...   ...   ...   ...   ...   ...",
"...   ...   ...   ...   ...   ...   ...   ...   ...   ...   ...",
"................................................................",
"................................................................",
"................................................................",
"................................................................",
"...   ...   ...   ...   ...   ...   ...   ...   ...   ...   ...",
"...   ...   ...   ...   ...   ...   ...   ...   ...   ...   ...",
"...   ...   ...   ...   ...   ...   ...   ...   ...   ...   ...",
"...   ...   ...   ...   ...   ...   ...   ...   ...   ...   ...",
"................................................................",
"................................................................",
"................................................................",
"................................................................",
"...   ...   ...   ...   ...   ...   ...   ...   ...   ...   ...",
"...   ...   ...   ...   ...   ...   ...   ...   ...   ...   ...",
"...   ...   ...   ...   ...   ...   ...   ...   ...   ...   ...",
"...   ...   ...   ...   ...   ...   ...   ...   ...   ...   ...",
"................................................................",
"................................................................",
"................................................................",
"................................................................",
"...   ...   ...   ...   ...   ...   ...   ...   ...   ...   ...",
"...   ...   ...   ...   ...   ...   ...   ...   ...   ...   ...",
"...   ...   ...   ...   ...   ...   ...   ...   ...   ...   ...",
"...   ...   ...   ...   ...   ...   ...   ...   ...   ...   ...",
"................................................................",
"................................................................",
"................................................................",
"................................................................",
"...   ...   ...   ...   ...   ...   ...   ...   ...   ...   ...",
"...   ...   ...   ...   ...   ...   ...   ...   ...   ...   ...",
"...   ...   ...   ...   ...   ...   ...   ...   ...   ...   ...",
"...   ...   ...   ...   ...   ...   ...   ...   ...   ...   ...",
"................................................................",
"................................................................",
"................................................................",
"................................................................",
"...   ...   ...   ...   ...   ...   ...   ...   ...   ...   ...",
"...   ...   ...   ...   ...   ...   ...   ...   ...   ...   ...",
"...   ...   ...   ...   ...   ...   ...   ...   ...   ...   ...",
"...   ...   ...   ...   ...   ...   ...   ...   ...   ...   ...",
"................................................................",
"................................................................",
"................................................................",
"................................................................",
"...   ...   ...   ...   ...   ...   ...   ...   ...   ...   ...",
"...   ...   ...   ...   ...   ...   ...   ...   ...   ...   ...",
"...   ...   ...   ...   ...   ...   ...   ...   ...   ...   ...",
"...   ...   ...   ...   ...   ...   ...   ...   ...   ...   ...",
"................................................................",
"................................................................",
"................................................................",
"................................................................",
"...   ...   ...   ...   ...   ...   ...   ...   ...   ...   ...",
"...   ...   ...   ...   ...   ...   ...   ...   ...   ...   ...",
"...   ...   ...   ...   ...   ...   ...   ...   ...   ...   ...",
"...   ...   ...   ...   ...   ...   ...   ...   ...   ...   ..."
};
