/* XPM */
static char *wall_south[] = {
/* columns rows colors chars-per-pixel */
"64 64 4 1 ",
"  c #9B8B7A",
". c #7A6959",
"X c #5A4939",
"o c #3A2919",
/* pixels */
"oooooooooooooooooooooooooooooooooooooooooooooooooooooooooooooooo",
"o                              Xo                              X",
"o                              Xo                              X",
"o                              Xo                              X",
"o                              Xo                              X",
"o                              Xo                              X",
"o                              Xo                              X",
"o                              Xo                              X",
"ooooooooooooooooooooooooooooooooooooooooooooooooooooooooooooXXXX",
"ooooooooooooooooooooooooooooooooooooooooooooooooooooooooooooXXXX",
"X                             .X                             .X",
"X                             .X                             .X",
"X                             .X                             .X",
"X                             .X                             .X",
"X                             .X                             .X",
"X                             .X                             .X",
"XXXXoooooooooooooooooooooooooooooooooooooooooooooooooooooooooooo",
"XXXXoooooooooooooooooooooooooooooooooooooooooooooooooooooooooooo",
".X                             o.                             oX",
".X                             o.                             oX",
".X                             o.                             oX",
".X                             o.                             oX",
".X                             o.                             oX",
".X                             o.                             oX",
"ooooooooooooooooooooooooooooooooooooooooooooooooooooooooooooXXXX",
"ooooooooooooooooooooooooooooooooooooooooooooooooooooooooooooXXXX",
"o                              Xo                              X",
"o                              Xo                              X",
"o                              Xo                              X",
"o                              Xo                              X",
"o                              Xo                              X",
"o                              Xo                              X",
"ooooooooooooooooooooooooooooooooooooooooooooooooooooooooooooXXXX",
"ooooooooooooooooooooooooooooooooooooooooooooooooooooooooooooXXXX",
"X                             .X                             .X",
"X                             .X                             .X",
"X                             .X                             .X",
"X                             .X                             .X",
"X                             .X                             .X",
"X                             .X                             .X",
"XXXXoooooooooooooooooooooooooooooooooooooooooooooooooooooooooooo",
"XXXXoooooooooooooooooooooooooooooooooooooooooooooooooooooooooooo",
".X                             o.                             oX",
".X                             o.                             oX",
".X                             o.                             oX",
".X                             o.                             oX",
".X                             o.                             oX",
".X                             o.                             oX",
"ooooooooooooooooooooooooooooooooooooooooooooooooooooooooooooXXXX",
"ooooooooooooooooooooooooooooooooooooooooooooooooooooooooooooXXXX",
"o                              Xo                              X",
"o                              Xo                              X",
"o                              Xo                              X",
"o                              Xo                              X",
"o                              Xo                              X",
"o                              Xo                              X",
"ooooooooooooooooooooooooooooooooooooooooooooooooooooooooooooXXXX",
"ooooooooooooooooooooooooooooooooooooooooooooooooooooooooooooXXXX",
"X                             .X                             .X",
"X                             .X                             .X",
"X                             .X                             .X",
"X                             .X                             .X",
"X                             .X                             .X",
"X                             .X                             .X"
};
